; LightBurn Pro 2.0.05
; GRBL-LPC device profile, absolute coords
; Bounds: X17.48 Y12.8 to X282.93 Y197.8
G00 G17 G40 G21 G54
G90
M4
; Image @ 1500 мм/мин, 100% power
M8
G0 X64.583Y62.899
; Layer C00
G91
G1 X.625F7000S0
X.1F1500S1000
X10F7000S0
X.6F1500S1000
X59.3F7000S0
X.1F1500S1000
X1.4F7000S0
X.1F1500S1000
X8.6F7000S0
X.6F1500S1000
X59.3F7000S0
X.1F1500S1000
X1.3F7000S0
X.1F1500S1000
X8.6F7000S0
X.6F1500S1000
X69.5F7000S0
X.6F1500S1000
X.625F7000S0
X.5Y.1
X-.625
X-.2F1500S1000
X-.4F7000S0
X-.6F1500S1000
X-8.5F7000S0
X-.2F1500S1000
X-1.2F7000S0
X-.1F1500S1000
X-58.9F7000S0
X-.1F1500S1000
X-.4F7000S0
X-.7F1500S1000
X-8.4F7000S0
X-.2F1500S1000
X-1.3F7000S0
X-.1F1500S1000
X-58.9F7000S0
X-.1F1500S1000
X-.4F7000S0
X-.6F1500S1000
X-8.5F7000S0
X-.2F1500S1000
X-1.2F7000S0
X-.1F1500S1000
X-58.9F7000S0
X-.1F1500S1000
X-.4F7000S0
X-.6F1500S1000
X-8.5F7000S0
X-.2F1500S1000
X-1.3F7000S0
X-.1F1500S1000
X-.625F7000S0
X.1Y.1
X.625
X.1F1500S1000
X1.3F7000S0
X.1F1500S1000
X.1F7000S0
X.1F1500S1000
X.7F7000S0
X.1F1500S1000
X2.5F7000S0
X.2F1500S1000
X4.7F7000S0
X.7F1500S1000
X.3F7000S0
X.2F1500S1000
X58.9F7000S0
X.1F1500S1000
X1.4F7000S0
X.2F1500S1000
X.7F7000S0
X.2F1500S1000
X2.5F7000S0
X.2F1500S1000
X4.6F7000S0
X.7F1500S1000
X.3F7000S0
X.2F1500S1000
X60.5F7000S0
X.1F1500S1000
X.8F7000S0
X.1F1500S1000
X2.5F7000S0
X.2F1500S1000
X4.6F7000S0
X.8F1500S1000
X.3F7000S0
X.2F1500S1000
X58.9F7000S0
X.1F1500S1000
X1.3F7000S0
X.4F1500S1000
X.6F7000S0
X.2F1500S1000
X2.5F7000S0
X.2F1500S1000
X4.6F7000S0
X.8F1500S1000
X.3F7000S0
X.1F1500S1000
X.625F7000S0
X-.5Y.1
X-.625
X-.8F1500S1000
X-4.4F7000S0
X-.3F1500S1000
X-2.5F7000S0
X-.2F1500S1000
X-.5F7000S0
X-.2F1500S1000
X-1.5F7000S0
X-.1F1500S1000
X-59.2F7000S0
X-.1F1500S1000
X-.2F7000S0
X-.8F1500S1000
X-4.4F7000S0
X-.4F1500S1000
X-2.4F7000S0
X-.3F1500S1000
X-.4F7000S0
X-.3F1500S1000
X-1.5F7000S0
X-.1F1500S1000
X-59.1F7000S0
X-.1F1500S1000
X-.3F7000S0
X-.8F1500S1000
X-4.4F7000S0
X-.3F1500S1000
X-2.5F7000S0
X-.2F1500S1000
X-.5F7000S0
X-.2F1500S1000
X-1.5F7000S0
X-.2F1500S1000
X-59.1F7000S0
X-.1F1500S1000
X-.2F7000S0
X-.8F1500S1000
X-4.4F7000S0
X-.3F1500S1000
X-2.5F7000S0
X-.2F1500S1000
X-.5F7000S0
X-.2F1500S1000
X-1.6F7000S0
X-.1F1500S1000
X-.625F7000S0
Y.1
X.625
X.1F1500S1000
X1.7F7000S0
X.2F1500S1000
X.4F7000S0
X.2F1500S1000
X2.5F7000S0
X.4F1500S1000
X3.9F7000S0
X.1F1500S1000
X.2F7000S0
X.9F1500S1000
X.2F7000S0
X.1F1500S1000
X61F7000S0
X.2F1500S1000
X.3F7000S0
X.3F1500S1000
X2.5F7000S0
X.3F1500S1000
X3.9F7000S0
X.2F1500S1000
X.1F7000S0
X1F1500S1000
X.1F7000S0
X.1F1500S1000
X.1F7000S0
X.1F1500S1000
X58.9F7000S0
X.2F1500S1000
X1.7F7000S0
X.3F1500S1000
X.2F7000S0
X.3F1500S1000
X2.5F7000S0
X.4F1500S1000
X3.9F7000S0
X.1F1500S1000
X.2F7000S0
X.8F1500S1000
X.2F7000S0
X.1F1500S1000
X61.1F7000S0
X.2F1500S1000
X.3F7000S0
X.3F1500S1000
X2.5F7000S0
X.4F1500S1000
X3.9F7000S0
X.1F1500S1000
X.1F7000S0
X.9F1500S1000
X.625F7000S0
X.1Y.1
X-.625
X-1.2F1500S1000
X-3.8F7000S0
X-.5F1500S1000
X-2.5F7000S0
X-.3F1500S1000
X-.1F7000S0
X-.2F1500S1000
X-2F7000S0
X-.1F1500S1000
X-59.2F7000S0
X-.1F1500S1000
X-.2F7000S0
X-1.1F1500S1000
X-3.8F7000S0
X-.5F1500S1000
X-2.4F7000S0
X-.4F1500S1000
X-.2F7000S0
X-.1F1500S1000
X-61.3F7000S0
X-.1F1500S1000
X-.1F7000S0
X-1.1F1500S1000
X-3.8F7000S0
X-.5F1500S1000
X-2.5F7000S0
X-.3F1500S1000
X-.2F7000S0
X-.1F1500S1000
X-2F7000S0
X-.1F1500S1000
X-59.2F7000S0
X-.1F1500S1000
X-.2F7000S0
X-1.1F1500S1000
X-3.7F7000S0
X-.5F1500S1000
X-2.5F7000S0
X-.4F1500S1000
X-.1F7000S0
X-.2F1500S1000
X-2F7000S0
X-.1F1500S1000
X-.625F7000S0
X-.1Y.1
X.625
X.2F1500S1000
X2.2F7000S0
X.5F1500S1000
X2.5F7000S0
X.6F1500S1000
X3.7F7000S0
X1F1500S1000
X.1F7000S0
X.1F1500S1000
X59.2F7000S0
X.1F1500S1000
X2.2F7000S0
X.5F1500S1000
X2.5F7000S0
X.6F1500S1000
X3.7F7000S0
X1.1F1500S1000
X.1F7000S0
X.1F1500S1000
X.3F7000S0
X.1F1500S1000
X58.7F7000S0
X.2F1500S1000
X2.2F7000S0
X.4F1500S1000
X2.6F7000S0
X.6F1500S1000
X3.7F7000S0
X1.2F1500S1000
X59.2F7000S0
X.2F1500S1000
X2.1F7000S0
X.6F1500S1000
X2.4F7000S0
X.6F1500S1000
X3.7F7000S0
X1.2F1500S1000
X.625F7000S0
Y.1
X-.625
X-1.2F1500S1000
X-3.5F7000S0
X-.7F1500S1000
X-2.5F7000S0
X-.5F1500S1000
X-2.3F7000S0
X-.2F1500S1000
X-59.2F7000S0
X-1.2F1500S1000
X-3.4F7000S0
X-.8F1500S1000
X-2.5F7000S0
X-.5F1500S1000
X-2.3F7000S0
X-.1F1500S1000
X-58.8F7000S0
X-.1F1500S1000
X-.3F7000S0
X-1.2F1500S1000
X-3.4F7000S0
X-.8F1500S1000
X-2.5F7000S0
X-.5F1500S1000
X-2.3F7000S0
X-.2F1500S1000
X-36F7000S0
X-.1F1500S1000
X-23.1F7000S0
X-1.2F1500S1000
X-3.4F7000S0
X-.8F1500S1000
X-2.5F7000S0
X-.4F1500S1000
X-2.4F7000S0
X-.1F1500S1000
X-36F7000S0
X-.1F1500S1000
X-.625F7000S0
X-.1Y.1
X.625
X.3F1500S1000
X35.8F7000S0
X.1F1500S1000
X2.1F7000S0
X.9F1500S1000
X2.5F7000S0
X.9F1500S1000
X3.1F7000S0
X1.3F1500S1000
X23.1F7000S0
X.2F1500S1000
X35.8F7000S0
X.2F1500S1000
X2F7000S0
X.6F1500S1000
X.1F7000S0
X.2F1500S1000
X2.5F7000S0
X.9F1500S1000
X3.2F7000S0
X1.2F1500S1000
X23.2F7000S0
X.1F1500S1000
X35.9F7000S0
X.1F1500S1000
X2.1F7000S0
X.2F1500S1000
X.1F7000S0
X.3F1500S1000
X.1F7000S0
X.2F1500S1000
X2.5F7000S0
X.9F1500S1000
X3.1F7000S0
X1.2F1500S1000
X23.2F7000S0
X.2F1500S1000
X35.8F7000S0
X.2F1500S1000
X2F7000S0
X.1F1500S1000
X.1F7000S0
X.4F1500S1000
X.2F7000S0
X.1F1500S1000
X2.6F7000S0
X.8F1500S1000
X3.2F7000S0
X1.2F1500S1000
X.625F7000S0
X-.1Y.1
X-.625
X-1.2F1500S1000
X-2.9F7000S0
X-1F1500S1000
X-2.5F7000S0
X-.2F1500S1000
X-.2F7000S0
X-.2F1500S1000
X-.3F7000S0
X-.4F1500S1000
X-1.8F7000S0
X-.1F1500S1000
X-35.7F7000S0
X-.2F1500S1000
X-22.7F7000S0
X-.1F1500S1000
X-.5F7000S0
X-1.3F1500S1000
X-2.9F7000S0
X-1F1500S1000
X-2.5F7000S0
X-.2F1500S1000
X-.1F7000S0
X-.3F1500S1000
X-.2F7000S0
X-.4F1500S1000
X-1.9F7000S0
X-.1F1500S1000
X-35.7F7000S0
X-.2F1500S1000
X-23.3F7000S0
X-1.2F1500S1000
X-2.9F7000S0
X-1F1500S1000
X-2.6F7000S0
X-.1F1500S1000
X-.2F7000S0
X-.2F1500S1000
X-.3F7000S0
X-.4F1500S1000
X-1.8F7000S0
X-.1F1500S1000
X-35.7F7000S0
X-.2F1500S1000
X-23.3F7000S0
X-1.3F1500S1000
X-2.9F7000S0
X-1F1500S1000
X-2.5F7000S0
X-.1F1500S1000
X-.2F7000S0
X-.2F1500S1000
X-.3F7000S0
X-.4F1500S1000
X-1.8F7000S0
X-.2F1500S1000
X-35.7F7000S0
X-.2F1500S1000
X-.625F7000S0
Y.1
X.625
X.3F1500S1000
X35.6F7000S0
X.1F1500S1000
X1.6F7000S0
X.3F1500S1000
X.7F7000S0
X.2F1500S1000
X.2F7000S0
X.1F1500S1000
X2.6F7000S0
X1.1F1500S1000
X2.6F7000S0
X1.3F1500S1000
X.5F7000S0
X.2F1500S1000
X22.7F7000S0
X.3F1500S1000
X35.5F7000S0
X.1F1500S1000
X1.6F7000S0
X.4F1500S1000
X.6F7000S0
X.2F1500S1000
X.2F7000S0
X.2F1500S1000
X2.5F7000S0
X1.1F1500S1000
X2.7F7000S0
X1.3F1500S1000
X.5F7000S0
X.1F1500S1000
X22.7F7000S0
X.3F1500S1000
X35.5F7000S0
X.2F1500S1000
X1.5F7000S0
X.4F1500S1000
X.6F7000S0
X.2F1500S1000
X.3F7000S0
X.1F1500S1000
X2.6F7000S0
X1.1F1500S1000
X2.6F7000S0
X1.4F1500S1000
X.5F7000S0
X.1F1500S1000
X22.7F7000S0
X.3F1500S1000
X35.5F7000S0
X.1F1500S1000
X1.6F7000S0
X.4F1500S1000
X.6F7000S0
X.2F1500S1000
X.2F7000S0
X.2F1500S1000
X2.5F7000S0
X1.1F1500S1000
X2.7F7000S0
X1.4F1500S1000
X.625F7000S0
X-.1Y.1
X-.625
X-1.4F1500S1000
X-2.4F7000S0
X-1.2F1500S1000
X-2.6F7000S0
X-.1F1500S1000
X-.3F7000S0
X-.2F1500S1000
X-.9F7000S0
X-.1F1500S1000
X-1.7F7000S0
X-.1F1500S1000
X-35.4F7000S0
X-.3F1500S1000
X-23.4F7000S0
X-1.4F1500S1000
X-2.4F7000S0
X-1.2F1500S1000
X-2.5F7000S0
X-.2F1500S1000
X-.3F7000S0
X-.2F1500S1000
X-.9F7000S0
X-.1F1500S1000
X-1.6F7000S0
X-.2F1500S1000
X-35.3F7000S0
X-.4F1500S1000
X-23.3F7000S0
X-1.4F1500S1000
X-2.4F7000S0
X-1.2F1500S1000
X-2.6F7000S0
X-.2F1500S1000
X-.2F7000S0
X-.2F1500S1000
X-.9F7000S0
X-.1F1500S1000
X-1.6F7000S0
X-.2F1500S1000
X-35.4F7000S0
X-.4F1500S1000
X-23.2F7000S0
X-1.5F1500S1000
X-2.5F7000S0
X-1.1F1500S1000
X-2.5F7000S0
X-.3F1500S1000
X-.1F7000S0
X-.3F1500S1000
X-.8F7000S0
X-.2F1500S1000
X-1.6F7000S0
X-.1F1500S1000
X-35.4F7000S0
X-.4F1500S1000
X-.625F7000S0
Y.1
X.625
X.5F1500S1000
X35.2F7000S0
X.1F1500S1000
X1.7F7000S0
X.1F1500S1000
X.9F7000S0
X.2F1500S1000
X.3F7000S0
X.2F1500S1000
X2.5F7000S0
X1.3F1500S1000
X2.2F7000S0
X1.5F1500S1000
X23.4F7000S0
X.4F1500S1000
X35.2F7000S0
X.2F1500S1000
X1.7F7000S0
X.1F1500S1000
X.9F7000S0
X.2F1500S1000
X.3F7000S0
X.2F1500S1000
X2.5F7000S0
X1.2F1500S1000
X2.3F7000S0
X1.5F1500S1000
X23.3F7000S0
X.5F1500S1000
X37F7000S0
X.1F1500S1000
X1F7000S0
X.1F1500S1000
X.3F7000S0
X.2F1500S1000
X2.6F7000S0
X1.2F1500S1000
X2.2F7000S0
X1.5F1500S1000
X23.3F7000S0
X.5F1500S1000
X35.2F7000S0
X.2F1500S1000
X2.7F7000S0
X.2F1500S1000
X.3F7000S0
X.2F1500S1000
X2.5F7000S0
X1.3F1500S1000
X2.2F7000S0
X1.5F1500S1000
X.625F7000S0
X.7Y.1
X-.625
X-.1F1500S1000
X-.6F7000S0
X-1.6F1500S1000
X-2F7000S0
X-1.4F1500S1000
X-2.5F7000S0
X-.2F1500S1000
X-.4F7000S0
X-.1F1500S1000
X-1.7F7000S0
X-.4F1500S1000
X-.1F7000S0
X-.1F1500S1000
X-35.7F7000S0
X-.5F1500S1000
X-22.7F7000S0
X-.1F1500S1000
X-.6F7000S0
X-1.6F1500S1000
X-1.9F7000S0
X-1.5F1500S1000
X-2.4F7000S0
X-.3F1500S1000
X-.3F7000S0
X-.2F1500S1000
X-.9F7000S0
X-.1F1500S1000
X-.6F7000S0
X-.6F1500S1000
X-.1F7000S0
X-.1F1500S1000
X-.4F7000S0
X-.1F1500S1000
X-35F7000S0
X-.6F1500S1000
X-22.5F7000S0
X-.3F1500S1000
X-.5F7000S0
X-1.6F1500S1000
X-1.9F7000S0
X-1.5F1500S1000
X-2.5F7000S0
X-.2F1500S1000
X-.4F7000S0
X-.1F1500S1000
X-.9F7000S0
X-.1F1500S1000
X-.7F7000S0
X-.5F1500S1000
X-35.8F7000S0
X-.5F1500S1000
X-22.6F7000S0
X-.2F1500S1000
X-.6F7000S0
X-1.5F1500S1000
X-1.9F7000S0
X-1.5F1500S1000
X-2.5F7000S0
X-.2F1500S1000
X-.4F7000S0
X-.2F1500S1000
X-.9F7000S0
X-.1F1500S1000
X-.6F7000S0
X-.6F1500S1000
X-.5F7000S0
X-.2F1500S1000
X-35F7000S0
X-.5F1500S1000
X-.625F7000S0
X-.1Y.1
X.625
X.7F1500S1000
X34.9F7000S0
X.2F1500S1000
X.1F7000S0
X.3F1500S1000
X.6F7000S0
X.2F1500S1000
X.5F7000S0
X.1F1500S1000
X.9F7000S0
X.2F1500S1000
X.4F7000S0
X.2F1500S1000
X2.5F7000S0
X1.6F1500S1000
X1.7F7000S0
X1.6F1500S1000
X.8F7000S0
X.2F1500S1000
X22.4F7000S0
X.6F1500S1000
X34.9F7000S0
X.1F1500S1000
X.1F7000S0
X.2F1500S1000
X.1F7000S0
X.1F1500S1000
X.7F7000S0
X.1F1500S1000
X.5F7000S0
X.1F1500S1000
X.9F7000S0
X.2F1500S1000
X.5F7000S0
X.2F1500S1000
X2.4F7000S0
X1.6F1500S1000
X1.7F7000S0
X1.6F1500S1000
X.9F7000S0
X.2F1500S1000
X22.4F7000S0
X.6F1500S1000
X34.9F7000S0
X.6F1500S1000
X.6F7000S0
X.1F1500S1000
X1.6F7000S0
X.2F1500S1000
X.4F7000S0
X.2F1500S1000
X2.5F7000S0
X1.6F1500S1000
X1.6F7000S0
X1.7F1500S1000
X.7F7000S0
X.3F1500S1000
X22.4F7000S0
X.6F1500S1000
X34.9F7000S0
X.5F1500S1000
X.8F7000S0
X.1F1500S1000
X1.6F7000S0
X.1F1500S1000
X.5F7000S0
X.2F1500S1000
X2.5F7000S0
X1.5F1500S1000
X1.7F7000S0
X1.7F1500S1000
X.8F7000S0
X.2F1500S1000
X.625F7000S0
X.1Y.1
X-.625
X-.1F1500S1000
X-1F7000S0
X-1.8F1500S1000
X-1.4F7000S0
X-1.7F1500S1000
X-2.5F7000S0
X-.2F1500S1000
X-.5F7000S0
X-.2F1500S1000
X-1.5F7000S0
X-.1F1500S1000
X-1F7000S0
X-.4F1500S1000
X-34.7F7000S0
X-.7F1500S1000
X-22.3F7000S0
X-.1F1500S1000
X-1F7000S0
X-1.7F1500S1000
X-1.5F7000S0
X-1.7F1500S1000
X-2.4F7000S0
X-.3F1500S1000
X-.4F7000S0
X-.2F1500S1000
X-1.5F7000S0
X-.1F1500S1000
X-1.1F7000S0
X-.3F1500S1000
X-34.8F7000S0
X-.6F1500S1000
X-22.3F7000S0
X-.2F1500S1000
X-.9F7000S0
X-1.8F1500S1000
X-1.4F7000S0
X-1.7F1500S1000
X-2.5F7000S0
X-.2F1500S1000
X-.5F7000S0
X-.1F1500S1000
X-1F7000S0
X-.1F1500S1000
X-.5F7000S0
X-.1F1500S1000
X-1F7000S0
X-.4F1500S1000
X-34.7F7000S0
X-.7F1500S1000
X-22.3F7000S0
X-.1F1500S1000
X-1F7000S0
X-1.7F1500S1000
X-1.5F7000S0
X-1.7F1500S1000
X-2.4F7000S0
X-.2F1500S1000
X-.5F7000S0
X-.2F1500S1000
X-.9F7000S0
X-.1F1500S1000
X-.5F7000S0
X-.1F1500S1000
X-1.1F7000S0
X-.3F1500S1000
X-34.7F7000S0
X-.7F1500S1000
X-.625F7000S0
Y.1
X.625
X.7F1500S1000
X36.1F7000S0
X.2F1500S1000
X.4F7000S0
X.1F1500S1000
X1F7000S0
X.1F1500S1000
X.5F7000S0
X.2F1500S1000
X2.5F7000S0
X1.8F1500S1000
X1.2F7000S0
X1.8F1500S1000
X1.1F7000S0
X.2F1500S1000
X22.1F7000S0
X.8F1500S1000
X36.1F7000S0
X.1F1500S1000
X.4F7000S0
X.1F1500S1000
X.9F7000S0
X.2F1500S1000
X.5F7000S0
X.3F1500S1000
X2.4F7000S0
X1.8F1500S1000
X1.2F7000S0
X1.8F1500S1000
X1.2F7000S0
X.1F1500S1000
X22.1F7000S0
X.8F1500S1000
X36.1F7000S0
X.1F1500S1000
X1.5F7000S0
X.1F1500S1000
X.6F7000S0
X.2F1500S1000
X2.5F7000S0
X1.8F1500S1000
X1.2F7000S0
X1.8F1500S1000
X1.2F7000S0
X.1F1500S1000
X22.2F7000S0
X.7F1500S1000
X36.1F7000S0
X.1F1500S1000
X1.5F7000S0
X.1F1500S1000
X.5F7000S0
X.3F1500S1000
X2.4F7000S0
X1.8F1500S1000
X1.2F7000S0
X1.8F1500S1000
X1.2F7000S0
X.1F1500S1000
X.625F7000S0
X.2Y.1
X-.625
X-.1F1500S1000
X-1.4F7000S0
X-1.9F1500S1000
X-.9F7000S0
X-1.9F1500S1000
X-2.5F7000S0
X-.2F1500S1000
X-.6F7000S0
X-.2F1500S1000
X-1.4F7000S0
X-.1F1500S1000
X-36F7000S0
X-.9F1500S1000
X-21.9F7000S0
X-.2F1500S1000
X-1.4F7000S0
X-1.8F1500S1000
X-1F7000S0
X-1.9F1500S1000
X-2.5F7000S0
X-.2F1500S1000
X-.6F7000S0
X-.2F1500S1000
X-1.3F7000S0
X-.1F1500S1000
X-36.1F7000S0
X-.8F1500S1000
X-22F7000S0
X-.2F1500S1000
X-1.3F7000S0
X-1.9F1500S1000
X-.9F7000S0
X-1.9F1500S1000
X-2.5F7000S0
X-.2F1500S1000
X-.6F7000S0
X-.2F1500S1000
X-.9F7000S0
X-.1F1500S1000
X-.4F7000S0
X-.1F1500S1000
X-36F7000S0
X-.9F1500S1000
X-21.9F7000S0
X-.2F1500S1000
X-1.3F7000S0
X-1.9F1500S1000
X-1F7000S0
X-1.9F1500S1000
X-2.4F7000S0
X-.3F1500S1000
X-.6F7000S0
X-.2F1500S1000
X-.8F7000S0
X-.1F1500S1000
X-.4F7000S0
X-.1F1500S1000
X-36.1F7000S0
X-.8F1500S1000
X-.625F7000S0
Y.1
X.625
X.9F1500S1000
X36F7000S0
X.2F1500S1000
X.3F7000S0
X.1F1500S1000
X.9F7000S0
X.1F1500S1000
X.7F7000S0
X.1F1500S1000
X2.6F7000S0
X2F1500S1000
X.7F7000S0
X1.9F1500S1000
X1.4F7000S0
X.2F1500S1000
X22F7000S0
X.9F1500S1000
X36F7000S0
X.1F1500S1000
X.3F7000S0
X.1F1500S1000
X.9F7000S0
X.2F1500S1000
X.6F7000S0
X.2F1500S1000
X2.5F7000S0
X2F1500S1000
X.7F7000S0
X2F1500S1000
X1.4F7000S0
X.2F1500S1000
X21.9F7000S0
X.9F1500S1000
X36F7000S0
X.1F1500S1000
X1.4F7000S0
X.1F1500S1000
X.7F7000S0
X.2F1500S1000
X2.5F7000S0
X2F1500S1000
X.7F7000S0
X1.9F1500S1000
X1.2F7000S0
X.1F1500S1000
X.1F7000S0
X.3F1500S1000
X21.9F7000S0
X.9F1500S1000
X36F7000S0
X.1F1500S1000
X1.3F7000S0
X.2F1500S1000
X.6F7000S0
X.3F1500S1000
X2.4F7000S0
X2F1500S1000
X.7F7000S0
X2F1500S1000
X1.2F7000S0
X.1F1500S1000
X.1F7000S0
X.2F1500S1000
X.625F7000S0
X-.4Y.1
X-.625
X-.1F1500S1000
X-.1F7000S0
X-.2F1500S1000
X-.8F7000S0
X-2F1500S1000
X-.5F7000S0
X-2.1F1500S1000
X-2.5F7000S0
X-.2F1500S1000
X-.7F7000S0
X-.2F1500S1000
X-1.2F7000S0
X-.1F1500S1000
X-30.4F7000S0
X-.3F1500S1000
X-5.3F7000S0
X-1F1500S1000
X-22.2F7000S0
X-.1F1500S1000
X-.1F7000S0
X-.1F1500S1000
X-.1F7000S0
X-.2F1500S1000
X-.8F7000S0
X-2F1500S1000
X-.4F7000S0
X-2.2F1500S1000
X-2.5F7000S0
X-.2F1500S1000
X-.7F7000S0
X-.2F1500S1000
X-1.2F7000S0
X-.1F1500S1000
X-30.3F7000S0
X-.3F1500S1000
X-5.3F7000S0
X-1F1500S1000
X-22.3F7000S0
X-.2F1500S1000
X-.1F7000S0
X-.2F1500S1000
X-.8F7000S0
X-2F1500S1000
X-.5F7000S0
X-2.1F1500S1000
X-2.6F7000S0
X-.1F1500S1000
X-.8F7000S0
X-.1F1500S1000
X-.9F7000S0
X-.1F1500S1000
X-30.7F7000S0
X-.3F1500S1000
X-5.3F7000S0
X-1F1500S1000
X-22.2F7000S0
X-.1F1500S1000
X-.1F7000S0
X-.3F1500S1000
X-.9F7000S0
X-2F1500S1000
X-.4F7000S0
X-2.2F1500S1000
X-2.5F7000S0
X-.1F1500S1000
X-.8F7000S0
X-.2F1500S1000
X-.8F7000S0
X-.1F1500S1000
X-.3F7000S0
X-.1F1500S1000
X-30.3F7000S0
X-.3F1500S1000
X-5.4F7000S0
X-1F1500S1000
X-.625F7000S0
Y.1
X.625
X1.1F1500S1000
X5.2F7000S0
X.3F1500S1000
X19.9F7000S0
X.2F1500S1000
X10.4F7000S0
X.1F1500S1000
X.2F7000S0
X.1F1500S1000
X.8F7000S0
X.2F1500S1000
X.8F7000S0
X.2F1500S1000
X2.5F7000S0
X2.2F1500S1000
X.2F7000S0
X2.1F1500S1000
X23.6F7000S0
X1F1500S1000
X5.2F7000S0
X.4F1500S1000
X19.9F7000S0
X.1F1500S1000
X10.4F7000S0
X.1F1500S1000
X.2F7000S0
X.1F1500S1000
X.9F7000S0
X.1F1500S1000
X.8F7000S0
X.2F1500S1000
X2.5F7000S0
X2.3F1500S1000
X.2F7000S0
X2.1F1500S1000
X.6F7000S0
X.1F1500S1000
X22.8F7000S0
X1.1F1500S1000
X5.1F7000S0
X.4F1500S1000
X19.9F7000S0
X.1F1500S1000
X10.4F7000S0
X.1F1500S1000
X1.3F7000S0
X.1F1500S1000
X.8F7000S0
X.1F1500S1000
X2.6F7000S0
X2.2F1500S1000
X.2F7000S0
X2.1F1500S1000
X.6F7000S0
X.1F1500S1000
X22.9F7000S0
X1.1F1500S1000
X5.1F7000S0
X.4F1500S1000
X19.9F7000S0
X.1F1500S1000
X10.4F7000S0
X.1F1500S1000
X1.2F7000S0
X.1F1500S1000
X.8F7000S0
X.2F1500S1000
X2.5F7000S0
X2.3F1500S1000
X.2F7000S0
X2.1F1500S1000
X.6F7000S0
X.1F1500S1000
X.625F7000S0
X-.7Y.1
X-.625
X-4.5F1500S1000
X-2.6F7000S0
X-.1F1500S1000
X-.9F7000S0
X-.1F1500S1000
X-1.1F7000S0
X-.1F1500S1000
X-10.5F7000S0
X-.2F1500S1000
X-19.9F7000S0
X-.4F1500S1000
X-5F7000S0
X-1.1F1500S1000
X-23.6F7000S0
X-4.5F1500S1000
X-2.5F7000S0
X-.2F1500S1000
X-.8F7000S0
X-.2F1500S1000
X-.9F7000S0
X-.1F1500S1000
X-.1F7000S0
X-.1F1500S1000
X-10.4F7000S0
X-.3F1500S1000
X-19.8F7000S0
X-.4F1500S1000
X-5F7000S0
X-1.2F1500S1000
X-23.5F7000S0
X-4.5F1500S1000
X-2.6F7000S0
X-.1F1500S1000
X-.9F7000S0
X-.2F1500S1000
X-.8F7000S0
X-.1F1500S1000
X-.1F7000S0
X-.1F1500S1000
X-10.5F7000S0
X-.2F1500S1000
X-19.9F7000S0
X-.5F1500S1000
X-4.9F7000S0
X-1.1F1500S1000
X-22.9F7000S0
X-.1F1500S1000
X-.6F7000S0
X-4.5F1500S1000
X-2.5F7000S0
X-.1F1500S1000
X-.9F7000S0
X-.1F1500S1000
X-1.2F7000S0
X-.1F1500S1000
X-10.5F7000S0
X-.1F1500S1000
X-19.9F7000S0
X-.5F1500S1000
X-4.9F7000S0
X-1.1F1500S1000
X-.625F7000S0
Y.1
X.625
X1.2F1500S1000
X4.7F7000S0
X.5F1500S1000
X19.9F7000S0
X.3F1500S1000
X11.6F7000S0
X.2F1500S1000
X.9F7000S0
X.1F1500S1000
X2.6F7000S0
X4.5F1500S1000
X.5F7000S0
X.1F1500S1000
X22.9F7000S0
X1.2F1500S1000
X4.8F7000S0
X.5F1500S1000
X19.8F7000S0
X.3F1500S1000
X10.5F7000S0
X.1F1500S1000
X.1F7000S0
X.1F1500S1000
X.9F7000S0
X.1F1500S1000
X.9F7000S0
X.2F1500S1000
X2.5F7000S0
X4.5F1500S1000
X23.6F7000S0
X1.2F1500S1000
X4.7F7000S0
X.5F1500S1000
X19.9F7000S0
X.2F1500S1000
X10.5F7000S0
X.1F1500S1000
X.1F7000S0
X.1F1500S1000
X.9F7000S0
X.2F1500S1000
X.9F7000S0
X.2F1500S1000
X2.4F7000S0
X4.6F1500S1000
X.5F7000S0
X.1F1500S1000
X22.9F7000S0
X1.2F1500S1000
X4.8F7000S0
X.5F1500S1000
X19.8F7000S0
X.3F1500S1000
X10.5F7000S0
X.1F1500S1000
X1.1F7000S0
X.2F1500S1000
X.8F7000S0
X.2F1500S1000
X2.5F7000S0
X4.5F1500S1000
X.625F7000S0
X-.1Y.1
X-.625
X-4.4F1500S1000
X-2.4F7000S0
X-.2F1500S1000
X-1F7000S0
X-.2F1500S1000
X-.9F7000S0
X-.1F1500S1000
X-10.6F7000S0
X-.4F1500S1000
X-19.8F7000S0
X-.6F1500S1000
X-4.5F7000S0
X-1.3F1500S1000
X-23.7F7000S0
X-4.3F1500S1000
X-2.5F7000S0
X-.2F1500S1000
X-1F7000S0
X-.1F1500S1000
X-.9F7000S0
X-.1F1500S1000
X-10.7F7000S0
X-.3F1500S1000
X-19.8F7000S0
X-.7F1500S1000
X-4.5F7000S0
X-1.2F1500S1000
X-23.7F7000S0
X-4.4F1500S1000
X-2.5F7000S0
X-.2F1500S1000
X-.9F7000S0
X-.2F1500S1000
X-.8F7000S0
X-.1F1500S1000
X-10.8F7000S0
X-.3F1500S1000
X-19.8F7000S0
X-.6F1500S1000
X-4.5F7000S0
X-1.3F1500S1000
X-23.6F7000S0
X-4.4F1500S1000
X-2.5F7000S0
X-.2F1500S1000
X-.9F7000S0
X-.2F1500S1000
X-1F7000S0
X-.1F1500S1000
X-10.6F7000S0
X-.3F1500S1000
X-19.8F7000S0
X-.7F1500S1000
X-4.4F7000S0
X-1.3F1500S1000
X-.625F7000S0
Y.1
X.625
X1.4F1500S1000
X4.1F7000S0
X.9F1500S1000
X19.7F7000S0
X.5F1500S1000
X10.5F7000S0
X.2F1500S1000
X.8F7000S0
X.2F1500S1000
X1F7000S0
X.2F1500S1000
X2.6F7000S0
X4.2F1500S1000
X23.8F7000S0
X1.3F1500S1000
X4.2F7000S0
X.8F1500S1000
X19.8F7000S0
X.4F1500S1000
X10.6F7000S0
X.2F1500S1000
X.8F7000S0
X.2F1500S1000
X1F7000S0
X.2F1500S1000
X2.5F7000S0
X4.3F1500S1000
X23.7F7000S0
X1.4F1500S1000
X4.1F7000S0
X.8F1500S1000
X19.8F7000S0
X.4F1500S1000
X10.6F7000S0
X.2F1500S1000
X.8F7000S0
X.2F1500S1000
X1.1F7000S0
X.1F1500S1000
X2.5F7000S0
X4.3F1500S1000
X23.7F7000S0
X1.5F1500S1000
X4.1F7000S0
X.8F1500S1000
X19.8F7000S0
X.3F1500S1000
X10.7F7000S0
X.1F1500S1000
X.9F7000S0
X.2F1500S1000
X1F7000S0
X.2F1500S1000
X2.5F7000S0
X4.3F1500S1000
X.625F7000S0
X-.1Y.1
X-.625
X-4.2F1500S1000
X-2.5F7000S0
X-.2F1500S1000
X-1F7000S0
X-.2F1500S1000
X-.8F7000S0
X-.2F1500S1000
X-10.6F7000S0
X-.2F1500S1000
X-.1F7000S0
X-.2F1500S1000
X-19.8F7000S0
X-.9F1500S1000
X-3.9F7000S0
X-1.4F1500S1000
X-23.8F7000S0
X-4.2F1500S1000
X-2.5F7000S0
X-.3F1500S1000
X-.9F7000S0
X-.2F1500S1000
X-.9F7000S0
X-.1F1500S1000
X-10.7F7000S0
X-.2F1500S1000
X-.1F7000S0
X-.2F1500S1000
X-19.7F7000S0
X-.9F1500S1000
X-4F7000S0
X-1.4F1500S1000
X-23F7000S0
X-.1F1500S1000
X-.3F7000S0
X-.1F1500S1000
X-.3F7000S0
X-4.2F1500S1000
X-2.5F7000S0
X-.2F1500S1000
X-1F7000S0
X-.2F1500S1000
X-.9F7000S0
X-.1F1500S1000
X-10.6F7000S0
X-.2F1500S1000
X-.1F7000S0
X-.2F1500S1000
X-19.8F7000S0
X-.9F1500S1000
X-3.8F7000S0
X-1.5F1500S1000
X-23.8F7000S0
X-4.3F1500S1000
X-2.4F7000S0
X-.2F1500S1000
X-1.1F7000S0
X-.1F1500S1000
X-.9F7000S0
X-.1F1500S1000
X-10.7F7000S0
X-.1F1500S1000
X-.2F7000S0
X-.1F1500S1000
X-19.8F7000S0
X-.9F1500S1000
X-4F7000S0
X-1.4F1500S1000
X-.625F7000S0
X.1Y.1
X.625
X1.4F1500S1000
X3.7F7000S0
X1.1F1500S1000
X19.7F7000S0
X.2F1500S1000
X.2F7000S0
X.1F1500S1000
X11.7F7000S0
X.1F1500S1000
X1.1F7000S0
X.2F1500S1000
X2.5F7000S0
X4.2F1500S1000
X23.8F7000S0
X1.5F1500S1000
X3.7F7000S0
X1F1500S1000
X19.7F7000S0
X.2F1500S1000
X.2F7000S0
X.1F1500S1000
X11.7F7000S0
X.1F1500S1000
X1.1F7000S0
X.3F1500S1000
X2.5F7000S0
X4.1F1500S1000
X.3F7000S0
X.1F1500S1000
X23.4F7000S0
X1.6F1500S1000
X3.6F7000S0
X1.1F1500S1000
X19.7F7000S0
X.1F1500S1000
X.2F7000S0
X.2F1500S1000
X11.7F7000S0
X.1F1500S1000
X1.1F7000S0
X.2F1500S1000
X2.5F7000S0
X4.2F1500S1000
X23.8F7000S0
X1.5F1500S1000
X3.6F7000S0
X1.1F1500S1000
X19.7F7000S0
X.2F1500S1000
X.2F7000S0
X.2F1500S1000
X11.6F7000S0
X.2F1500S1000
X1.1F7000S0
X.2F1500S1000
X2.5F7000S0
X4.1F1500S1000
X.625F7000S0
Y.1
X-.625
X-4.1F1500S1000
X-2.5F7000S0
X-.2F1500S1000
X-1.2F7000S0
X-.1F1500S1000
X-11.7F7000S0
X-.1F1500S1000
X-.2F7000S0
X-.2F1500S1000
X-19.7F7000S0
X-1.2F1500S1000
X-3.4F7000S0
X-1.6F1500S1000
X-23.9F7000S0
X-4.1F1500S1000
X-2.5F7000S0
X-.2F1500S1000
X-1F7000S0
X-.3F1500S1000
X-11.6F7000S0
X-.2F1500S1000
X-.2F7000S0
X-.2F1500S1000
X-19.7F7000S0
X-1.2F1500S1000
X-3.4F7000S0
X-1.5F1500S1000
X-23.9F7000S0
X-4.2F1500S1000
X-2.4F7000S0
X-.2F1500S1000
X-1.1F7000S0
X-.2F1500S1000
X-11.6F7000S0
X-.2F1500S1000
X-.3F7000S0
X-.1F1500S1000
X-19.7F7000S0
X-1.2F1500S1000
X-3.5F7000S0
X-1.5F1500S1000
X-23.8F7000S0
X-4.1F1500S1000
X-2.5F7000S0
X-.3F1500S1000
X-1.1F7000S0
X-.2F1500S1000
X-11.6F7000S0
X-.1F1500S1000
X-.3F7000S0
X-.2F1500S1000
X-19.7F7000S0
X-1.1F1500S1000
X-3.5F7000S0
X-1.5F1500S1000
X-.625F7000S0
Y.1
X.625
X1.6F1500S1000
X3.2F7000S0
X1.3F1500S1000
X19.6F7000S0
X.2F1500S1000
X.4F7000S0
X.1F1500S1000
X11.6F7000S0
X.2F1500S1000
X1.2F7000S0
X.2F1500S1000
X2.1F7000S0
X4.5F1500S1000
X23.8F7000S0
X1.6F1500S1000
X3.2F7000S0
X1.3F1500S1000
X19.7F7000S0
X.2F1500S1000
X.3F7000S0
X.1F1500S1000
X11.7F7000S0
X.1F1500S1000
X1.3F7000S0
X.1F1500S1000
X2.2F7000S0
X4.4F1500S1000
X.4F7000S0
X.1F1500S1000
X.2F7000S0
X.1F1500S1000
X23.1F7000S0
X1.6F1500S1000
X3.2F7000S0
X1.3F1500S1000
X19.6F7000S0
X.2F1500S1000
X.3F7000S0
X.2F1500S1000
X11.6F7000S0
X.2F1500S1000
X1.2F7000S0
X.2F1500S1000
X2.1F7000S0
X4.4F1500S1000
X.7F7000S0
X.1F1500S1000
X23.1F7000S0
X1.6F1500S1000
X3.2F7000S0
X1.3F1500S1000
X19.7F7000S0
X.2F1500S1000
X.3F7000S0
X.2F1500S1000
X11.6F7000S0
X.2F1500S1000
X1.1F7000S0
X.2F1500S1000
X2.2F7000S0
X4.4F1500S1000
X.625F7000S0
Y.1
X-.625
X-4.8F1500S1000
X-.1F7000S0
X-.1F1500S1000
X-1.5F7000S0
X-.2F1500S1000
X-1.2F7000S0
X-.2F1500S1000
X-11.7F7000S0
X-.1F1500S1000
X-.4F7000S0
X-.2F1500S1000
X-2.7F7000S0
X-.2F1500S1000
X-16.7F7000S0
X-1.4F1500S1000
X-2.9F7000S0
X-1.8F1500S1000
X-23.1F7000S0
X-.1F1500S1000
X-.7F7000S0
X-4.9F1500S1000
X-1.6F7000S0
X-.2F1500S1000
X-1.2F7000S0
X-.2F1500S1000
X-11.6F7000S0
X-.2F1500S1000
X-.3F7000S0
X-.2F1500S1000
X-2.8F7000S0
X-.2F1500S1000
X-16.7F7000S0
X-1.4F1500S1000
X-2.9F7000S0
X-1.7F1500S1000
X-23.1F7000S0
X-.1F1500S1000
X-.7F7000S0
X-4.8F1500S1000
X-.1F7000S0
X-.1F1500S1000
X-1.5F7000S0
X-.2F1500S1000
X-1.2F7000S0
X-.2F1500S1000
X-11.7F7000S0
X-.1F1500S1000
X-.4F7000S0
X-.2F1500S1000
X-2.7F7000S0
X-.2F1500S1000
X-16.7F7000S0
X-1.5F1500S1000
X-2.8F7000S0
X-1.8F1500S1000
X-23.9F7000S0
X-4.9F1500S1000
X-1.5F7000S0
X-.3F1500S1000
X-1.2F7000S0
X-.2F1500S1000
X-11.7F7000S0
X-.1F1500S1000
X-.4F7000S0
X-.1F1500S1000
X-2.7F7000S0
X-.2F1500S1000
X-16.8F7000S0
X-1.4F1500S1000
X-2.8F7000S0
X-1.8F1500S1000
X-.625F7000S0
Y.1
X.625
X1.8F1500S1000
X2.6F7000S0
X1.6F1500S1000
X16.8F7000S0
X.4F1500S1000
X2.3F7000S0
X.3F1500S1000
X.4F7000S0
X.2F1500S1000
X11.6F7000S0
X.2F1500S1000
X1.3F7000S0
X.2F1500S1000
X.8F7000S0
X.1F1500S1000
X.1F7000S0
X.9F1500S1000
X.1F7000S0
X.1F1500S1000
X.3F7000S0
X4F1500S1000
X.6F7000S0
X.1F1500S1000
X23.3F7000S0
X1.7F1500S1000
X2.7F7000S0
X1.5F1500S1000
X16.8F7000S0
X.5F1500S1000
X2.3F7000S0
X.2F1500S1000
X.4F7000S0
X.2F1500S1000
X11.6F7000S0
X.2F1500S1000
X1.3F7000S0
X.2F1500S1000
X.9F7000S0
X.1F1500S1000
X.1F7000S0
X1F1500S1000
X.4F7000S0
X4F1500S1000
X.5F7000S0
X.1F1500S1000
X23.3F7000S0
X1.8F1500S1000
X2.6F7000S0
X1.6F1500S1000
X16.8F7000S0
X.4F1500S1000
X2.3F7000S0
X.2F1500S1000
X.5F7000S0
X.2F1500S1000
X11.6F7000S0
X.1F1500S1000
X1.4F7000S0
X.2F1500S1000
X.9F7000S0
X.2F1500S1000
X.1F7000S0
X.8F1500S1000
X.4F7000S0
X4F1500S1000
X24F7000S0
X1.7F1500S1000
X2.7F7000S0
X1.5F1500S1000
X16.9F7000S0
X.4F1500S1000
X2.3F7000S0
X.2F1500S1000
X.5F7000S0
X.1F1500S1000
X11.6F7000S0
X.2F1500S1000
X1.3F7000S0
X.2F1500S1000
X1F7000S0
X1.1F1500S1000
X.1F7000S0
X.1F1500S1000
X.2F7000S0
X4F1500S1000
X.625F7000S0
X.8Y.1
X-.625
X-.2F1500S1000
X-.7F7000S0
X-3.9F1500S1000
X-.8F7000S0
X-.1F1500S1000
X-.1F7000S0
X-1F1500S1000
X-.4F7000S0
X-.2F1500S1000
X-1.4F7000S0
X-.2F1500S1000
X-11.6F7000S0
X-.1F1500S1000
X-.6F7000S0
X-.1F1500S1000
X-2.2F7000S0
X-.5F1500S1000
X-16.9F7000S0
X-1.6F1500S1000
X-2.4F7000S0
X-1.9F1500S1000
X-23.2F7000S0
X-.2F1500S1000
X-.6F7000S0
X-4F1500S1000
X-.9F7000S0
X-1.1F1500S1000
X-.4F7000S0
X-.2F1500S1000
X-1.3F7000S0
X-.2F1500S1000
X-11.6F7000S0
X-.2F1500S1000
X-.5F7000S0
X-.2F1500S1000
X-2.1F7000S0
X-.5F1500S1000
X-17F7000S0
X-1.6F1500S1000
X-2.4F7000S0
X-1.9F1500S1000
X-23.1F7000S0
X-.2F1500S1000
X-.7F7000S0
X-3.9F1500S1000
X-.7F7000S0
X-.1F1500S1000
X-.2F7000S0
X-1F1500S1000
X-.4F7000S0
X-.2F1500S1000
X-1.4F7000S0
X-.2F1500S1000
X-11.6F7000S0
X-.1F1500S1000
X-.6F7000S0
X-.2F1500S1000
X-2.1F7000S0
X-.5F1500S1000
X-16.9F7000S0
X-1.7F1500S1000
X-2.3F7000S0
X-1.9F1500S1000
X-23.2F7000S0
X-.2F1500S1000
X-.6F7000S0
X-4F1500S1000
X-1F7000S0
X-.9F1500S1000
X-.5F7000S0
X-.2F1500S1000
X-1.3F7000S0
X-.2F1500S1000
X-11.6F7000S0
X-.2F1500S1000
X-.5F7000S0
X-.2F1500S1000
X-2.1F7000S0
X-.5F1500S1000
X-16.9F7000S0
X-1.7F1500S1000
X-2.4F7000S0
X-1.9F1500S1000
X-.625F7000S0
X.1Y.1
X.625
X1.9F1500S1000
X2.2F7000S0
X1.7F1500S1000
X17.1F7000S0
X.1F1500S1000
X.1F7000S0
X.4F1500S1000
X1.8F7000S0
X.2F1500S1000
X.6F7000S0
X.2F1500S1000
X11.6F7000S0
X.1F1500S1000
X1.5F7000S0
X1.1F1500S1000
X1.4F7000S0
X4F1500S1000
X.7F7000S0
X.1F1500S1000
X23.2F7000S0
X1.9F1500S1000
X2.2F7000S0
X1.7F1500S1000
X17.1F7000S0
X.2F1500S1000
X.1F7000S0
X.3F1500S1000
X1.8F7000S0
X.2F1500S1000
X.6F7000S0
X.2F1500S1000
X11.6F7000S0
X.2F1500S1000
X1.4F7000S0
X1.2F1500S1000
X1.3F7000S0
X4F1500S1000
X.7F7000S0
X.1F1500S1000
X23.2F7000S0
X1.9F1500S1000
X2.2F7000S0
X1.9F1500S1000
X16.9F7000S0
X.2F1500S1000
X.1F7000S0
X.3F1500S1000
X1.9F7000S0
X.2F1500S1000
X.6F7000S0
X.1F1500S1000
X11.7F7000S0
X.2F1500S1000
X1.4F7000S0
X1.1F1500S1000
X1.3F7000S0
X4F1500S1000
X.8F7000S0
X.1F1500S1000
X23.2F7000S0
X2F1500S1000
X2.1F7000S0
X1.8F1500S1000
X17F7000S0
X.2F1500S1000
X.1F7000S0
X.3F1500S1000
X1.8F7000S0
X.2F1500S1000
X.6F7000S0
X.2F1500S1000
X11.6F7000S0
X.2F1500S1000
X1.4F7000S0
X1.2F1500S1000
X1.3F7000S0
X4F1500S1000
X.7F7000S0
X.1F1500S1000
X.625F7000S0
X-.8Y.1
X-.625
X-3.8F1500S1000
X-.1F7000S0
X-.2F1500S1000
X-1.7F7000S0
X-.6F1500S1000
X-1.5F7000S0
X-.2F1500S1000
X-11.6F7000S0
X-.2F1500S1000
X-.6F7000S0
X-.2F1500S1000
X-1.6F7000S0
X-.4F1500S1000
X-.2F7000S0
X-.2F1500S1000
X-17.1F7000S0
X-1.9F1500S1000
X-1.9F7000S0
X-2F1500S1000
X-24F7000S0
X-3.8F1500S1000
X-.1F7000S0
X-.2F1500S1000
X-1.7F7000S0
X-.7F1500S1000
X-1.5F7000S0
X-.2F1500S1000
X-11.6F7000S0
X-.1F1500S1000
X-.7F7000S0
X-.2F1500S1000
X-1.6F7000S0
X-.3F1500S1000
X-.2F7000S0
X-.2F1500S1000
X-17.1F7000S0
X-1.9F1500S1000
X-1.9F7000S0
X-2F1500S1000
X-24.1F7000S0
X-3.8F1500S1000
X-.1F7000S0
X-.2F1500S1000
X-1.7F7000S0
X-.6F1500S1000
X-1.6F7000S0
X-.1F1500S1000
X-11.6F7000S0
X-.2F1500S1000
X-.6F7000S0
X-.2F1500S1000
X-1.7F7000S0
X-.3F1500S1000
X-.2F7000S0
X-.2F1500S1000
X-17F7000S0
X-2F1500S1000
X-1.9F7000S0
X-2F1500S1000
X-24F7000S0
X-3.8F1500S1000
X-.1F7000S0
X-.2F1500S1000
X-1.7F7000S0
X-.7F1500S1000
X-1.4F7000S0
X-.2F1500S1000
X-11.7F7000S0
X-.1F1500S1000
X-.6F7000S0
X-.3F1500S1000
X-1.6F7000S0
X-.3F1500S1000
X-.3F7000S0
X-.1F1500S1000
X-17.2F7000S0
X-1.8F1500S1000
X-1.9F7000S0
X-2F1500S1000
X-.625F7000S0
Y.1
X.625
X2F1500S1000
X1.7F7000S0
X2.1F1500S1000
X17.2F7000S0
X.1F1500S1000
X.4F7000S0
X.2F1500S1000
X1.5F7000S0
X.2F1500S1000
X.7F7000S0
X.2F1500S1000
X11.5F7000S0
X.2F1500S1000
X1.6F7000S0
X.2F1500S1000
X1.9F7000S0
X.3F1500S1000
X.2F7000S0
X3.9F1500S1000
X23.9F7000S0
X2.1F1500S1000
X1.7F7000S0
X2F1500S1000
X17.2F7000S0
X.1F1500S1000
X.4F7000S0
X.3F1500S1000
X1.4F7000S0
X.2F1500S1000
X.7F7000S0
X.2F1500S1000
X11.6F7000S0
X.2F1500S1000
X1.5F7000S0
X.2F1500S1000
X2F7000S0
X.2F1500S1000
X.3F7000S0
X3.8F1500S1000
X24F7000S0
X2F1500S1000
X1.7F7000S0
X2F1500S1000
X17.2F7000S0
X.1F1500S1000
X.4F7000S0
X.3F1500S1000
X1.5F7000S0
X.1F1500S1000
X.8F7000S0
X.1F1500S1000
X11.6F7000S0
X.2F1500S1000
X1.6F7000S0
X.2F1500S1000
X2F7000S0
X.2F1500S1000
X.2F7000S0
X3.8F1500S1000
X24F7000S0
X2.1F1500S1000
X1.7F7000S0
X2F1500S1000
X17.2F7000S0
X.1F1500S1000
X.4F7000S0
X.3F1500S1000
X1.5F7000S0
X.1F1500S1000
X.7F7000S0
X.2F1500S1000
X11.6F7000S0
X.1F1500S1000
X1.6F7000S0
X.2F1500S1000
X2.1F7000S0
X.2F1500S1000
X.2F7000S0
X3.8F1500S1000
X.625F7000S0
X.3Y.1
X-.625
X-4.1F1500S1000
X-.3F7000S0
X-.2F1500S1000
X-3.7F7000S0
X-.2F1500S1000
X-11.6F7000S0
X-.2F1500S1000
X-.8F7000S0
X-.2F1500S1000
X-1.2F7000S0
X-.2F1500S1000
X-.5F7000S0
X-.2F1500S1000
X-17.3F7000S0
X-2.1F1500S1000
X-1.5F7000S0
X-2.1F1500S1000
X-23.8F7000S0
X-4F1500S1000
X-.3F7000S0
X-.3F1500S1000
X-3.6F7000S0
X-.2F1500S1000
X-11.6F7000S0
X-.1F1500S1000
X-.8F7000S0
X-.2F1500S1000
X-1.1F7000S0
X-.4F1500S1000
X-.5F7000S0
X-.1F1500S1000
X-17.3F7000S0
X-2.2F1500S1000
X-1.3F7000S0
X-2.2F1500S1000
X-23.8F7000S0
X-4F1500S1000
X-.3F7000S0
X-.2F1500S1000
X-3.7F7000S0
X-.2F1500S1000
X-11.6F7000S0
X-.2F1500S1000
X-.8F7000S0
X-.2F1500S1000
X-1.1F7000S0
X-.3F1500S1000
X-.5F7000S0
X-.2F1500S1000
X-17.3F7000S0
X-2.2F1500S1000
X-1.3F7000S0
X-2.2F1500S1000
X-23.8F7000S0
X-3.9F1500S1000
X-.4F7000S0
X-.2F1500S1000
X-3.7F7000S0
X-.2F1500S1000
X-11.6F7000S0
X-.1F1500S1000
X-.8F7000S0
X-.2F1500S1000
X-1.1F7000S0
X-.3F1500S1000
X-.6F7000S0
X-.2F1500S1000
X-17.2F7000S0
X-2.2F1500S1000
X-1.3F7000S0
X-2.2F1500S1000
X-.625F7000S0
Y.1
X.625
X2.2F1500S1000
X1.2F7000S0
X2.3F1500S1000
X17.3F7000S0
X.2F1500S1000
X.6F7000S0
X.4F1500S1000
X.8F7000S0
X.2F1500S1000
X.9F7000S0
X.1F1500S1000
X11.4F7000S0
X.4F1500S1000
X3.6F7000S0
X.3F1500S1000
X.4F7000S0
X4.1F1500S1000
X23.7F7000S0
X2.1F1500S1000
X1.2F7000S0
X2.3F1500S1000
X17.4F7000S0
X.1F1500S1000
X.7F7000S0
X.3F1500S1000
X.9F7000S0
X.2F1500S1000
X.8F7000S0
X.2F1500S1000
X11.4F7000S0
X.3F1500S1000
X3.6F7000S0
X.3F1500S1000
X.4F7000S0
X4.2F1500S1000
X23.6F7000S0
X2.2F1500S1000
X1.1F7000S0
X2.3F1500S1000
X17.4F7000S0
X.2F1500S1000
X.7F7000S0
X.2F1500S1000
X.9F7000S0
X.2F1500S1000
X.8F7000S0
X.2F1500S1000
X11.4F7000S0
X.4F1500S1000
X3.6F7000S0
X.2F1500S1000
X.5F7000S0
X4.1F1500S1000
X23.7F7000S0
X2.2F1500S1000
X1.1F7000S0
X2.3F1500S1000
X17.4F7000S0
X.1F1500S1000
X.7F7000S0
X.3F1500S1000
X.9F7000S0
X.2F1500S1000
X.8F7000S0
X.2F1500S1000
X11.4F7000S0
X.4F1500S1000
X3.5F7000S0
X.3F1500S1000
X.5F7000S0
X4.1F1500S1000
X.625F7000S0
X.1Y.1
X-.625
X-4.2F1500S1000
X-.6F7000S0
X-.3F1500S1000
X-3.5F7000S0
X-.8F1500S1000
X-10.9F7000S0
X-.2F1500S1000
X-.9F7000S0
X-.2F1500S1000
X-.6F7000S0
X-.4F1500S1000
X-.7F7000S0
X-.2F1500S1000
X-17.4F7000S0
X-2.5F1500S1000
X-.8F7000S0
X-2.3F1500S1000
X-23.5F7000S0
X-4.2F1500S1000
X-.7F7000S0
X-.2F1500S1000
X-3.5F7000S0
X-.8F1500S1000
X-11F7000S0
X-.2F1500S1000
X-.8F7000S0
X-.3F1500S1000
X-.6F7000S0
X-.3F1500S1000
X-.8F7000S0
X-.2F1500S1000
X-17.4F7000S0
X-2.4F1500S1000
X-.8F7000S0
X-2.4F1500S1000
X-23.5F7000S0
X-4.2F1500S1000
X-.6F7000S0
X-.3F1500S1000
X-3.5F7000S0
X-.8F1500S1000
X-10.9F7000S0
X-.2F1500S1000
X-.9F7000S0
X-.2F1500S1000
X-.6F7000S0
X-.4F1500S1000
X-.7F7000S0
X-.2F1500S1000
X-17.4F7000S0
X-2.5F1500S1000
X-.8F7000S0
X-2.3F1500S1000
X-23.5F7000S0
X-4.3F1500S1000
X-.5F7000S0
X-.3F1500S1000
X-3.6F7000S0
X-.7F1500S1000
X-11F7000S0
X-.1F1500S1000
X-.9F7000S0
X-.2F1500S1000
X-.7F7000S0
X-.3F1500S1000
X-.8F7000S0
X-.2F1500S1000
X-17.4F7000S0
X-2.4F1500S1000
X-.8F7000S0
X-2.3F1500S1000
X-.625F7000S0
Y.1
X.625
X2.3F1500S1000
X.6F7000S0
X2.6F1500S1000
X17.5F7000S0
X.2F1500S1000
X.9F7000S0
X.3F1500S1000
X.4F7000S0
X.2F1500S1000
X1F7000S0
X.1F1500S1000
X10.6F7000S0
X1F1500S1000
X3.6F7000S0
X.3F1500S1000
X.7F7000S0
X4.3F1500S1000
X23.4F7000S0
X2.4F1500S1000
X.6F7000S0
X2.5F1500S1000
X17.5F7000S0
X.2F1500S1000
X.9F7000S0
X.3F1500S1000
X.4F7000S0
X.2F1500S1000
X1F7000S0
X.1F1500S1000
X10.6F7000S0
X1F1500S1000
X3.6F7000S0
X.3F1500S1000
X.8F7000S0
X4.3F1500S1000
X23.4F7000S0
X2.3F1500S1000
X.6F7000S0
X2.6F1500S1000
X17.5F7000S0
X.2F1500S1000
X.8F7000S0
X.4F1500S1000
X.4F7000S0
X.2F1500S1000
X.9F7000S0
X.2F1500S1000
X10.6F7000S0
X1F1500S1000
X3.6F7000S0
X.3F1500S1000
X.7F7000S0
X4.3F1500S1000
X23.4F7000S0
X2.4F1500S1000
X.6F7000S0
X2.5F1500S1000
X17.5F7000S0
X.2F1500S1000
X.9F7000S0
X.3F1500S1000
X.4F7000S0
X.2F1500S1000
X1F7000S0
X.2F1500S1000
X10.5F7000S0
X1F1500S1000
X3.7F7000S0
X.2F1500S1000
X.8F7000S0
X4.3F1500S1000
X.625F7000S0
X.1Y.1
X-.625
X-4.5F1500S1000
X-.8F7000S0
X-.2F1500S1000
X-4F7000S0
X-1F1500S1000
X-10.2F7000S0
X-.1F1500S1000
X-1F7000S0
X-.3F1500S1000
X-.1F7000S0
X-.3F1500S1000
X-1F7000S0
X-.2F1500S1000
X-17.6F7000S0
X-2.6F1500S1000
X-.5F7000S0
X-2.4F1500S1000
X-23.2F7000S0
X-4.5F1500S1000
X-.8F7000S0
X-.3F1500S1000
X-3.9F7000S0
X-1.1F1500S1000
X-10.1F7000S0
X-.2F1500S1000
X-1F7000S0
X-.2F1500S1000
X-.1F7000S0
X-.4F1500S1000
X-1F7000S0
X-.2F1500S1000
X-17.6F7000S0
X-2.6F1500S1000
X-.4F7000S0
X-2.4F1500S1000
X-23.3F7000S0
X-4.5F1500S1000
X-.8F7000S0
X-.1F1500S1000
X-4.1F7000S0
X-1.1F1500S1000
X-10.1F7000S0
X-.1F1500S1000
X-1F7000S0
X-.3F1500S1000
X-.1F7000S0
X-.3F1500S1000
X-1F7000S0
X-.2F1500S1000
X-17.6F7000S0
X-2.6F1500S1000
X-.5F7000S0
X-2.4F1500S1000
X-23.2F7000S0
X-4.5F1500S1000
X-.8F7000S0
X-.3F1500S1000
X-4F7000S0
X-1F1500S1000
X-10.1F7000S0
X-.1F1500S1000
X-1.1F7000S0
X-.2F1500S1000
X-.1F7000S0
X-.4F1500S1000
X-1F7000S0
X-.1F1500S1000
X-17.7F7000S0
X-2.6F1500S1000
X-.4F7000S0
X-2.4F1500S1000
X-.625F7000S0
Y.1
X.625
X2.5F1500S1000
X.1F7000S0
X2.8F1500S1000
X17.7F7000S0
X.2F1500S1000
X1.1F7000S0
X.5F1500S1000
X1F7000S0
X.2F1500S1000
X9.7F7000S0
X1F1500S1000
X4.3F7000S0
X.3F1500S1000
X.8F7000S0
X4.7F1500S1000
X23.1F7000S0
X2.5F1500S1000
X.2F7000S0
X2.7F1500S1000
X17.8F7000S0
X.1F1500S1000
X1.1F7000S0
X.5F1500S1000
X1.1F7000S0
X.1F1500S1000
X9.7F7000S0
X1.1F1500S1000
X4.3F7000S0
X.3F1500S1000
X.7F7000S0
X4.8F1500S1000
X23.1F7000S0
X2.4F1500S1000
X.3F7000S0
X2.7F1500S1000
X17.7F7000S0
X.2F1500S1000
X1.1F7000S0
X.4F1500S1000
X1.1F7000S0
X.2F1500S1000
X9.7F7000S0
X1F1500S1000
X4.4F7000S0
X.2F1500S1000
X.8F7000S0
X4.7F1500S1000
X23.1F7000S0
X2.6F1500S1000
X.1F7000S0
X2.7F1500S1000
X17.8F7000S0
X.1F1500S1000
X1.1F7000S0
X.5F1500S1000
X1.1F7000S0
X.1F1500S1000
X9.7F7000S0
X1.1F1500S1000
X4.3F7000S0
X.3F1500S1000
X.7F7000S0
X4.8F1500S1000
X.625F7000S0
X.2Y.1
X-.625
X-5.2F1500S1000
X-.6F7000S0
X-.3F1500S1000
X-4.7F7000S0
X-1.1F1500S1000
X-.1F7000S0
X-.1F1500S1000
X-9F7000S0
X-.1F1500S1000
X-2.6F7000S0
X-.2F1500S1000
X-17.8F7000S0
X-5.4F1500S1000
X-22.9F7000S0
X-5.1F1500S1000
X-.7F7000S0
X-.3F1500S1000
X-4.7F7000S0
X-.1F1500S1000
X-.1F7000S0
X-.9F1500S1000
X-.1F7000S0
X-.1F1500S1000
X-8.9F7000S0
X-.2F1500S1000
X-1.2F7000S0
X-.1F1500S1000
X-1.3F7000S0
X-.1F1500S1000
X-17.9F7000S0
X-5.3F1500S1000
X-22.9F7000S0
X-5.2F1500S1000
X-.6F7000S0
X-.3F1500S1000
X-4.7F7000S0
X-.1F1500S1000
X-.1F7000S0
X-.9F1500S1000
X-.1F7000S0
X-.1F1500S1000
X-9F7000S0
X-.1F1500S1000
X-1.3F7000S0
X-.1F1500S1000
X-1.2F7000S0
X-.2F1500S1000
X-17.8F7000S0
X-5.4F1500S1000
X-22.9F7000S0
X-5F1500S1000
X-.8F7000S0
X-.2F1500S1000
X-4.7F7000S0
X-.1F1500S1000
X-.1F7000S0
X-1F1500S1000
X-.1F7000S0
X-.1F1500S1000
X-8.9F7000S0
X-.2F1500S1000
X-1.2F7000S0
X-.1F1500S1000
X-1.3F7000S0
X-.1F1500S1000
X-17.8F7000S0
X-5.5F1500S1000
X-.625F7000S0
X.1Y.1
X.625
X5.3F1500S1000
X17.9F7000S0
X.2F1500S1000
X2.5F7000S0
X.2F1500S1000
X8.6F7000S0
X1.1F1500S1000
X5.2F7000S0
X.3F1500S1000
X.6F7000S0
X5.4F1500S1000
X22.8F7000S0
X5.2F1500S1000
X12.5F7000S0
X.1F1500S1000
X5.4F7000S0
X.1F1500S1000
X2.6F7000S0
X.1F1500S1000
X8.6F7000S0
X1F1500S1000
X.1F7000S0
X.1F1500S1000
X5.1F7000S0
X.3F1500S1000
X.7F7000S0
X5.3F1500S1000
X22.8F7000S0
X5.3F1500S1000
X17.9F7000S0
X.2F1500S1000
X2.5F7000S0
X.2F1500S1000
X8.6F7000S0
X1.1F1500S1000
X5.2F7000S0
X.2F1500S1000
X.8F7000S0
X5.3F1500S1000
X22.8F7000S0
X5.2F1500S1000
X18F7000S0
X.2F1500S1000
X2.5F7000S0
X.1F1500S1000
X8.7F7000S0
X.9F1500S1000
X.1F7000S0
X.1F1500S1000
X5.1F7000S0
X.3F1500S1000
X.7F7000S0
X5.3F1500S1000
X.625F7000S0
X.2Y.1
X-.625
X-5.5F1500S1000
X-.8F7000S0
X-.3F1500S1000
X-5.6F7000S0
X-.5F1500S1000
X-8.7F7000S0
X-.2F1500S1000
X-2.4F7000S0
X-.2F1500S1000
X-5.3F7000S0
X-.2F1500S1000
X-12.5F7000S0
X-5.2F1500S1000
X-22.7F7000S0
X-5.6F1500S1000
X-.6F7000S0
X-.3F1500S1000
X-5.7F7000S0
X-.4F1500S1000
X-8.7F7000S0
X-.2F1500S1000
X-2.4F7000S0
X-.2F1500S1000
X-5.4F7000S0
X-.1F1500S1000
X-12.6F7000S0
X-5.2F1500S1000
X-22.7F7000S0
X-5.4F1500S1000
X-.8F7000S0
X-.3F1500S1000
X-5.6F7000S0
X-.5F1500S1000
X-8.7F7000S0
X-.2F1500S1000
X-2.4F7000S0
X-.2F1500S1000
X-5.4F7000S0
X-.1F1500S1000
X-12.5F7000S0
X-5.2F1500S1000
X-22.7F7000S0
X-5.5F1500S1000
X-.7F7000S0
X-.3F1500S1000
X-5.6F7000S0
X-.5F1500S1000
X-8.7F7000S0
X-.2F1500S1000
X-2.5F7000S0
X-.1F1500S1000
X-5.3F7000S0
X-.2F1500S1000
X-12.6F7000S0
X-5.1F1500S1000
X-.625F7000S0
X-.1Y.1
X.625
X5.2F1500S1000
X12.6F7000S0
X.1F1500S1000
X5.4F7000S0
X.2F1500S1000
X2.4F7000S0
X.2F1500S1000
X8.8F7000S0
X.4F1500S1000
X5.5F7000S0
X.3F1500S1000
X.7F7000S0
X5.7F1500S1000
X22.6F7000S0
X5.1F1500S1000
X12.6F7000S0
X.2F1500S1000
X5.4F7000S0
X.1F1500S1000
X2.4F7000S0
X.2F1500S1000
X8.9F7000S0
X.4F1500S1000
X5.5F7000S0
X.2F1500S1000
X.8F7000S0
X5.7F1500S1000
X22.6F7000S0
X5.1F1500S1000
X12.6F7000S0
X.2F1500S1000
X5.3F7000S0
X.2F1500S1000
X2.4F7000S0
X.1F1500S1000
X8.9F7000S0
X.4F1500S1000
X5.5F7000S0
X.3F1500S1000
X.7F7000S0
X5.7F1500S1000
X22.6F7000S0
X5.2F1500S1000
X12.5F7000S0
X.2F1500S1000
X5.4F7000S0
X.1F1500S1000
X2.4F7000S0
X.2F1500S1000
X8.9F7000S0
X.4F1500S1000
X5.5F7000S0
X.2F1500S1000
X.8F7000S0
X5.7F1500S1000
X.625F7000S0
X.2Y.1
X-.625
X-6F1500S1000
X-.7F7000S0
X-.3F1500S1000
X-5.2F7000S0
X-.6F1500S1000
X-8.9F7000S0
X-.2F1500S1000
X-2.3F7000S0
X-.2F1500S1000
X-5.3F7000S0
X-.2F1500S1000
X-12.7F7000S0
X-5.1F1500S1000
X-22.4F7000S0
X-6F1500S1000
X-.7F7000S0
X-.3F1500S1000
X-5.2F7000S0
X-.6F1500S1000
X-8.9F7000S0
X-.1F1500S1000
X-2.5F7000S0
X-.1F1500S1000
X-5.3F7000S0
X-.2F1500S1000
X-12.6F7000S0
X-5.1F1500S1000
X-22.4F7000S0
X-6F1500S1000
X-.7F7000S0
X-.3F1500S1000
X-5.2F7000S0
X-.6F1500S1000
X-8.9F7000S0
X-.2F1500S1000
X-2.4F7000S0
X-.1F1500S1000
X-5.3F7000S0
X-.2F1500S1000
X-12.7F7000S0
X-5.1F1500S1000
X-22.4F7000S0
X-6F1500S1000
X-.7F7000S0
X-.3F1500S1000
X-5.2F7000S0
X-.5F1500S1000
X-8.9F7000S0
X-.2F1500S1000
X-2.4F7000S0
X-.1F1500S1000
X-5.4F7000S0
X-.2F1500S1000
X-12.6F7000S0
X-5.1F1500S1000
X-.625F7000S0
X-.1Y.1
X.625
X5.1F1500S1000
X12.7F7000S0
X.4F1500S1000
X1.1F7000S0
X.1F1500S1000
X4F7000S0
X.2F1500S1000
X2.3F7000S0
X.2F1500S1000
X8.8F7000S0
X.8F1500S1000
X5F7000S0
X.2F1500S1000
X.7F7000S0
X6.1F1500S1000
X22.4F7000S0
X5.1F1500S1000
X12.7F7000S0
X.3F1500S1000
X1.1F7000S0
X.2F1500S1000
X4F7000S0
X.1F1500S1000
X2.3F7000S0
X.2F1500S1000
X8.8F7000S0
X.8F1500S1000
X5F7000S0
X.2F1500S1000
X.8F7000S0
X6.1F1500S1000
X22.4F7000S0
X5F1500S1000
X12.7F7000S0
X.3F1500S1000
X1.2F7000S0
X.1F1500S1000
X4F7000S0
X.1F1500S1000
X2.4F7000S0
X.1F1500S1000
X8.9F7000S0
X.8F1500S1000
X4.9F7000S0
X.2F1500S1000
X.8F7000S0
X6.2F1500S1000
X22.3F7000S0
X5.1F1500S1000
X12.7F7000S0
X.3F1500S1000
X1.1F7000S0
X.1F1500S1000
X4.1F7000S0
X.1F1500S1000
X2.3F7000S0
X.2F1500S1000
X8.8F7000S0
X.9F1500S1000
X4.9F7000S0
X.2F1500S1000
X.8F7000S0
X6.1F1500S1000
X.625F7000S0
Y.1
X-.625
X-6.2F1500S1000
X-.8F7000S0
X-.2F1500S1000
X-4.6F7000S0
X-.5F1500S1000
X-.2F7000S0
X-.4F1500S1000
X-8.8F7000S0
X-.2F1500S1000
X-2.2F7000S0
X-.2F1500S1000
X-4.1F7000S0
X-.2F1500S1000
X-.9F7000S0
X-.4F1500S1000
X-12.7F7000S0
X-5F1500S1000
X-22.4F7000S0
X-6.3F1500S1000
X-.7F7000S0
X-.2F1500S1000
X-4.7F7000S0
X-.4F1500S1000
X-.3F7000S0
X-.4F1500S1000
X-8.8F7000S0
X-.2F1500S1000
X-2.2F7000S0
X-.1F1500S1000
X-4.1F7000S0
X-.3F1500S1000
X-.9F7000S0
X-.4F1500S1000
X-12.7F7000S0
X-5.1F1500S1000
X-2.4F7000S0
X-.1F1500S1000
X-19.8F7000S0
X-6.2F1500S1000
X-.8F7000S0
X-.2F1500S1000
X-4.6F7000S0
X-.5F1500S1000
X-.2F7000S0
X-.4F1500S1000
X-8.8F7000S0
X-.2F1500S1000
X-2.3F7000S0
X-.1F1500S1000
X-4.1F7000S0
X-.2F1500S1000
X-.9F7000S0
X-.4F1500S1000
X-12.8F7000S0
X-5F1500S1000
X-2.5F7000S0
X-.1F1500S1000
X-19.8F7000S0
X-6.2F1500S1000
X-.7F7000S0
X-.2F1500S1000
X-4.7F7000S0
X-.4F1500S1000
X-.3F7000S0
X-.4F1500S1000
X-8.7F7000S0
X-.2F1500S1000
X-2.3F7000S0
X-.2F1500S1000
X-4F7000S0
X-.3F1500S1000
X-.8F7000S0
X-.5F1500S1000
X-12.7F7000S0
X-5F1500S1000
X-2.5F7000S0
X-.1F1500S1000
X-.625F7000S0
X-.1Y.1
X.625
X.2F1500S1000
X2.5F7000S0
X5F1500S1000
X12.7F7000S0
X.5F1500S1000
X.7F7000S0
X.4F1500S1000
X4.1F7000S0
X.2F1500S1000
X2.2F7000S0
X.2F1500S1000
X8.6F7000S0
X.5F1500S1000
X.4F7000S0
X.5F1500S1000
X4.4F7000S0
X.2F1500S1000
X.7F7000S0
X6.3F1500S1000
X19.8F7000S0
X.1F1500S1000
X2.6F7000S0
X4.9F1500S1000
X12.7F7000S0
X.6F1500S1000
X.6F7000S0
X.4F1500S1000
X4.1F7000S0
X.2F1500S1000
X2.2F7000S0
X.2F1500S1000
X8.7F7000S0
X.5F1500S1000
X.3F7000S0
X.5F1500S1000
X4.4F7000S0
X.3F1500S1000
X.7F7000S0
X6.3F1500S1000
X19.7F7000S0
X.1F1500S1000
X2.6F7000S0
X5F1500S1000
X12.7F7000S0
X.5F1500S1000
X.7F7000S0
X.3F1500S1000
X4.1F7000S0
X.2F1500S1000
X2.3F7000S0
X.2F1500S1000
X8.6F7000S0
X.5F1500S1000
X.4F7000S0
X.5F1500S1000
X4.4F7000S0
X.2F1500S1000
X.7F7000S0
X6.4F1500S1000
X19.6F7000S0
X.2F1500S1000
X2.5F7000S0
X5F1500S1000
X12.8F7000S0
X.5F1500S1000
X.6F7000S0
X.4F1500S1000
X4.2F7000S0
X.1F1500S1000
X2.2F7000S0
X.3F1500S1000
X8.6F7000S0
X.5F1500S1000
X.4F7000S0
X.4F1500S1000
X4.4F7000S0
X.3F1500S1000
X.7F7000S0
X6.3F1500S1000
X.625F7000S0
Y.1
X-.625
X-6.4F1500S1000
X-.7F7000S0
X-.3F1500S1000
X-4.1F7000S0
X-.5F1500S1000
X-.4F7000S0
X-.7F1500S1000
X-8.3F7000S0
X-.3F1500S1000
X-2.4F7000S0
X-.1F1500S1000
X-4.3F7000S0
X-.4F1500S1000
X-.5F7000S0
X-.5F1500S1000
X-12.8F7000S0
X-4.9F1500S1000
X-2.6F7000S0
X-.2F1500S1000
X-19.6F7000S0
X-6.5F1500S1000
X-.6F7000S0
X-.3F1500S1000
X-4.2F7000S0
X-.4F1500S1000
X-.6F7000S0
X-.5F1500S1000
X-8.4F7000S0
X-.3F1500S1000
X-2.3F7000S0
X-.2F1500S1000
X-4.2F7000S0
X-.5F1500S1000
X-.4F7000S0
X-.5F1500S1000
X-12.9F7000S0
X-4.9F1500S1000
X-2.6F7000S0
X-.1F1500S1000
X-19.7F7000S0
X-6.4F1500S1000
X-.7F7000S0
X-.3F1500S1000
X-4.1F7000S0
X-.5F1500S1000
X-.5F7000S0
X-.6F1500S1000
X-8.3F7000S0
X-.3F1500S1000
X-2.4F7000S0
X-.1F1500S1000
X-4.3F7000S0
X-.4F1500S1000
X-.5F7000S0
X-.5F1500S1000
X-12.8F7000S0
X-5F1500S1000
X-2.5F7000S0
X-.2F1500S1000
X-19.7F7000S0
X-6.3F1500S1000
X-.7F7000S0
X-.3F1500S1000
X-4.2F7000S0
X-.4F1500S1000
X-.5F7000S0
X-.6F1500S1000
X-8.4F7000S0
X-.3F1500S1000
X-2.3F7000S0
X-.2F1500S1000
X-4.2F7000S0
X-.5F1500S1000
X-.4F7000S0
X-.5F1500S1000
X-12.9F7000S0
X-4.9F1500S1000
X-2.6F7000S0
X-.2F1500S1000
X-.625F7000S0
X2.8Y.1
X.625
X4.9F1500S1000
X12.8F7000S0
X.6F1500S1000
X.2F7000S0
X.7F1500S1000
X4.3F7000S0
X.2F1500S1000
X2.4F7000S0
X.3F1500S1000
X8.1F7000S0
X.7F1500S1000
X.6F7000S0
X.4F1500S1000
X4F7000S0
X.3F1500S1000
X.7F7000S0
X6.4F1500S1000
X19.6F7000S0
X.3F1500S1000
X2.6F7000S0
X4.8F1500S1000
X12.9F7000S0
X.5F1500S1000
X.3F7000S0
X.6F1500S1000
X4.3F7000S0
X.2F1500S1000
X2.4F7000S0
X.3F1500S1000
X8.2F7000S0
X.6F1500S1000
X.7F7000S0
X.4F1500S1000
X4F7000S0
X.2F1500S1000
X.7F7000S0
X6.5F1500S1000
X19.6F7000S0
X.2F1500S1000
X2.6F7000S0
X4.9F1500S1000
X12.9F7000S0
X.6F1500S1000
X.1F7000S0
X.6F1500S1000
X4.4F7000S0
X.1F1500S1000
X2.5F7000S0
X.3F1500S1000
X8.1F7000S0
X.7F1500S1000
X.6F7000S0
X.4F1500S1000
X4F7000S0
X.3F1500S1000
X.6F7000S0
X6.6F1500S1000
X19.5F7000S0
X.2F1500S1000
X2.7F7000S0
X4.8F1500S1000
X12.9F7000S0
X.6F1500S1000
X.2F7000S0
X.6F1500S1000
X4.3F7000S0
X.2F1500S1000
X2.4F7000S0
X.3F1500S1000
X8.2F7000S0
X.6F1500S1000
X.7F7000S0
X.4F1500S1000
X4F7000S0
X.2F1500S1000
X.7F7000S0
X6.5F1500S1000
X.625F7000S0
Y.1
X-.625
X-6.6F1500S1000
X-.6F7000S0
X-.3F1500S1000
X-3.8F7000S0
X-.4F1500S1000
X-.8F7000S0
X-.6F1500S1000
X-1.3F7000S0
X-.2F1500S1000
X-5.9F7000S0
X-.1F1500S1000
X-.5F7000S0
X-.3F1500S1000
X-2.6F7000S0
X-.1F1500S1000
X-4.4F7000S0
X-1.4F1500S1000
X-12.9F7000S0
X-4.8F1500S1000
X-2.8F7000S0
X-.1F1500S1000
X-19.5F7000S0
X-6.6F1500S1000
X-.7F7000S0
X-.3F1500S1000
X-3.7F7000S0
X-.4F1500S1000
X-.9F7000S0
X-.6F1500S1000
X-1.3F7000S0
X-.2F1500S1000
X-5.8F7000S0
X-.1F1500S1000
X-.5F7000S0
X-.4F1500S1000
X-2.5F7000S0
X-.2F1500S1000
X-4.4F7000S0
X-1.4F1500S1000
X-12.9F7000S0
X-4.7F1500S1000
X-2.9F7000S0
X-.1F1500S1000
X-19.5F7000S0
X-6.6F1500S1000
X-.6F7000S0
X-.3F1500S1000
X-3.8F7000S0
X-.4F1500S1000
X-.8F7000S0
X-.6F1500S1000
X-1.3F7000S0
X-.2F1500S1000
X-5.8F7000S0
X-.2F1500S1000
X-.5F7000S0
X-.3F1500S1000
X-2.6F7000S0
X-.1F1500S1000
X-4.4F7000S0
X-1.4F1500S1000
X-12.9F7000S0
X-4.8F1500S1000
X-2.6F7000S0
X-.1F1500S1000
X-.2F7000S0
X-.1F1500S1000
X-19.5F7000S0
X-6.5F1500S1000
X-.7F7000S0
X-.3F1500S1000
X-3.7F7000S0
X-.4F1500S1000
X-.8F7000S0
X-.7F1500S1000
X-1.2F7000S0
X-.3F1500S1000
X-5.8F7000S0
X-.1F1500S1000
X-.5F7000S0
X-.4F1500S1000
X-2.5F7000S0
X-.2F1500S1000
X-4.4F7000S0
X-1.3F1500S1000
X-13F7000S0
X-4.7F1500S1000
X-2.7F7000S0
X-.1F1500S1000
X-.1F7000S0
X-.1F1500S1000
X-.625F7000S0
X-1.6Y.1
X.625
X.2F1500S1000
X1.3F7000S0
X.1F1500S1000
X.2F7000S0
X.1F1500S1000
X2.6F7000S0
X4.8F1500S1000
X12.9F7000S0
X1.4F1500S1000
X4.5F7000S0
X.2F1500S1000
X2.7F7000S0
X.3F1500S1000
X.3F7000S0
X.2F1500S1000
X5.8F7000S0
X.6F1500S1000
X.8F7000S0
X.7F1500S1000
X1F7000S0
X.4F1500S1000
X3.5F7000S0
X.2F1500S1000
X.6F7000S0
X6.7F1500S1000
X18F7000S0
X.2F1500S1000
X1.2F7000S0
X.2F1500S1000
X2.9F7000S0
X4.7F1500S1000
X13F7000S0
X1.3F1500S1000
X4.5F7000S0
X.2F1500S1000
X2.6F7000S0
X.4F1500S1000
X.3F7000S0
X.2F1500S1000
X5.8F7000S0
X.7F1500S1000
X.7F7000S0
X.7F1500S1000
X1.1F7000S0
X.4F1500S1000
X3.4F7000S0
X.3F1500S1000
X.5F7000S0
X6.8F1500S1000
X17.9F7000S0
X.1F1500S1000
X1.4F7000S0
X.1F1500S1000
X.2F7000S0
X.1F1500S1000
X2.6F7000S0
X4.8F1500S1000
X13F7000S0
X1.3F1500S1000
X4.5F7000S0
X.2F1500S1000
X2.7F7000S0
X.2F1500S1000
X.3F7000S0
X.2F1500S1000
X5.9F7000S0
X.6F1500S1000
X.7F7000S0
X.7F1500S1000
X1.1F7000S0
X.4F1500S1000
X3.6F7000S0
X.1F1500S1000
X.7F7000S0
X6.7F1500S1000
X17.9F7000S0
X.2F1500S1000
X1.2F7000S0
X.1F1500S1000
X3F7000S0
X4.7F1500S1000
X13F7000S0
X1.3F1500S1000
X4.5F7000S0
X.2F1500S1000
X2.7F7000S0
X.3F1500S1000
X.3F7000S0
X.2F1500S1000
X5.8F7000S0
X.7F1500S1000
X.7F7000S0
X.7F1500S1000
X1.1F7000S0
X.4F1500S1000
X3.5F7000S0
X.2F1500S1000
X.6F7000S0
X6.7F1500S1000
X.625F7000S0
Y.1
X-.625
X-6.8F1500S1000
X-.5F7000S0
X-.2F1500S1000
X-3.4F7000S0
X-.4F1500S1000
X-1.1F7000S0
X-.9F1500S1000
X-.1F7000S0
X-1F1500S1000
X-6F7000S0
X-.6F1500S1000
X-2.9F7000S0
X-.2F1500S1000
X-4.5F7000S0
X-1.2F1500S1000
X-13.2F7000S0
X-4.6F1500S1000
X-3F7000S0
X-.1F1500S1000
X-1.1F7000S0
X-.3F1500S1000
X-17.9F7000S0
X-6.9F1500S1000
X-.5F7000S0
X-.2F1500S1000
X-3.3F7000S0
X-.4F1500S1000
X-1.2F7000S0
X-.8F1500S1000
X-.2F7000S0
X-1F1500S1000
X-6F7000S0
X-.6F1500S1000
X-2.9F7000S0
X-.2F1500S1000
X-4.5F7000S0
X-1.2F1500S1000
X-13.1F7000S0
X-4.6F1500S1000
X-2.7F7000S0
X-.1F1500S1000
X-.3F7000S0
X-.1F1500S1000
X-1F7000S0
X-.3F1500S1000
X-18F7000S0
X-6.8F1500S1000
X-.5F7000S0
X-.2F1500S1000
X-3.4F7000S0
X-.4F1500S1000
X-1.2F7000S0
X-.8F1500S1000
X-.1F7000S0
X-1F1500S1000
X-6.1F7000S0
X-.5F1500S1000
X-2.9F7000S0
X-.2F1500S1000
X-4.5F7000S0
X-1.2F1500S1000
X-13.2F7000S0
X-4.6F1500S1000
X-2.7F7000S0
X-.1F1500S1000
X-.2F7000S0
X-.1F1500S1000
X-1.1F7000S0
X-.3F1500S1000
X-18F7000S0
X-6.8F1500S1000
X-.5F7000S0
X-.2F1500S1000
X-3.3F7000S0
X-.5F1500S1000
X-1.1F7000S0
X-.8F1500S1000
X-.2F7000S0
X-1F1500S1000
X-6F7000S0
X-.6F1500S1000
X-2.8F7000S0
X-.2F1500S1000
X-4.6F7000S0
X-1.2F1500S1000
X-13.1F7000S0
X-4.6F1500S1000
X-2.7F7000S0
X-.1F1500S1000
X-.2F7000S0
X-.2F1500S1000
X-1F7000S0
X-.4F1500S1000
X-.625F7000S0
X.1Y.1
X.625
X.1F1500S1000
X.2F7000S0
X.1F1500S1000
X.8F7000S0
X.2F1500S1000
X.3F7000S0
X.1F1500S1000
X2.7F7000S0
X4.6F1500S1000
X13.1F7000S0
X1.2F1500S1000
X4.5F7000S0
X.2F1500S1000
X3.1F7000S0
X.4F1500S1000
X6.1F7000S0
X1.9F1500S1000
X1.4F7000S0
X.4F1500S1000
X3.2F7000S0
X.2F1500S1000
X.4F7000S0
X6.8F1500S1000
X18F7000S0
X.1F1500S1000
X.2F7000S0
X.2F1500S1000
X.8F7000S0
X.1F1500S1000
X.3F7000S0
X.1F1500S1000
X2.7F7000S0
X4.6F1500S1000
X13.1F7000S0
X1.2F1500S1000
X4.5F7000S0
X.2F1500S1000
X3.2F7000S0
X.4F1500S1000
X6F7000S0
X1.9F1500S1000
X1.4F7000S0
X.4F1500S1000
X3.2F7000S0
X.2F1500S1000
X.4F7000S0
X6.9F1500S1000
X18F7000S0
X.1F1500S1000
X.2F7000S0
X.2F1500S1000
X.7F7000S0
X.2F1500S1000
X.3F7000S0
X.1F1500S1000
X2.7F7000S0
X4.6F1500S1000
X13F7000S0
X1.3F1500S1000
X4.4F7000S0
X.3F1500S1000
X3.1F7000S0
X.5F1500S1000
X6F7000S0
X1.9F1500S1000
X1.4F7000S0
X.3F1500S1000
X3.3F7000S0
X.2F1500S1000
X.4F7000S0
X6.9F1500S1000
X18F7000S0
X.1F1500S1000
X.1F7000S0
X.2F1500S1000
X.8F7000S0
X.1F1500S1000
X3.1F7000S0
X4.6F1500S1000
X13.2F7000S0
X1.1F1500S1000
X4.5F7000S0
X.2F1500S1000
X3.2F7000S0
X.4F1500S1000
X6F7000S0
X1.9F1500S1000
X1.4F7000S0
X.4F1500S1000
X3.2F7000S0
X.2F1500S1000
X.4F7000S0
X6.9F1500S1000
X.625F7000S0
Y.1
X-.625
X-7F1500S1000
X-.2F7000S0
X-.2F1500S1000
X-3.1F7000S0
X-.4F1500S1000
X-1.6F7000S0
X-1.8F1500S1000
X-6F7000S0
X-.4F1500S1000
X-3.3F7000S0
X-.2F1500S1000
X-4.5F7000S0
X-1.2F1500S1000
X-13.1F7000S0
X-4.5F1500S1000
X-2.8F7000S0
X-.1F1500S1000
X-.4F7000S0
X-.1F1500S1000
X-.6F7000S0
X-.1F1500S1000
X-.3F7000S0
X-.1F1500S1000
X-18.1F7000S0
X-6.9F1500S1000
X-.3F7000S0
X-.2F1500S1000
X-3.1F7000S0
X-.4F1500S1000
X-1.5F7000S0
X-1.8F1500S1000
X-6.1F7000S0
X-.4F1500S1000
X-3.3F7000S0
X-.1F1500S1000
X-4.6F7000S0
X-1.2F1500S1000
X-13.1F7000S0
X-4.6F1500S1000
X-2.6F7000S0
X-.1F1500S1000
X-.4F7000S0
X-.1F1500S1000
X-.7F7000S0
X-.1F1500S1000
X-.3F7000S0
X-.1F1500S1000
X-18F7000S0
X-7F1500S1000
X-.2F7000S0
X-.2F1500S1000
X-3.1F7000S0
X-.4F1500S1000
X-1.6F7000S0
X-1.8F1500S1000
X-6.1F7000S0
X-.3F1500S1000
X-3.4F7000S0
X-.2F1500S1000
X-4.4F7000S0
X-1.2F1500S1000
X-13.1F7000S0
X-4.6F1500S1000
X-3.2F7000S0
X-.1F1500S1000
X-.6F7000S0
X-.1F1500S1000
X-.3F7000S0
X-.2F1500S1000
X-18F7000S0
X-7F1500S1000
X-.2F7000S0
X-.2F1500S1000
X-3.1F7000S0
X-.4F1500S1000
X-1.5F7000S0
X-1.8F1500S1000
X-6.1F7000S0
X-.3F1500S1000
X-3.4F7000S0
X-.2F1500S1000
X-4.5F7000S0
X-1.2F1500S1000
X-13.1F7000S0
X-4.5F1500S1000
X-2.7F7000S0
X-.1F1500S1000
X-.4F7000S0
X-.1F1500S1000
X-.6F7000S0
X-.1F1500S1000
X-.4F7000S0
X-.1F1500S1000
X-.625F7000S0
X.1Y.1
X.625
X.1F1500S1000
X.3F7000S0
X.3F1500S1000
X.3F7000S0
X.1F1500S1000
X.5F7000S0
X.1F1500S1000
X2.5F7000S0
X4.7F1500S1000
X13F7000S0
X1.3F1500S1000
X4.4F7000S0
X.3F1500S1000
X3.3F7000S0
X.6F1500S1000
X5.9F7000S0
X1.8F1500S1000
X1.6F7000S0
X.5F1500S1000
X3F7000S0
X.2F1500S1000
X.1F7000S0
X6.5F1500S1000
X18.6F7000S0
X.1F1500S1000
X.4F7000S0
X.2F1500S1000
X.3F7000S0
X.2F1500S1000
X.4F7000S0
X.1F1500S1000
X2.6F7000S0
X4.6F1500S1000
X13F7000S0
X1.4F1500S1000
X4.4F7000S0
X.2F1500S1000
X3.4F7000S0
X.5F1500S1000
X5.9F7000S0
X1.9F1500S1000
X1.6F7000S0
X.4F1500S1000
X3F7000S0
X.2F1500S1000
X.2F7000S0
X6.4F1500S1000
X18.7F7000S0
X.1F1500S1000
X.4F7000S0
X.1F1500S1000
X.4F7000S0
X.1F1500S1000
X.5F7000S0
X.1F1500S1000
X2.6F7000S0
X4.6F1500S1000
X12.9F7000S0
X1.4F1500S1000
X4.4F7000S0
X.2F1500S1000
X3.4F7000S0
X.6F1500S1000
X5.9F7000S0
X1.8F1500S1000
X1.6F7000S0
X.5F1500S1000
X3F7000S0
X.2F1500S1000
X.1F7000S0
X6.5F1500S1000
X18.6F7000S0
X.1F1500S1000
X.4F7000S0
X.2F1500S1000
X.3F7000S0
X.2F1500S1000
X3.1F7000S0
X4.6F1500S1000
X13F7000S0
X1.4F1500S1000
X4.4F7000S0
X.2F1500S1000
X3.4F7000S0
X.5F1500S1000
X6F7000S0
X1.8F1500S1000
X1.6F7000S0
X.4F1500S1000
X3F7000S0
X.2F1500S1000
X.2F7000S0
X6.5F1500S1000
X.625F7000S0
X-.6Y.1
X-.625
X-6.2F1500S1000
X-2.9F7000S0
X-.5F1500S1000
X-1.3F7000S0
X-.1F1500S1000
X-.1F7000S0
X-2F1500S1000
X-5.8F7000S0
X-.8F1500S1000
X-3.4F7000S0
X-.2F1500S1000
X-4.3F7000S0
X-1.6F1500S1000
X-12.8F7000S0
X-4.8F1500S1000
X-3.2F7000S0
X-.2F1500S1000
X-.5F7000S0
X-.1F1500S1000
X-19.3F7000S0
X-6.2F1500S1000
X-3F7000S0
X-.3F1500S1000
X-1.4F7000S0
X-.1F1500S1000
X-.1F7000S0
X-2F1500S1000
X-5.8F7000S0
X-.7F1500S1000
X-3.5F7000S0
X-.1F1500S1000
X-4.4F7000S0
X-1.5F1500S1000
X-12.9F7000S0
X-4.8F1500S1000
X-3F7000S0
X-.1F1500S1000
X-.1F7000S0
X-.2F1500S1000
X-.5F7000S0
X-.1F1500S1000
X-19.3F7000S0
X-6.1F1500S1000
X-3F7000S0
X-.4F1500S1000
X-1.4F7000S0
X-2F1500S1000
X-5.9F7000S0
X-.8F1500S1000
X-3.4F7000S0
X-.2F1500S1000
X-4.4F7000S0
X-1.5F1500S1000
X-12.8F7000S0
X-4.8F1500S1000
X-2.4F7000S0
X-.1F1500S1000
X-.7F7000S0
X-.3F1500S1000
X-.4F7000S0
X-.1F1500S1000
X-19.3F7000S0
X-6.2F1500S1000
X-2.9F7000S0
X-.3F1500S1000
X-1.5F7000S0
X-.1F1500S1000
X-.1F7000S0
X-1.9F1500S1000
X-5.9F7000S0
X-.7F1500S1000
X-3.4F7000S0
X-.2F1500S1000
X-4.4F7000S0
X-1.5F1500S1000
X-12.9F7000S0
X-4.7F1500S1000
X-2.4F7000S0
X-.1F1500S1000
X-.5F7000S0
X-.2F1500S1000
X-.1F7000S0
X-.2F1500S1000
X-.625F7000S0
X-.5Y.1
X.625
X.1F1500S1000
X1.4F7000S0
X.1F1500S1000
X2.2F7000S0
X4.9F1500S1000
X11.3F7000S0
X.1F1500S1000
X1.3F7000S0
X1.8F1500S1000
X4.2F7000S0
X.2F1500S1000
X3.5F7000S0
X.5F1500S1000
X.1F7000S0
X.4F1500S1000
X5.6F7000S0
X2.4F1500S1000
X1.3F7000S0
X.3F1500S1000
X2.9F7000S0
X5.1F1500S1000
X.1F7000S0
X.1F1500S1000
X.1F7000S0
X.1F1500S1000
X19.9F7000S0
X.1F1500S1000
X.7F7000S0
X.1F1500S1000
X.6F7000S0
X.1F1500S1000
X2.2F7000S0
X4.9F1500S1000
X11.4F7000S0
X.1F1500S1000
X1.2F7000S0
X1.8F1500S1000
X4.2F7000S0
X.2F1500S1000
X3.5F7000S0
X.5F1500S1000
X.1F7000S0
X.4F1500S1000
X5.7F7000S0
X2.3F1500S1000
X1.4F7000S0
X.2F1500S1000
X2.9F7000S0
X5.1F1500S1000
X.1F7000S0
X.1F1500S1000
X.1F7000S0
X.1F1500S1000
X20F7000S0
X.1F1500S1000
X.6F7000S0
X.1F1500S1000
X3F7000S0
X4.9F1500S1000
X11.4F7000S0
X.1F1500S1000
X1.1F7000S0
X1.9F1500S1000
X4.2F7000S0
X.2F1500S1000
X3.4F7000S0
X.5F1500S1000
X.2F7000S0
X.4F1500S1000
X5.7F7000S0
X2.3F1500S1000
X1.3F7000S0
X.2F1500S1000
X2.9F7000S0
X5.1F1500S1000
X.1F7000S0
X.1F1500S1000
X.1F7000S0
X.1F1500S1000
X20F7000S0
X.2F1500S1000
X.5F7000S0
X.2F1500S1000
X.6F7000S0
X.1F1500S1000
X2.2F7000S0
X5F1500S1000
X11.3F7000S0
X.1F1500S1000
X1.2F7000S0
X1.8F1500S1000
X4.2F7000S0
X.2F1500S1000
X3.5F7000S0
X.5F1500S1000
X.2F7000S0
X.3F1500S1000
X5.7F7000S0
X2.2F1500S1000
X.1F7000S0
X.1F1500S1000
X1.3F7000S0
X.2F1500S1000
X2.9F7000S0
X5.1F1500S1000
X.1F7000S0
X.1F1500S1000
X.1F7000S0
X.1F1500S1000
X.625F7000S0
X-.6Y.1
X-.625
X-5F1500S1000
X-2.8F7000S0
X-.2F1500S1000
X-.9F7000S0
X-2.7F1500S1000
X-5.7F7000S0
X-1.1F1500S1000
X-3.5F7000S0
X-.2F1500S1000
X-4.1F7000S0
X-2.1F1500S1000
X-.9F7000S0
X-.3F1500S1000
X-11.2F7000S0
X-5.1F1500S1000
X-2.1F7000S0
X-.1F1500S1000
X-1.3F7000S0
X-.1F1500S1000
X-20.6F7000S0
X-5.1F1500S1000
X-2.8F7000S0
X-.1F1500S1000
X-.9F7000S0
X-2.8F1500S1000
X-5.6F7000S0
X-1.2F1500S1000
X-3.5F7000S0
X-.2F1500S1000
X-4.1F7000S0
X-2F1500S1000
X-.9F7000S0
X-.4F1500S1000
X-11.2F7000S0
X-5.1F1500S1000
X-3.4F7000S0
X-.2F1500S1000
X-20.6F7000S0
X-5F1500S1000
X-2.8F7000S0
X-.2F1500S1000
X-.9F7000S0
X-2.7F1500S1000
X-5.7F7000S0
X-1.1F1500S1000
X-3.5F7000S0
X-.2F1500S1000
X-4.1F7000S0
X-2.1F1500S1000
X-.9F7000S0
X-.4F1500S1000
X-11.1F7000S0
X-5.1F1500S1000
X-3.5F7000S0
X-.1F1500S1000
X-20.6F7000S0
X-5.1F1500S1000
X-2.8F7000S0
X-.1F1500S1000
X-.9F7000S0
X-2.7F1500S1000
X-5.7F7000S0
X-1.2F1500S1000
X-3.5F7000S0
X-.2F1500S1000
X-4F7000S0
X-2.1F1500S1000
X-.9F7000S0
X-.4F1500S1000
X-11.2F7000S0
X-5.1F1500S1000
X-2F7000S0
X-.1F1500S1000
X-1.3F7000S0
X-.1F1500S1000
X-.625F7000S0
Y.1
X.625
X.1F1500S1000
X3.3F7000S0
X5.1F1500S1000
X11.3F7000S0
X.6F1500S1000
X.6F7000S0
X2.2F1500S1000
X4F7000S0
X.2F1500S1000
X3.5F7000S0
X.9F1500S1000
X6F7000S0
X2.8F1500S1000
X.7F7000S0
X.2F1500S1000
X2.8F7000S0
X5.1F1500S1000
X20.6F7000S0
X.2F1500S1000
X1.2F7000S0
X.1F1500S1000
X1.9F7000S0
X5.2F1500S1000
X11.2F7000S0
X.6F1500S1000
X.7F7000S0
X2.2F1500S1000
X3.9F7000S0
X.2F1500S1000
X3.5F7000S0
X.9F1500S1000
X6.1F7000S0
X2.8F1500S1000
X.7F7000S0
X.2F1500S1000
X2.7F7000S0
X5.1F1500S1000
X20.7F7000S0
X.1F1500S1000
X3.2F7000S0
X5.3F1500S1000
X11.2F7000S0
X.5F1500S1000
X.7F7000S0
X2.2F1500S1000
X3.9F7000S0
X.2F1500S1000
X3.6F7000S0
X.9F1500S1000
X6F7000S0
X2.8F1500S1000
X.8F7000S0
X.1F1500S1000
X2.8F7000S0
X5.1F1500S1000
X20.6F7000S0
X.2F1500S1000
X3.2F7000S0
X5.2F1500S1000
X11.2F7000S0
X.6F1500S1000
X.7F7000S0
X2.2F1500S1000
X3.9F7000S0
X.2F1500S1000
X3.5F7000S0
X.9F1500S1000
X6.1F7000S0
X2.8F1500S1000
X.7F7000S0
X.2F1500S1000
X2.7F7000S0
X5.1F1500S1000
X.625F7000S0
Y.1
X-.625
X-5.1F1500S1000
X-2.7F7000S0
X-.2F1500S1000
X-.9F7000S0
X-2.5F1500S1000
X-6.4F7000S0
X-.8F1500S1000
X-3.5F7000S0
X-.2F1500S1000
X-3.7F7000S0
X-2F1500S1000
X-.8F7000S0
X-.8F1500S1000
X-11.2F7000S0
X-5.4F1500S1000
X-3F7000S0
X-.1F1500S1000
X-20.8F7000S0
X-5.2F1500S1000
X-2.6F7000S0
X-.2F1500S1000
X-.9F7000S0
X-2.5F1500S1000
X-6.4F7000S0
X-.7F1500S1000
X-3.5F7000S0
X-.3F1500S1000
X-3.7F7000S0
X-1.9F1500S1000
X-.9F7000S0
X-.8F1500S1000
X-11.2F7000S0
X-5.3F1500S1000
X-1.7F7000S0
X-.1F1500S1000
X-1.2F7000S0
X-.2F1500S1000
X-20.7F7000S0
X-5.2F1500S1000
X-2.7F7000S0
X-.1F1500S1000
X-.9F7000S0
X-2.5F1500S1000
X-6.4F7000S0
X-.8F1500S1000
X-3.5F7000S0
X-.2F1500S1000
X-3.8F7000S0
X-1.9F1500S1000
X-.8F7000S0
X-.8F1500S1000
X-11.3F7000S0
X-5.3F1500S1000
X-3F7000S0
X-.1F1500S1000
X-20.7F7000S0
X-5.2F1500S1000
X-2.7F7000S0
X-.1F1500S1000
X-1F7000S0
X-2.5F1500S1000
X-6.4F7000S0
X-.7F1500S1000
X-3.5F7000S0
X-.2F1500S1000
X-3.8F7000S0
X-2F1500S1000
X-.7F7000S0
X-.9F1500S1000
X-11.2F7000S0
X-5.3F1500S1000
X-1.8F7000S0
X-.1F1500S1000
X-1.1F7000S0
X-.1F1500S1000
X-.625F7000S0
Y.1
X.625
X.1F1500S1000
X1.2F7000S0
X.1F1500S1000
X1.6F7000S0
X5.4F1500S1000
X11.2F7000S0
X1F1500S1000
X1F7000S0
X1.7F1500S1000
X3.6F7000S0
X.2F1500S1000
X3.2F7000S0
X1.2F1500S1000
X6.4F7000S0
X2.2F1500S1000
X1.1F7000S0
X.2F1500S1000
X2.6F7000S0
X3F1500S1000
X.1F7000S0
X2.2F1500S1000
X20.7F7000S0
X.1F1500S1000
X1.3F7000S0
X.1F1500S1000
X1.5F7000S0
X5.4F1500S1000
X11.2F7000S0
X1.1F1500S1000
X1F7000S0
X1.6F1500S1000
X3.6F7000S0
X.3F1500S1000
X3.1F7000S0
X1.2F1500S1000
X6.4F7000S0
X2.3F1500S1000
X1F7000S0
X.2F1500S1000
X2.6F7000S0
X3.1F1500S1000
X.1F7000S0
X2.1F1500S1000
X20.8F7000S0
X.1F1500S1000
X1.2F7000S0
X.1F1500S1000
X1.5F7000S0
X5.5F1500S1000
X11.2F7000S0
X1F1500S1000
X1F7000S0
X1.7F1500S1000
X3.6F7000S0
X.2F1500S1000
X3.2F7000S0
X1.1F1500S1000
X6.5F7000S0
X2.2F1500S1000
X1.1F7000S0
X.2F1500S1000
X2.6F7000S0
X3F1500S1000
X.1F7000S0
X2.1F1500S1000
X20.8F7000S0
X.1F1500S1000
X1.3F7000S0
X.1F1500S1000
X1.5F7000S0
X5.4F1500S1000
X11.2F7000S0
X1.1F1500S1000
X1F7000S0
X1.6F1500S1000
X3.6F7000S0
X.3F1500S1000
X3.1F7000S0
X1.2F1500S1000
X6.4F7000S0
X2.3F1500S1000
X1.1F7000S0
X.1F1500S1000
X2.6F7000S0
X5.3F1500S1000
X.625F7000S0
Y.1
X-.625
X-2.1F1500S1000
X-.7F7000S0
X-2.5F1500S1000
X-2.5F7000S0
X-.2F1500S1000
X-1.3F7000S0
X-2.1F1500S1000
X-6.4F7000S0
X-.7F1500S1000
X-.2F7000S0
X-.7F1500S1000
X-2.8F7000S0
X-.2F1500S1000
X-3.5F7000S0
X-1.5F1500S1000
X-1.1F7000S0
X-1.2F1500S1000
X-11.1F7000S0
X-5.7F1500S1000
X-1.1F7000S0
X-.2F1500S1000
X-1.3F7000S0
X-.1F1500S1000
X-20.9F7000S0
X-2F1500S1000
X-.9F7000S0
X-2.4F1500S1000
X-2.6F7000S0
X-.1F1500S1000
X-1.3F7000S0
X-2F1500S1000
X-6.4F7000S0
X-.8F1500S1000
X-.2F7000S0
X-.7F1500S1000
X-2.8F7000S0
X-.2F1500S1000
X-3.5F7000S0
X-1.4F1500S1000
X-1.1F7000S0
X-1.2F1500S1000
X-11.2F7000S0
X-5.6F1500S1000
X-1.1F7000S0
X-.3F1500S1000
X-1.3F7000S0
X-.1F1500S1000
X-20.8F7000S0
X-2.1F1500S1000
X-.7F7000S0
X-2.6F1500S1000
X-2.4F7000S0
X-.2F1500S1000
X-1.3F7000S0
X-2.1F1500S1000
X-6.4F7000S0
X-.8F1500S1000
X-.2F7000S0
X-.6F1500S1000
X-2.8F7000S0
X-.2F1500S1000
X-3.5F7000S0
X-1.5F1500S1000
X-1.1F7000S0
X-1.2F1500S1000
X-11.1F7000S0
X-5.7F1500S1000
X-1.2F7000S0
X-.1F1500S1000
X-1.3F7000S0
X-.1F1500S1000
X-20.9F7000S0
X-2F1500S1000
X-.8F7000S0
X-.2F1500S1000
X-.1F7000S0
X-2.2F1500S1000
X-2.5F7000S0
X-.2F1500S1000
X-1.3F7000S0
X-2F1500S1000
X-6.4F7000S0
X-.8F1500S1000
X-.2F7000S0
X-.7F1500S1000
X-2.7F7000S0
X-.3F1500S1000
X-3.4F7000S0
X-1.5F1500S1000
X-1.1F7000S0
X-1.2F1500S1000
X-11.2F7000S0
X-5.7F1500S1000
X-1.1F7000S0
X-.2F1500S1000
X-.625F7000S0
X-1.4Y.1
X.625
X.2F1500S1000
X1.4F7000S0
X.3F1500S1000
X.7F7000S0
X5.9F1500S1000
X11F7000S0
X.5F1500S1000
X.1F7000S0
X.9F1500S1000
X.9F7000S0
X.6F1500S1000
X.2F7000S0
X.7F1500S1000
X3.4F7000S0
X.1F1500S1000
X2.8F7000S0
X.2F1500S1000
X.2F7000S0
X.1F1500S1000
X.5F7000S0
X.8F1500S1000
X6.3F7000S0
X1.9F1500S1000
X1.5F7000S0
X.1F1500S1000
X2.5F7000S0
X1.5F1500S1000
X.2F7000S0
X.1F1500S1000
X1.6F7000S0
X2F1500S1000
X20.9F7000S0
X.1F1500S1000
X1.4F7000S0
X.3F1500S1000
X.7F7000S0
X6F1500S1000
X11F7000S0
X.4F1500S1000
X.1F7000S0
X1F1500S1000
X.8F7000S0
X.7F1500S1000
X.1F7000S0
X.8F1500S1000
X3.3F7000S0
X.1F1500S1000
X2.8F7000S0
X.3F1500S1000
X.1F7000S0
X.1F1500S1000
X.6F7000S0
X.8F1500S1000
X6.3F7000S0
X1.9F1500S1000
X1.5F7000S0
X.1F1500S1000
X2.4F7000S0
X1.6F1500S1000
X.1F7000S0
X.1F1500S1000
X.1F7000S0
X.1F1500S1000
X1.5F7000S0
X2F1500S1000
X20.9F7000S0
X.1F1500S1000
X1.4F7000S0
X.2F1500S1000
X.7F7000S0
X6F1500S1000
X11F7000S0
X.5F1500S1000
X.1F7000S0
X.9F1500S1000
X.9F7000S0
X.7F1500S1000
X.2F7000S0
X.7F1500S1000
X3.3F7000S0
X.2F1500S1000
X2.6F7000S0
X.3F1500S1000
X.1F7000S0
X.1F1500S1000
X.6F7000S0
X.8F1500S1000
X6.3F7000S0
X1.9F1500S1000
X1.5F7000S0
X.2F1500S1000
X2.4F7000S0
X1.5F1500S1000
X.1F7000S0
X.1F1500S1000
X.2F7000S0
X.1F1500S1000
X1.4F7000S0
X2F1500S1000
X22.5F7000S0
X.2F1500S1000
X.7F7000S0
X6F1500S1000
X11F7000S0
X.4F1500S1000
X.1F7000S0
X1F1500S1000
X.9F7000S0
X.7F1500S1000
X.1F7000S0
X.7F1500S1000
X3.3F7000S0
X.2F1500S1000
X2.7F7000S0
X.3F1500S1000
X.1F7000S0
X.1F1500S1000
X.6F7000S0
X.8F1500S1000
X6.3F7000S0
X1.9F1500S1000
X1.5F7000S0
X.1F1500S1000
X2.4F7000S0
X1.6F1500S1000
X.1F7000S0
X.1F1500S1000
X.1F7000S0
X.1F1500S1000
X1.5F7000S0
X2F1500S1000
X.625F7000S0
X-.1Y.1
X-.625
X-1.9F1500S1000
X-2.4F7000S0
X-1.2F1500S1000
X-2.2F7000S0
X-.3F1500S1000
X-1.6F7000S0
X-1.8F1500S1000
X-6.2F7000S0
X-.9F1500S1000
X-.9F7000S0
X-.1F1500S1000
X-2.8F7000S0
X-.2F1500S1000
X-3.1F7000S0
X-.4F1500S1000
X-.6F7000S0
X-.7F1500S1000
X-.7F7000S0
X-.9F1500S1000
X-.3F7000S0
X-.5F1500S1000
X-10.8F7000S0
X-6.2F1500S1000
X-.4F7000S0
X-.2F1500S1000
X-1.7F7000S0
X-.1F1500S1000
X-20.9F7000S0
X-1.9F1500S1000
X-2.4F7000S0
X-1.2F1500S1000
X-2.3F7000S0
X-.2F1500S1000
X-1.7F7000S0
X-1.7F1500S1000
X-6.3F7000S0
X-.9F1500S1000
X-.8F7000S0
X-.2F1500S1000
X-2.7F7000S0
X-.2F1500S1000
X-3.2F7000S0
X-.4F1500S1000
X-.6F7000S0
X-.6F1500S1000
X-.7F7000S0
X-.9F1500S1000
X-.4F7000S0
X-.4F1500S1000
X-10.9F7000S0
X-6.2F1500S1000
X-.4F7000S0
X-.2F1500S1000
X-1.6F7000S0
X-.1F1500S1000
X-21F7000S0
X-1.9F1500S1000
X-2.4F7000S0
X-1.2F1500S1000
X-2.3F7000S0
X-.2F1500S1000
X-1.6F7000S0
X-1.8F1500S1000
X-6.2F7000S0
X-.9F1500S1000
X-.9F7000S0
X-.1F1500S1000
X-2.8F7000S0
X-.2F1500S1000
X-3.1F7000S0
X-.4F1500S1000
X-.7F7000S0
X-.5F1500S1000
X-.8F7000S0
X-.9F1500S1000
X-.3F7000S0
X-.5F1500S1000
X-10.8F7000S0
X-6.2F1500S1000
X-.4F7000S0
X-.2F1500S1000
X-1.7F7000S0
X-.1F1500S1000
X-20.9F7000S0
X-1.9F1500S1000
X-2.4F7000S0
X-1.2F1500S1000
X-2.4F7000S0
X-.1F1500S1000
X-1.6F7000S0
X-1.8F1500S1000
X-6.2F7000S0
X-.9F1500S1000
X-.9F7000S0
X-.2F1500S1000
X-2.7F7000S0
X-.2F1500S1000
X-3.2F7000S0
X-.3F1500S1000
X-.7F7000S0
X-.6F1500S1000
X-.8F7000S0
X-.8F1500S1000
X-.3F7000S0
X-.5F1500S1000
X-10.9F7000S0
X-6.2F1500S1000
X-.4F7000S0
X-.2F1500S1000
X-1.6F7000S0
X-.1F1500S1000
X-.625F7000S0
X-.1Y.1
X.625
X.1F1500S1000
X1.9F7000S0
X.2F1500S1000
X.1F7000S0
X6.4F1500S1000
X10.8F7000S0
X.4F1500S1000
X.5F7000S0
X.9F1500S1000
X.6F7000S0
X.5F1500S1000
X4.2F7000S0
X.2F1500S1000
X2.8F7000S0
X.2F1500S1000
X.8F7000S0
X1F1500S1000
X6.2F7000S0
X1.5F1500S1000
X1.9F7000S0
X.2F1500S1000
X1.5F7000S0
X.1F1500S1000
X.6F7000S0
X.5F1500S1000
X.6F7000S0
X.2F1500S1000
X2.4F7000S0
X1.9F1500S1000
X20.8F7000S0
X.2F1500S1000
X1.8F7000S0
X.2F1500S1000
X.1F7000S0
X6.5F1500S1000
X10.7F7000S0
X.5F1500S1000
X.5F7000S0
X.8F1500S1000
X.7F7000S0
X.5F1500S1000
X4.2F7000S0
X.2F1500S1000
X2.7F7000S0
X.2F1500S1000
X.9F7000S0
X.9F1500S1000
X6.2F7000S0
X1.6F1500S1000
X1.8F7000S0
X.2F1500S1000
X2.3F7000S0
X.4F1500S1000
X.6F7000S0
X.2F1500S1000
X2.5F7000S0
X1.8F1500S1000
X20.9F7000S0
X.1F1500S1000
X1.9F7000S0
X.2F1500S1000
X.1F7000S0
X6.4F1500S1000
X10.7F7000S0
X.5F1500S1000
X.5F7000S0
X.9F1500S1000
X.6F7000S0
X.5F1500S1000
X4.2F7000S0
X.2F1500S1000
X2.9F7000S0
X.1F1500S1000
X.9F7000S0
X.9F1500S1000
X6.1F7000S0
X1.6F1500S1000
X1.9F7000S0
X.1F1500S1000
X1.6F7000S0
X.1F1500S1000
X.6F7000S0
X.5F1500S1000
X.5F7000S0
X.3F1500S1000
X2.4F7000S0
X1.9F1500S1000
X20.8F7000S0
X.2F1500S1000
X1.8F7000S0
X6.8F1500S1000
X10.7F7000S0
X.5F1500S1000
X.5F7000S0
X.8F1500S1000
X.7F7000S0
X.5F1500S1000
X4.2F7000S0
X.2F1500S1000
X2.8F7000S0
X.1F1500S1000
X.9F7000S0
X.9F1500S1000
X6.2F7000S0
X1.6F1500S1000
X1.8F7000S0
X.2F1500S1000
X2.2F7000S0
X.6F1500S1000
X.5F7000S0
X.2F1500S1000
X2.5F7000S0
X1.9F1500S1000
X.625F7000S0
X-.1Y.1
X-.625
X-1.8F1500S1000
X-2.4F7000S0
X-.2F1500S1000
X-1.7F7000S0
X-.2F1500S1000
X-1.5F7000S0
X-.2F1500S1000
X-1.9F7000S0
X-1.6F1500S1000
X-6.1F7000S0
X-.9F1500S1000
X-.9F7000S0
X-.2F1500S1000
X-1F7000S0
X-.4F1500S1000
X-1.4F7000S0
X-.2F1500S1000
X-4.1F7000S0
X-.5F1500S1000
X-.5F7000S0
X-.9F1500S1000
X-.7F7000S0
X-.5F1500S1000
X-10.6F7000S0
X-6.7F1500S1000
X-2F7000S0
X-.1F1500S1000
X-20.9F7000S0
X-1.7F1500S1000
X-2.5F7000S0
X-.2F1500S1000
X-1.6F7000S0
X-.3F1500S1000
X-1.4F7000S0
X-.3F1500S1000
X-1.9F7000S0
X-1.5F1500S1000
X-6.1F7000S0
X-1F1500S1000
X-.9F7000S0
X-.1F1500S1000
X-1.1F7000S0
X-.3F1500S1000
X-1.4F7000S0
X-.3F1500S1000
X-4.1F7000S0
X-.5F1500S1000
X-.5F7000S0
X-.8F1500S1000
X-.7F7000S0
X-.5F1500S1000
X-10.6F7000S0
X-6.7F1500S1000
X-2.1F7000S0
X-.1F1500S1000
X-20.8F7000S0
X-1.8F1500S1000
X-2.4F7000S0
X-.2F1500S1000
X-1.7F7000S0
X-.2F1500S1000
X-1.5F7000S0
X-.2F1500S1000
X-1.9F7000S0
X-1.6F1500S1000
X-6.1F7000S0
X-1F1500S1000
X-.8F7000S0
X-.1F1500S1000
X-1.2F7000S0
X-.3F1500S1000
X-1.4F7000S0
X-.2F1500S1000
X-4.1F7000S0
X-.5F1500S1000
X-.5F7000S0
X-.8F1500S1000
X-.8F7000S0
X-.4F1500S1000
X-10.7F7000S0
X-6.7F1500S1000
X-2F7000S0
X-.1F1500S1000
X-20.8F7000S0
X-1.8F1500S1000
X-2.5F7000S0
X-.2F1500S1000
X-1.6F7000S0
X-.3F1500S1000
X-1.5F7000S0
X-.1F1500S1000
X-1.9F7000S0
X-1.6F1500S1000
X-6.1F7000S0
X-.9F1500S1000
X-.9F7000S0
X-.2F1500S1000
X-1.1F7000S0
X-.3F1500S1000
X-1.4F7000S0
X-.2F1500S1000
X-4.2F7000S0
X-.4F1500S1000
X-.5F7000S0
X-.9F1500S1000
X-.7F7000S0
X-.5F1500S1000
X-10.6F7000S0
X-6.7F1500S1000
X-2.1F7000S0
X-.1F1500S1000
X-.625F7000S0
X-.1Y.1
X.625
X.2F1500S1000
X2F7000S0
X6.9F1500S1000
X10.4F7000S0
X.5F1500S1000
X1F7000S0
X.8F1500S1000
X.4F7000S0
X.4F1500S1000
X4.1F7000S0
X.2F1500S1000
X1.1F7000S0
X.7F1500S1000
X1.2F7000S0
X.1F1500S1000
X.8F7000S0
X1F1500S1000
X6.1F7000S0
X1.6F1500S1000
X1.8F7000S0
X.2F1500S1000
X1.4F7000S0
X.5F1500S1000
X1.6F7000S0
X.2F1500S1000
X2.4F7000S0
X1.7F1500S1000
X20.8F7000S0
X.1F1500S1000
X2F7000S0
X6.9F1500S1000
X10.5F7000S0
X.5F1500S1000
X.9F7000S0
X.9F1500S1000
X.3F7000S0
X.4F1500S1000
X4.1F7000S0
X.2F1500S1000
X1.1F7000S0
X.8F1500S1000
X1F7000S0
X.2F1500S1000
X.8F7000S0
X1.1F1500S1000
X6F7000S0
X1.6F1500S1000
X1.9F7000S0
X.1F1500S1000
X1.5F7000S0
X.5F1500S1000
X1.5F7000S0
X.2F1500S1000
X2.4F7000S0
X1.8F1500S1000
X20.7F7000S0
X.2F1500S1000
X2F7000S0
X6.9F1500S1000
X10.5F7000S0
X.4F1500S1000
X1F7000S0
X.8F1500S1000
X.3F7000S0
X.5F1500S1000
X4.1F7000S0
X.2F1500S1000
X1F7000S0
X.8F1500S1000
X1.1F7000S0
X.1F1500S1000
X.9F7000S0
X1F1500S1000
X6F7000S0
X1.7F1500S1000
X1.8F7000S0
X.2F1500S1000
X1.4F7000S0
X.5F1500S1000
X1.6F7000S0
X.2F1500S1000
X2.3F7000S0
X1.8F1500S1000
X20.8F7000S0
X.1F1500S1000
X2F7000S0
X6.9F1500S1000
X10.5F7000S0
X.5F1500S1000
X.9F7000S0
X.9F1500S1000
X.3F7000S0
X.4F1500S1000
X4.1F7000S0
X.2F1500S1000
X1.1F7000S0
X.8F1500S1000
X1.1F7000S0
X.2F1500S1000
X.7F7000S0
X1.1F1500S1000
X6F7000S0
X1.6F1500S1000
X1.9F7000S0
X.1F1500S1000
X1.5F7000S0
X.5F1500S1000
X1.5F7000S0
X.2F1500S1000
X2.5F7000S0
X1.7F1500S1000
X.625F7000S0
Y.1
X-.625
X-1.8F1500S1000
X-2.3F7000S0
X-.2F1500S1000
X-1.4F7000S0
X-.8F1500S1000
X-1.3F7000S0
X-.2F1500S1000
X-1.9F7000S0
X-1.7F1500S1000
X-5.9F7000S0
X-1.1F1500S1000
X-.8F7000S0
X-.1F1500S1000
X-1.1F7000S0
X-.1F1500S1000
X-.3F7000S0
X-.1F1500S1000
X-.1F7000S0
X-.6F1500S1000
X-.8F7000S0
X-.2F1500S1000
X-4F7000S0
X-.4F1500S1000
X-.1F7000S0
X-.9F1500S1000
X-1.2F7000S0
X-.5F1500S1000
X-10.3F7000S0
X-7.3F1500S1000
X-.1F7000S0
X-.1F1500S1000
X-1.6F7000S0
X-.1F1500S1000
X-20.6F7000S0
X-1.8F1500S1000
X-2.4F7000S0
X-.2F1500S1000
X-1.3F7000S0
X-.5F1500S1000
X-.1F7000S0
X-.3F1500S1000
X-1.3F7000S0
X-.2F1500S1000
X-1.8F7000S0
X-1.7F1500S1000
X-6F7000S0
X-1.1F1500S1000
X-.8F7000S0
X-.1F1500S1000
X-1.1F7000S0
X-.1F1500S1000
X-.3F7000S0
X-.1F1500S1000
X-.1F7000S0
X-.6F1500S1000
X-.7F7000S0
X-.2F1500S1000
X-4.1F7000S0
X-.4F1500S1000
X-.1F7000S0
X-.9F1500S1000
X-1.1F7000S0
X-.5F1500S1000
X-10.3F7000S0
X-7.2F1500S1000
X-.1F7000S0
X-.2F1500S1000
X-1.6F7000S0
X-.1F1500S1000
X-20.7F7000S0
X-1.7F1500S1000
X-2.4F7000S0
X-.2F1500S1000
X-1.4F7000S0
X-.4F1500S1000
X-.2F7000S0
X-.3F1500S1000
X-1.2F7000S0
X-.2F1500S1000
X-1.9F7000S0
X-1.7F1500S1000
X-5.9F7000S0
X-1.1F1500S1000
X-.8F7000S0
X-.1F1500S1000
X-1.1F7000S0
X-.1F1500S1000
X-.4F7000S0
X-.1F1500S1000
X-.1F7000S0
X-.4F1500S1000
X-.1F7000S0
X-.1F1500S1000
X-.7F7000S0
X-.2F1500S1000
X-4F7000S0
X-.4F1500S1000
X-.1F7000S0
X-.9F1500S1000
X-1.2F7000S0
X-.5F1500S1000
X-10.3F7000S0
X-7.2F1500S1000
X-.1F7000S0
X-.1F1500S1000
X-1.7F7000S0
X-.1F1500S1000
X-20.7F7000S0
X-1.7F1500S1000
X-2.4F7000S0
X-.2F1500S1000
X-1.3F7000S0
X-.4F1500S1000
X-.1F7000S0
X-.4F1500S1000
X-1.3F7000S0
X-.2F1500S1000
X-1.8F7000S0
X-1.7F1500S1000
X-5.9F7000S0
X-1.1F1500S1000
X-.8F7000S0
X-.2F1500S1000
X-1F7000S0
X-.2F1500S1000
X-.3F7000S0
X-.1F1500S1000
X-.1F7000S0
X-.5F1500S1000
X-.1F7000S0
X-.1F1500S1000
X-.6F7000S0
X-.2F1500S1000
X-4F7000S0
X-.4F1500S1000
X-.1F7000S0
X-.9F1500S1000
X-1.2F7000S0
X-.5F1500S1000
X-10.3F7000S0
X-7.3F1500S1000
X-.1F7000S0
X-.1F1500S1000
X-1.7F7000S0
X-.1F1500S1000
X-.625F7000S0
X-.1Y.1
X.625
X.2F1500S1000
X1.5F7000S0
X7.8F1500S1000
X10.2F7000S0
X.4F1500S1000
X1.4F7000S0
X1.2F1500S1000
X4F7000S0
X.2F1500S1000
X.3F7000S0
X.6F1500S1000
X1.1F7000S0
X.1F1500S1000
X1F7000S0
X.1F1500S1000
X.8F7000S0
X1.2F1500S1000
X5.8F7000S0
X1.8F1500S1000
X1.8F7000S0
X.2F1500S1000
X1.2F7000S0
X.3F1500S1000
X.4F7000S0
X.4F1500S1000
X1.3F7000S0
X.2F1500S1000
X2.3F7000S0
X1.7F1500S1000
X20.6F7000S0
X.1F1500S1000
X1.5F7000S0
X7.8F1500S1000
X10.2F7000S0
X.5F1500S1000
X1.4F7000S0
X1.1F1500S1000
X4.1F7000S0
X.2F1500S1000
X.3F7000S0
X.7F1500S1000
X.9F7000S0
X.2F1500S1000
X.9F7000S0
X.2F1500S1000
X.8F7000S0
X1.1F1500S1000
X5.8F7000S0
X1.8F1500S1000
X1.9F7000S0
X.2F1500S1000
X1.2F7000S0
X.2F1500S1000
X.4F7000S0
X.5F1500S1000
X1.2F7000S0
X.2F1500S1000
X2.4F7000S0
X1.7F1500S1000
X20.6F7000S0
X.1F1500S1000
X1.5F7000S0
X7.8F1500S1000
X10.1F7000S0
X.5F1500S1000
X1.5F7000S0
X1.1F1500S1000
X4F7000S0
X.2F1500S1000
X.3F7000S0
X.1F1500S1000
X.1F7000S0
X.5F1500S1000
X1F7000S0
X.1F1500S1000
X1F7000S0
X.1F1500S1000
X.8F7000S0
X1.2F1500S1000
X5.8F7000S0
X1.8F1500S1000
X1.8F7000S0
X.2F1500S1000
X1.2F7000S0
X.3F1500S1000
X.4F7000S0
X.4F1500S1000
X1.3F7000S0
X.2F1500S1000
X2.3F7000S0
X1.7F1500S1000
X20.6F7000S0
X.1F1500S1000
X1.5F7000S0
X7.8F1500S1000
X10.2F7000S0
X.5F1500S1000
X1.4F7000S0
X1.2F1500S1000
X4F7000S0
X.2F1500S1000
X.3F7000S0
X.7F1500S1000
X1F7000S0
X.1F1500S1000
X.9F7000S0
X.2F1500S1000
X.8F7000S0
X1.1F1500S1000
X5.9F7000S0
X1.7F1500S1000
X1.9F7000S0
X.2F1500S1000
X1.2F7000S0
X.2F1500S1000
X.5F7000S0
X.4F1500S1000
X1.2F7000S0
X.2F1500S1000
X2.4F7000S0
X1.7F1500S1000
X.625F7000S0
Y.1
X-.625
X-1.6F1500S1000
X-2.4F7000S0
X-.2F1500S1000
X-1.2F7000S0
X-.3F1500S1000
X-.8F7000S0
X-.2F1500S1000
X-1.2F7000S0
X-.2F1500S1000
X-1.7F7000S0
X-.8F1500S1000
X-.2F7000S0
X-.9F1500S1000
X-5.7F7000S0
X-1.3F1500S1000
X-.7F7000S0
X-.1F1500S1000
X-1F7000S0
X-.1F1500S1000
X-1.4F7000S0
X-.9F1500S1000
X-4F7000S0
X-1F1500S1000
X-1.6F7000S0
X-.5F1500S1000
X-10F7000S0
X-7.7F1500S1000
X-.1F7000S0
X-.1F1500S1000
X-1.6F7000S0
X-.1F1500S1000
X-20.4F7000S0
X-1.7F1500S1000
X-2.4F7000S0
X-.2F1500S1000
X-1.1F7000S0
X-.4F1500S1000
X-.7F7000S0
X-.2F1500S1000
X-1.2F7000S0
X-.2F1500S1000
X-1.8F7000S0
X-.8F1500S1000
X-.2F7000S0
X-.9F1500S1000
X-5.7F7000S0
X-1.2F1500S1000
X-.8F7000S0
X-.1F1500S1000
X-1F7000S0
X-.1F1500S1000
X-1.4F7000S0
X-.9F1500S1000
X-3.9F7000S0
X-1F1500S1000
X-1.6F7000S0
X-.5F1500S1000
X-10.1F7000S0
X-7.7F1500S1000
X-.1F7000S0
X-.1F1500S1000
X-1.5F7000S0
X-.1F1500S1000
X-20.6F7000S0
X-1.6F1500S1000
X-2.3F7000S0
X-.2F1500S1000
X-1.2F7000S0
X-.3F1500S1000
X-.8F7000S0
X-.3F1500S1000
X-1.1F7000S0
X-.2F1500S1000
X-1.7F7000S0
X-.9F1500S1000
X-.1F7000S0
X-.9F1500S1000
X-5.7F7000S0
X-1.3F1500S1000
X-.7F7000S0
X-.2F1500S1000
X-.9F7000S0
X-.1F1500S1000
X-1.4F7000S0
X-.9F1500S1000
X-4F7000S0
X-1F1500S1000
X-1.6F7000S0
X-.5F1500S1000
X-10F7000S0
X-7.7F1500S1000
X-.1F7000S0
X-.1F1500S1000
X-1.6F7000S0
X-.1F1500S1000
X-20.4F7000S0
X-1.7F1500S1000
X-2.4F7000S0
X-.2F1500S1000
X-1.1F7000S0
X-.4F1500S1000
X-.7F7000S0
X-.3F1500S1000
X-1.2F7000S0
X-.1F1500S1000
X-1.8F7000S0
X-.8F1500S1000
X-.2F7000S0
X-.9F1500S1000
X-5.7F7000S0
X-1.2F1500S1000
X-.8F7000S0
X-.1F1500S1000
X-.9F7000S0
X-.2F1500S1000
X-1.4F7000S0
X-.8F1500S1000
X-4F7000S0
X-1F1500S1000
X-1.6F7000S0
X-.5F1500S1000
X-10F7000S0
X-7.8F1500S1000
X-.1F7000S0
X-.1F1500S1000
X-1.5F7000S0
X-.1F1500S1000
X-.625F7000S0
X.9Y.1
X.625
X.1F1500S1000
X.5F7000S0
X8.1F1500S1000
X10F7000S0
X.4F1500S1000
X1.9F7000S0
X.8F1500S1000
X3.9F7000S0
X.5F1500S1000
X1.8F7000S0
X.2F1500S1000
X.9F7000S0
X.1F1500S1000
X.8F7000S0
X1.2F1500S1000
X5.7F7000S0
X.7F1500S1000
X.5F7000S0
X.7F1500S1000
X1.8F7000S0
X.2F1500S1000
X1.1F7000S0
X.2F1500S1000
X.9F7000S0
X.5F1500S1000
X1F7000S0
X.2F1500S1000
X2.3F7000S0
X1.6F1500S1000
X20.5F7000S0
X.1F1500S1000
X.8F7000S0
X.1F1500S1000
X.6F7000S0
X8.1F1500S1000
X9.9F7000S0
X.5F1500S1000
X1.8F7000S0
X.9F1500S1000
X3.8F7000S0
X.6F1500S1000
X1.8F7000S0
X.1F1500S1000
X1F7000S0
X.1F1500S1000
X.7F7000S0
X1.3F1500S1000
X5.6F7000S0
X.8F1500S1000
X.4F7000S0
X.8F1500S1000
X1.7F7000S0
X.2F1500S1000
X1.2F7000S0
X.1F1500S1000
X.9F7000S0
X.5F1500S1000
X1F7000S0
X.2F1500S1000
X2.4F7000S0
X1.6F1500S1000
X20.4F7000S0
X.1F1500S1000
X.8F7000S0
X.2F1500S1000
X.6F7000S0
X8F1500S1000
X9.9F7000S0
X.6F1500S1000
X1.7F7000S0
X.9F1500S1000
X3.9F7000S0
X.5F1500S1000
X1.8F7000S0
X.2F1500S1000
X.8F7000S0
X.2F1500S1000
X.7F7000S0
X1.3F1500S1000
X5.7F7000S0
X.7F1500S1000
X.5F7000S0
X.7F1500S1000
X1.8F7000S0
X.1F1500S1000
X1.2F7000S0
X.2F1500S1000
X.9F7000S0
X.5F1500S1000
X.9F7000S0
X.3F1500S1000
X2.3F7000S0
X1.6F1500S1000
X20.5F7000S0
X.1F1500S1000
X.8F7000S0
X.1F1500S1000
X.7F7000S0
X8F1500S1000
X9.9F7000S0
X.5F1500S1000
X1.8F7000S0
X.9F1500S1000
X3.9F7000S0
X.5F1500S1000
X1.8F7000S0
X.2F1500S1000
X.8F7000S0
X.2F1500S1000
X.7F7000S0
X1.3F1500S1000
X5.7F7000S0
X.7F1500S1000
X.4F7000S0
X.8F1500S1000
X1.7F7000S0
X.2F1500S1000
X1.1F7000S0
X.2F1500S1000
X1F7000S0
X.4F1500S1000
X1F7000S0
X.2F1500S1000
X2.4F7000S0
X1.5F1500S1000
X.625F7000S0
X.1Y.1
X-.625
X-1.6F1500S1000
X-2.3F7000S0
X-.3F1500S1000
X-.8F7000S0
X-.5F1500S1000
X-1.1F7000S0
X-.2F1500S1000
X-1.1F7000S0
X-.2F1500S1000
X-1.7F7000S0
X-.7F1500S1000
X-.7F7000S0
X-.6F1500S1000
X-5.6F7000S0
X-1.3F1500S1000
X-.7F7000S0
X-.1F1500S1000
X-.9F7000S0
X-.2F1500S1000
X-2.1F7000S0
X-.3F1500S1000
X-3.7F7000S0
X-.8F1500S1000
X-2F7000S0
X-.5F1500S1000
X-9.8F7000S0
X-8.2F1500S1000
X-.5F7000S0
X-.6F1500S1000
X-.5F7000S0
X-.1F1500S1000
X-20.5F7000S0
X-1.4F1500S1000
X-2.4F7000S0
X-.2F1500S1000
X-.9F7000S0
X-.4F1500S1000
X-1.2F7000S0
X-.2F1500S1000
X-1F7000S0
X-.3F1500S1000
X-1.7F7000S0
X-.7F1500S1000
X-.7F7000S0
X-.5F1500S1000
X-5.6F7000S0
X-1.4F1500S1000
X-.6F7000S0
X-.2F1500S1000
X-.9F7000S0
X-.1F1500S1000
X-2.2F7000S0
X-.3F1500S1000
X-3.6F7000S0
X-.9F1500S1000
X-2F7000S0
X-.5F1500S1000
X-9.8F7000S0
X-8.2F1500S1000
X-.6F7000S0
X-.3F1500S1000
X-.6F7000S0
X-.1F1500S1000
X-20.5F7000S0
X-1.5F1500S1000
X-2.4F7000S0
X-.2F1500S1000
X-.9F7000S0
X-.4F1500S1000
X-1.1F7000S0
X-.3F1500S1000
X-1F7000S0
X-.2F1500S1000
X-1.7F7000S0
X-.7F1500S1000
X-.7F7000S0
X-.6F1500S1000
X-5.6F7000S0
X-1.3F1500S1000
X-.7F7000S0
X-.2F1500S1000
X-.8F7000S0
X-.2F1500S1000
X-2.1F7000S0
X-.3F1500S1000
X-3.7F7000S0
X-.8F1500S1000
X-2F7000S0
X-.5F1500S1000
X-9.8F7000S0
X-8.2F1500S1000
X-.5F7000S0
X-.6F1500S1000
X-.5F7000S0
X-.1F1500S1000
X-20.5F7000S0
X-1.4F1500S1000
X-2.4F7000S0
X-.2F1500S1000
X-1F7000S0
X-.3F1500S1000
X-1.2F7000S0
X-.2F1500S1000
X-1F7000S0
X-.2F1500S1000
X-1.8F7000S0
X-.7F1500S1000
X-.7F7000S0
X-.5F1500S1000
X-5.6F7000S0
X-1.4F1500S1000
X-1.6F7000S0
X-.2F1500S1000
X-2.2F7000S0
X-.3F1500S1000
X-3.6F7000S0
X-.9F1500S1000
X-1.9F7000S0
X-.6F1500S1000
X-9.8F7000S0
X-8.2F1500S1000
X-.5F7000S0
X-.5F1500S1000
X-.5F7000S0
X-.2F1500S1000
X-.625F7000S0
Y.1
X.625
X.2F1500S1000
X.2F7000S0
X.3F1500S1000
X.5F7000S0
X.1F1500S1000
X.3F7000S0
X8.4F1500S1000
X9.7F7000S0
X.5F1500S1000
X2.2F7000S0
X.9F1500S1000
X6F7000S0
X.1F1500S1000
X.8F7000S0
X.1F1500S1000
X.7F7000S0
X1.3F1500S1000
X5.6F7000S0
X.4F1500S1000
X1.1F7000S0
X.5F1500S1000
X1.7F7000S0
X.2F1500S1000
X1F7000S0
X.2F1500S1000
X1.5F7000S0
X.4F1500S1000
X.7F7000S0
X.2F1500S1000
X2.4F7000S0
X1.5F1500S1000
X20.3F7000S0
X.2F1500S1000
X.1F7000S0
X.5F1500S1000
X.8F7000S0
X8.5F1500S1000
X9.6F7000S0
X.5F1500S1000
X2.3F7000S0
X.9F1500S1000
X5.9F7000S0
X.1F1500S1000
X1.6F7000S0
X1.4F1500S1000
X5.6F7000S0
X.3F1500S1000
X.1F7000S0
X.1F1500S1000
X.9F7000S0
X.6F1500S1000
X1.7F7000S0
X.2F1500S1000
X.9F7000S0
X.3F1500S1000
X1.5F7000S0
X.3F1500S1000
X.8F7000S0
X.2F1500S1000
X2.4F7000S0
X1.4F1500S1000
X20.3F7000S0
X.2F1500S1000
X.2F7000S0
X.4F1500S1000
X.5F7000S0
X.1F1500S1000
X.3F7000S0
X8.4F1500S1000
X9.7F7000S0
X.5F1500S1000
X2.2F7000S0
X.9F1500S1000
X5.9F7000S0
X.2F1500S1000
X.8F7000S0
X.1F1500S1000
X.7F7000S0
X1.4F1500S1000
X5.5F7000S0
X.4F1500S1000
X1F7000S0
X.6F1500S1000
X1.7F7000S0
X.2F1500S1000
X.9F7000S0
X.3F1500S1000
X1.5F7000S0
X.3F1500S1000
X.8F7000S0
X.2F1500S1000
X2.4F7000S0
X1.5F1500S1000
X20.3F7000S0
X.2F1500S1000
X.1F7000S0
X.4F1500S1000
X.9F7000S0
X8.5F1500S1000
X9.7F7000S0
X.4F1500S1000
X2.2F7000S0
X1F1500S1000
X5.9F7000S0
X.1F1500S1000
X.8F7000S0
X.2F1500S1000
X.6F7000S0
X1.4F1500S1000
X5.6F7000S0
X.4F1500S1000
X1F7000S0
X.6F1500S1000
X1.7F7000S0
X.2F1500S1000
X.9F7000S0
X.3F1500S1000
X1.5F7000S0
X.3F1500S1000
X.8F7000S0
X.2F1500S1000
X2.4F7000S0
X1.4F1500S1000
X.625F7000S0
Y.1
X-.625
X-1.4F1500S1000
X-2.4F7000S0
X-.2F1500S1000
X-.6F7000S0
X-.4F1500S1000
X-1.7F7000S0
X-.2F1500S1000
X-.9F7000S0
X-.2F1500S1000
X-1.7F7000S0
X-.5F1500S1000
X-1.3F7000S0
X-.3F1500S1000
X-5.4F7000S0
X-1.5F1500S1000
X-.6F7000S0
X-.1F1500S1000
X-.8F7000S0
X-.1F1500S1000
X-5.9F7000S0
X-.8F1500S1000
X-2.5F7000S0
X-.5F1500S1000
X-9.5F7000S0
X-8.9F1500S1000
X-.8F7000S0
X-.1F1500S1000
X-.2F7000S0
X-.3F1500S1000
X-20.2F7000S0
X-1.4F1500S1000
X-2.5F7000S0
X-.1F1500S1000
X-.6F7000S0
X-.4F1500S1000
X-1.7F7000S0
X-.3F1500S1000
X-.9F7000S0
X-.2F1500S1000
X-1.7F7000S0
X-.5F1500S1000
X-1.3F7000S0
X-.2F1500S1000
X-5.5F7000S0
X-1.5F1500S1000
X-.6F7000S0
X-.2F1500S1000
X-.6F7000S0
X-.2F1500S1000
X-5.8F7000S0
X-.9F1500S1000
X-2.5F7000S0
X-.4F1500S1000
X-9.5F7000S0
X-8.9F1500S1000
X-1F7000S0
X-.1F1500S1000
X-.1F7000S0
X-.2F1500S1000
X-20.3F7000S0
X-1.4F1500S1000
X-2.4F7000S0
X-.2F1500S1000
X-.6F7000S0
X-.4F1500S1000
X-1.7F7000S0
X-.3F1500S1000
X-.8F7000S0
X-.2F1500S1000
X-1.7F7000S0
X-.5F1500S1000
X-1.4F7000S0
X-.2F1500S1000
X-5.5F7000S0
X-1.4F1500S1000
X-.7F7000S0
X-.1F1500S1000
X-.7F7000S0
X-.2F1500S1000
X-5.8F7000S0
X-.8F1500S1000
X-2.5F7000S0
X-.5F1500S1000
X-9.5F7000S0
X-8.9F1500S1000
X-.8F7000S0
X-.1F1500S1000
X-.2F7000S0
X-.3F1500S1000
X-20.3F7000S0
X-1.3F1500S1000
X-2.4F7000S0
X-.2F1500S1000
X-.7F7000S0
X-.3F1500S1000
X-1.7F7000S0
X-.3F1500S1000
X-.9F7000S0
X-.2F1500S1000
X-1.6F7000S0
X-.6F1500S1000
X-1.2F7000S0
X-.3F1500S1000
X-5.5F7000S0
X-1.4F1500S1000
X-.7F7000S0
X-.1F1500S1000
X-.7F7000S0
X-.2F1500S1000
X-5.8F7000S0
X-.8F1500S1000
X-2.6F7000S0
X-.5F1500S1000
X-9.5F7000S0
X-8.9F1500S1000
X-.8F7000S0
X-.1F1500S1000
X-.2F7000S0
X-.2F1500S1000
X-.625F7000S0
X1.3Y.1
X.625
X9F1500S1000
X9.4F7000S0
X.5F1500S1000
X2.7F7000S0
X.9F1500S1000
X5.7F7000S0
X.1F1500S1000
X.6F7000S0
X.2F1500S1000
X.6F7000S0
X1.5F1500S1000
X5.4F7000S0
X.2F1500S1000
X1.5F7000S0
X.5F1500S1000
X1.6F7000S0
X.2F1500S1000
X.8F7000S0
X.3F1500S1000
X2F7000S0
X.3F1500S1000
X.5F7000S0
X.2F1500S1000
X2.4F7000S0
X1.4F1500S1000
X21.6F7000S0
X8.9F1500S1000
X9.5F7000S0
X.5F1500S1000
X2.7F7000S0
X.8F1500S1000
X5.7F7000S0
X.2F1500S1000
X.6F7000S0
X.1F1500S1000
X.7F7000S0
X1.5F1500S1000
X5.4F7000S0
X.1F1500S1000
X1.6F7000S0
X.4F1500S1000
X1.6F7000S0
X.2F1500S1000
X.8F7000S0
X.3F1500S1000
X2F7000S0
X.4F1500S1000
X.5F7000S0
X.2F1500S1000
X2.4F7000S0
X1.3F1500S1000
X21.6F7000S0
X9F1500S1000
X9.4F7000S0
X.5F1500S1000
X2.7F7000S0
X.9F1500S1000
X5.6F7000S0
X.2F1500S1000
X.7F7000S0
X.1F1500S1000
X.6F7000S0
X1.5F1500S1000
X5.4F7000S0
X.1F1500S1000
X1.6F7000S0
X.4F1500S1000
X1.7F7000S0
X.2F1500S1000
X.8F7000S0
X.3F1500S1000
X1.9F7000S0
X.4F1500S1000
X.5F7000S0
X.2F1500S1000
X2.4F7000S0
X1.3F1500S1000
X21.7F7000S0
X9F1500S1000
X9.4F7000S0
X.5F1500S1000
X2.7F7000S0
X.8F1500S1000
X5.7F7000S0
X.2F1500S1000
X.6F7000S0
X.1F1500S1000
X.7F7000S0
X1.5F1500S1000
X5.4F7000S0
X.1F1500S1000
X1.6F7000S0
X.4F1500S1000
X1.6F7000S0
X.3F1500S1000
X.7F7000S0
X.3F1500S1000
X2F7000S0
X.4F1500S1000
X.5F7000S0
X.2F1500S1000
X2.4F7000S0
X1.3F1500S1000
X.625F7000S0
Y.1
X-.625
X-1.3F1500S1000
X-2.4F7000S0
X-.2F1500S1000
X-.4F7000S0
X-.3F1500S1000
X-2.3F7000S0
X-.2F1500S1000
X-.8F7000S0
X-.2F1500S1000
X-1.6F7000S0
X-.3F1500S1000
X-7.2F7000S0
X-1.6F1500S1000
X-.6F7000S0
X-.1F1500S1000
X-.6F7000S0
X-.1F1500S1000
X-5.6F7000S0
X-.9F1500S1000
X-2.9F7000S0
X-.5F1500S1000
X-9.3F7000S0
X-9.2F1500S1000
X-21.5F7000S0
X-1.2F1500S1000
X-2.5F7000S0
X-.1F1500S1000
X-.4F7000S0
X-.4F1500S1000
X-2.2F7000S0
X-.3F1500S1000
X-.7F7000S0
X-.2F1500S1000
X-1.7F7000S0
X-.3F1500S1000
X-7.2F7000S0
X-1.5F1500S1000
X-.5F7000S0
X-.2F1500S1000
X-.6F7000S0
X-.2F1500S1000
X-5.6F7000S0
X-.9F1500S1000
X-2.8F7000S0
X-.5F1500S1000
X-9.3F7000S0
X-9.3F1500S1000
X-21.4F7000S0
X-1.3F1500S1000
X-2.4F7000S0
X-.2F1500S1000
X-.4F7000S0
X-.3F1500S1000
X-2.3F7000S0
X-.2F1500S1000
X-.8F7000S0
X-.2F1500S1000
X-1.6F7000S0
X-.4F1500S1000
X-7.1F7000S0
X-1.6F1500S1000
X-.6F7000S0
X-.1F1500S1000
X-.6F7000S0
X-.1F1500S1000
X-5.6F7000S0
X-.9F1500S1000
X-2.9F7000S0
X-.5F1500S1000
X-9.3F7000S0
X-9.2F1500S1000
X-21.5F7000S0
X-1.2F1500S1000
X-2.4F7000S0
X-.2F1500S1000
X-.4F7000S0
X-.4F1500S1000
X-2.2F7000S0
X-.3F1500S1000
X-.7F7000S0
X-.2F1500S1000
X-1.6F7000S0
X-.4F1500S1000
X-7.2F7000S0
X-1.5F1500S1000
X-.6F7000S0
X-.1F1500S1000
X-.6F7000S0
X-.2F1500S1000
X-5.5F7000S0
X-1F1500S1000
X-2.8F7000S0
X-.5F1500S1000
X-9.3F7000S0
X-9.3F1500S1000
X-.625F7000S0
Y.1
X.625
X9.4F1500S1000
X9.1F7000S0
X.5F1500S1000
X3.1F7000S0
X.9F1500S1000
X5.5F7000S0
X.1F1500S1000
X.5F7000S0
X.2F1500S1000
X.6F7000S0
X1.6F1500S1000
X7.1F7000S0
X.4F1500S1000
X1.6F7000S0
X.2F1500S1000
X.6F7000S0
X.3F1500S1000
X2.5F7000S0
X.3F1500S1000
X.3F7000S0
X.2F1500S1000
X2.4F7000S0
X1.2F1500S1000
X21.4F7000S0
X9.4F1500S1000
X9.2F7000S0
X.5F1500S1000
X3F7000S0
X1F1500S1000
X5.4F7000S0
X.2F1500S1000
X.5F7000S0
X.1F1500S1000
X.6F7000S0
X1.6F1500S1000
X7.2F7000S0
X.3F1500S1000
X1.6F7000S0
X.2F1500S1000
X.7F7000S0
X.3F1500S1000
X2.4F7000S0
X.4F1500S1000
X.3F7000S0
X.1F1500S1000
X2.5F7000S0
X1.1F1500S1000
X21.5F7000S0
X9.4F1500S1000
X9.1F7000S0
X.5F1500S1000
X3.1F7000S0
X.9F1500S1000
X5.4F7000S0
X.2F1500S1000
X.5F7000S0
X.2F1500S1000
X.5F7000S0
X1.7F1500S1000
X7.2F7000S0
X.3F1500S1000
X1.6F7000S0
X.2F1500S1000
X.7F7000S0
X.2F1500S1000
X2.5F7000S0
X.3F1500S1000
X.2F7000S0
X.3F1500S1000
X2.4F7000S0
X1.2F1500S1000
X21.4F7000S0
X9.4F1500S1000
X9.2F7000S0
X.5F1500S1000
X3F7000S0
X1F1500S1000
X5.4F7000S0
X.2F1500S1000
X.6F7000S0
X.1F1500S1000
X.5F7000S0
X1.6F1500S1000
X7.2F7000S0
X.3F1500S1000
X1.6F7000S0
X.2F1500S1000
X.8F7000S0
X.2F1500S1000
X2.4F7000S0
X.4F1500S1000
X.2F7000S0
X.2F1500S1000
X2.5F7000S0
X1.2F1500S1000
X.625F7000S0
X-.1Y.1
X-.625
X-1.1F1500S1000
X-2.4F7000S0
X-.3F1500S1000
X-.1F7000S0
X-.3F1500S1000
X-2.7F7000S0
X-.3F1500S1000
X-.6F7000S0
X-.2F1500S1000
X-1.6F7000S0
X-.3F1500S1000
X-7.1F7000S0
X-1.7F1500S1000
X-.6F7000S0
X-.1F1500S1000
X-.5F7000S0
X-.2F1500S1000
X-5.3F7000S0
X-.9F1500S1000
X-3.3F7000S0
X-.5F1500S1000
X-9F7000S0
X-9F1500S1000
X-21.9F7000S0
X-1.2F1500S1000
X-2.4F7000S0
X-.2F1500S1000
X-.1F7000S0
X-.4F1500S1000
X-2.7F7000S0
X-.2F1500S1000
X-.7F7000S0
X-.2F1500S1000
X-1.5F7000S0
X-.3F1500S1000
X-7.2F7000S0
X-1.7F1500S1000
X-1.2F7000S0
X-.1F1500S1000
X-5.3F7000S0
X-1F1500S1000
X-3.2F7000S0
X-.5F1500S1000
X-9.1F7000S0
X-9F1500S1000
X-21.9F7000S0
X-1.1F1500S1000
X-2.4F7000S0
X-.8F1500S1000
X-2.7F7000S0
X-.2F1500S1000
X-.6F7000S0
X-.2F1500S1000
X-1.6F7000S0
X-.2F1500S1000
X-7.3F7000S0
X-1.6F1500S1000
X-.6F7000S0
X-.1F1500S1000
X-.5F7000S0
X-.2F1500S1000
X-5.3F7000S0
X-.9F1500S1000
X-3.3F7000S0
X-.5F1500S1000
X-9F7000S0
X-9F1500S1000
X-21.9F7000S0
X-1.2F1500S1000
X-2.4F7000S0
X-.2F1500S1000
X-.1F7000S0
X-.4F1500S1000
X-2.7F7000S0
X-.2F1500S1000
X-.6F7000S0
X-.2F1500S1000
X-1.6F7000S0
X-.3F1500S1000
X-7.2F7000S0
X-1.7F1500S1000
X-.5F7000S0
X-.1F1500S1000
X-.5F7000S0
X-.2F1500S1000
X-5.3F7000S0
X-.9F1500S1000
X-3.3F7000S0
X-.5F1500S1000
X-9F7000S0
X-9.1F1500S1000
X-.625F7000S0
X.6Y.1
X.625
X.1F1500S1000
X.1F7000S0
X.1F1500S1000
X.1F7000S0
X8.2F1500S1000
X8.9F7000S0
X.4F1500S1000
X3.5F7000S0
X1F1500S1000
X3.6F7000S0
X.1F1500S1000
X.1F7000S0
X.2F1500S1000
X.1F7000S0
X.2F1500S1000
X.1F7000S0
X.1F1500S1000
X.1F7000S0
X.1F1500S1000
X.1F7000S0
X.1F1500S1000
X.3F7000S0
X.1F1500S1000
X.4F7000S0
X.2F1500S1000
X.5F7000S0
X1.7F1500S1000
X7.3F7000S0
X.2F1500S1000
X1.5F7000S0
X.2F1500S1000
X.6F7000S0
X.2F1500S1000
X2.9F7000S0
X.7F1500S1000
X2.4F7000S0
X1.1F1500S1000
X21.9F7000S0
X.1F1500S1000
X.4F7000S0
X.1F1500S1000
X.2F7000S0
X8.4F1500S1000
X8.8F7000S0
X.5F1500S1000
X3.5F7000S0
X.9F1500S1000
X3.6F7000S0
X.1F1500S1000
X.1F7000S0
X.1F1500S1000
X.1F7000S0
X.2F1500S1000
X.1F7000S0
X.2F1500S1000
X.1F7000S0
X.1F1500S1000
X.1F7000S0
X.1F1500S1000
X.3F7000S0
X.1F1500S1000
X.5F7000S0
X.2F1500S1000
X.4F7000S0
X1.8F1500S1000
X7.2F7000S0
X.2F1500S1000
X1.6F7000S0
X.2F1500S1000
X.5F7000S0
X.3F1500S1000
X3F7000S0
X.6F1500S1000
X2.3F7000S0
X1.1F1500S1000
X22.5F7000S0
X.1F1500S1000
X.1F7000S0
X.1F1500S1000
X.1F7000S0
X8.2F1500S1000
X8.8F7000S0
X.5F1500S1000
X3.6F7000S0
X.9F1500S1000
X3.6F7000S0
X.1F1500S1000
X.1F7000S0
X.1F1500S1000
X.1F7000S0
X.1F1500S1000
X.1F7000S0
X.1F1500S1000
X.1F7000S0
X.1F1500S1000
X.1F7000S0
X.1F1500S1000
X.4F7000S0
X.2F1500S1000
X.5F7000S0
X.1F1500S1000
X.5F7000S0
X1.7F1500S1000
X7.2F7000S0
X.3F1500S1000
X1.5F7000S0
X.2F1500S1000
X.6F7000S0
X.2F1500S1000
X2.9F7000S0
X.1F1500S1000
X.1F7000S0
X.5F1500S1000
X2.4F7000S0
X1.1F1500S1000
X21.9F7000S0
X.1F1500S1000
X.2F7000S0
X.1F1500S1000
X.2F7000S0
X.1F1500S1000
X.1F7000S0
X8.4F1500S1000
X8.8F7000S0
X.5F1500S1000
X3.5F7000S0
X1F1500S1000
X3.5F7000S0
X.1F1500S1000
X.1F7000S0
X.1F1500S1000
X.1F7000S0
X.1F1500S1000
X.1F7000S0
X.1F1500S1000
X.1F7000S0
X.1F1500S1000
X.1F7000S0
X.1F1500S1000
X.1F7000S0
X.1F1500S1000
X.3F7000S0
X.1F1500S1000
X.5F7000S0
X.2F1500S1000
X.4F7000S0
X1.8F1500S1000
X7.2F7000S0
X.2F1500S1000
X1.6F7000S0
X.2F1500S1000
X.6F7000S0
X.2F1500S1000
X2.9F7000S0
X.7F1500S1000
X2.3F7000S0
X1.1F1500S1000
X.625F7000S0
Y.1
X-.625
X-1F1500S1000
X-2.4F7000S0
X-.5F1500S1000
X-3.2F7000S0
X-.3F1500S1000
X-.4F7000S0
X-.2F1500S1000
X-1.6F7000S0
X-.1F1500S1000
X-7.3F7000S0
X-1.8F1500S1000
X-.1F7000S0
X-2.7F1500S1000
X-3.4F7000S0
X-.9F1500S1000
X-3.8F7000S0
X-.5F1500S1000
X-8.7F7000S0
X-7.8F1500S1000
X-1.3F7000S0
X-.1F1500S1000
X-21.9F7000S0
X-1.1F1500S1000
X-2.4F7000S0
X-.5F1500S1000
X-3.1F7000S0
X-.3F1500S1000
X-.5F7000S0
X-.2F1500S1000
X-1.5F7000S0
X-.2F1500S1000
X-7.3F7000S0
X-1.7F1500S1000
X-.2F7000S0
X-2.6F1500S1000
X-3.4F7000S0
X-.9F1500S1000
X-3.8F7000S0
X-.5F1500S1000
X-8.7F7000S0
X-7.9F1500S1000
X-1.2F7000S0
X-.1F1500S1000
X-22F7000S0
X-1.1F1500S1000
X-2.3F7000S0
X-.5F1500S1000
X-3.3F7000S0
X-.2F1500S1000
X-.4F7000S0
X-.2F1500S1000
X-1.6F7000S0
X-.1F1500S1000
X-7.3F7000S0
X-1.8F1500S1000
X-.1F7000S0
X-2.7F1500S1000
X-3.4F7000S0
X-.9F1500S1000
X-3.8F7000S0
X-.4F1500S1000
X-8.8F7000S0
X-7.8F1500S1000
X-1F7000S0
X-.1F1500S1000
X-.1F7000S0
X-.2F1500S1000
X-21.9F7000S0
X-1.1F1500S1000
X-2.3F7000S0
X-.5F1500S1000
X-3.3F7000S0
X-.2F1500S1000
X-.5F7000S0
X-.2F1500S1000
X-1.5F7000S0
X-.1F1500S1000
X-7.3F7000S0
X-1.8F1500S1000
X-.2F7000S0
X-2.6F1500S1000
X-3.4F7000S0
X-.9F1500S1000
X-3.8F7000S0
X-.5F1500S1000
X-8.7F7000S0
X-7.8F1500S1000
X-1F7000S0
X-.1F1500S1000
X-.2F7000S0
X-.1F1500S1000
X-.625F7000S0
X.1Y.1
X.625
X.1F1500S1000
X1.7F7000S0
X7.3F1500S1000
X8.7F7000S0
X.4F1500S1000
X4.1F7000S0
X.8F1500S1000
X3.4F7000S0
X4.5F1500S1000
X8.9F7000S0
X.2F1500S1000
X.4F7000S0
X.3F1500S1000
X3.4F7000S0
X.4F1500S1000
X2.3F7000S0
X1F1500S1000
X22.1F7000S0
X.2F1500S1000
X1.7F7000S0
X7.3F1500S1000
X8.6F7000S0
X.5F1500S1000
X4F7000S0
X.8F1500S1000
X3.5F7000S0
X4.4F1500S1000
X8.9F7000S0
X.2F1500S1000
X.5F7000S0
X.2F1500S1000
X3.5F7000S0
X.3F1500S1000
X2.4F7000S0
X1F1500S1000
X22.1F7000S0
X.1F1500S1000
X1.7F7000S0
X7.3F1500S1000
X8.7F7000S0
X.4F1500S1000
X4F7000S0
X.9F1500S1000
X3.4F7000S0
X4.5F1500S1000
X8.9F7000S0
X.2F1500S1000
X.4F7000S0
X.3F1500S1000
X3.4F7000S0
X.4F1500S1000
X2.3F7000S0
X1F1500S1000
X22.1F7000S0
X.2F1500S1000
X1.7F7000S0
X7.4F1500S1000
X8.5F7000S0
X.5F1500S1000
X4F7000S0
X.8F1500S1000
X3.5F7000S0
X4.4F1500S1000
X8.9F7000S0
X.2F1500S1000
X.5F7000S0
X.2F1500S1000
X3.5F7000S0
X.3F1500S1000
X2.4F7000S0
X1F1500S1000
X.625F7000S0
Y.1
X-.625
X-.9F1500S1000
X-2.4F7000S0
X-.3F1500S1000
X-3.6F7000S0
X-.3F1500S1000
X-.4F7000S0
X-.2F1500S1000
X-7.5F7000S0
X-5.7F1500S1000
X-3.4F7000S0
X-.8F1500S1000
X-4.3F7000S0
X-.4F1500S1000
X-8.6F7000S0
X-6.8F1500S1000
X-2.2F7000S0
X-.1F1500S1000
X-22.2F7000S0
X-.9F1500S1000
X-2.4F7000S0
X-.2F1500S1000
X-3.7F7000S0
X-.3F1500S1000
X-.3F7000S0
X-.2F1500S1000
X-7.5F7000S0
X-5.8F1500S1000
X-3.3F7000S0
X-.9F1500S1000
X-4.2F7000S0
X-.5F1500S1000
X-8.5F7000S0
X-6.8F1500S1000
X-2.2F7000S0
X-.2F1500S1000
X-22.1F7000S0
X-.9F1500S1000
X-2.4F7000S0
X-.3F1500S1000
X-3.6F7000S0
X-.3F1500S1000
X-.4F7000S0
X-.2F1500S1000
X-7.5F7000S0
X-5.7F1500S1000
X-3.4F7000S0
X-.8F1500S1000
X-4.3F7000S0
X-.4F1500S1000
X-8.5F7000S0
X-6.9F1500S1000
X-2.1F7000S0
X-.2F1500S1000
X-22.2F7000S0
X-.9F1500S1000
X-2.4F7000S0
X-.2F1500S1000
X-3.7F7000S0
X-.3F1500S1000
X-.3F7000S0
X-.2F1500S1000
X-7.5F7000S0
X-5.8F1500S1000
X-3.3F7000S0
X-.9F1500S1000
X-4.2F7000S0
X-.5F1500S1000
X-8.5F7000S0
X-6.8F1500S1000
X-2.2F7000S0
X-.2F1500S1000
X-.625F7000S0
X.1Y.1
X.625
X.1F1500S1000
X2.6F7000S0
X6.5F1500S1000
X8.4F7000S0
X.5F1500S1000
X4.3F7000S0
X1F1500S1000
X3.2F7000S0
X7.1F1500S1000
X6.1F7000S0
X.2F1500S1000
X.2F7000S0
X.3F1500S1000
X4F7000S0
X.1F1500S1000
X2.3F7000S0
X.9F1500S1000
X22.2F7000S0
X.1F1500S1000
X2.7F7000S0
X6.4F1500S1000
X8.4F7000S0
X.5F1500S1000
X4.3F7000S0
X1F1500S1000
X3.3F7000S0
X7F1500S1000
X6.1F7000S0
X.2F1500S1000
X.3F7000S0
X.3F1500S1000
X6.3F7000S0
X1F1500S1000
X22.1F7000S0
X.2F1500S1000
X2.6F7000S0
X6.5F1500S1000
X8.4F7000S0
X.4F1500S1000
X4.4F7000S0
X.9F1500S1000
X3.3F7000S0
X7F1500S1000
X6.1F7000S0
X.3F1500S1000
X.3F7000S0
X.2F1500S1000
X3.9F7000S0
X.2F1500S1000
X2.3F7000S0
X.9F1500S1000
X22.2F7000S0
X.1F1500S1000
X2.7F7000S0
X6.5F1500S1000
X8.3F7000S0
X.5F1500S1000
X4.4F7000S0
X.9F1500S1000
X3.3F7000S0
X7F1500S1000
X6.1F7000S0
X.2F1500S1000
X.4F7000S0
X.2F1500S1000
X3.9F7000S0
X.1F1500S1000
X2.3F7000S0
X1F1500S1000
X.625F7000S0
Y.1
X-.625
X-.9F1500S1000
X-6.5F7000S0
X-.3F1500S1000
X-.2F7000S0
X-.1F1500S1000
X-6.2F7000S0
X-6.9F1500S1000
X-3.2F7000S0
X-1F1500S1000
X-4.5F7000S0
X-.5F1500S1000
X-8.3F7000S0
X-6F1500S1000
X-25.5F7000S0
X-.8F1500S1000
X-6.6F7000S0
X-.2F1500S1000
X-.3F7000S0
X-.2F1500S1000
X-6F7000S0
X-7F1500S1000
X-3.1F7000S0
X-.9F1500S1000
X-4.7F7000S0
X-.5F1500S1000
X-8.1F7000S0
X-6F1500S1000
X-.1F7000S0
X-.1F1500S1000
X-25.5F7000S0
X-.8F1500S1000
X-6.6F7000S0
X-.2F1500S1000
X-.2F7000S0
X-.2F1500S1000
X-6.1F7000S0
X-6.9F1500S1000
X-3.2F7000S0
X-1F1500S1000
X-4.5F7000S0
X-.5F1500S1000
X-8.2F7000S0
X-6.1F1500S1000
X-25.5F7000S0
X-.8F1500S1000
X-6.6F7000S0
X-.2F1500S1000
X-.3F7000S0
X-.1F1500S1000
X-6.1F7000S0
X-7F1500S1000
X-3.2F7000S0
X-.9F1500S1000
X-4.6F7000S0
X-.4F1500S1000
X-8.2F7000S0
X-6.2F1500S1000
X-.625F7000S0
X.3Y.1
X.625
X5.9F1500S1000
X8.1F7000S0
X.5F1500S1000
X4.8F7000S0
X1F1500S1000
X3.1F7000S0
X6.6F1500S1000
X6.2F7000S0
X.2F1500S1000
X.2F7000S0
X.2F1500S1000
X6.7F7000S0
X.8F1500S1000
X25.8F7000S0
X5.8F1500S1000
X8.1F7000S0
X.5F1500S1000
X4.9F7000S0
X.9F1500S1000
X3.1F7000S0
X6.7F1500S1000
X6.2F7000S0
X.2F1500S1000
X.1F7000S0
X.2F1500S1000
X6.7F7000S0
X.8F1500S1000
X25.8F7000S0
X5.9F1500S1000
X8.1F7000S0
X.5F1500S1000
X4.8F7000S0
X1F1500S1000
X3F7000S0
X6.7F1500S1000
X6.2F7000S0
X.2F1500S1000
X.2F7000S0
X.2F1500S1000
X6.7F7000S0
X.8F1500S1000
X25.8F7000S0
X5.9F1500S1000
X8F7000S0
X.5F1500S1000
X4.9F7000S0
X.9F1500S1000
X3.1F7000S0
X6.7F1500S1000
X6.2F7000S0
X.2F1500S1000
X.1F7000S0
X.2F1500S1000
X6.7F7000S0
X.8F1500S1000
X.625F7000S0
Y.1
X-.625
X-.7F1500S1000
X-6.9F7000S0
X-.4F1500S1000
X-6.3F7000S0
X-6.5F1500S1000
X-3F7000S0
X-1F1500S1000
X-5F7000S0
X-.5F1500S1000
X-7.9F7000S0
X-6F1500S1000
X-25.9F7000S0
X-.7F1500S1000
X-6.8F7000S0
X-.2F1500S1000
X-.1F7000S0
X-.1F1500S1000
X-6.4F7000S0
X-6.5F1500S1000
X-3F7000S0
X-.9F1500S1000
X-5F7000S0
X-.6F1500S1000
X-7.9F7000S0
X-6F1500S1000
X-25.8F7000S0
X-.7F1500S1000
X-6.9F7000S0
X-.1F1500S1000
X-.2F7000S0
X-.1F1500S1000
X-6.3F7000S0
X-6.5F1500S1000
X-3F7000S0
X-1F1500S1000
X-5F7000S0
X-.5F1500S1000
X-7.9F7000S0
X-6F1500S1000
X-25.8F7000S0
X-.8F1500S1000
X-6.8F7000S0
X-.2F1500S1000
X-.1F7000S0
X-.2F1500S1000
X-6.3F7000S0
X-6.4F1500S1000
X-3.1F7000S0
X-.9F1500S1000
X-5.1F7000S0
X-.5F1500S1000
X-7.9F7000S0
X-6F1500S1000
X-.625F7000S0
X.1Y.1
X.625
X6F1500S1000
X7.8F7000S0
X.6F1500S1000
X5.2F7000S0
X.8F1500S1000
X3.1F7000S0
X6.2F1500S1000
X6.4F7000S0
X.5F1500S1000
X6.9F7000S0
X.6F1500S1000
X25.8F7000S0
X6.1F1500S1000
X7.8F7000S0
X.6F1500S1000
X5.2F7000S0
X.9F1500S1000
X3F7000S0
X6.2F1500S1000
X6.4F7000S0
X.6F1500S1000
X6.8F7000S0
X.7F1500S1000
X25.8F7000S0
X6.1F1500S1000
X7.8F7000S0
X.5F1500S1000
X5.3F7000S0
X.8F1500S1000
X3F7000S0
X6.3F1500S1000
X6.4F7000S0
X.5F1500S1000
X6.9F7000S0
X.6F1500S1000
X25.9F7000S0
X6F1500S1000
X7.9F7000S0
X.5F1500S1000
X5.2F7000S0
X.9F1500S1000
X3F7000S0
X6.2F1500S1000
X6.4F7000S0
X.6F1500S1000
X6.8F7000S0
X.7F1500S1000
X.625F7000S0
Y.1
X-.625
X-.6F1500S1000
X-7F7000S0
X-.4F1500S1000
X-6.6F7000S0
X-6F1500S1000
X-2.9F7000S0
X-.9F1500S1000
X-5.5F7000S0
X-.5F1500S1000
X-7.6F7000S0
X-6.3F1500S1000
X-25.8F7000S0
X-.6F1500S1000
X-7F7000S0
X-.4F1500S1000
X-6.6F7000S0
X-5.9F1500S1000
X-3F7000S0
X-.9F1500S1000
X-5.4F7000S0
X-.5F1500S1000
X-7.8F7000S0
X-6F1500S1000
X-25.9F7000S0
X-.6F1500S1000
X-7F7000S0
X-.5F1500S1000
X-6.5F7000S0
X-6F1500S1000
X-3F7000S0
X-.8F1500S1000
X-5.5F7000S0
X-.4F1500S1000
X-7.8F7000S0
X-6.1F1500S1000
X-25.9F7000S0
X-.6F1500S1000
X-7F7000S0
X-.4F1500S1000
X-6.5F7000S0
X-6F1500S1000
X-3F7000S0
X-.8F1500S1000
X-5.5F7000S0
X-.5F1500S1000
X-7.7F7000S0
X-6.2F1500S1000
X-.625F7000S0
Y.1
X.625
X2.6F1500S1000
X.2F7000S0
X3.5F1500S1000
X7.5F7000S0
X.5F1500S1000
X5.7F7000S0
X.9F1500S1000
X2.9F7000S0
X5.7F1500S1000
X6.7F7000S0
X.3F1500S1000
X7.2F7000S0
X.5F1500S1000
X25.9F7000S0
X2.5F1500S1000
X.3F7000S0
X3.5F1500S1000
X7.5F7000S0
X.5F1500S1000
X5.7F7000S0
X.8F1500S1000
X2.9F7000S0
X5.8F1500S1000
X6.6F7000S0
X.3F1500S1000
X7.2F7000S0
X.6F1500S1000
X25.8F7000S0
X2.6F1500S1000
X.2F7000S0
X3.5F1500S1000
X7.5F7000S0
X.5F1500S1000
X5.7F7000S0
X.9F1500S1000
X2.9F7000S0
X5.7F1500S1000
X6.7F7000S0
X.2F1500S1000
X7.2F7000S0
X.6F1500S1000
X25.9F7000S0
X2.6F1500S1000
X.2F7000S0
X3.4F1500S1000
X7.6F7000S0
X.5F1500S1000
X5.7F7000S0
X.8F1500S1000
X2.9F7000S0
X5.8F1500S1000
X6.6F7000S0
X.4F1500S1000
X7.1F7000S0
X.6F1500S1000
X.625F7000S0
X-.1Y.1
X-.625
X-.4F1500S1000
X-7.4F7000S0
X-.2F1500S1000
X-6.7F7000S0
X-5.6F1500S1000
X-2.7F7000S0
X-1F1500S1000
X-5.9F7000S0
X-.5F1500S1000
X-7.4F7000S0
X-2.7F1500S1000
X-.1F7000S0
X-.2F1500S1000
X-.8F7000S0
X-2.5F1500S1000
X-25.9F7000S0
X-.5F1500S1000
X-7.3F7000S0
X-.3F1500S1000
X-6.7F7000S0
X-5.5F1500S1000
X-2.8F7000S0
X-.8F1500S1000
X-6F7000S0
X-.5F1500S1000
X-7.4F7000S0
X-2.9F1500S1000
X-.1F7000S0
X-.1F1500S1000
X-.8F7000S0
X-2.5F1500S1000
X-25.9F7000S0
X-.4F1500S1000
X-7.4F7000S0
X-.1F1500S1000
X-6.9F7000S0
X-5.5F1500S1000
X-2.7F7000S0
X-1F1500S1000
X-5.9F7000S0
X-.5F1500S1000
X-7.4F7000S0
X-2.9F1500S1000
X-.1F7000S0
X-.1F1500S1000
X-.7F7000S0
X-2.5F1500S1000
X-25.9F7000S0
X-.5F1500S1000
X-7.3F7000S0
X-.2F1500S1000
X-6.8F7000S0
X-5.5F1500S1000
X-2.8F7000S0
X-.9F1500S1000
X-5.9F7000S0
X-.5F1500S1000
X-7.4F7000S0
X-2.9F1500S1000
X-.1F7000S0
X-.1F1500S1000
X-.8F7000S0
X-2.4F1500S1000
X-.625F7000S0
Y.1
X.625
X2.4F1500S1000
X1.6F7000S0
X2.3F1500S1000
X7.4F7000S0
X.4F1500S1000
X6.2F7000S0
X.9F1500S1000
X2.7F7000S0
X5.3F1500S1000
X6.8F7000S0
X.2F1500S1000
X7.5F7000S0
X.4F1500S1000
X25.9F7000S0
X2.4F1500S1000
X1.6F7000S0
X.1F1500S1000
X.1F7000S0
X2.2F1500S1000
X7.3F7000S0
X.5F1500S1000
X6.1F7000S0
X.9F1500S1000
X2.7F7000S0
X5.3F1500S1000
X6.9F7000S0
X.1F1500S1000
X7.5F7000S0
X.4F1500S1000
X26F7000S0
X2.4F1500S1000
X1.6F7000S0
X.1F1500S1000
X.1F7000S0
X2.1F1500S1000
X7.4F7000S0
X.4F1500S1000
X6.2F7000S0
X.9F1500S1000
X2.7F7000S0
X5.2F1500S1000
X7F7000S0
X.1F1500S1000
X7.5F7000S0
X.3F1500S1000
X26F7000S0
X2.4F1500S1000
X1.8F7000S0
X2.2F1500S1000
X7.3F7000S0
X.5F1500S1000
X6.2F7000S0
X.8F1500S1000
X2.7F7000S0
X5.3F1500S1000
X7F7000S0
X.1F1500S1000
X7.4F7000S0
X.4F1500S1000
X.625F7000S0
Y.1
X-.625
X-.3F1500S1000
X-14.7F7000S0
X-5.1F1500S1000
X-2.6F7000S0
X-.9F1500S1000
X-6.4F7000S0
X-.4F1500S1000
X-.2F7000S0
X-.2F1500S1000
X-6.8F7000S0
X-1.8F1500S1000
X-2.3F7000S0
X-2.3F1500S1000
X-26.1F7000S0
X-.3F1500S1000
X-7.6F7000S0
X-.1F1500S1000
X-7F7000S0
X-5F1500S1000
X-2.6F7000S0
X-1F1500S1000
X-6.3F7000S0
X-.5F1500S1000
X-.2F7000S0
X-.1F1500S1000
X-6.8F7000S0
X-1.8F1500S1000
X-2.4F7000S0
X-2.3F1500S1000
X-26F7000S0
X-.3F1500S1000
X-7.6F7000S0
X-.1F1500S1000
X-7F7000S0
X-5.1F1500S1000
X-2.6F7000S0
X-.9F1500S1000
X-6.4F7000S0
X-.4F1500S1000
X-.2F7000S0
X-.2F1500S1000
X-6.8F7000S0
X-1.8F1500S1000
X-2.3F7000S0
X-2.4F1500S1000
X-26F7000S0
X-.3F1500S1000
X-7.6F7000S0
X-.1F1500S1000
X-7F7000S0
X-5F1500S1000
X-2.6F7000S0
X-1F1500S1000
X-6.3F7000S0
X-.5F1500S1000
X-.2F7000S0
X-.1F1500S1000
X-6.8F7000S0
X-1.8F1500S1000
X-2.4F7000S0
X-2.3F1500S1000
X-.625F7000S0
Y.1
X.625
X2.3F1500S1000
X2.9F7000S0
X1.3F1500S1000
X6.8F7000S0
X.2F1500S1000
X.1F7000S0
X.5F1500S1000
X6.5F7000S0
X.9F1500S1000
X2.6F7000S0
X4.8F1500S1000
X14.8F7000S0
X.3F1500S1000
X26F7000S0
X2.3F1500S1000
X2.9F7000S0
X1.3F1500S1000
X6.9F7000S0
X.1F1500S1000
X.1F7000S0
X.5F1500S1000
X6.5F7000S0
X1F1500S1000
X2.5F7000S0
X4.8F1500S1000
X14.9F7000S0
X.3F1500S1000
X26F7000S0
X2.3F1500S1000
X2.9F7000S0
X1.4F1500S1000
X6.7F7000S0
X.2F1500S1000
X.1F7000S0
X.4F1500S1000
X6.6F7000S0
X.9F1500S1000
X2.6F7000S0
X4.8F1500S1000
X14.8F7000S0
X.3F1500S1000
X26F7000S0
X2.3F1500S1000
X2.9F7000S0
X1.4F1500S1000
X6.8F7000S0
X.7F1500S1000
X6.5F7000S0
X1F1500S1000
X2.6F7000S0
X4.8F1500S1000
X14.8F7000S0
X.3F1500S1000
X.625F7000S0
Y.1
X-.625
X-.3F1500S1000
X-14.9F7000S0
X-4.6F1500S1000
X-2.5F7000S0
X-1F1500S1000
X-6.7F7000S0
X-.7F1500S1000
X-6.7F7000S0
X-1F1500S1000
X-3.4F7000S0
X-2.2F1500S1000
X-26.1F7000S0
X-.2F1500S1000
X-15F7000S0
X-4.6F1500S1000
X-2.6F7000S0
X-.8F1500S1000
X-6.8F7000S0
X-.7F1500S1000
X-6.8F7000S0
X-.8F1500S1000
X-3.5F7000S0
X-2.2F1500S1000
X-26F7000S0
X-.3F1500S1000
X-15F7000S0
X-4.5F1500S1000
X-2.6F7000S0
X-.9F1500S1000
X-6.7F7000S0
X-.7F1500S1000
X-6.7F7000S0
X-1F1500S1000
X-3.4F7000S0
X-2.2F1500S1000
X-26.1F7000S0
X-.2F1500S1000
X-15F7000S0
X-4.6F1500S1000
X-2.5F7000S0
X-.9F1500S1000
X-6.8F7000S0
X-.6F1500S1000
X-6.8F7000S0
X-.9F1500S1000
X-3.5F7000S0
X-2.2F1500S1000
X-.625F7000S0
Y.1
X.625
X2.2F1500S1000
X4F7000S0
X.5F1500S1000
X6.7F7000S0
X.6F1500S1000
X7F7000S0
X.8F1500S1000
X2.5F7000S0
X4.3F1500S1000
