; LightBurn Pro 2.0.05
; GRBL-LPC device profile, absolute coords
; Bounds: X15.98 Y13.4 to X285.52 Y198.6
G00 G17 G40 G21 G54
G90
M4
; Image @ 7000 мм/мин, 100% power
M8
G0 X70.884Y63.499
; Layer C00
G91
G1 X2.917F7000S0
X.1S1000
X33.2S0
X.1S1000
X36.6S0
X.1S1000
X33.2S0
X.1S1000
X2.916S0
X107Y.1
X-2.916
X-.4S1000
X-36.4S0
X-.3S1000
X-33S0
X-.3S1000
X-36.4S0
X-.4S1000
X-32.9S0
X-.4S1000
X-36.3S0
X-.4S1000
X-33S0
X-.3S1000
X-36.4S0
X-.3S1000
X-2.917S0
X-.1Y.1
X2.917
X.5S1000
X36.2S0
X.5S1000
X32.9S0
X.4S1000
X36.3S0
X.5S1000
X32.8S0
X.5S1000
X36.2S0
X.5S1000
X32.9S0
X.5S1000
X36.2S0
X.5S1000
X2.916S0
X.2Y.1
X-2.916
X-.7S1000
X-36.1S0
X-.6S1000
X-32.7S0
X-.6S1000
X-36.1S0
X-.7S1000
X-32.6S0
X-.7S1000
X-36.1S0
X-.6S1000
X-32.7S0
X-.7S1000
X-36S0
X-.7S1000
X-2.917S0
X.2Y.1
X2.917
X.5S1000
X36.2S0
X.5S1000
X32.8S0
X.5S1000
X36.2S0
X.5S1000
X32.8S0
X.6S1000
X36.2S0
X.5S1000
X32.8S0
X.5S1000
X36.2S0
X.5S1000
X2.916S0
Y.1
X-2.916
X-.4S1000
X-36.3S0
X-.4S1000
X-32.9S0
X-.4S1000
X-36.3S0
X-.5S1000
X-32.9S0
X-.4S1000
X-36.3S0
X-.4S1000
X-32.9S0
X-.4S1000
X-36.3S0
X-.4S1000
X-2.917S0
Y.1
X2.917
X.4S1000
X36.3S0
X.4S1000
X33S0
X.3S1000
X36.4S0
X.4S1000
X32.9S0
X.4S1000
X36.3S0
X.4S1000
X33S0
X.3S1000
X36.4S0
X.4S1000
X2.916S0
Y.1
X-2.916
X-.4S1000
X-36.3S0
X-.4S1000
X-32.9S0
X-.5S1000
X-36.3S0
X-.3S1000
X-33S0
X-.4S1000
X-36.3S0
X-.4S1000
X-32.9S0
X-.4S1000
X-36.3S0
X-.4S1000
X-2.917S0
Y.1
X2.917
X.4S1000
X36.3S0
X.4S1000
X32.9S0
X.4S1000
X36.3S0
X.4S1000
X32.9S0
X.5S1000
X36.3S0
X.4S1000
X32.9S0
X.4S1000
X36.3S0
X.4S1000
X2.916S0
Y.1
X-2.916
X-.3S1000
X-36.4S0
X-.3S1000
X-33S0
X-.5S1000
X-36.3S0
X-.3S1000
X-33S0
X-.4S1000
X-36.3S0
X-.4S1000
X-32.9S0
X-.4S1000
X-36.3S0
X-.4S1000
X-2.917S0
Y.1
X2.917
X.4S1000
X36.3S0
X.4S1000
X32.9S0
X.4S1000
X36.4S0
X.3S1000
X33S0
X.4S1000
X36.3S0
X.4S1000
X33S0
X.3S1000
X36.4S0
X.3S1000
X2.916S0
Y.1
X-2.916
X-.4S1000
X-36.3S0
X-.4S1000
X-32.9S0
X-.4S1000
X-36.3S0
X-.5S1000
X-32.9S0
X-.4S1000
X-36.3S0
X-.3S1000
X-33S0
X-.299S1000
X-36.4S0
X-.4S1000
X-2.917S0
X.1Y.1
X2.917
X.3S1000
X36.3S0
X.4S1000
X32.9S0
X.4S1000
X36.3S0
X.4S1000
X33S0
X.4S1000
X36.2S0
X.5S1000
X33S0
X.3S1000
X36.4S0
X.3S1000
X2.916S0
Y.1
X-2.916
X-.4S1000
X-36.3S0
X-.4S1000
X-32.9S0
X-.4S1000
X-36.3S0
X-.4S1000
X-33S0
X-.3S1000
X-36.4S0
X-.4S1000
X-32.9S0
X-.4S1000
X-36.3S0
X-.4S1000
X-2.917S0
X-.1Y.1
X2.917
X.4S1000
X36.4S0
X.4S1000
X32.9S0
X.4S1000
X36.3S0
X.4S1000
X32.9S0
X.5S1000
X36.3S0
X.4S1000
X32.9S0
X.4S1000
X36.3S0
X.4S1000
X2.916S0
Y.1
X-2.916
X-.4S1000
X-36.3S0
X-.4S1000
X-32.9S0
X-.5S1000
X-36.3S0
X-.4S1000
X-32.9S0
X-.4S1000
X-36.3S0
X-.4S1000
X-32.901S0
X-.399S1000
X-36.3S0
X-.4S1000
X-2.917S0
X-.1Y.1
X2.917
X.4S1000
X36.299S0
X.4S1000
X33S0
X.3S1000
X36.4S0
X.4S1000
X32.9S0
X.4S1000
X36.3S0
X.4S1000
X33S0
X.3S1000
X36.4S0
X.4S1000
X2.916S0
X-.1Y.1
X-2.916
X-.4S1000
X-36.3S0
X-.4S1000
X-32.9S0
X-.4S1000
X-36.3S0
X-.4S1000
X-33S0
X-.4S1000
X-36.3S0
X-.4S1000
X-32.9S0
X-.4S1000
X-36.299S0
X-.4S1000
X-2.916S0
X-.1Y.1
X2.917
X.5S1000
X12.999S0
X.1S1000
X23.2S0
X.4S1000
X32.9S0
X.4S1000
X13.1S0
X.1S1000
X23.101S0
X.4S1000
X33S0
X.3S1000
X13.1S0
X.1S1000
X23.199S0
X.4S1000
X32.9S0
X.4S1000
X13.099S0
X.1S1000
X23.1S0
X.401S1000
X2.916S0
Y.1
X-2.916
X-.5S1000
X-.5S0
X-.101S1000
X-5.599S0
X-1S1000
X-15.701S0
X-.299S1000
X-13.1S0
X-.4S1000
X-.5S0
X-.1S1000
X-5.601S0
X-1S1000
X-25.699S0
X-.399S1000
X-.6S0
X-.1S1000
X-5.6S0
X-.9S1000
X-15.8S0
X-.2S1000
X-13.1S0
X-.4S1000
X-.6S0
X-.101S1000
X-5.599S0
X-1S1000
X-25.6S0
X-.5S1000
X-.6S0
X-.1S1000
X-5.5S0
X-.9S1000
X-15.801S0
X-.3S1000
X-13.1S0
X-.4S1000
X-.6S0
X-.1S1000
X-5.5S0
X-1S1000
X-25.7S0
X-.4S1000
X-.6S0
X-.1S1000
X-5.5S0
X-1S1000
X-15.8S0
X-.2S1000
X-13.1S0
X-.4S1000
X-.6S0
X-.1S1000
X-5.5S0
X-1.1S1000
X-2.916S0
X-.2Y.1
X2.916
X1.5S1000
X5.1S0
X.6S1000
X.2S0
X.4S1000
X13.1S0
X.4S1000
X15.4S0
X1.5S1000
X5.1S0
X.601S1000
X.199S0
X.5S1000
X25.5S0
X1.4S1000
X5.1S0
X.6S1000
X.3S0
X.401S1000
X13.099S0
X.401S1000
X15.4S0
X1.4S1000
X5.1S0
X.6S1000
X.3S0
X.4S1000
X25.5S0
X1.5S1000
X5.1S0
X.5S1000
X.3S0
X.4S1000
X13.1S0
X.4S1000
X15.4S0
X1.5S1000
X5.1S0
X.6S1000
X.2S0
X.4S1000
X25.6S0
X1.5S1000
X5S0
X.6S1000
X.2S0
X.5S1000
X13.1S0
X.4S1000
X15.4S0
X1.5S1000
X5S0
X.6S1000
X.3S0
X.399S1000
X2.917S0
X-.1Y.1
X-2.916
X-1.3S1000
X-4.8S0
X-1.801S1000
X-15.199S0
X-.5S1000
X-13.1S0
X-1.4S1000
X-4.7S0
X-1.8S1000
X-25.5S0
X-1.3S1000
X-4.8S0
X-1.7S1000
X-15.2S0
X-.5S1000
X-13.2S0
X-1.3S1000
X-4.8S0
X-1.8S1000
X-25.4S0
X-1.3S1000
X-4.8S0
X-1.8S1000
X-15.2S0
X-.499S1000
X-13.101S0
X-1.399S1000
X-4.701S0
X-1.799S1000
X-25.4S0
X-1.4S1000
X-4.799S0
X-1.701S1000
X-15.2S0
X-.5S1000
X-13.2S0
X-1.3S1000
X-4.8S0
X-1.7S1000
X-2.916S0
X-.1Y.1
X2.916
X1.9S1000
X4.6S0
X1.4S1000
X13.1S0
X.7S1000
X15S0
X1.9S1000
X4.6S0
X1.4S1000
X25.4S0
X2S1000
X4.5S0
X1.5S1000
X13.101S0
X.599S1000
X15.001S0
X2S1000
X4.5S0
X1.5S1000
X25.3S0
X2S1000
X4.6S0
X1.4S1000
X13.1S0
X.8S1000
X14.9S0
X1.9S1000
X4.6S0
X1.4S1000
X25.4S0
X2S1000
X4.5S0
X1.4S1000
X13.1S0
X.7S1000
X15S0
X2S1000
X4.5S0
X1.5S1000
X2.916S0
X-.1Y.1
X-2.916
X-.801S1000
X-.299S0
X-.4S1000
X-4.301S0
X-.699S1000
X-.801S0
X-.599S1000
X-14.901S0
X-.799S1000
X-13.1S0
X-.8S1000
X-.3S0
X-.5S1000
X-4.2S0
X-.8S1000
X-.7S0
X-.7S1000
X-25.4S0
X-.699S1000
X-.3S0
X-.5S1000
X-4.3S0
X-.7S1000
X-.7S0
X-.7S1000
X-14.8S0
X-.9S1000
X-13.1S0
X-.7S1000
X-.3S0
X-.5S1000
X-4.3S0
X-.7S1000
X-.7S0
X-.7S1000
X-25.4S0
X-.699S1000
X-.4S0
X-.4S1000
X-4.3S0
X-.7S1000
X-.8S0
X-.6S1000
X-14.901S0
X-.8S1000
X-13.1S0
X-.7S1000
X-.4S0
X-.4S1000
X-4.299S0
X-.701S1000
X-.799S0
X-.701S1000
X-25.4S0
X-.7S1000
X-.4S0
X-.4S1000
X-4.3S0
X-.699S1000
X-.701S0
X-.699S1000
X-14.801S0
X-.8S1000
X-13.2S0
X-.7S1000
X-.4S0
X-.4S1000
X-4.3S0
X-.7S1000
X-.7S0
X-.7S1000
X-2.916S0
Y.1
X2.916
X.5S1000
X1.1S0
X.6S1000
X4.1S0
X.4S1000
X.5S0
X.7S1000
X13.1S0
X.8S1000
X14.901S0
X.499S1000
X1.1S0
X.6S1000
X4.1S0
X.5S1000
X.4S0
X.7S1000
X25.4S0
X.5S1000
X1.1S0
X.601S1000
X4.199S0
X.4S1000
X.5S0
X.6S1000
X13.1S0
X.9S1000
X14.8S0
X.5S1000
X1.1S0
X.6S1000
X4.2S0
X.4S1000
X.5S0
X.6S1000
X25.4S0
X.5S1000
X1.1S0
X.6S1000
X4.2S0
X.4S1000
X.6S0
X.6S1000
X13.1S0
X.8S1000
X14.9S0
X.5S1000
X1.1S0
X.6S1000
X4.1S0
X.4S1000
X.6S0
X.6S1000
X25.4S0
X.5S1000
X1.1S0
X.6S1000
X4.1S0
X.5S1000
X.5S0
X.6S1000
X13.099S0
X.9S1000
X14.801S0
X.5S1000
X1.1S0
X.599S1000
X4.201S0
X.4S1000
X.6S0
X.5S1000
X2.916S0
Y.1
X-2.916
X-.701S1000
X-.599S0
X-.3S1000
X-4S0
X-.5S1000
X-.5S0
X-.2S1000
X-.8S0
X-.3S1000
X-14.7S0
X-1.001S1000
X-13.099S0
X-.7S1000
X-.6S0
X-.3S1000
X-4S0
X-.5S1000
X-.6S0
X-.1S1000
X-.8S0
X-.3S1000
X-25.4S0
X-.699S1000
X-.6S0
X-.4S1000
X-3.9S0
X-.6S1000
X-.4S0
X-.1S1000
X-.1S0
X-.1S1000
X-.7S0
X-.4S1000
X-14.7S0
X-1S1000
X-13S0
X-.7S1000
X-.7S0
X-.3S1000
X-4S0
X-.5S1000
X-.5S0
X-.1S1000
X-.9S0
X-.3S1000
X-25.4S0
X-.7S1000
X-.6S0
X-.3S1000
X-4S0
X-.5S1000
X-.5S0
X-.1S1000
X-.1S0
X-.101S1000
X-.699S0
X-.4S1000
X-14.601S0
X-1S1000
X-13.1S0
X-.699S1000
X-.601S0
X-.3S1000
X-4S0
X-.5S1000
X-.599S0
X-.101S1000
X-.8S0
X-.4S1000
X-25.3S0
X-.7S1000
X-.6S0
X-.4S1000
X-3.9S0
X-.5S1000
X-.5S0
X-.1S1000
X-.1S0
X-.1S1000
X-.7S0
X-.399S1000
X-14.701S0
X-1S1000
X-13.1S0
X-.7S1000
X-.5S0
X-.4S1000
X-4S0
X-.5S1000
X-.4S0
X-.1S1000
X-.1S0
X-.1S1000
X-.7S0
X-.4S1000
X-2.916S0
X-.1Y.1
X2.916
X.4S1000
X.7S0
X.5S1000
X.4S0
X.5S1000
X3.9S0
X.4S1000
X.3S0
X1S1000
X12.9S0
X1.2S1000
X14.5S0
X.4S1000
X.701S0
X.6S1000
X.299S0
X.5S1000
X3.9S0
X.4S1000
X.401S0
X.799S1000
X25.4S0
X.301S1000
X.799S0
X.5S1000
X.4S0
X.5S1000
X3.9S0
X.3S1000
X.4S0
X.9S1000
X13S0
X1.1S1000
X14.601S0
X.3S1000
X.8S0
X.5S1000
X.4S0
X.5S1000
X3.9S0
X.3S1000
X.4S0
X.9S1000
X25.3S0
X.4S1000
X.8S0
X.4S1000
X.4S0
X.5S1000
X3.9S0
X.4S1000
X.3S0
X.9S1000
X13S0
X1.2S1000
X14.5S0
X.4S1000
X.7S0
X.5S1000
X.4S0
X.5S1000
X3.9S0
X.3S1000
X.4S0
X1S1000
X25.2S0
X.4S1000
X.8S0
X.5S1000
X.4S0
X.5S1000
X3.9S0
X.3S1000
X.4S0
X.9S1000
X12.999S0
X1.101S1000
X14.6S0
X.299S1000
X.801S0
X.5S1000
X.4S0
X.5S1000
X3.9S0
X.3S1000
X.4S0
X.9S1000
X2.916S0
Y.1
X-2.916
X-1.6S1000
X-3.9S0
X-.5S1000
X-.3S0
X-.6S1000
X-.801S0
X-.399S1000
X-14.4S0
X-1.3S1000
X-13S0
X-1.5S1000
X-3.9S0
X-.5S1000
X-.301S0
X-.599S1000
X-.8S0
X-.4S1000
X-25.3S0
X-1.5S1000
X-4S0
X-.401S1000
X-.399S0
X-.601S1000
X-.799S0
X-.4S1000
X-14.4S0
X-1.2S1000
X-13S0
X-1.6S1000
X-3.9S0
X-.4S1000
X-.4S0
X-.6S1000
X-.801S0
X-.399S1000
X-25.3S0
X-1.5S1000
X-3.9S0
X-.5S1000
X-.3S0
X-.601S1000
X-.799S0
X-.4S1000
X-14.401S0
X-1.3S1000
X-13S0
X-1.5S1000
X-3.9S0
X-.5S1000
X-.3S0
X-.6S1000
X-.8S0
X-.4S1000
X-25.3S0
X-1.6S1000
X-3.8S0
X-.5S1000
X-.3S0
X-.7S1000
X-.7S0
X-.4S1000
X-14.5S0
X-1.2S1000
X-13S0
X-1.6S1000
X-3.9S0
X-.4S1000
X-.4S0
X-.6S1000
X-.7S0
X-.4S1000
X-2.916S0
Y.1
X2.916
X.3S1000
X1S0
X.5S1000
X.3S0
X.5S1000
X3.9S0
X1.5S1000
X12.9S0
X1.4S1000
X14.4S0
X.3S1000
X1S0
X.5S1000
X.301S0
X.5S1000
X3.899S0
X1.5S1000
X25.3S0
X.3S1000
X1.1S0
X.4S1000
X.4S0
X.4S1000
X3.9S0
X1.5S1000
X13S0
X.6S1000
X.1S0
X.7S1000
X14.301S0
X.3S1000
X1.1S0
X.4S1000
X.399S0
X.401S1000
X3.9S0
X1.6S1000
X25.2S0
X.399S1000
X1S0
X.5S1000
X.301S0
X.5S1000
X3.9S0
X1.5S1000
X12.9S0
X1.399S1000
X14.401S0
X.3S1000
X1S0
X.5S1000
X.4S0
X.399S1000
X3.901S0
X1.5S1000
X25.3S0
X.299S1000
X1S0
X.5S1000
X.401S0
X.4S1000
X4S0
X1.4S1000
X13S0
X1.299S1000
X14.401S0
X.3S1000
X1.099S0
X.401S1000
X.4S0
X.399S1000
X4S0
X1.5S1000
X2.917S0
Y.1
X-2.917
X-1.5S1000
X-3.899S0
X-.4S1000
X-.5S0
X-.3S1000
X-1.101S0
X-.399S1000
X-14.2S0
X-.701S1000
X-.2S0
X-.599S1000
X-13S0
X-1.4S1000
X-3.9S0
X-.5S1000
X-.401S0
X-.299S1000
X-1.201S0
X-.299S1000
X-25.3S0
X-1.401S1000
X-4S0
X-.399S1000
X-.4S0
X-.4S1000
X-1.1S0
X-.3S1000
X-14.401S0
X-.599S1000
X-.2S0
X-.6S1000
X-12.9S0
X-1.4S1000
X-4S0
X-.5S1000
X-.301S0
X-.399S1000
X-1.101S0
X-.399S1000
X-25.2S0
X-1.5S1000
X-4S0
X-.401S1000
X-.399S0
X-.3S1000
X-1.2S0
X-.3S1000
X-14.301S0
X-.6S1000
X-.2S0
X-.7S1000
X-12.9S0
X-1.4S1000
X-4S0
X-.4S1000
X-.4S0
X-.3S1000
X-1.2S0
X-.3S1000
X-25.3S0
X-1.4S1000
X-4S0
X-.4S1000
X-.4S0
X-.3S1000
X-1.2S0
X-.3S1000
X-14.3S0
X-.7S1000
X-.2S0
X-.6S1000
X-12.9S0
X-1.4S1000
X-4.1S0
X-.3S1000
X-.4S0
X-.3S1000
X-1.2S0
X-.3S1000
X-2.916S0
Y.1
X2.916
X.2S1000
X1.4S0
X.2S1000
X.4S0
X.4S1000
X4.9S0
X.5S1000
X12.8S0
X.7S1000
X.3S0
X.6S1000
X14.3S0
X.2S1000
X1.4S0
X.2S1000
X.4S0
X.3S1000
X5S0
X.5S1000
X25.3S0
X.3S1000
X1.4S0
X.1S1000
X.4S0
X.5S1000
X4.8S0
X.5S1000
X12.8S0
X.7S1000
X.3S0
X.7S1000
X14.201S0
X.3S1000
X1.399S0
X.101S1000
X.399S0
X.5S1000
X4.901S0
X.5S1000
X25.3S0
X.2S1000
X1.4S0
X.1S1000
X.5S0
X.4S1000
X4.9S0
X.5S1000
X12.799S0
X.601S1000
X.399S0
X.701S1000
X14.2S0
X.2S1000
X1.399S0
X.201S1000
X.4S0
X.399S1000
X4.901S0
X.5S1000
X25.3S0
X.2S1000
X1.5S0
X.099S1000
X.401S0
X.4S1000
X4.9S0
X.5S1000
X12.799S0
X.701S1000
X.299S0
X.701S1000
X14.2S0
X.3S1000
X1.4S0
X.1S1000
X.4S0
X.5S1000
X4.899S0
X.5S1000
X2.917S0
Y.1
X-2.917
X-.5S1000
X-5S0
X-.399S1000
X-1.9S0
X-.3S1000
X-14.101S0
X-.699S1000
X-.5S0
X-.601S1000
X-12.799S0
X-.5S1000
X-4.8S0
X-.401S1000
X-2.099S0
X-.2S1000
X-25.3S0
X-.5S1000
X-5S0
X-.3S1000
X-2S0
X-.3S1000
X-14.1S0
X-.6S1000
X-.5S0
X-.7S1000
X-12.7S0
X-.5S1000
X-5S0
X-.3S1000
X-2S0
X-.3S1000
X-25.2S0
X-.5S1000
X-5S0
X-.401S1000
X-1.899S0
X-.3S1000
X-14.201S0
X-.6S1000
X-.5S0
X-.6S1000
X-12.8S0
X-.5S1000
X-4.9S0
X-.4S1000
X-1.9S0
X-.3S1000
X-25.3S0
X-.5S1000
X-4.899S0
X-.401S1000
X-2S0
X-.2S1000
X-14.2S0
X-.7S1000
X-.4S0
X-.7S1000
X-12.7S0
X-.5S1000
X-4.9S0
X-.4S1000
X-2S0
X-.3S1000
X-2.916S0
Y.1
X2.916
X.3S1000
X2S0
X.3S1000
X5S0
X.5S1000
X12.7S0
X.6S1000
X.7S0
X.6S1000
X14S0
X.3S1000
X2S0
X.401S1000
X4.899S0
X.5S1000
X25.2S0
X.4S1000
X1.9S0
X.4S1000
X4.9S0
X.5S1000
X12.7S0
X.7S1000
X.6S0
X.6S1000
X14.001S0
X.4S1000
X2S0
X.399S1000
X4.901S0
X.4S1000
X25.199S0
X.401S1000
X2S0
X.4S1000
X4.9S0
X.5S1000
X12.6S0
X.699S1000
X.601S0
X.7S1000
X14S0
X.3S1000
X2S0
X.399S1000
X4.901S0
X.5S1000
X25.3S0
X.2S1000
X2S0
X.5S1000
X4.8S0
X.5S1000
X12.699S0
X.6S1000
X.701S0
X.599S1000
X14.101S0
X.3S1000
X2S0
X.4S1000
X4.899S0
X.401S1000
X2.916S0
Y.1
X-2.916
X-.5S1000
X-3.8S0
X-.601S1000
X-.399S0
X-.5S1000
X-1.9S0
X-.401S1000
X-13.899S0
X-.601S1000
X-.699S0
X-.801S1000
X-12.599S0
X-.5S1000
X-3.8S0
X-.6S1000
X-.5S0
X-.4S1000
X-2S0
X-.3S1000
X-25.3S0
X-.4S1000
X-3.8S0
X-.601S1000
X-.5S0
X-.399S1000
X-2S0
X-.2S1000
X-14S0
X-.7S1000
X-.8S0
X-.6S1000
X-12.7S0
X-.4S1000
X-3.9S0
X-.6S1000
X-.4S0
X-.4S1000
X-2S0
X-.3S1000
X-25.3S0
X-.501S1000
X-3.8S0
X-.599S1000
X-.5S0
X-.401S1000
X-1.899S0
X-.301S1000
X-14S0
X-.6S1000
X-.8S0
X-.7S1000
X-12.6S0
X-.5S1000
X-3.8S0
X-.6S1000
X-.4S0
X-.5S1000
X-1.9S0
X-.4S1000
X-25.2S0
X-.5S1000
X-3.8S0
X-.6S1000
X-.6S0
X-.3S1000
X-2S0
X-.3S1000
X-14S0
X-.6S1000
X-.7S0
X-.7S1000
X-12.7S0
X-.4S1000
X-3.8S0
X-.6S1000
X-.5S0
X-.4S1000
X-2S0
X-.3S1000
X-2.916S0
Y.1
X2.916
X.3S1000
X2S0
X.3S1000
X.4S0
X1S1000
X3.5S0
X.5S1000
X12.6S0
X.7S1000
X.8S0
X.7S1000
X13.9S0
X.3S1000
X2S0
X.4S1000
X.3S0
X1S1000
X3.5S0
X.5S1000
X25.4S0
X.3S1000
X2S0
X.3S1000
X.3S0
X1S1000
X3.6S0
X.5S1000
X12.6S0
X.7S1000
X.8S0
X.6S1000
X13.901S0
X.4S1000
X1.899S0
X.5S1000
X.201S0
X1S1000
X3.6S0
X.5S1000
X25.3S0
X.3S1000
X2S0
X.3S1000
X.299S0
X1S1000
X3.601S0
X.5S1000
X12.6S0
X.7S1000
X.8S0
X.7S1000
X13.9S0
X.3S1000
X2S0
X.3S1000
X.4S0
X.9S1000
X3.6S0
X.5S1000
X25.3S0
X.3S1000
X2.099S0
X.401S1000
X.2S0
X1S1000
X3.6S0
X.4S1000
X12.699S0
X.6S1000
X.9S0
X.7S1000
X13.901S0
X.3S1000
X1.9S0
X.399S1000
X.3S0
X1S1000
X3.601S0
X.5S1000
X2.916S0
Y.1
X-2.916
X-.5S1000
X-3.401S0
X-1.799S1000
X-2S0
X-.3S1000
X-13.901S0
X-.7S1000
X-.8S0
X-.799S1000
X-12.6S0
X-.5S1000
X-3.3S0
X-1.9S1000
X-2S0
X-.2S1000
X-25.4S0
X-.5S1000
X-3.4S0
X-1.3S1000
X-.101S0
X-.399S1000
X-2S0
X-.3S1000
X-13.801S0
X-.699S1000
X-1S0
X-.6S1000
X-12.6S0
X-.5S1000
X-3.4S0
X-1.3S1000
X-.1S0
X-.4S1000
X-2S0
X-.401S1000
X-25.199S0
X-.499S1000
X-3.4S0
X-1.901S1000
X-1.899S0
X-.4S1000
X-13.801S0
X-.7S1000
X-.9S0
X-.7S1000
X-12.6S0
X-.5S1000
X-3.3S0
X-1.9S1000
X-1.9S0
X-.4S1000
X-25.3S0
X-.5S1000
X-3.4S0
X-1.3S1000
X-.099S0
X-.401S1000
X-2S0
X-.3S1000
X-13.8S0
X-.7S1000
X-.9S0
X-.7S1000
X-12.6S0
X-.5S1000
X-3.4S0
X-1.3S1000
X-.1S0
X-.4S1000
X-2S0
X-.3S1000
X-2.916S0
X.1Y.1
X2.916
X.2S1000
X2S0
X1.1S1000
X.1S0
X.8S1000
X3.1S0
X.5S1000
X12.6S0
X.7S1000
X1.1S0
X.6S1000
X13.9S0
X.3S1000
X1.9S0
X1.1S1000
X.1S0
X.8S1000
X3.1S0
X.5S1000
X25.5S0
X.3S1000
X1.9S0
X1.2S1000
X.1S0
X.8S1000
X3S0
X.6S1000
X12.6S0
X.6S1000
X1.1S0
X.7S1000
X13.801S0
X.3S1000
X1.899S0
X1.201S1000
X.1S0
X.8S1000
X3.1S0
X.5S1000
X25.4S0
X.3S1000
X2S0
X1S1000
X.099S0
X.201S1000
X.1S0
X.6S1000
X3.099S0
X.5S1000
X12.601S0
X.7S1000
X1.1S0
X.6S1000
X13.9S0
X.2S1000
X2S0
X1.1S1000
X.1S0
X.8S1000
X3.1S0
X.5S1000
X25.5S0
X.3S1000
X1.9S0
X1S1000
X.1S0
X.1S1000
X.1S0
X.7S1000
X3.1S0
X.6S1000
X12.6S0
X.599S1000
X1.101S0
X.7S1000
X13.8S0
X.3S1000
X1.9S0
X1.1S1000
X.099S0
X.2S1000
X.101S0
X.6S1000
X3.099S0
X.5S1000
X2.917S0
X-.1Y.1
X-2.916
X-.5S1000
X-2.901S0
X-.599S1000
X-.901S0
X-.699S1000
X-1.801S0
X-.399S1000
X-13.8S0
X-.6S1000
X-1.2S0
X-.699S1000
X-12.601S0
X-.599S1000
X-2.901S0
X-.5S1000
X-.899S0
X-.7S1000
X-1.8S0
X-.4S1000
X-25.5S0
X-.6S1000
X-2.9S0
X-.5S1000
X-1S0
X-.701S1000
X-1.799S0
X-.3S1000
X-13.7S0
X-.8S1000
X-1.2S0
X-.6S1000
X-12.601S0
X-.599S1000
X-2.901S0
X-.599S1000
X-.6S0
X-.1S1000
X-.201S0
X-.699S1000
X-1.801S0
X-.399S1000
X-25.5S0
X-.5S1000
X-2.9S0
X-.6S1000
X-.9S0
X-.701S1000
X-1.799S0
X-.4S1000
X-13.8S0
X-.6S1000
X-1.2S0
X-.7S1000
X-12.6S0
X-.6S1000
X-2.799S0
X-.6S1000
X-.9S0
X-.8S1000
X-1.7S0
X-.4S1000
X-25.5S0
X-.6S1000
X-2.9S0
X-.5S1000
X-.699S0
X-.101S1000
X-.2S0
X-.699S1000
X-1.701S0
X-.4S1000
X-13.8S0
X-.7S1000
X-1.2S0
X-.6S1000
X-12.7S0
X-.5S1000
X-2.9S0
X-.5S1000
X-.8S0
X-.1S1000
X-.1S0
X-.7S1000
X-1.8S0
X-.3S1000
X-2.916S0
Y.1
X2.916
X.4S1000
X1.7S0
X.6S1000
X1.2S0
X.5S1000
X2.7S0
X.6S1000
X12.6S0
X.7S1000
X1.3S0
X.7S1000
X13.7S0
X.5S1000
X1.601S0
X.599S1000
X1.2S0
X.5S1000
X2.7S0
X.6S1000
X25.6S0
X.5S1000
X1.6S0
X.6S1000
X1.3S0
X.4S1000
X2.7S0
X.6S1000
X12.7S0
X.599S1000
X1.3S0
X.7S1000
X13.701S0
X.5S1000
X1.6S0
X.7S1000
X1.2S0
X.4S1000
X2.799S0
X.5S1000
X25.701S0
X.4S1000
X1.6S0
X.799S1000
X1.101S0
X.399S1000
X2.801S0
X.6S1000
X12.599S0
X.601S1000
X1.399S0
X.601S1000
X13.8S0
X.4S1000
X1.6S0
X.7S1000
X1.2S0
X.5S1000
X2.699S0
X.601S1000
X25.6S0
X.5S1000
X1.6S0
X.6S1000
X1.3S0
X.4S1000
X2.7S0
X.6S1000
X12.7S0
X.6S1000
X1.299S0
X.8S1000
X13.601S0
X.5S1000
X1.599S0
X.701S1000
X1.2S0
X.399S1000
X2.801S0
X.6S1000
X2.916S0
X-.1Y.1
X-2.916
X-.601S1000
X-2.599S0
X-.401S1000
X-1.399S0
X-.7S1000
X-1.401S0
X-.5S1000
X-13.799S0
X-.6S1000
X-1.5S0
X-.601S1000
X-12.599S0
X-.7S1000
X-2.5S0
X-.4S1000
X-1.4S0
X-.7S1000
X-1.4S0
X-.5S1000
X-25.7S0
X-.7S1000
X-2.6S0
X-.4S1000
X-1.401S0
X-.699S1000
X-1.4S0
X-.5S1000
X-13.7S0
X-.701S1000
X-1.399S0
X-.601S1000
X-12.699S0
X-.6S1000
X-2.6S0
X-.4S1000
X-1.4S0
X-.7S1000
X-1.4S0
X-.5S1000
X-25.701S0
X-.599S1000
X-2.6S0
X-.4S1000
X-1.5S0
X-.6S1000
X-1.4S0
X-.5S1000
X-13.701S0
X-.7S1000
X-1.5S0
X-.6S1000
X-12.6S0
X-.7S1000
X-2.5S0
X-.4S1000
X-1.4S0
X-.7S1000
X-1.4S0
X-.5S1000
X-25.8S0
X-.6S1000
X-2.6S0
X-.4S1000
X-1.4S0
X-.6S1000
X-1.4S0
X-.5S1000
X-13.8S0
X-.6S1000
X-1.5S0
X-.6S1000
X-12.6S0
X-.7S1000
X-2.6S0
X-.4S1000
X-1.4S0
X-.6S1000
X-1.5S0
X-.4S1000
X-2.916S0
Y.1
X2.916
X.6S1000
X1.2S0
X.6S1000
X1.6S0
X.3S1000
X2.4S0
X.8S1000
X12.6S0
X.6S1000
X1.6S0
X.7S1000
X13.7S0
X.599S1000
X1.2S0
X.6S1000
X1.6S0
X.4S1000
X2.3S0
X.9S1000
X25.8S0
X.5S1000
X1.2S0
X.7S1000
X1.5S0
X.4S1000
X2.4S0
X.7S1000
X12.7S0
X.6S1000
X1.6S0
X.6S1000
X13.8S0
X.5S1000
X1.201S0
X.7S1000
X1.599S0
X.301S1000
X2.4S0
X.7S1000
X25.9S0
X.5S1000
X1.199S0
X.701S1000
X1.6S0
X.3S1000
X2.399S0
X.801S1000
X12.6S0
X.7S1000
X1.5S0
X.6S1000
X13.799S0
X.601S1000
X1.1S0
X.7S1000
X1.599S0
X.301S1000
X2.4S0
X.799S1000
X25.901S0
X.5S1000
X1.2S0
X.6S1000
X1.6S0
X.4S1000
X2.299S0
X.801S1000
X12.599S0
X.701S1000
X1.6S0
X.599S1000
X13.801S0
X.5S1000
X1.199S0
X.7S1000
X1.601S0
X.3S1000
X2.399S0
X.701S1000
X2.916S0
Y.1
X-2.916
X-.9S1000
X-2.2S0
X-.3S1000
X-1.7S0
X-.7S1000
X-.901S0
X-.699S1000
X-13.7S0
X-.7S1000
X-1.701S0
X-.6S1000
X-12.699S0
X-.9S1000
X-2S0
X-.4S1000
X-1.8S0
X-.6S1000
X-.9S0
X-.7S1000
X-26S0
X-.9S1000
X-2.2S0
X-.3S1000
X-1.7S0
X-.7S1000
X-.9S0
X-.6S1000
X-13.8S0
X-.6S1000
X-1.7S0
X-.7S1000
X-12.6S0
X-.9S1000
X-2.2S0
X-.3S1000
X-1.7S0
X-.7S1000
X-.9S0
X-.7S1000
X-25.9S0
X-.9S1000
X-2.2S0
X-.3S1000
X-1.7S0
X-.7S1000
X-.9S0
X-.7S1000
X-13.701S0
X-.7S1000
X-1.599S0
X-.701S1000
X-12.7S0
X-.8S1000
X-2.2S0
X-.3S1000
X-1.799S0
X-.601S1000
X-.899S0
X-.701S1000
X-26S0
X-.9S1000
X-2.1S0
X-.299S1000
X-1.801S0
X-.699S1000
X-.901S0
X-.599S1000
X-13.801S0
X-.6S1000
X-1.7S0
X-.6S1000
X-12.7S0
X-.9S1000
X-2.2S0
X-.3S1000
X-1.7S0
X-.7S1000
X-.9S0
X-.6S1000
X-2.916S0
X.1Y.1
X2.916
X.7S1000
X.1S0
X.1S1000
X.2S0
X.9S1000
X1.9S0
X.3S1000
X1.7S0
X1.2S1000
X12.6S0
X.7S1000
X1.8S0
X.7S1000
X13.9S0
X.6S1000
X.101S0
X.1S1000
X.199S0
X.9S1000
X1.901S0
X.299S1000
X1.701S0
X.099S1000
X.1S0
X1S1000
X26.301S0
X.599S1000
X.1S0
X.1S1000
X.2S0
X.1S1000
X.1S0
X.8S1000
X1.8S0
X.3S1000
X1.7S0
X.1S1000
X.1S0
X1S1000
X12.7S0
X.6S1000
X1.9S0
X.6S1000
X13.901S0
X.6S1000
X.1S0
X.099S1000
X.101S0
X.1S1000
X.1S0
X.9S1000
X1.799S0
X.301S1000
X1.699S0
X.101S1000
X.1S0
X1S1000
X26.299S0
X.8S1000
X.1S0
X.1S1000
X.1S0
X.9S1000
X1.9S0
X.3S1000
X1.7S0
X.1S1000
X.1S0
X.9S1000
X12.8S0
X.6S1000
X1.8S0
X.7S1000
X13.8S0
X.8S1000
X.1S0
X.1S1000
X.1S0
X.9S1000
X1.9S0
X.3S1000
X1.7S0
X1.2S1000
X26.3S0
X.7S1000
X.1S0
X.1S1000
X.1S0
X.1S1000
X.1S0
X.8S1000
X1.8S0
X.3S1000
X1.8S0
X1.1S1000
X12.699S0
X.6S1000
X1.9S0
X.601S1000
X13.899S0
X.701S1000
X.1S0
X.1S1000
X.099S0
X.101S1000
X.1S0
X.799S1000
X1.801S0
X.3S1000
X1.8S0
X.099S1000
X.101S0
X.899S1000
X2.917S0
X-.2Y.1
X-2.916
X-1.301S1000
X-1.299S0
X-.4S1000
X-1.9S0
X-1.8S1000
X-13.901S0
X-.7S1000
X-1.9S0
X-.699S1000
X-12.8S0
X-1.3S1000
X-1.3S0
X-.4S1000
X-1.9S0
X-1.8S1000
X-26.6S0
X-1.4S1000
X-1.3S0
X-.3S1000
X-1.9S0
X-1.9S1000
X-13.9S0
X-.6S1000
X-2S0
X-.7S1000
X-12.7S0
X-1.401S1000
X-1.299S0
X-.3S1000
X-2S0
X-1.8S1000
X-26.601S0
X-1.299S1000
X-1.3S0
X-.401S1000
X-1.899S0
X-1.8S1000
X-13.901S0
X-.7S1000
X-1.9S0
X-.7S1000
X-12.8S0
X-1.3S1000
X-1.3S0
X-.4S1000
X-1.9S0
X-1.8S1000
X-26.6S0
X-1.3S1000
X-1.3S0
X-.4S1000
X-1.9S0
X-1.8S1000
X-14S0
X-.6S1000
X-2S0
X-.6S1000
X-12.8S0
X-1.3S1000
X-1.4S0
X-.3S1000
X-1.9S0
X-1.8S1000
X-2.916S0
X.1Y.1
X2.916
X1.6S1000
X1.9S0
X2.9S1000
X12.9S0
X.7S1000
X2S0
X.7S1000
X14.101S0
X1.5S1000
X1.899S0
X2.9S1000
X27S0
X1.5S1000
X2S0
X2.8S1000
X12.901S0
X.699S1000
X2.1S0
X.6S1000
X14.101S0
X1.5S1000
X2S0
X2.9S1000
X26.9S0
X1.6S1000
X2S0
X2.8S1000
X12.9S0
X.7S1000
X2S0
X.8S1000
X13.9S0
X1.6S1000
X2S0
X2.8S1000
X27S0
X1.6S1000
X1.9S0
X2.8S1000
X13S0
X.699S1000
X2.101S0
X.5S1000
X14.1S0
X1.6S1000
X1.9S0
X2.8S1000
X2.916S0
X-.2Y.1
X-2.916
X-2.6S1000
X-2S0
X-1.4S1000
X-14S0
X-.8S1000
X-2.2S0
X-.6S1000
X-13.2S0
X-2.5S1000
X-2S0
X-1.5S1000
X-27.3S0
X-2.5S1000
X-2S0
X-1.5S1000
X-14.101S0
X-.599S1000
X-2.2S0
X-.6S1000
X-13.2S0
X-2.5S1000
X-2S0
X-1.5S1000
X-27.3S0
X-2.601S1000
X-2S0
X-1.399S1000
X-14.101S0
X-.6S1000
X-2.2S0
X-.6S1000
X-13.2S0
X-2.6S1000
X-2S0
X-1.5S1000
X-27.3S0
X-2.5S1000
X-2S0
X-1.5S1000
X-14S0
X-.7S1000
X-2.2S0
X-.7S1000
X-13.1S0
X-2.5S1000
X-2S0
X-1.5S1000
X-2.916S0
Y.1
X2.916
X1.5S1000
X2S0
X2.2S1000
X13.4S0
X.7S1000
X2.3S0
X.6S1000
X14S0
X1.5S1000
X2S0
X2.2S1000
X27.6S0
X1.5S1000
X2S0
X2.3S1000
X13.4S0
X.6S1000
X2.3S0
X.7S1000
X13.9S0
X1.5S1000
X2S0
X2.301S1000
X27.5S0
X1.6S1000
X2S0
X2.2S1000
X13.399S0
X.701S1000
X2.299S0
X.601S1000
X14S0
X1.5S1000
X2S0
X2S1000
X.1S0
X.1S1000
X27.6S0
X1.5S1000
X2S0
X2.2S1000
X13.5S0
X.699S1000
X2.2S0
X.701S1000
X13.9S0
X1.6S1000
X1.9S0
X2.3S1000
X2.916S0
X-.7Y.1
X-2.916
X-.1S1000
X-.101S0
X-1.399S1000
X-2S0
X-.801S1000
X-.099S0
X-.701S1000
X-13.7S0
X-.699S1000
X-2.5S0
X-.601S1000
X-14.099S0
X-.1S1000
X-.1S0
X-1.3S1000
X-1.901S0
X-1.699S1000
X-28.2S0
X-.101S1000
X-.099S0
X-1.3S1000
X-2S0
X-.8S1000
X-.1S0
X-.701S1000
X-13.799S0
X-.6S1000
X-2.5S0
X-.7S1000
X-14S0
X-.1S1000
X-.1S0
X-1.3S1000
X-2S0
X-1.7S1000
X-28.1S0
X-.2S1000
X-.1S0
X-1.301S1000
X-1.899S0
X-.8S1000
X-.1S0
X-.201S1000
X-.099S0
X-.5S1000
X-13.801S0
X-.6S1000
X-2.4S0
X-.7S1000
X-14S0
X-.2S1000
X-.1S0
X-1.3S1000
X-1.9S0
X-1S1000
X-.1S0
X-.6S1000
X-28.1S0
X-.2S1000
X-.1S0
X-1.3S1000
X-2S0
X-.7S1000
X-.1S0
X-.799S1000
X-13.801S0
X-.6S1000
X-2.5S0
X-.6S1000
X-14S0
X-.1S1000
X-.1S0
X-1.4S1000
X-2S0
X-1.6S1000
X-2.916S0
X-.1Y.1
X2.916
X.3S1000
X.8S0
X.6S1000
X1.9S0
X1S1000
X14.6S0
X.7S1000
X2.5S0
X.7S1000
X13.6S0
X.3S1000
X.801S0
X.599S1000
X1.9S0
X1S1000
X.2S0
X.1S1000
X28.4S0
X.3S1000
X.9S0
X.5S1000
X2S0
X.9S1000
X.2S0
X.1S1000
X14.3S0
X.7S1000
X2.6S0
X.6S1000
X13.601S0
X.3S1000
X.899S0
X.5S1000
X2S0
X.901S1000
X.2S0
X.1S1000
X28.4S0
X.399S1000
X.801S0
X.6S1000
X1.9S0
X1S1000
X14.6S0
X.599S1000
X2.601S0
X.7S1000
X13.6S0
X.3S1000
X.799S0
X.601S1000
X1.899S0
X1S1000
X28.701S0
X.299S1000
X.901S0
X.5S1000
X1.9S0
X1S1000
X.199S0
X.101S1000
X14.299S0
X.701S1000
X2.6S0
X.599S1000
X13.601S0
X.3S1000
X.9S0
X.5S1000
X2S0
X1S1000
X2.916S0
X-.2Y.1
X-2.916
X-.901S1000
X-1.799S0
X-.401S1000
X-1.099S0
X-.3S1000
X-13.401S0
X-.799S1000
X-2.701S0
X-.6S1000
X-14.699S0
X-.9S1000
X-1.801S0
X-.399S1000
X-1.2S0
X-.2S1000
X-28.8S0
X-.901S1000
X-1.899S0
X-.4S1000
X-1.1S0
X-.3S1000
X-13.5S0
X-.6S1000
X-2.701S0
X-.699S1000
X-14.6S0
X-.9S1000
X-1.9S0
X-.401S1000
X-1.099S0
X-.3S1000
X-28.8S0
X-.9S1000
X-1.8S0
X-.4S1000
X-1.1S0
X-.3S1000
X-13.501S0
X-.7S1000
X-2.7S0
X-.6S1000
X-14.7S0
X-.9S1000
X-1.8S0
X-.5S1000
X-1S0
X-.3S1000
X-28.9S0
X-.8S1000
X-1.9S0
X-.4S1000
X-1.1S0
X-.3S1000
X-13.5S0
X-.6S1000
X-2.7S0
X-.7S1000
X-14.7S0
X-.8S1000
X-1.9S0
X-.4S1000
X-1.1S0
X-.3S1000
X-2.916S0
Y.1
X2.916
X.3S1000
X1.2S0
X.4S1000
X1.7S0
X.9S1000
X14.7S0
X.6S1000
X2.9S0
X.6S1000
X13.4S0
X.3S1000
X1.3S0
X.3S1000
X1.7S0
X.9S1000
X28.8S0
X.3S1000
X1.3S0
X.3S1000
X1.7S0
X.9S1000
X14.7S0
X.7S1000
X2.8S0
X.7S1000
X13.301S0
X.299S1000
X1.301S0
X.3S1000
X1.7S0
X.9S1000
X28.799S0
X.4S1000
X1.3S0
X.3S1000
X1.7S0
X.8S1000
X14.7S0
X.7S1000
X2.8S0
X.7S1000
X13.4S0
X.3S1000
X1.3S0
X.3S1000
X1.7S0
X.8S1000
X28.9S0
X.3S1000
X1.3S0
X.3S1000
X1.7S0
X.9S1000
X14.699S0
X.6S1000
X2.9S0
X.601S1000
X13.399S0
X.301S1000
X1.3S0
X.3S1000
X1.7S0
X.899S1000
X2.917S0
X.3Y.1
X-2.916
X-1.301S1000
X-1.5S0
X-.299S1000
X-1.4S0
X-.301S1000
X-13.299S0
X-.599S1000
X-2.9S0
X-.8S1000
X-14.3S0
X-1.3S1000
X-1.6S0
X-.2S1000
X-1.5S0
X-.2S1000
X-28.5S0
X-1.3S1000
X-1.6S0
X-.3S1000
X-1.4S0
X-.3S1000
X-13.2S0
X-.7S1000
X-3S0
X-.6S1000
X-14.3S0
X-1.3S1000
X-1.6S0
X-.3S1000
X-1.4S0
X-.3S1000
X-28.4S0
X-1.4S1000
X-1.6S0
X-.3S1000
X-1.3S0
X-.3S1000
X-13.301S0
X-.6S1000
X-3S0
X-.7S1000
X-14.2S0
X-1.399S1000
X-1.601S0
X-.3S1000
X-1.3S0
X-.299S1000
X-28.5S0
X-1.3S1000
X-1.6S0
X-.3S1000
X-1.399S0
X-.301S1000
X-13.2S0
X-.7S1000
X-2.9S0
X-.7S1000
X-14.3S0
X-1.3S1000
X-1.6S0
X-.3S1000
X-1.4S0
X-.3S1000
X-2.916S0
X-.1Y.1
X2.916
X.4S1000
X1.5S0
X.2S1000
X1.5S0
X1.8S1000
X13.9S0
X.6S1000
X3S0
X.7S1000
X13.101S0
X.4S1000
X1.399S0
X.4S1000
X1.4S0
X1.7S1000
X28.1S0
X.3S1000
X1.5S0
X.3S1000
X1.4S0
X1.8S1000
X13.9S0
X.7S1000
X3S0
X.6S1000
X13.201S0
X.3S1000
X1.5S0
X.3S1000
X1.4S0
X1.8S1000
X28S0
X.3S1000
X1.5S0
X.4S1000
X1.4S0
X1.8S1000
X13.8S0
X.7S1000
X3.1S0
X.6S1000
X13.1S0
X.399S1000
X1.401S0
X.4S1000
X1.4S0
X1.799S1000
X28S0
X.3S1000
X1.5S0
X.3S1000
X1.4S0
X1.8S1000
X13.9S0
X.599S1000
X3.101S0
X.7S1000
X13.1S0
X.3S1000
X1.5S0
X.299S1000
X1.401S0
X1.8S1000
X2.916S0
X.2Y.1
X-2.916
X-2.2S1000
X-1.1S0
X-.3S1000
X-1.6S0
X-.4S1000
X-13S0
X-.6S1000
X-3.101S0
X-.799S1000
X-13.6S0
X-2.3S1000
X-.9S0
X-.5S1000
X-1.4S0
X-.5S1000
X-27.7S0
X-2.3S1000
X-1.1S0
X-.3S1000
X-1.6S0
X-.3S1000
X-13S0
X-.7S1000
X-3.2S0
X-.6S1000
X-13.7S0
X-2.1S1000
X-1.2S0
X-.3S1000
X-1.6S0
X-.3S1000
X-27.9S0
X-2.099S1000
X-1.1S0
X-.4S1000
X-1.5S0
X-.4S1000
X-13S0
X-.7S1000
X-3.1S0
X-.699S1000
X-13.701S0
X-2.1S1000
X-1.1S0
X-.4S1000
X-1.5S0
X-.4S1000
X-27.799S0
X-2.2S1000
X-1S0
X-.399S1000
X-1.5S0
X-.4S1000
X-13.001S0
X-.7S1000
X-3.2S0
X-.6S1000
X-13.7S0
X-2.2S1000
X-1S0
X-.5S1000
X-1.5S0
X-.3S1000
X-2.916S0
X-.1Y.1
X2.916
X.4S1000
X1.6S0
X.6S1000
X.6S0
X1.4S1000
X.4S0
X.1S1000
X.1S0
X.6S1000
X13.4S0
X.7S1000
X3.3S0
X.6S1000
X12.901S0
X.399S1000
X1.601S0
X.6S1000
X.599S0
X1.401S1000
X.599S0
X.6S1000
X27.6S0
X.4S1000
X1.5S0
X.7S1000
X.5S0
X1.4S1000
X.6S0
X.601S1000
X13.5S0
X.599S1000
X3.3S0
X.7S1000
X12.901S0
X.4S1000
X1.6S0
X.6S1000
X.5S0
X1.4S1000
X.6S0
X.6S1000
X27.6S0
X.4S1000
X1.6S0
X.6S1000
X.5S0
X1.4S1000
X.6S0
X.6S1000
X13.5S0
X.7S1000
X3.299S0
X.6S1000
X12.899S0
X.4S1000
X1.6S0
X.6S1000
X.5S0
X1.5S1000
X.5S0
X.6S1000
X27.7S0
X.4S1000
X1.5S0
X.699S1000
X.5S0
X1.401S1000
X.599S0
X.601S1000
X13.5S0
X.6S1000
X3.299S0
X.701S1000
X12.9S0
X.399S1000
X1.601S0
X.6S1000
X.5S0
X1.4S1000
X.6S0
X.599S1000
X2.917S0
Y.1
X-2.917
X-.399S1000
X-.901S0
X-2.399S1000
X-1.7S0
X-.3S1000
X-12.9S0
X-.6S1000
X-3.4S0
X-.701S1000
X-13.399S0
X-.4S1000
X-.9S0
X-2.4S1000
X-1.7S0
X-.3S1000
X-27.5S0
X-.5S1000
X-.9S0
X-2.5S1000
X-1.599S0
X-.401S1000
X-12.699S0
X-.8S1000
X-3.4S0
X-.6S1000
X-13.3S0
X-.6S1000
X-.9S0
X-2.4S1000
X-1.6S0
X-.4S1000
X-27.6S0
X-.4S1000
X-.9S0
X-2.4S1000
X-1.7S0
X-.3S1000
X-12.901S0
X-.599S1000
X-3.401S0
X-.7S1000
X-13.399S0
X-.401S1000
X-.9S0
X-2.4S1000
X-1.699S0
X-.3S1000
X-27.6S0
X-.4S1000
X-.9S0
X-2.499S1000
X-1.601S0
X-.399S1000
X-12.801S0
X-.7S1000
X-3.4S0
X-.6S1000
X-13.4S0
X-.4S1000
X-.9S0
X-2.5S1000
X-1.6S0
X-.4S1000
X-2.916S0
Y.1
X2.916
X.4S1000
X1.6S0
X2.4S1000
X.5S0
X.3S1000
X.3S0
X.4S1000
X13.2S0
X.7S1000
X3.5S0
X.7S1000
X12.701S0
X.299S1000
X1.701S0
X2.399S1000
X.5S0
X.3S1000
X.3S0
X.4S1000
X27.5S0
X.3S1000
X1.7S0
X2.3S1000
X.5S0
X.3S1000
X.4S0
X.3S1000
X13.3S0
X.601S1000
X3.5S0
X.699S1000
X12.801S0
X.3S1000
X1.7S0
X2.3S1000
X.5S0
X.4S1000
X.3S0
X.3S1000
X27.5S0
X.3S1000
X1.7S0
X2.3S1000
X.6S0
X.3S1000
X.3S0
X.4S1000
X13.2S0
X.6S1000
X3.6S0
X.6S1000
X12.8S0
X.3S1000
X1.7S0
X2.4S1000
X.5S0
X.3S1000
X.3S0
X.4S1000
X27.5S0
X.3S1000
X1.6S0
X2.4S1000
X.5S0
X.3S1000
X.4S0
X.4S1000
X13.2S0
X.6S1000
X3.5S0
X.8S1000
X12.7S0
X.4S1000
X1.6S0
X2.3S1000
X.5S0
X.399S1000
X.301S0
X.4S1000
X2.916S0
Y.1
X-2.916
X-.3S1000
X-.3S0
X-.601S1000
X-.5S0
X-2.199S1000
X-1.7S0
X-.3S1000
X-12.801S0
X-.599S1000
X-3.7S0
X-.601S1000
X-13.099S0
X-.3S1000
X-.3S0
X-.6S1000
X-.5S0
X-2.2S1000
X-1.7S0
X-.3S1000
X-27.4S0
X-.399S1000
X-.2S0
X-.6S1000
X-.5S0
X-2.2S1000
X-1.7S0
X-.4S1000
X-12.7S0
X-.7S1000
X-3.6S0
X-.6S1000
X-13.1S0
X-.4S1000
X-.3S0
X-.6S1000
X-.5S0
X-2.1S1000
X-1.8S0
X-.3S1000
X-27.4S0
X-.3S1000
X-.3S0
X-.6S1000
X-.5S0
X-2.201S1000
X-1.699S0
X-.301S1000
X-12.7S0
X-.7S1000
X-3.7S0
X-.6S1000
X-13.1S0
X-.3S1000
X-.3S0
X-.599S1000
X-.5S0
X-2.201S1000
X-1.799S0
X-.201S1000
X-27.4S0
X-.3S1000
X-.3S0
X-.6S1000
X-.5S0
X-2.299S1000
X-1.701S0
X-.299S1000
X-12.701S0
X-.6S1000
X-3.7S0
X-.7S1000
X-13S0
X-.3S1000
X-.3S0
X-.6S1000
X-.5S0
X-2.3S1000
X-1.7S0
X-.3S1000
X-2.916S0
Y.1
X2.916
X.3S1000
X1.7S0
X2.2S1000
X.6S0
X.7S1000
X.3S0
X.3S1000
X12.9S0
X.6S1000
X3.8S0
X.7S1000
X12.601S0
X.399S1000
X1.601S0
X2.199S1000
X.6S0
X.7S1000
X.3S0
X.301S1000
X27.299S0
X.3S1000
X1.6S0
X2.301S1000
X.599S0
X.6S1000
X.301S0
X.299S1000
X12.9S0
X.7S1000
X3.8S0
X.6S1000
X12.701S0
X.2S1000
X1.7S0
X2.3S1000
X.6S0
X.6S1000
X.3S0
X.4S1000
X27.2S0
X.3S1000
X1.7S0
X2.2S1000
X.7S0
X.6S1000
X.2S0
X.4S1000
X12.8S0
X.7S1000
X3.8S0
X.6S1000
X12.7S0
X.3S1000
X1.7S0
X2.2S1000
X.7S0
X.6S1000
X.2S0
X.4S1000
X27.3S0
X.3S1000
X1.6S0
X2.3S1000
X.7S0
X.5S1000
X.3S0
X.3S1000
X12.899S0
X.6S1000
X3.9S0
X.701S1000
X12.6S0
X.3S1000
X1.7S0
X2.199S1000
X.701S0
X.5S1000
X.299S0
X.301S1000
X2.916S0
X.2Y.1
X-2.917
X-.399S1000
X-.5S0
X-.101S1000
X-1S0
X-2.299S1000
X-1.701S0
X-.199S1000
X-12.6S0
X-.6S1000
X-3.9S0
X-.8S1000
X-12.6S0
X-.4S1000
X-.5S0
X-.1S1000
X-1S0
X-2.3S1000
X-1.6S0
X-.3S1000
X-27.2S0
X-.4S1000
X-.3S0
X-.1S1000
X-1.2S0
X-2.2S1000
X-1.6S0
X-.4S1000
X-12.5S0
X-.7S1000
X-3.9S0
X-.7S1000
X-12.7S0
X-.4S1000
X-.4S0
X-.2S1000
X-1S0
X-2.2S1000
X-1.7S0
X-.3S1000
X-27.2S0
X-.3S1000
X-.4S0
X-.2S1000
X-1.1S0
X-2.2S1000
X-1.6S0
X-.3S1000
X-12.601S0
X-.7S1000
X-3.9S0
X-.699S1000
X-12.6S0
X-.4S1000
X-.4S0
X-.301S1000
X-1S0
X-2.199S1000
X-1.7S0
X-.201S1000
X-27.099S0
X-.5S1000
X-.301S0
X-.299S1000
X-1S0
X-2.2S1000
X-1.7S0
X-.3S1000
X-12.601S0
X-.599S1000
X-3.901S0
X-.7S1000
X-12.699S0
X-.4S1000
X-.3S0
X-.2S1000
X-1.1S0
X-2.2S1000
X-1.6S0
X-.4S1000
X-2.917S0
X.1Y.1
X2.917
X.2S1000
X1.6S0
X.7S1000
X.5S0
X.1S1000
X.2S0
X.8S1000
X1.7S0
X.3S1000
X12.6S0
X.7S1000
X4S0
X.7S1000
X12.6S0
X.2S1000
X1.599S0
X.701S1000
X.5S0
X.1S1000
X.199S0
X.801S1000
X1.699S0
X.401S1000
X27.099S0
X.301S1000
X1.599S0
X.599S1000
X.5S0
X.1S1000
X.201S0
X.799S1000
X1.701S0
X.4S1000
X12.6S0
X.599S1000
X4.1S0
X.6S1000
X12.601S0
X.3S1000
X1.6S0
X.7S1000
X.7S0
X.8S1000
X1.7S0
X.4S1000
X27.2S0
X.2S1000
X1.6S0
X.8S1000
X.6S0
X.8S1000
X1.8S0
X.3S1000
X12.6S0
X.7S1000
X4.1S0
X.6S1000
X12.6S0
X.2S1000
X1.6S0
X.8S1000
X.6S0
X.9S1000
X1.7S0
X.3S1000
X27.2S0
X.2S1000
X1.7S0
X.7S1000
X.7S0
X.8S1000
X1.8S0
X.3S1000
X12.6S0
X.599S1000
X4.101S0
X.7S1000
X12.5S0
X.3S1000
X1.6S0
X.7S1000
X.7S0
X.8S1000
X1.8S0
X.299S1000
X2.917S0
Y.1
X-2.917
X-.299S1000
X-1.8S0
X-.7S1000
X-.9S0
X-.7S1000
X-1.4S0
X-.3S1000
X-12.6S0
X-.6S1000
X-4.3S0
X-.6S1000
X-12.5S0
X-.4S1000
X-1.7S0
X-.7S1000
X-.9S0
X-.7S1000
X-1.5S0
X-.2S1000
X-27.3S0
X-.2S1000
X-1.9S0
X-.6S1000
X-.999S0
X-.599S1000
X-1.5S0
X-.2S1000
X-12.701S0
X-.599S1000
X-4.2S0
X-.701S1000
X-12.5S0
X-.299S1000
X-1.8S0
X-.6S1000
X-1S0
X-.6S1000
X-1.6S0
X-.2S1000
X-27.2S0
X-.3S1000
X-1.8S0
X-.7S1000
X-.9S0
X-.7S1000
X-1.5S0
X-.2S1000
X-12.6S0
X-.601S1000
X-4.2S0
X-.699S1000
X-12.5S0
X-.301S1000
X-1.8S0
X-.7S1000
X-.9S0
X-.7S1000
X-1.5S0
X-.2S1000
X-27.2S0
X-.4S1000
X-1.799S0
X-.6S1000
X-.9S0
X-.701S1000
X-1.5S0
X-.199S1000
X-12.701S0
X-.5S1000
X-4.3S0
X-.6S1000
X-12.6S0
X-.299S1000
X-1.801S0
X-.6S1000
X-1S0
X-.599S1000
X-1.5S0
X-.2S1000
X-2.917S0
Y.1
X2.917
X.2S1000
X1.4S0
X.6S1000
X1.199S0
X.601S1000
X1.799S0
X.201S1000
X12.5S0
X.699S1000
X4.2S0
X.7S1000
X12.601S0
X.3S1000
X1.299S0
X.6S1000
X1.2S0
X.601S1000
X1.799S0
X.3S1000
X27.301S0
X.199S1000
X1.401S0
X.599S1000
X1.2S0
X.5S1000
X1.8S0
X.301S1000
X12.399S0
X.701S1000
X4.299S0
X.701S1000
X12.6S0
X.2S1000
X1.4S0
X.6S1000
X1.2S0
X.5S1000
X1.8S0
X.3S1000
X27.3S0
X.2S1000
X1.4S0
X.6S1000
X1.2S0
X.5S1000
X1.8S0
X.3S1000
X12.5S0
X.6S1000
X4.4S0
X.7S1000
X12.5S0
X.3S1000
X1.3S0
X.6S1000
X1.3S0
X.5S1000
X1.8S0
X.2S1000
X27.3S0
X.3S1000
X1.4S0
X.6S1000
X1.2S0
X.5S1000
X1.8S0
X.3S1000
X12.5S0
X.699S1000
X4.201S0
X.6S1000
X12.699S0
X.201S1000
X1.4S0
X.6S1000
X1.2S0
X.5S1000
X1.8S0
X.299S1000
X2.917S0
Y.1
X-2.917
X-.299S1000
X-1.8S0
X-.401S1000
X-1.399S0
X-.601S1000
X-1.199S0
X-.2S1000
X-12.601S0
X-.699S1000
X-4.4S0
X-.7S1000
X-12.4S0
X-.3S1000
X-1.8S0
X-.4S1000
X-1.4S0
X-.6S1000
X-1.2S0
X-.3S1000
X-27.4S0
X-.2S1000
X-1.8S0
X-.5S1000
X-1.4S0
X-.6S1000
X-1.2S0
X-.2S1000
X-12.6S0
X-.7S1000
X-4.4S0
X-.6S1000
X-12.5S0
X-.2S1000
X-1.9S0
X-.4S1000
X-1.4S0
X-.6S1000
X-1.2S0
X-.2S1000
X-27.4S0
X-.3S1000
X-1.9S0
X-.3S1000
X-1.4S0
X-.6S1000
X-1.2S0
X-.3S1000
X-12.6S0
X-.6S1000
X-4.4S0
X-.701S1000
X-12.399S0
X-.301S1000
X-1.8S0
X-.5S1000
X-1.299S0
X-.6S1000
X-1.201S0
X-.299S1000
X-27.301S0
X-.3S1000
X-1.899S0
X-.3S1000
X-1.401S0
X-.599S1000
X-1.2S0
X-.3S1000
X-12.601S0
X-.6S1000
X-4.5S0
X-.7S1000
X-12.399S0
X-.2S1000
X-1.901S0
X-.3S1000
X-1.499S0
X-.6S1000
X-1.2S0
X-.3S1000
X-2.917S0
X.2Y.1
X2.917
X.3S1000
X.8S0
X.8S1000
X1.499S0
X.401S1000
X1.8S0
X.2S1000
X12.399S0
X.7S1000
X4.5S0
X.701S1000
X12.5S0
X.4S1000
X.8S0
X.1S1000
X.1S0
X.6S1000
X1.5S0
X.4S1000
X1.799S0
X.201S1000
X27.4S0
X.5S1000
X.799S0
X.701S1000
X1.5S0
X.399S1000
X1.801S0
X.3S1000
X12.399S0
X.601S1000
X4.6S0
X.6S1000
X12.6S0
X.4S1000
X.8S0
X.7S1000
X1.5S0
X.4S1000
X1.8S0
X.3S1000
X27.5S0
X.3S1000
X.8S0
X.8S1000
X1.5S0
X.3S1000
X1.9S0
X.2S1000
X12.4S0
X.7S1000
X4.5S0
X.6S1000
X12.7S0
X.3S1000
X.8S0
X.8S1000
X1.5S0
X.3S1000
X1.9S0
X.2S1000
X27.5S0
X.4S1000
X.8S0
X.8S1000
X1.4S0
X.4S1000
X1.9S0
X.2S1000
X12.4S0
X.6S1000
X4.5S0
X.699S1000
X12.701S0
X.299S1000
X.801S0
X.8S1000
X1.399S0
X.401S1000
X1.9S0
X.199S1000
X2.917S0
Y.1
X-2.917
X-.299S1000
X-1.8S0
X-.3S1000
X-1.601S0
X-1.799S1000
X-12.6S0
X-.7S1000
X-4.7S0
X-.601S1000
X-12.299S0
X-.3S1000
X-1.8S0
X-.3S1000
X-1.7S0
X-1.7S1000
X-27.6S0
X-.2S1000
X-1.8S0
X-.4S1000
X-1.6S0
X-1.8S1000
X-12.6S0
X-.6S1000
X-4.7S0
X-.7S1000
X-12.3S0
X-.2S1000
X-1.8S0
X-.4S1000
X-1.6S0
X-1.8S1000
X-27.5S0
X-.3S1000
X-1.7S0
X-.4S1000
X-1.6S0
X-1.8S1000
X-12.601S0
X-.699S1000
X-4.701S0
X-.6S1000
X-12.299S0
X-.3S1000
X-1.801S0
X-.299S1000
X-1.6S0
X-1.8S1000
X-27.5S0
X-.3S1000
X-1.799S0
X-.301S1000
X-1.699S0
X-1.7S1000
X-12.7S0
X-.6S1000
X-4.699S0
X-.601S1000
X-12.399S0
X-.2S1000
X-1.8S0
X-.4S1000
X-1.6S0
X-1.8S1000
X-2.917S0
X-.1Y.1
X2.917
X1.9S1000
X1.6S0
X.4S1000
X1.7S0
X.3S1000
X12.3S0
X.599S1000
X4.8S0
X.7S1000
X12.401S0
X1.9S1000
X1.699S0
X.301S1000
X1.799S0
X.201S1000
X27.5S0
X1.799S1000
X1.701S0
X.299S1000
X1.801S0
X.199S1000
X12.301S0
X.699S1000
X4.801S0
X.599S1000
X12.401S0
X1.9S1000
X1.7S0
X.3S1000
X1.8S0
X.2S1000
X27.5S0
X1.8S1000
X1.7S0
X.3S1000
X1.8S0
X.3S1000
X12.3S0
X.6S1000
X4.8S0
X.8S1000
X12.3S0
X1.9S1000
X1.6S0
X.5S1000
X1.6S0
X.3S1000
X27.4S0
X1.9S1000
X1.7S0
X.3S1000
X1.8S0
X.2S1000
X12.299S0
X.801S1000
X4.699S0
X.601S1000
X12.5S0
X1.8S1000
X1.7S0
X.399S1000
X1.701S0
X.2S1000
X2.916S0
Y.1
X-2.916
X-.3S1000
X-1.601S0
X-.399S1000
X-1.7S0
X-2S1000
X-12.1S0
X-.801S1000
X-4.9S0
X-.6S1000
X-12.299S0
X-.3S1000
X-1.6S0
X-.4S1000
X-1.7S0
X-2S1000
X-27.4S0
X-.2S1000
X-1.7S0
X-.4S1000
X-1.6S0
X-2S1000
X-12.3S0
X-.6S1000
X-4.9S0
X-.7S1000
X-12.3S0
X-.2S1000
X-1.7S0
X-.4S1000
X-1.7S0
X-1.9S1000
X-27.4S0
X-.3S1000
X-1.6S0
X-.4S1000
X-1.7S0
X-2S1000
X-12.201S0
X-.699S1000
X-4.9S0
X-.599S1000
X-12.301S0
X-.299S1000
X-1.6S0
X-.4S1000
X-1.701S0
X-2S1000
X-27.299S0
X-.301S1000
X-1.599S0
X-.401S1000
X-1.699S0
X-2S1000
X-12.2S0
X-.7S1000
X-4.901S0
X-.7S1000
X-12.3S0
X-.199S1000
X-1.7S0
X-.4S1000
X-1.6S0
X-2S1000
X-2.917S0
X-.2Y.1
X2.917
X2.1S1000
X1.7S0
X.5S1000
X1.5S0
X.299S1000
X12.3S0
X.601S1000
X5.099S0
X.601S1000
X12S0
X2.1S1000
X1.799S0
X.401S1000
X1.5S0
X.3S1000
X27.2S0
X2.099S1000
X1.801S0
X.5S1000
X1.5S0
X.199S1000
X12.301S0
X.699S1000
X5S0
X.701S1000
X12S0
X2S1000
X1.8S0
X.5S1000
X1.5S0
X.2S1000
X27.3S0
X2.1S1000
X1.7S0
X.5S1000
X1.5S0
X.2S1000
X12.3S0
X.7S1000
X5S0
X.7S1000
X12S0
X2.1S1000
X1.7S0
X.5S1000
X1.5S0
X.3S1000
X27.2S0
X2.1S1000
X1.8S0
X.5S1000
X1.5S0
X.2S1000
X12.3S0
X.599S1000
X5.101S0
X.6S1000
X12.1S0
X2S1000
X1.8S0
X.5S1000
X1.5S0
X.2S1000
X2.916S0
Y.1
X-2.916
X-.301S1000
X-1.399S0
X-.5S1000
X-1.7S0
X-.901S1000
X-.099S0
X-.1S1000
X-.1S0
X-.1S1000
X-.101S0
X-.899S1000
X-11.8S0
X-.6S1000
X-5.201S0
X-.699S1000
X-12.2S0
X-.3S1000
X-1.4S0
X-.5S1000
X-1.8S0
X-.8S1000
X-.1S0
X-.1S1000
X-.1S0
X-.1S1000
X-.1S0
X-.9S1000
X-27.2S0
X-.3S1000
X-1.3S0
X-.6S1000
X-1.7S0
X-.8S1000
X-.1S0
X-.1S1000
X-.1S0
X-.2S1000
X-.1S0
X-.8S1000
X-11.8S0
X-.7S1000
X-5.1S0
X-.7S1000
X-12.3S0
X-.3S1000
X-1.4S0
X-.5S1000
X-1.7S0
X-.9S1000
X-.1S0
X-.2S1000
X-.1S0
X-.9S1000
X-27.2S0
X-.3S1000
X-1.4S0
X-.5S1000
X-1.8S0
X-.7S1000
X-.1S0
X-.1S1000
X-.1S0
X-.1S1000
X-.1S0
X-1S1000
X-11.8S0
X-.601S1000
X-5.199S0
X-.6S1000
X-12.3S0
X-.3S1000
X-1.4S0
X-.5S1000
X-1.8S0
X-.8S1000
X-.101S0
X-.099S1000
X-.1S0
X-.1S1000
X-.1S0
X-.9S1000
X-27.1S0
X-.4S1000
X-1.3S0
X-.5S1000
X-1.8S0
X-.8S1000
X-.1S0
X-.2S1000
X-.1S0
X-1S1000
X-11.8S0
X-.7S1000
X-5.1S0
X-.7S1000
X-12.3S0
X-.3S1000
X-1.3S0
X-.6S1000
X-1.7S0
X-.8S1000
X-.1S0
X-.2S1000
X-.1S0
X-1S1000
X-2.917S0
X-.2Y.1
X2.917
X.7S1000
X1S0
X.6S1000
X1.8S0
X.7S1000
X1S0
X.1S1000
X.1S0
X.3S1000
X.1S0
X.1S1000
X12.1S0
X.6S1000
X5.2S0
X.7S1000
X11.6S0
X.6S1000
X1.1S0
X.6S1000
X1.8S0
X.699S1000
X1.101S0
X.399S1000
X.101S0
X.1S1000
X26.9S0
X.6S1000
X1S0
X.7S1000
X1.8S0
X.6S1000
X1.1S0
X.5S1000
X.099S0
X.101S1000
X12S0
X.6S1000
X5.299S0
X.6S1000
X11.7S0
X.6S1000
X1.1S0
X.6S1000
X1.8S0
X.6S1000
X1.1S0
X.6S1000
X26.9S0
X.6S1000
X1.1S0
X.6S1000
X1.8S0
X.7S1000
X1.1S0
X.5S1000
X.1S0
X.1S1000
X11.9S0
X.7S1000
X5.3S0
X.6S1000
X11.6S0
X.6S1000
X1.1S0
X.6S1000
X1.8S0
X.7S1000
X1S0
X.1S1000
X.1S0
X.4S1000
X.1S0
X.1S1000
X26.8S0
X.6S1000
X1S0
X.7S1000
X1.8S0
X.6S1000
X1.1S0
X.6S1000
X.1S0
X.1S1000
X11.9S0
X.699S1000
X5.201S0
X.7S1000
X11.599S0
X.701S1000
X1S0
X.6S1000
X1.8S0
X.6S1000
X1.1S0
X.699S1000
X2.917S0
X.3Y.1
X-2.916
X-1.1S1000
X-.9S0
X-.801S1000
X-1.699S0
X-.5S1000
X-1.301S0
X-.5S1000
X-11.5S0
X-.699S1000
X-5.5S0
X-.6S1000
X-11.6S0
X-1.1S1000
X-.9S0
X-.8S1000
X-1.8S0
X-.4S1000
X-1.4S0
X-.4S1000
X-26.5S0
X-1.2S1000
X-.8S0
X-.8S1000
X-1.7S0
X-.6S1000
X-1.3S0
X-.5S1000
X-11.5S0
X-.7S1000
X-5.4S0
X-.6S1000
X-11.7S0
X-1.1S1000
X-.8S0
X-.9S1000
X-1.7S0
X-.5S1000
X-1.3S0
X-.5S1000
X-26.5S0
X-1.1S1000
X-.9S0
X-.9S1000
X-1.5S0
X-.7S1000
X-1.2S0
X-.6S1000
X-11.5S0
X-.7S1000
X-5.3S0
X-.7S1000
X-11.6S0
X-1.1S1000
X-.9S0
X-.9S1000
X-1.6S0
X-.6S1000
X-1.3S0
X-.5S1000
X-26.4S0
X-1.2S1000
X-.8S0
X-.9S1000
X-1.7S0
X-.5S1000
X-1.3S0
X-.5S1000
X-11.5S0
X-.7S1000
X-5.4S0
X-.7S1000
X-11.5S0
X-1.2S1000
X-.8S0
X-.9S1000
X-1.7S0
X-.5S1000
X-1.3S0
X-.5S1000
X-2.917S0
Y.1
X2.917
X.4S1000
X.6S0
X.2S1000
X.6S0
X.5S1000
X1.7S0
X.9S1000
X.6S0
X1.5S1000
X11.4S0
X.6S1000
X5.6S0
X.6S1000
X11.5S0
X.4S1000
X.6S0
X.2S1000
X.6S0
X.5S1000
X1.7S0
X1S1000
X.6S0
X1.4S1000
X26.3S0
X.4S1000
X.6S0
X.2S1000
X.7S0
X.5S1000
X1.6S0
X1S1000
X.6S0
X1.4S1000
X11.4S0
X.7S1000
X5.5S0
X.7S1000
X11.4S0
X.5S1000
X.5S0
X.2S1000
X.7S0
X.5S1000
X1.6S0
X1S1000
X.6S0
X1.4S1000
X26.4S0
X.4S1000
X.6S0
X.1S1000
X.7S0
X.6S1000
X1.6S0
X1S1000
X.5S0
X1.4S1000
X11.5S0
X.6S1000
X5.6S0
X.6S1000
X11.5S0
X.4S1000
X.6S0
X.2S1000
X.6S0
X.5S1000
X1.7S0
X1S1000
X.5S0
X1.5S1000
X26.3S0
X.4S1000
X.6S0
X.2S1000
X.6S0
X.6S1000
X1.6S0
X1S1000
X.6S0
X1.4S1000
X11.5S0
X.6S1000
X5.5S0
X.6S1000
X11.5S0
X.5S1000
X.5S0
X.2S1000
X.7S0
X.6S1000
X1.5S0
X1S1000
X.599S0
X1.401S1000
X2.916S0
X.1Y.1
X-2.917
X-3.099S1000
X-1.6S0
X-.5S1000
X-.5S0
X-.4S1000
X-.6S0
X-.4S1000
X-11.401S0
X-.599S1000
X-5.6S0
X-.7S1000
X-11.3S0
X-3.1S1000
X-1.6S0
X-.5S1000
X-.5S0
X-.5S1000
X-.6S0
X-.4S1000
X-26.1S0
X-3.2S1000
X-1.6S0
X-.5S1000
X-.5S0
X-.4S1000
X-.6S0
X-.4S1000
X-11.2S0
X-.8S1000
X-5.6S0
X-.7S1000
X-11.3S0
X-3.1S1000
X-1.6S0
X-.5S1000
X-.5S0
X-.4S1000
X-.6S0
X-.4S1000
X-26.2S0
X-3.1S1000
X-1.6S0
X-.5S1000
X-.5S0
X-.4S1000
X-.6S0
X-.4S1000
X-11.4S0
X-.6S1000
X-5.7S0
X-.6S1000
X-11.3S0
X-3.1S1000
X-1.6S0
X-.5S1000
X-.5S0
X-.5S1000
X-.6S0
X-.3S1000
X-26.2S0
X-3.2S1000
X-1.6S0
X-.5S1000
X-.4S0
X-.5S1000
X-.6S0
X-.4S1000
X-11.3S0
X-.7S1000
X-5.6S0
X-.6S1000
X-11.3S0
X-3.2S1000
X-1.6S0
X-.5S1000
X-.4S0
X-.5S1000
X-.6S0
X-.4S1000
X-2.917S0
X-.1Y.1
X2.917
X.4S1000
X.7S0
X.5S1000
X.4S0
X.6S1000
X1.4S0
X3.4S1000
X11.1S0
X.7S1000
X5.7S0
X.7S1000
X11.1S0
X.4S1000
X.7S0
X.5S1000
X.4S0
X.6S1000
X1.4S0
X3.4S1000
X26S0
X.3S1000
X.8S0
X.4S1000
X.5S0
X.5S1000
X1.4S0
X3.4S1000
X11.1S0
X.7S1000
X5.7S0
X.7S1000
X11.2S0
X.4S1000
X.7S0
X.5S1000
X.4S0
X.5S1000
X1.4S0
X3.4S1000
X26.1S0
X.3S1000
X.7S0
X.5S1000
X.5S0
X.4S1000
X1.5S0
X3.3S1000
X11.2S0
X.6S1000
X5.8S0
X.6S1000
X11.3S0
X.3S1000
X.7S0
X.5S1000
X.4S0
X.6S1000
X1.4S0
X3.4S1000
X26S0
X.3S1000
X.7S0
X.5S1000
X.4S0
X.6S1000
X1.4S0
X3.4S1000
X11.099S0
X.701S1000
X5.7S0
X.8S1000
X11.1S0
X.4S1000
X.7S0
X.5S1000
X.4S0
X.5S1000
X1.5S0
X3.3S1000
X2.916S0
X.1Y.1
X-2.916
X-.4S1000
X-.9S0
X-2.3S1000
X-1.2S0
X-.5S1000
X-.7S0
X-.1S1000
X-1S0
X-.4S1000
X-11S0
X-.6S1000
X-6S0
X-.601S1000
X-10.999S0
X-.4S1000
X-.9S0
X-2.3S1000
X-1.3S0
X-.5S1000
X-.5S0
X-.2S1000
X-1S0
X-.4S1000
X-25.9S0
X-.3S1000
X-1S0
X-2.2S1000
X-1.3S0
X-.5S1000
X-.5S0
X-.2S1000
X-1.1S0
X-.3S1000
X-11.1S0
X-.6S1000
X-5.9S0
X-.7S1000
X-11S0
X-.4S1000
X-.9S0
X-2.3S1000
X-1.2S0
X-.6S1000
X-.4S0
X-.2S1000
X-1S0
X-.4S1000
X-25.9S0
X-.4S1000
X-.9S0
X-2.3S1000
X-1.2S0
X-.6S1000
X-.5S0
X-.1S1000
X-1.1S0
X-.4S1000
X-11S0
X-.6S1000
X-6S0
X-.6S1000
X-11S0
X-.4S1000
X-1S0
X-2.2S1000
X-1.3S0
X-.5S1000
X-.5S0
X-.1S1000
X-1.1S0
X-.4S1000
X-25.9S0
X-.3S1000
X-1S0
X-2.3S1000
X-1.2S0
X-.6S1000
X-.4S0
X-.1S1000
X-1.1S0
X-.4S1000
X-11.1S0
X-.6S1000
X-5.9S0
X-.7S1000
X-11S0
X-.3S1000
X-1S0
X-2.3S1000
X-1.2S0
X-.6S1000
X-.4S0
X-.1S1000
X-1.1S0
X-.4S1000
X-2.917S0
Y.1
X2.917
X.3S1000
X1.7S0
X.7S1000
X1S0
X.6S1000
X.3S0
X.1S1000
X.1S0
X1.3S1000
X1S0
X.3S1000
X11S0
X.6S1000
X6.1S0
X.6S1000
X11S0
X.3S1000
X1.7S0
X.7S1000
X1S0
X.7S1000
X.2S0
X.1S1000
X.2S0
X1.2S1000
X1.1S0
X.2S1000
X25.9S0
X.3S1000
X1.8S0
X.6S1000
X1S0
X.7S1000
X.1S0
X.1S1000
X.2S0
X1.3S1000
X1.1S0
X.3S1000
X10.9S0
X.7S1000
X6S0
X.7S1000
X10.9S0
X.3S1000
X1.8S0
X.6S1000
X1S0
X.7S1000
X.1S0
X.1S1000
X.2S0
X1.3S1000
X1.1S0
X.3S1000
X25.8S0
X.4S1000
X1.7S0
X.7S1000
X1S0
X.7S1000
X.2S0
X.1S1000
X.1S0
X1.2S1000
X1.1S0
X.3S1000
X10.9S0
X.7S1000
X6.1S0
X.6S1000
X10.9S0
X.5S1000
X1.6S0
X.7S1000
X1S0
X.7S1000
X.1S0
X.1S1000
X.2S0
X1.3S1000
X1S0
X.4S1000
X25.8S0
X.4S1000
X1.6S0
X.7S1000
X1S0
X.8S1000
X.2S0
X.1S1000
X.1S0
X1.2S1000
X1.1S0
X.3S1000
X10.9S0
X.6S1000
X6.1S0
X.7S1000
X10.9S0
X.4S1000
X1.7S0
X.6S1000
X1S0
X.8S1000
X.2S0
X.1S1000
X.1S0
X1.2S1000
X1.1S0
X.3S1000
X2.916S0
X.1Y.1
X-2.916
X-.4S1000
X-1.1S0
X-.9S1000
X-.8S0
X-.9S1000
X-.6S0
X-.8S1000
X-1.8S0
X-.3S1000
X-10.9S0
X-.6S1000
X-6.1S0
X-.8S1000
X-10.8S0
X-.3S1000
X-1.2S0
X-.8S1000
X-.9S0
X-.9S1000
X-.6S0
X-.8S1000
X-1.7S0
X-.3S1000
X-25.8S0
X-.3S1000
X-1.2S0
X-.9S1000
X-.8S0
X-.9S1000
X-.6S0
X-.8S1000
X-1.7S0
X-.4S1000
X-10.8S0
X-.7S1000
X-6.2S0
X-.6S1000
X-10.8S0
X-.4S1000
X-1.1S0
X-.9S1000
X-.8S0
X-.9S1000
X-.6S0
X-.8S1000
X-1.7S0
X-.4S1000
X-25.8S0
X-.3S1000
X-1.2S0
X-.8S1000
X-.9S0
X-.8S1000
X-.7S0
X-.7S1000
X-1.8S0
X-.3S1000
X-10.9S0
X-.6S1000
X-6.2S0
X-.7S1000
X-10.8S0
X-.3S1000
X-1.2S0
X-.9S1000
X-.8S0
X-.8S1000
X-.7S0
X-.7S1000
X-1.8S0
X-.3S1000
X-25.8S0
X-.3S1000
X-1.2S0
X-1S1000
X-.8S0
X-.8S1000
X-.6S0
X-.8S1000
X-1.7S0
X-.3S1000
X-11S0
X-.6S1000
X-6.1S0
X-.7S1000
X-10.8S0
X-.3S1000
X-1.2S0
X-1S1000
X-.8S0
X-.8S1000
X-.6S0
X-.8S1000
X-1.7S0
X-.3S1000
X-2.917S0
Y.1
X2.917
X.2S1000
X1.8S0
X2.1S1000
X1.1S0
X.8S1000
X1.2S0
X.3S1000
X10.7S0
X.7S1000
X6.3S0
X.6S1000
X10.9S0
X.2S1000
X1.8S0
X2.1S1000
X1.1S0
X.8S1000
X1.3S0
X.2S1000
X25.8S0
X.3S1000
X1.8S0
X2.2S1000
X.9S0
X.8S1000
X1.3S0
X.2S1000
X10.8S0
X.6S1000
X6.3S0
X.6S1000
X10.9S0
X.3S1000
X1.8S0
X2.2S1000
X.9S0
X.8S1000
X1.3S0
X.3S1000
X25.7S0
X.4S1000
X1.8S0
X2.1S1000
X1.1S0
X.7S1000
X1.2S0
X.3S1000
X10.7S0
X.7S1000
X6.3S0
X.6S1000
X10.8S0
X.3S1000
X1.8S0
X2.2S1000
X1S0
X.8S1000
X1.2S0
X.3S1000
X25.8S0
X.3S1000
X1.8S0
X2.2S1000
X1S0
X.7S1000
X1.3S0
X.3S1000
X10.7S0
X.6S1000
X6.3S0
X.7S1000
X10.8S0
X.3S1000
X1.8S0
X2.2S1000
X1S0
X.7S1000
X1.3S0
X.3S1000
X2.916S0
Y.1
X-2.916
X-.3S1000
X-1.3S0
X-.7S1000
X-1.1S0
X-2.1S1000
X-1.8S0
X-.3S1000
X-10.8S0
X-.6S1000
X-6.5S0
X-.6S1000
X-10.6S0
X-.3S1000
X-1.3S0
X-.7S1000
X-1.1S0
X-2.2S1000
X-1.7S0
X-.3S1000
X-25.7S0
X-.3S1000
X-1.3S0
X-.6S1000
X-1.3S0
X-2S1000
X-1.8S0
X-.4S1000
X-10.7S0
X-.7S1000
X-6.4S0
X-.7S1000
X-10.6S0
X-.2S1000
X-1.3S0
X-.7S1000
X-1.2S0
X-2.1S1000
X-1.8S0
X-.3S1000
X-25.7S0
X-.3S1000
X-1.3S0
X-.6S1000
X-1.2S0
X-2.1S1000
X-1.9S0
X-.2S1000
X-10.8S0
X-.6S1000
X-6.4S0
X-.7S1000
X-10.6S0
X-.3S1000
X-1.3S0
X-.6S1000
X-1.2S0
X-2.1S1000
X-1.9S0
X-.2S1000
X-25.7S0
X-.3S1000
X-1.3S0
X-.7S1000
X-1.2S0
X-2S1000
X-1.8S0
X-.3S1000
X-10.8S0
X-.7S1000
X-6.4S0
X-.6S1000
X-10.6S0
X-.3S1000
X-1.3S0
X-.7S1000
X-1.2S0
X-2.1S1000
X-1.7S0
X-.3S1000
X-2.917S0
Y.1
X2.917
X.2S1000
X1.9S0
X1.9S1000
X.6S0
X.2S1000
X.6S0
X.6S1000
X1.3S0
X.3S1000
X10.5S0
X.7S1000
X6.5S0
X.7S1000
X10.7S0
X.2S1000
X1.8S0
X2S1000
X.5S0
X.3S1000
X.7S0
X.5S1000
X1.3S0
X.3S1000
X25.7S0
X.3S1000
X1.8S0
X2S1000
X.5S0
X.2S1000
X.6S0
X.6S1000
X1.4S0
X.3S1000
X10.4S0
X.7S1000
X6.5S0
X.7S1000
X10.7S0
X.3S1000
X1.8S0
X2S1000
X.6S0
X.1S1000
X.6S0
X.6S1000
X1.4S0
X.2S1000
X25.7S0
X.4S1000
X1.7S0
X2S1000
X.6S0
X.1S1000
X.7S0
X.6S1000
X1.3S0
X.3S1000
X10.5S0
X.6S1000
X6.6S0
X.7S1000
X10.6S0
X.4S1000
X1.7S0
X2S1000
X.6S0
X.1S1000
X.7S0
X.6S1000
X1.3S0
X.3S1000
X25.7S0
X.2S1000
X1.9S0
X2S1000
X.5S0
X.2S1000
X.7S0
X.5S1000
X1.4S0
X.3S1000
X10.4S0
X.8S1000
X6.4S0
X.7S1000
X10.7S0
X.3S1000
X1.9S0
X1.9S1000
X.6S0
X.1S1000
X.7S0
X.5S1000
X1.4S0
X.3S1000
X2.916S0
Y.1
X-2.916
X-.3S1000
X-1.4S0
X-.5S1000
X-.5S0
X-.3S1000
X-.7S0
X-1.9S1000
X-1.9S0
X-.2S1000
X-10.6S0
X-.7S1000
X-6.6S0
X-.7S1000
X-10.4S0
X-.3S1000
X-1.4S0
X-.5S1000
X-.5S0
X-.4S1000
X-.7S0
X-1.9S1000
X-1.7S0
X-.3S1000
X-25.7S0
X-.3S1000
X-1.3S0
X-.5S1000
X-.6S0
X-.3S1000
X-.6S0
X-2S1000
X-1.8S0
X-.2S1000
X-10.7S0
X-.7S1000
X-6.6S0
X-.6S1000
X-10.5S0
X-.3S1000
X-1.3S0
X-.5S1000
X-.6S0
X-.3S1000
X-.6S0
X-1.9S1000
X-1.8S0
X-.4S1000
X-25.6S0
X-.3S1000
X-1.4S0
X-.5S1000
X-.5S0
X-.3S1000
X-.7S0
X-1.9S1000
X-1.8S0
X-.3S1000
X-10.7S0
X-.6S1000
X-6.6S0
X-.7S1000
X-10.4S0
X-.3S1000
X-1.4S0
X-.5S1000
X-.5S0
X-.4S1000
X-.6S0
X-1.9S1000
X-1.8S0
X-.3S1000
X-25.6S0
X-.4S1000
X-1.3S0
X-.5S1000
X-.6S0
X-.3S1000
X-.7S0
X-1.9S1000
X-1.7S0
X-.3S1000
X-10.7S0
X-.7S1000
X-6.6S0
X-.7S1000
X-10.3S0
X-.4S1000
X-1.3S0
X-.5S1000
X-.6S0
X-.3S1000
X-.7S0
X-1.9S1000
X-1.7S0
X-.3S1000
X-2.917S0
Y.1
X2.917
X.2S1000
X1.8S0
X1.8S1000
X.9S0
X.2S1000
X.6S0
X.5S1000
X1.3S0
X.3S1000
X10.4S0
X.7S1000
X6.7S0
X.7S1000
X10.6S0
X.2S1000
X1.8S0
X1.9S1000
X.9S0
X.1S1000
X.6S0
X.5S1000
X1.3S0
X.4S1000
X25.7S0
X.1S1000
X1.8S0
X1.9S1000
X.9S0
X.2S1000
X.5S0
X.5S1000
X1.4S0
X.3S1000
X10.4S0
X.6S1000
X6.8S0
X.6S1000
X10.7S0
X.2S1000
X1.7S0
X1.9S1000
X.8S0
X.3S1000
X.5S0
X.5S1000
X1.4S0
X.3S1000
X25.7S0
X.2S1000
X1.8S0
X1.8S1000
X.9S0
X.2S1000
X.6S0
X.5S1000
X1.3S0
X.3S1000
X10.4S0
X.6S1000
X6.8S0
X.6S1000
X10.7S0
X.3S1000
X1.7S0
X1.8S1000
X1S0
X.1S1000
X.6S0
X.5S1000
X1.3S0
X.3S1000
X25.8S0
X.2S1000
X1.7S0
X1.9S1000
X.9S0
X.1S1000
X.6S0
X.6S1000
X1.3S0
X.3S1000
X10.4S0
X.6S1000
X6.7S0
X.8S1000
X10.6S0
X.2S1000
X1.7S0
X1.9S1000
X.9S0
X.2S1000
X.5S0
X.5S1000
X1.4S0
X.3S1000
X2.916S0
Y.1
X-2.916
X-.3S1000
X-1.4S0
X-.5S1000
X-1.6S0
X-.5S1000
X-.8S0
X-.6S1000
X-1.7S0
X-.2S1000
X-10.6S0
X-.7S1000
X-6.9S0
X-.6S1000
X-10.3S0
X-.3S1000
X-1.4S0
X-.5S1000
X-1.7S0
X-.4S1000
X-.8S0
X-.7S1000
X-1.6S0
X-.2S1000
X-25.8S0
X-.3S1000
X-1.3S0
X-.5S1000
X-1.7S0
X-.4S1000
X-.9S0
X-.6S1000
X-1.6S0
X-.3S1000
X-10.6S0
X-.6S1000
X-6.9S0
X-.7S1000
X-10.3S0
X-.3S1000
X-1.3S0
X-.5S1000
X-1.7S0
X-.4S1000
X-.9S0
X-.6S1000
X-1.6S0
X-.3S1000
X-25.7S0
X-.3S1000
X-1.4S0
X-.5S1000
X-1.6S0
X-.5S1000
X-.9S0
X-.5S1000
X-1.8S0
X-.1S1000
X-10.6S0
X-.7S1000
X-6.9S0
X-.6S1000
X-10.3S0
X-.3S1000
X-1.4S0
X-.5S1000
X-1.7S0
X-.4S1000
X-.9S0
X-.6S1000
X-1.6S0
X-.2S1000
X-25.7S0
X-.4S1000
X-1.3S0
X-.5S1000
X-1.7S0
X-.4S1000
X-.9S0
X-.6S1000
X-1.7S0
X-.1S1000
X-10.7S0
X-.6S1000
X-6.9S0
X-.6S1000
X-10.4S0
X-.3S1000
X-1.3S0
X-.5S1000
X-1.7S0
X-.4S1000
X-.9S0
X-.6S1000
X-1.6S0
X-.3S1000
X-2.917S0
X.1Y.1
X2.917
X.1S1000
X1.6S0
X.6S1000
X1.1S0
X.3S1000
X1.7S0
X.5S1000
X1.3S0
X.4S1000
X10.2S0
X.6S1000
X7S0
X.7S1000
X10.6S0
X.2S1000
X1.5S0
X.6S1000
X1.1S0
X.3S1000
X1.7S0
X.5S1000
X1.3S0
X.4S1000
X25.7S0
X.2S1000
X1.5S0
X.7S1000
X1S0
X.3S1000
X1.7S0
X.5S1000
X1.4S0
X.3S1000
X10.2S0
X.7S1000
X7S0
X.6S1000
X10.6S0
X.2S1000
X1.6S0
X.5S1000
X1.1S0
X.3S1000
X1.7S0
X.6S1000
X1.3S0
X.3S1000
X25.7S0
X.3S1000
X1.5S0
X.6S1000
X1.1S0
X.2S1000
X1.8S0
X.5S1000
X1.3S0
X.3S1000
X10.3S0
X.6S1000
X7S0
X.8S1000
X10.4S0
X.2S1000
X1.6S0
X.7S1000
X1S0
X.2S1000
X1.8S0
X.5S1000
X1.3S0
X.3S1000
X25.8S0
X.2S1000
X1.5S0
X.7S1000
X1S0
X.3S1000
X1.7S0
X.5S1000
X1.3S0
X.4S1000
X10.2S0
X.8S1000
X6.9S0
X.6S1000
X10.6S0
X.2S1000
X1.6S0
X.6S1000
X1S0
X.3S1000
X1.8S0
X.5S1000
X1.3S0
X.3S1000
X2.916S0
Y.1
X-2.916
X-.4S1000
X-1.2S0
X-.6S1000
X-1.7S0
X-.2S1000
X-1.2S0
X-.6S1000
X-1.4S0
X-.3S1000
X-10.4S0
X-.8S1000
X-7.1S0
X-.6S1000
X-10.2S0
X-.4S1000
X-1.2S0
X-.6S1000
X-1.7S0
X-.2S1000
X-1.2S0
X-.7S1000
X-1.3S0
X-.3S1000
X-25.8S0
X-.3S1000
X-1.3S0
X-.5S1000
X-1.8S0
X-.2S1000
X-1.1S0
X-.7S1000
X-1.4S0
X-.2S1000
X-10.6S0
X-.6S1000
X-7.1S0
X-.7S1000
X-10.2S0
X-.4S1000
X-1.2S0
X-.5S1000
X-1.8S0
X-.2S1000
X-1.2S0
X-.6S1000
X-1.4S0
X-.2S1000
X-25.8S0
X-.4S1000
X-1.2S0
X-.6S1000
X-1.7S0
X-.2S1000
X-1.2S0
X-.7S1000
X-1.3S0
X-.3S1000
X-10.5S0
X-.7S1000
X-7.1S0
X-.6S1000
X-10.2S0
X-.4S1000
X-1.2S0
X-.6S1000
X-1.7S0
X-.3S1000
X-1.1S0
X-.7S1000
X-1.3S0
X-.3S1000
X-25.7S0
X-.4S1000
X-1.2S0
X-.6S1000
X-1.7S0
X-.4S1000
X-1S0
X-.7S1000
X-1.3S0
X-.3S1000
X-10.5S0
X-.7S1000
X-7.1S0
X-.7S1000
X-10.2S0
X-.3S1000
X-1.2S0
X-.6S1000
X-1.7S0
X-.4S1000
X-1S0
X-.7S1000
X-1.4S0
X-.2S1000
X-2.917S0
Y.1
X2.917
X.4S1000
X1.1S0
X.7S1000
X1.2S0
X.3S1000
X1.6S0
X.7S1000
X1.1S0
X.4S1000
X10.2S0
X.6S1000
X7.3S0
X.6S1000
X10.6S0
X.3S1000
X1.1S0
X.7S1000
X1.2S0
X.3S1000
X1.6S0
X.7S1000
X1.1S0
X.4S1000
X25.9S0
X.3S1000
X1.1S0
X.7S1000
X1.3S0
X.2S1000
X1.7S0
X.7S1000
X1.1S0
X.3S1000
X10.2S0
X.6S1000
X7.3S0
X.7S1000
X10.5S0
X.3S1000
X1.2S0
X.6S1000
X1.2S0
X.3S1000
X1.7S0
X.7S1000
X1.1S0
X.3S1000
X25.9S0
X.3S1000
X1.2S0
X.7S1000
X1.2S0
X.2S1000
X1.7S0
X.7S1000
X1.1S0
X.4S1000
X10.2S0
X.6S1000
X7.2S0
X.7S1000
X10.5S0
X.4S1000
X1.1S0
X.6S1000
X1.3S0
X.2S1000
X1.7S0
X.8S1000
X1S0
X.4S1000
X25.9S0
X.3S1000
X1.1S0
X.7S1000
X1.3S0
X.2S1000
X1.7S0
X.7S1000
X1.1S0
X.3S1000
X10.2S0
X.6S1000
X7.3S0
X.6S1000
X10.6S0
X.3S1000
X1.2S0
X.6S1000
X1.3S0
X.2S1000
X1.7S0
X.7S1000
X1.1S0
X.3S1000
X2.916S0
Y.1
X-2.916
X-.4S1000
X-.9S0
X-.9S1000
X-1.6S0
X-.2S1000
X-1.4S0
X-.8S1000
X-.8S0
X-.3S1000
X-10.6S0
X-.6S1000
X-7.4S0
X-.7S1000
X-10.1S0
X-.4S1000
X-1S0
X-.8S1000
X-1.6S0
X-.2S1000
X-1.4S0
X-.8S1000
X-.9S0
X-.3S1000
X-26S0
X-.4S1000
X-.9S0
X-.8S1000
X-1.7S0
X-.2S1000
X-1.3S0
X-.8S1000
X-.8S0
X-.4S1000
X-10.5S0
X-.7S1000
X-7.4S0
X-.7S1000
X-10.1S0
X-.4S1000
X-.9S0
X-.8S1000
X-1.7S0
X-.2S1000
X-1.4S0
X-.7S1000
X-.9S0
X-.3S1000
X-26S0
X-.5S1000
X-.9S0
X-.8S1000
X-1.6S0
X-.2S1000
X-1.4S0
X-.7S1000
X-1S0
X-.3S1000
X-10.5S0
X-.6S1000
X-7.4S0
X-.7S1000
X-10.1S0
X-.4S1000
X-1S0
X-.8S1000
X-1.6S0
X-.2S1000
X-1.4S0
X-.8S1000
X-.9S0
X-.3S1000
X-25.9S0
X-.5S1000
X-.9S0
X-.8S1000
X-1.6S0
X-.2S1000
X-1.4S0
X-.8S1000
X-.9S0
X-.3S1000
X-10.5S0
X-.7S1000
X-7.4S0
X-.6S1000
X-10.2S0
X-.4S1000
X-.9S0
X-.8S1000
X-1.6S0
X-.3S1000
X-1.3S0
X-.8S1000
X-.8S0
X-.5S1000
X-2.917S0
X.1Y.1
X2.917
X.5S1000
X.2S0
X1.2S1000
X1.5S0
X.2S1000
X1.5S0
X1S1000
X.7S0
X.4S1000
X10.2S0
X.7S1000
X7.5S0
X.6S1000
X10.6S0
X.4S1000
X.1S0
X1.4S1000
X1.3S0
X.3S1000
X1.4S0
X1.1S1000
X.7S0
X.5S1000
X26.1S0
X.5S1000
X.1S0
X1.3S1000
X1.3S0
X.3S1000
X1.5S0
X1S1000
X.7S0
X.5S1000
X10.1S0
X.7S1000
X7.5S0
X.6S1000
X10.6S0
X.8S1000
X.1S0
X1S1000
X1.4S0
X.2S1000
X1.5S0
X1.1S1000
X.7S0
X.4S1000
X26.1S0
X.8S1000
X.1S0
X1S1000
X1.5S0
X.2S1000
X1.5S0
X1S1000
X.7S0
X.4S1000
X10.2S0
X.6S1000
X7.6S0
X.7S1000
X10.4S0
X.8S1000
X.1S0
X1S1000
X1.5S0
X.2S1000
X1.4S0
X1.1S1000
X.7S0
X.4S1000
X26.2S0
X1.9S1000
X1.3S0
X.3S1000
X1.5S0
X1S1000
X.8S0
X.4S1000
X10.1S0
X.8S1000
X7.5S0
X.6S1000
X10.5S0
X1.9S1000
X1.4S0
X.2S1000
X1.5S0
X1S1000
X.8S0
X.4S1000
X2.916S0
X-.1Y.1
X-2.916
X-.5S1000
X-.4S0
X-1.3S1000
X-1.3S0
X-.3S1000
X-1.5S0
X-.4S1000
X-.1S0
X-1.2S1000
X-10.5S0
X-.7S1000
X-7.7S0
X-.6S1000
X-10.2S0
X-.5S1000
X-.5S0
X-1.2S1000
X-1.3S0
X-.3S1000
X-1.5S0
X-.4S1000
X-.1S0
X-1.2S1000
X-26.4S0
X-.4S1000
X-.6S0
X-1.1S1000
X-1.4S0
X-.3S1000
X-1.4S0
X-.5S1000
X-.1S0
X-1.2S1000
X-10.5S0
X-.7S1000
X-7.6S0
X-.6S1000
X-10.3S0
X-.5S1000
X-.5S0
X-1.1S1000
X-1.4S0
X-.3S1000
X-1.4S0
X-.5S1000
X-.1S0
X-1.2S1000
X-26.3S0
X-.5S1000
X-.5S0
X-1.2S1000
X-1.3S0
X-.3S1000
X-1.5S0
X-.4S1000
X-.1S0
X-1.2S1000
X-10.6S0
X-.6S1000
X-7.7S0
X-.6S1000
X-10.2S0
X-.5S1000
X-.6S0
X-1.1S1000
X-1.3S0
X-.3S1000
X-1.5S0
X-.4S1000
X-.1S0
X-1.2S1000
X-26.3S0
X-.5S1000
X-.6S0
X-1.1S1000
X-1.4S0
X-.3S1000
X-1.4S0
X-.4S1000
X-.1S0
X-1.2S1000
X-10.6S0
X-.7S1000
X-7.6S0
X-.7S1000
X-10.2S0
X-.4S1000
X-.6S0
X-1.1S1000
X-1.4S0
X-.3S1000
X-1.4S0
X-.4S1000
X-.2S0
X-1.2S1000
X-2.917S0
X.2Y.1
X2.917
X.9S1000
X.3S0
X.4S1000
X1.4S0
X.4S1000
X1.2S0
X2.1S1000
X10.3S0
X.6S1000
X7.8S0
X.6S1000
X10.7S0
X.9S1000
X.3S0
X.4S1000
X1.4S0
X.4S1000
X1.2S0
X2.1S1000
X26.7S0
X.8S1000
X.3S0
X.4S1000
X1.4S0
X.4S1000
X1.2S0
X2.1S1000
X10.3S0
X.7S1000
X7.7S0
X.7S1000
X10.7S0
X.8S1000
X.3S0
X.4S1000
X1.4S0
X.4S1000
X1.2S0
X2.1S1000
X26.7S0
X.8S1000
X.4S0
X.4S1000
X1.4S0
X.3S1000
X1.3S0
X2S1000
X10.4S0
X.6S1000
X7.8S0
X.6S1000
X10.7S0
X.9S1000
X.3S0
X.4S1000
X1.4S0
X.3S1000
X1.3S0
X2.1S1000
X26.7S0
X.8S1000
X.3S0
X.4S1000
X1.4S0
X.4S1000
X1.2S0
X2.1S1000
X10.4S0
X.6S1000
X7.7S0
X.6S1000
X10.8S0
X.8S1000
X.3S0
X.5S1000
X1.4S0
X.3S1000
X1.2S0
X2.1S1000
X2.916S0
X-.2Y.1
X-2.916
X-2S1000
X-1S0
X-.4S1000
X-1.4S0
X-.5S1000
X-.6S0
X-.1S1000
X-11.1S0
X-.6S1000
X-7.8S0
X-.7S1000
X-10.5S0
X-2S1000
X-1S0
X-.5S1000
X-1.4S0
X-.4S1000
X-.7S0
X-.1S1000
X-27.2S0
X-2S1000
X-1.1S0
X-.4S1000
X-1.4S0
X-.4S1000
X-.7S0
X-.1S1000
X-10.9S0
X-.7S1000
X-7.9S0
X-.7S1000
X-10.5S0
X-1.9S1000
X-1.1S0
X-.4S1000
X-1.4S0
X-.4S1000
X-.7S0
X-.1S1000
X-27.3S0
X-2S1000
X-1S0
X-.4S1000
X-1.5S0
X-.4S1000
X-.6S0
X-.2S1000
X-10.9S0
X-.7S1000
X-7.9S0
X-.6S1000
X-10.5S0
X-2S1000
X-1S0
X-.4S1000
X-1.5S0
X-.4S1000
X-.6S0
X-.2S1000
X-27.2S0
X-2S1000
X-1.1S0
X-.4S1000
X-1.4S0
X-.4S1000
X-.7S0
X-.1S1000
X-11S0
X-.6S1000
X-7.9S0
X-.7S1000
X-10.4S0
X-2S1000
X-1.1S0
X-.5S1000
X-1.3S0
X-.4S1000
X-.7S0
X-.1S1000
X-2.917S0
X.8Y.1
X2.917
X.4S1000
X1.4S0
X.5S1000
X.8S0
X2.1S1000
X10.5S0
X.7S1000
X7.9S0
X.7S1000
X11.7S0
X.4S1000
X1.4S0
X.6S1000
X.7S0
X2.1S1000
X28.2S0
X.3S1000
X1.4S0
X.6S1000
X.7S0
X2.1S1000
X10.5S0
X.7S1000
X8S0
X.6S1000
X11.8S0
X.3S1000
X1.4S0
X.6S1000
X.7S0
X2.1S1000
X28.2S0
X.4S1000
X1.4S0
X.5S1000
X.8S0
X2S1000
X10.6S0
X.6S1000
X8S0
X.7S1000
X11.7S0
X.4S1000
X1.4S0
X.6S1000
X.7S0
X2.1S1000
X28.2S0
X.3S1000
X1.4S0
X.6S1000
X.7S0
X2.1S1000
X10.5S0
X.599S1000
X8.101S0
X.7S1000
X11.7S0
X.4S1000
X1.3S0
X.6S1000
X.699S0
X2.101S1000
X2.916S0
X-.1Y.1
X-2.917
X-3.299S1000
X-1.3S0
X-.401S1000
X-11.599S0
X-.7S1000
X-8.201S0
X-.699S1000
X-10.5S0
X-3.3S1000
X-1.4S0
X-.3S1000
X-28.3S0
X-3.4S1000
X-1.3S0
X-.3S1000
X-11.8S0
X-.6S1000
X-8.1S0
X-.7S1000
X-10.5S0
X-3.4S1000
X-1.3S0
X-.4S1000
X-28.3S0
X-3.3S1000
X-1.4S0
X-.3S1000
X-11.7S0
X-.6S1000
X-8.2S0
X-.6S1000
X-10.6S0
X-3.3S1000
X-1.4S0
X-.3S1000
X-28.3S0
X-3.4S1000
X-1.3S0
X-.3S1000
X-11.7S0
X-.7S1000
X-8.1S0
X-.7S1000
X-10.5S0
X-3.4S1000
X-1.3S0
X-.3S1000
X-2.917S0
Y.1
X2.917
X.3S1000
X1.3S0
X2.5S1000
X.2S0
X.7S1000
X10.5S0
X.6S1000
X8.3S0
X.6S1000
X11.7S0
X.3S1000
X1.3S0
X2.5S1000
X.3S0
X.6S1000
X28.3S0
X.3S1000
X1.3S0
X2.6S1000
X.2S0
X.7S1000
X10.4S0
X.7S1000
X8.2S0
X.7S1000
X11.6S0
X.3S1000
X1.3S0
X2.6S1000
X.2S0
X.7S1000
X28.2S0
X.4S1000
X1.2S0
X2.7S1000
X.1S0
X.7S1000
X10.4S0
X.7S1000
X8.3S0
X.6S1000
X11.7S0
X.3S1000
X1.3S0
X2.5S1000
X.2S0
X.7S1000
X28.3S0
X.4S1000
X1.2S0
X2.6S1000
X.2S0
X.7S1000
X10.4S0
X.6S1000
X8.3S0
X.7S1000
X11.6S0
X.4S1000
X1.2S0
X2.6S1000
X.2S0
X.7S1000
X2.916S0
X.1Y.1
X-2.916
X-.5S1000
X-.7S0
X-2.5S1000
X-1.099S0
X-.4S1000
X-11.6S0
X-.6S1000
X-8.3S0
X-.799S1000
X-10.3S0
X-.4S1000
X-.7S0
X-2.5S1000
X-1.2S0
X-.3S1000
X-28.2S0
X-.6S1000
X-.6S0
X-2.5S1000
X-1.1S0
X-.3S1000
X-11.6S0
X-.7S1000
X-8.4S0
X-.6S1000
X-10.3S0
X-.5S1000
X-.7S0
X-2.5S1000
X-1.1S0
X-.4S1000
X-28.1S0
X-.6S1000
X-.6S0
X-2.5S1000
X-1.1S0
X-.4S1000
X-11.6S0
X-.6S1000
X-8.4S0
X-.7S1000
X-10.3S0
X-.5S1000
X-.6S0
X-2.5S1000
X-1.1S0
X-.4S1000
X-28.2S0
X-.6S1000
X-.5S0
X-2.5S1000
X-1.2S0
X-.3S1000
X-11.6S0
X-.7S1000
X-8.3S0
X-.7S1000
X-10.4S0
X-.5S1000
X-.5S0
X-2.5S1000
X-1.2S0
X-.3S1000
X-2.917S0
Y.1
X2.917
X.4S1000
X1S0
X2.4S1000
X.9S0
X.4S1000
X10.2S0
X.7S1000
X8.5S0
X.6S1000
X11.6S0
X.4S1000
X1S0
X2.5S1000
X.8S0
X.4S1000
X28.2S0
X.4S1000
X1S0
X2.5S1000
X.8S0
X.4S1000
X10.3S0
X.6S1000
X8.5S0
X.7S1000
X11.5S0
X.4S1000
X1S0
X2.5S1000
X.8S0
X.4S1000
X28.3S0
X.4S1000
X.9S0
X2.5S1000
X.9S0
X.4S1000
X10.2S0
X.7S1000
X8.5S0
X.6S1000
X11.6S0
X.4S1000
X.9S0
X2.5S1000
X.9S0
X.4S1000
X28.2S0
X.4S1000
X1S0
X2.5S1000
X.8S0
X.4S1000
X10.3S0
X.6S1000
X8.5S0
X.7S1000
X11.6S0
X.3S1000
X1S0
X2.5S1000
X.8S0
X.5S1000
X2.916S0
X-.1Y.1
X-2.916
X-.3S1000
X-1.1S0
X-.9S1000
X-.9S0
X-.6S1000
X-.7S0
X-.5S1000
X-11.6S0
X-.6S1000
X-8.7S0
X-.6S1000
X-10.2S0
X-.3S1000
X-1.1S0
X-.8S1000
X-1.1S0
X-.5S1000
X-.8S0
X-.4S1000
X-28.3S0
X-.3S1000
X-1.1S0
X-.9S1000
X-1S0
X-.6S1000
X-.6S0
X-.1S1000
X-.1S0
X-.4S1000
X-11.5S0
X-.7S1000
X-8.6S0
X-.7S1000
X-10.1S0
X-.4S1000
X-1.1S0
X-.8S1000
X-1S0
X-.6S1000
X-.7S0
X-.5S1000
X-28.2S0
X-.4S1000
X-1.1S0
X-.9S1000
X-.9S0
X-.6S1000
X-.7S0
X-.5S1000
X-11.6S0
X-.6S1000
X-8.6S0
X-.7S1000
X-10.1S0
X-.4S1000
X-1.1S0
X-.9S1000
X-.9S0
X-.7S1000
X-.6S0
X-.5S1000
X-28.4S0
X-.3S1000
X-1S0
X-.9S1000
X-1S0
X-.6S1000
X-.8S0
X-.4S1000
X-11.5S0
X-.7S1000
X-8.6S0
X-.6S1000
X-10.2S0
X-.3S1000
X-1.1S0
X-1S1000
X-.9S0
X-.5S1000
X-.9S0
X-.4S1000
X-2.917S0
Y.1
X2.917
X.8S1000
X.1S0
X.8S1000
X1.1S0
X.8S1000
X1.2S0
X.3S1000
X10.1S0
X.7S1000
X8.7S0
X.7S1000
X11.4S0
X.8S1000
X.1S0
X.8S1000
X1.2S0
X.7S1000
X1.2S0
X.3S1000
X28.2S0
X.7S1000
X.1S0
X.9S1000
X1.2S0
X.7S1000
X1.2S0
X.3S1000
X10.1S0
X.7S1000
X8.7S0
X.7S1000
X11.4S0
X.7S1000
X.1S0
X.9S1000
X1.2S0
X.7S1000
X1.2S0
X.3S1000
X28.3S0
X.8S1000
X.1S0
X.7S1000
X1.2S0
X.7S1000
X1.2S0
X.4S1000
X10.1S0
X.6S1000
X8.8S0
X.7S1000
X11.4S0
X.7S1000
X.1S0
X.2S1000
X.1S0
X.5S1000
X1.2S0
X.8S1000
X1.2S0
X.3S1000
X28.2S0
X.8S1000
X.1S0
X.8S1000
X1.2S0
X.7S1000
X1.2S0
X.4S1000
X10S0
X.8S1000
X8.7S0
X.6S1000
X11.4S0
X.8S1000
X.1S0
X.8S1000
X1.3S0
X.6S1000
X1.2S0
X.4S1000
X2.916S0
Y.1
X-2.916
X-.4S1000
X-1.3S0
X-.5S1000
X-1.4S0
X-1.7S1000
X-11.2S0
X-.7S1000
X-8.8S0
X-.7S1000
X-10.1S0
X-.3S1000
X-1.3S0
X-.5S1000
X-1.4S0
X-1.7S1000
X-28.1S0
X-.3S1000
X-1.3S0
X-.6S1000
X-1.4S0
X-1.7S1000
X-11.1S0
X-.8S1000
X-8.8S0
X-.7S1000
X-10.1S0
X-.3S1000
X-1.2S0
X-.6S1000
X-1.4S0
X-1.8S1000
X-27.9S0
X-.4S1000
X-1.3S0
X-.5S1000
X-1.4S0
X-1.8S1000
X-11.2S0
X-.6S1000
X-8.9S0
X-.6S1000
X-10.1S0
X-.3S1000
X-1.3S0
X-.5S1000
X-1.4S0
X-1.8S1000
X-28S0
X-.3S1000
X-1.3S0
X-.5S1000
X-1.4S0
X-1.9S1000
X-11.1S0
X-.7S1000
X-8.8S0
X-.7S1000
X-10S0
X-.3S1000
X-1.3S0
X-.6S1000
X-1.3S0
X-1.9S1000
X-2.917S0
X-.1Y.1
X2.917
X1.9S1000
X1.5S0
X.4S1000
X1.4S0
X.2S1000
X10.1S0
X.6S1000
X9S0
X.7S1000
X10.9S0
X1.9S1000
X1.5S0
X.4S1000
X1.4S0
X.3S1000
X27.9S0
X1.8S1000
X1.6S0
X.4S1000
X1.3S0
X.4S1000
X9.9S0
X.7S1000
X9S0
X.6S1000
X11S0
X1.8S1000
X1.6S0
X.4S1000
X1.3S0
X.3S1000
X27.9S0
X1.8S1000
X1.6S0
X.4S1000
X1.3S0
X.4S1000
X10S0
X.6S1000
X9S0
X.6S1000
X11S0
X1.9S1000
X1.5S0
X.4S1000
X1.4S0
X.3S1000
X27.9S0
X1.8S1000
X1.6S0
X.4S1000
X1.3S0
X.3S1000
X10.1S0
X.6S1000
X8.9S0
X.8S1000
X10.9S0
X1.8S1000
X1.6S0
X.4S1000
X1.3S0
X.3S1000
X2.916S0
X.1Y.1
X-2.916
X-.4S1000
X-1.3S0
X-.5S1000
X-1.5S0
X-2S1000
X-10.7S0
X-.7S1000
X-9.1S0
X-.6S1000
X-10S0
X-.3S1000
X-1.3S0
X-.5S1000
X-1.5S0
X-2S1000
X-27.8S0
X-.3S1000
X-1.3S0
X-.4S1000
X-1.6S0
X-2S1000
X-10.7S0
X-.6S1000
X-9.1S0
X-.7S1000
X-9.9S0
X-.4S1000
X-1.3S0
X-.4S1000
X-1.6S0
X-2S1000
X-27.6S0
X-.4S1000
X-1.4S0
X-.4S1000
X-1.5S0
X-2S1000
X-10.7S0
X-.7S1000
X-9.1S0
X-.6S1000
X-10S0
X-.3S1000
X-1.4S0
X-.4S1000
X-1.5S0
X-2S1000
X-27.7S0
X-.3S1000
X-1.4S0
X-.4S1000
X-1.6S0
X-1.9S1000
X-10.8S0
X-.6S1000
X-9.1S0
X-.7S1000
X-9.9S0
X-.4S1000
X-1.3S0
X-.4S1000
X-1.6S0
X-2S1000
X-2.917S0
X-.1Y.1
X2.917
X.5S1000
X.8S0
X.8S1000
X1.6S0
X.3S1000
X1.4S0
X.3S1000
X10S0
X.6S1000
X9.2S0
X.7S1000
X10.5S0
X.5S1000
X.8S0
X.8S1000
X1.7S0
X.3S1000
X1.3S0
X.3S1000
X27.6S0
X.6S1000
X.8S0
X.7S1000
X1.7S0
X.3S1000
X1.3S0
X.4S1000
X9.9S0
X.7S1000
X9.2S0
X.6S1000
X10.5S0
X.6S1000
X.8S0
X.7S1000
X1.7S0
X.3S1000
X1.3S0
X.4S1000
X27.5S0
X.6S1000
X.8S0
X.7S1000
X1.7S0
X.3S1000
X1.4S0
X.3S1000
X10S0
X.6S1000
X9.2S0
X.8S1000
X10.4S0
X.5S1000
X.8S0
X.8S1000
X1.6S0
X.4S1000
X1.3S0
X.4S1000
X27.5S0
X.5S1000
X.9S0
X.7S1000
X1.7S0
X.3S1000
X1.3S0
X.3S1000
X10S0
X.7S1000
X9.2S0
X.6S1000
X10.5S0
X.6S1000
X.8S0
X.7S1000
X1.7S0
X.3S1000
X1.3S0
X.4S1000
X2.916S0
X-.1Y.1
X-2.916
X-.3S1000
X-1.3S0
X-.3S1000
X-1.7S0
X-.6S1000
X-1.1S0
X-.5S1000
X-10.2S0
X-.7S1000
X-9.4S0
X-.7S1000
X-9.9S0
X-.3S1000
X-1.3S0
X-.3S1000
X-1.7S0
X-.6S1000
X-1.1S0
X-.5S1000
X-27.6S0
X-.2S1000
X-1.3S0
X-.4S1000
X-1.7S0
X-.5S1000
X-1.1S0
X-.5S1000
X-10.4S0
X-.6S1000
X-9.4S0
X-.6S1000
X-10S0
X-.3S1000
X-1.2S0
X-.4S1000
X-1.7S0
X-.5S1000
X-1.2S0
X-.5S1000
X-27.5S0
X-.3S1000
X-1.3S0
X-.3S1000
X-1.7S0
X-.6S1000
X-1.1S0
X-.5S1000
X-10.3S0
X-.7S1000
X-9.3S0
X-.7S1000
X-9.9S0
X-.3S1000
X-1.3S0
X-.3S1000
X-1.7S0
X-.6S1000
X-1.1S0
X-.5S1000
X-27.5S0
X-.3S1000
X-1.3S0
X-.4S1000
X-1.7S0
X-.5S1000
X-1.1S0
X-.5S1000
X-10.3S0
X-.7S1000
X-9.4S0
X-.6S1000
X-9.9S0
X-.3S1000
X-1.3S0
X-.4S1000
X-1.7S0
X-.5S1000
X-1.1S0
X-.5S1000
X-2.917S0
X-.1Y.1
X2.917
X.5S1000
X1.2S0
X.5S1000
X1.7S0
X.4S1000
X1.2S0
X.3S1000
X9.9S0
X.7S1000
X9.5S0
X.6S1000
X10.2S0
X.5S1000
X1.2S0
X.5S1000
X1.7S0
X.4S1000
X1.2S0
X.3S1000
X27.5S0
X.5S1000
X1.2S0
X.5S1000
X1.7S0
X.5S1000
X1.2S0
X.2S1000
X10S0
X.6S1000
X9.6S0
X.6S1000
X10.1S0
X.5S1000
X1.2S0
X.5S1000
X1.7S0
X.5S1000
X1.2S0
X.2S1000
X27.6S0
X.4S1000
X1.3S0
X.5S1000
X1.6S0
X.5S1000
X1.2S0
X.2S1000
X10S0
X.7S1000
X9.5S0
X.7S1000
X10.1S0
X.5S1000
X1.2S0
X.5S1000
X1.7S0
X.4S1000
X1.2S0
X.3S1000
X27.5S0
X.5S1000
X1.2S0
X.5S1000
X1.8S0
X.4S1000
X1.2S0
X.2S1000
X9.9S0
X.7S1000
X9.5S0
X.6S1000
X10.2S0
X.5S1000
X1.2S0
X.5S1000
X1.7S0
X.5S1000
X1.2S0
X.2S1000
X2.916S0
Y.1
X-2.916
X-.3S1000
X-1.1S0
X-.5S1000
X-1.6S0
X-.5S1000
X-1.4S0
X-.4S1000
X-10.1S0
X-.6S1000
X-9.7S0
X-.6S1000
X-9.9S0
X-.3S1000
X-1.1S0
X-.5S1000
X-1.6S0
X-.5S1000
X-1.4S0
X-.4S1000
X-27.6S0
X-.3S1000
X-1S0
X-.6S1000
X-1.6S0
X-.5S1000
X-1.3S0
X-.5S1000
X-10S0
X-.6S1000
X-9.7S0
X-.7S1000
X-9.9S0
X-.2S1000
X-1.2S0
X-.5S1000
X-1.6S0
X-.5S1000
X-1.3S0
X-.5S1000
X-27.5S0
X-.3S1000
X-1.1S0
X-.5S1000
X-1.7S0
X-.4S1000
X-1.4S0
X-.4S1000
X-10.1S0
X-.6S1000
X-9.6S0
X-.7S1000
X-9.9S0
X-.3S1000
X-1.1S0
X-.5S1000
X-1.7S0
X-.4S1000
X-1.4S0
X-.4S1000
X-27.6S0
X-.3S1000
X-1S0
X-.6S1000
X-1.6S0
X-.5S1000
X-1.3S0
X-.5S1000
X-10S0
X-.6S1000
X-9.7S0
X-.6S1000
X-10S0
X-.3S1000
X-1S0
X-.6S1000
X-1.6S0
X-.5S1000
X-1.3S0
X-.5S1000
X-2.917S0
Y.1
X2.917
X.5S1000
X1.4S0
X.4S1000
X1.5S0
X.8S1000
X.8S0
X.4S1000
X9.9S0
X.7S1000
X9.7S0
X.6S1000
X10S0
X.5S1000
X1.4S0
X.4S1000
X1.6S0
X.7S1000
X.8S0
X.4S1000
X27.5S0
X.5S1000
X1.4S0
X.5S1000
X1.5S0
X.7S1000
X.8S0
X.4S1000
X9.9S0
X.7S1000
X9.7S0
X.7S1000
X9.9S0
X.5S1000
X1.4S0
X.5S1000
X1.5S0
X.7S1000
X.9S0
X.3S1000
X27.6S0
X.4S1000
X1.5S0
X.5S1000
X1.4S0
X.8S1000
X.8S0
X.3S1000
X10S0
X.6S1000
X9.8S0
X.7S1000
X10S0
X.3S1000
X1.5S0
X.5S1000
X1.4S0
X.8S1000
X.8S0
X.4S1000
X27.6S0
X.4S1000
X1.4S0
X.5S1000
X1.5S0
X.7S1000
X.8S0
X.4S1000
X9.9S0
X.8S1000
X9.7S0
X.6S1000
X10S0
X.4S1000
X1.4S0
X.5S1000
X1.5S0
X.7S1000
X.8S0
X.4S1000
X2.916S0
X.4Y.1
X-2.916
X-2.4S1000
X-1.4S0
X-.5S1000
X-1.5S0
X-.3S1000
X-9.9S0
X-.7S1000
X-9.9S0
X-.6S1000
X-9.6S0
X-2.3S1000
X-1.4S0
X-.5S1000
X-1.5S0
X-.4S1000
X-27.2S0
X-.9S1000
X-.1S0
X-1.4S1000
X-1.3S0
X-.5S1000
X-1.5S0
X-.4S1000
X-9.9S0
X-.7S1000
X-9.8S0
X-.7S1000
X-9.5S0
X-.9S1000
X-.1S0
X-1.4S1000
X-1.3S0
X-.6S1000
X-1.4S0
X-.4S1000
X-27.2S0
X-2.4S1000
X-1.4S0
X-.5S1000
X-1.5S0
X-.3S1000
X-10S0
X-.6S1000
X-9.9S0
X-.6S1000
X-9.5S0
X-2.4S1000
X-1.4S0
X-.5S1000
X-1.5S0
X-.3S1000
X-27.3S0
X-1.2S1000
X-.1S0
X-1S1000
X-1.4S0
X-.5S1000
X-1.5S0
X-.3S1000
X-10S0
X-.7S1000
X-9.8S0
X-.7S1000
X-9.5S0
X-.9S1000
X-.1S0
X-.2S1000
X-.1S0
X-1.1S1000
X-1.3S0
X-.5S1000
X-1.5S0
X-.4S1000
X-2.917S0
Y.1
X2.917
X.4S1000
X1.5S0
X.6S1000
X1.1S0
X2.8S1000
X9.2S0
X.6S1000
X10S0
X.7S1000
X9.8S0
X.4S1000
X1.5S0
X.6S1000
X1.1S0
X2.8S1000
X26.9S0
X.4S1000
X1.5S0
X.6S1000
X1.1S0
X2.9S1000
X9.1S0
X.7S1000
X10S0
X.6S1000
X9.8S0
X.4S1000
X1.5S0
X.7S1000
X1S0
X2.9S1000
X26.8S0
X.5S1000
X1.5S0
X.5S1000
X1.1S0
X2.9S1000
X9.2S0
X.6S1000
X10S0
X.6S1000
X10S0
X.3S1000
X1.5S0
X.5S1000
X1.2S0
X2.8S1000
X27S0
X.3S1000
X1.5S0
X.7S1000
X1S0
X2.8S1000
X9.2S0
X.7S1000
X10S0
X.6S1000
X9.8S0
X.4S1000
X1.5S0
X.7S1000
X1S0
X2.9S1000
X2.916S0
X.2Y.1
X-2.916
X-2.4S1000
X-.1S0
X-.8S1000
X-.1S0
X-.1S1000
X-.6S0
X-.7S1000
X-1.5S0
X-.3S1000
X-9.8S0
X-.7S1000
X-10.1S0
X-.6S1000
X-8.9S0
X-2.5S1000
X-.1S0
X-.7S1000
X-.1S0
X-.1S1000
X-.6S0
X-.7S1000
X-1.5S0
X-.3S1000
X-26.8S0
X-2.3S1000
X-.2S0
X-.9S1000
X-.6S0
X-.7S1000
X-1.5S0
X-.4S1000
X-9.7S0
X-.7S1000
X-10.1S0
X-.7S1000
X-8.9S0
X-2.3S1000
X-.2S0
X-.9S1000
X-.6S0
X-.8S1000
X-1.4S0
X-.4S1000
X-26.7S0
X-2.4S1000
X-.1S0
X-.8S1000
X-.1S0
X-.1S1000
X-.5S0
X-.8S1000
X-1.5S0
X-.3S1000
X-9.8S0
X-.7S1000
X-10.1S0
X-.6S1000
X-9S0
X-2.3S1000
X-.1S0
X-.8S1000
X-.1S0
X-.1S1000
X-.5S0
X-.8S1000
X-1.5S0
X-.3S1000
X-26.8S0
X-2.4S1000
X-.1S0
X-.7S1000
X-.1S0
X-.1S1000
X-.5S0
X-.8S1000
X-1.5S0
X-.4S1000
X-9.7S0
X-.7S1000
X-10.1S0
X-.7S1000
X-8.9S0
X-2.3S1000
X-.2S0
X-.7S1000
X-.1S0
X-.1S1000
X-.6S0
X-.7S1000
X-1.5S0
X-.3S1000
X-2.917S0
X-.1Y.1
X2.917
X.4S1000
X1.4S0
X2.1S1000
X.6S0
X1.2S1000
X.4S0
X.6S1000
X8.8S0
X.6S1000
X10.3S0
X.6S1000
X9.7S0
X.4S1000
X1.4S0
X2.1S1000
X.6S0
X1.2S1000
X.4S0
X.6S1000
X26.6S0
X.4S1000
X1.4S0
X2.2S1000
X.5S0
X1.3S1000
X.3S0
X.6S1000
X8.8S0
X.7S1000
X10.2S0
X.7S1000
X9.6S0
X.4S1000
X1.4S0
X2.2S1000
X.5S0
X1.3S1000
X.3S0
X.7S1000
X26.6S0
X.4S1000
X1.4S0
X2.1S1000
X.5S0
X1.4S1000
X.2S0
X.7S1000
X8.8S0
X.6S1000
X10.2S0
X.7S1000
X9.8S0
X.3S1000
X1.4S0
X2.1S1000
X.6S0
X1.2S1000
X.4S0
X.6S1000
X26.6S0
X.4S1000
X1.4S0
X2.1S1000
X.6S0
X1.4S1000
X.2S0
X.6S1000
X8.8S0
X.7S1000
X10.2S0
X.6S1000
X9.8S0
X.3S1000
X1.5S0
X2.1S1000
X.5S0
X1.3S1000
X.3S0
X.7S1000
X2.916S0
Y.1
X-2.916
X-.4S1000
X-.7S0
X-1.1S1000
X-.8S0
X-2S1000
X-1.4S0
X-.3S1000
X-9.6S0
X-.8S1000
X-10.3S0
X-.6S1000
X-8.7S0
X-.5S1000
X-.6S0
X-1.1S1000
X-.8S0
X-2S1000
X-1.4S0
X-.3S1000
X-26.6S0
X-.5S1000
X-.6S0
X-1.1S1000
X-.9S0
X-1.9S1000
X-1.4S0
X-.4S1000
X-9.7S0
X-.6S1000
X-10.3S0
X-.7S1000
X-8.6S0
X-.5S1000
X-.7S0
X-1.1S1000
X-.8S0
X-2S1000
X-1.3S0
X-.4S1000
X-26.6S0
X-.4S1000
X-.7S0
X-1.1S1000
X-.8S0
X-2S1000
X-1.4S0
X-.3S1000
X-9.7S0
X-.6S1000
X-10.4S0
X-.6S1000
X-8.7S0
X-.4S1000
X-.7S0
X-1.1S1000
X-.8S0
X-2S1000
X-1.4S0
X-.3S1000
X-26.6S0
X-.5S1000
X-.7S0
X-1S1000
X-.8S0
X-2.1S1000
X-1.3S0
X-.3S1000
X-9.7S0
X-.7S1000
X-10.3S0
X-.7S1000
X-8.7S0
X-.4S1000
X-.6S0
X-1.1S1000
X-.8S0
X-2.1S1000
X-1.3S0
X-.4S1000
X-2.917S0
X.1Y.1
X2.917
X.3S1000
X1.3S0
X2S1000
X.9S0
X.9S1000
X.9S0
X.4S1000
X8.6S0
X.6S1000
X10.5S0
X.6S1000
X9.7S0
X.3S1000
X1.3S0
X2S1000
X.9S0
X1S1000
X.8S0
X.4S1000
X26.6S0
X.3S1000
X1.3S0
X2S1000
X1S0
X.9S1000
X.9S0
X.4S1000
X8.5S0
X.7S1000
X10.4S0
X.7S1000
X9.6S0
X.4S1000
X1.2S0
X2S1000
X1S0
X.9S1000
X.9S0
X.4S1000
X26.5S0
X.4S1000
X1.3S0
X2S1000
X.9S0
X.9S1000
X.9S0
X.4S1000
X8.5S0
X.7S1000
X10.5S0
X.6S1000
X9.7S0
X.3S1000
X1.3S0
X2S1000
X.9S0
X1S1000
X.8S0
X.4S1000
X26.6S0
X.3S1000
X1.4S0
X1.9S1000
X1S0
X.9S1000
X.8S0
X.5S1000
X8.5S0
X.6S1000
X10.5S0
X.7S1000
X9.6S0
X.4S1000
X1.3S0
X1.9S1000
X1S0
X.9S1000
X.9S0
X.4S1000
X2.916S0
X.1Y.1
X-2.916
X-.4S1000
X-1.1S0
X-.8S1000
X-1S0
X-2S1000
X-1.2S0
X-.3S1000
X-9.7S0
X-.6S1000
X-10.5S0
X-.8S1000
X-8.3S0
X-.5S1000
X-1S0
X-.8S1000
X-1S0
X-2S1000
X-1.2S0
X-.3S1000
X-26.6S0
X-.4S1000
X-1S0
X-.8S1000
X-1.1S0
X-2S1000
X-1.2S0
X-.3S1000
X-9.6S0
X-.7S1000
X-10.6S0
X-.6S1000
X-8.4S0
X-.4S1000
X-1.1S0
X-.7S1000
X-1.1S0
X-2S1000
X-1.2S0
X-.3S1000
X-26.5S0
X-.4S1000
X-1.1S0
X-.8S1000
X-1S0
X-2S1000
X-1.2S0
X-.3S1000
X-9.7S0
X-.6S1000
X-10.6S0
X-.7S1000
X-8.3S0
X-.5S1000
X-1S0
X-.8S1000
X-1S0
X-2S1000
X-1.2S0
X-.4S1000
X-26.5S0
X-.4S1000
X-1S0
X-.8S1000
X-1.1S0
X-1.9S1000
X-1.3S0
X-.3S1000
X-9.6S0
X-.7S1000
X-10.5S0
X-.7S1000
X-8.4S0
X-.4S1000
X-1S0
X-.8S1000
X-1.1S0
X-2S1000
X-1.2S0
X-.3S1000
X-2.917S0
X.1Y.1
X2.917
X.3S1000
X1.1S0
X1.9S1000
X1.3S0
X.6S1000
X1.1S0
X.5S1000
X8.2S0
X.7S1000
X10.7S0
X.6S1000
X9.7S0
X.3S1000
X1S0
X1.1S1000
X.1S0
X.8S1000
X1.3S0
X.6S1000
X1.1S0
X.5S1000
X26.5S0
X.3S1000
X1.1S0
X2S1000
X1.2S0
X.7S1000
X1.1S0
X.5S1000
X8.2S0
X.6S1000
X10.7S0
X.7S1000
X9.6S0
X.3S1000
X1.1S0
X1S1000
X.1S0
X.9S1000
X1.2S0
X.7S1000
X1.1S0
X.4S1000
X26.5S0
X.4S1000
X1S0
X2S1000
X1.3S0
X.6S1000
X1.1S0
X.5S1000
X8.2S0
X.7S1000
X10.7S0
X.6S1000
X9.7S0
X.3S1000
X1S0
X2S1000
X1.3S0
X.6S1000
X1.1S0
X.5S1000
X26.5S0
X.3S1000
X1S0
X2.1S1000
X1.2S0
X.7S1000
X1.1S0
X.4S1000
X8.3S0
X.6S1000
X10.7S0
X.7S1000
X9.6S0
X.4S1000
X1S0
X1S1000
X.1S0
X.9S1000
X1.3S0
X.6S1000
X1.1S0
X.5S1000
X2.916S0
Y.1
X-2.916
X-.5S1000
X-1.2S0
X-.5S1000
X-1.4S0
X-.7S1000
X-.6S0
X-.8S1000
X-.8S0
X-.3S1000
X-9.7S0
X-.6S1000
X-10.9S0
X-.6S1000
X-8.2S0
X-.4S1000
X-1.2S0
X-.5S1000
X-1.4S0
X-.7S1000
X-.6S0
X-.7S1000
X-.9S0
X-.3S1000
X-26.6S0
X-.5S1000
X-1.2S0
X-.4S1000
X-1.5S0
X-.6S1000
X-.6S0
X-.8S1000
X-.8S0
X-.4S1000
X-9.5S0
X-.8S1000
X-10.8S0
X-.7S1000
X-8.1S0
X-.5S1000
X-1.2S0
X-.5S1000
X-1.4S0
X-.6S1000
X-.7S0
X-.7S1000
X-.8S0
X-.4S1000
X-26.5S0
X-.5S1000
X-1.2S0
X-.5S1000
X-1.4S0
X-.7S1000
X-.6S0
X-.8S1000
X-.8S0
X-.3S1000
X-9.7S0
X-.6S1000
X-10.9S0
X-.6S1000
X-8.1S0
X-.5S1000
X-1.2S0
X-.5S1000
X-1.4S0
X-.7S1000
X-.6S0
X-.8S1000
X-.8S0
X-.3S1000
X-26.6S0
X-.5S1000
X-1.1S0
X-.6S1000
X-1.3S0
X-.7S1000
X-.6S0
X-.7S1000
X-.9S0
X-.4S1000
X-9.6S0
X-.6S1000
X-10.9S0
X-.7S1000
X-8.1S0
X-.5S1000
X-1.1S0
X-.6S1000
X-1.3S0
X-.7S1000
X-.6S0
X-.8S1000
X-.8S0
X-.4S1000
X-2.917S0
X-.1Y.1
X2.917
X.7S1000
X.4S0
X.8S1000
X.8S0
X.6S1000
X1.5S0
X.5S1000
X1.1S0
X.5S1000
X8.1S0
X.6S1000
X11S0
X.7S1000
X9.4S0
X.7S1000
X.4S0
X.8S1000
X.9S0
X.5S1000
X1.5S0
X.5S1000
X1.1S0
X.5S1000
X26.5S0
X.8S1000
X.2S0
X.8S1000
X.9S0
X.5S1000
X1.5S0
X.5S1000
X1.2S0
X.4S1000
X8.1S0
X.7S1000
X10.9S0
X.7S1000
X9.5S0
X.8S1000
X.4S0
X.7S1000
X.8S0
X.6S1000
X1.4S0
X.5S1000
X1.2S0
X.4S1000
X26.5S0
X.8S1000
X.4S0
X.7S1000
X.9S0
X.5S1000
X1.4S0
X.5S1000
X1.2S0
X.4S1000
X8.2S0
X.6S1000
X11S0
X.7S1000
X9.4S0
X.8S1000
X.4S0
X.7S1000
X.9S0
X.5S1000
X1.5S0
X.5S1000
X1.1S0
X.5S1000
X26.5S0
X.7S1000
X.4S0
X.7S1000
X.9S0
X.6S1000
X1.4S0
X.5S1000
X1.1S0
X.5S1000
X8.1S0
X.7S1000
X11S0
X.7S1000
X9.4S0
X.7S1000
X.4S0
X.8S1000
X.8S0
X.6S1000
X1.4S0
X.5S1000
X1.2S0
X.4S1000
X2.916S0
Y.1
X-2.916
X-.5S1000
X-1.1S0
X-.5S1000
X-1.4S0
X-.5S1000
X-1S0
X-2S1000
X-9.3S0
X-.6S1000
X-11S0
X-.7S1000
X-8.1S0
X-.5S1000
X-1.1S0
X-.5S1000
X-1.5S0
X-.4S1000
X-1.1S0
X-1.9S1000
X-26.4S0
X-.4S1000
X-1.1S0
X-.5S1000
X-1.5S0
X-.5S1000
X-1S0
X-2S1000
X-9.1S0
X-.7S1000
X-11.2S0
X-.6S1000
X-8.1S0
X-.5S1000
X-1.1S0
X-.5S1000
X-1.4S0
X-.5S1000
X-1S0
X-2S1000
X-26.3S0
X-.5S1000
X-1.1S0
X-.5S1000
X-1.5S0
X-.4S1000
X-1.1S0
X-1.9S1000
X-9.3S0
X-.6S1000
X-11.1S0
X-.7S1000
X-8S0
X-.5S1000
X-1.1S0
X-.5S1000
X-1.5S0
X-.4S1000
X-1.1S0
X-1.9S1000
X-26.4S0
X-.4S1000
X-1.1S0
X-.5S1000
X-1.5S0
X-.5S1000
X-1S0
X-2S1000
X-9.2S0
X-.7S1000
X-11S0
X-.7S1000
X-8.1S0
X-.4S1000
X-1.1S0
X-.5S1000
X-1.5S0
X-.5S1000
X-1S0
X-2S1000
X-2.917S0
X-.2Y.1
X2.917
X2.1S1000
X1.2S0
X.4S1000
X1.5S0
X.5S1000
X1S0
X.5S1000
X8.1S0
X.6S1000
X11.2S0
X.7S1000
X8.9S0
X2.1S1000
X1.2S0
X.4S1000
X1.5S0
X.5S1000
X1S0
X.5S1000
X26.2S0
X2S1000
X1.2S0
X.5S1000
X1.4S0
X.5S1000
X1S0
X.5S1000
X8.2S0
X.6S1000
X11.2S0
X.6S1000
X9S0
X2S1000
X1.2S0
X.4S1000
X1.5S0
X.5S1000
X1S0
X.5S1000
X26.2S0
X2.1S1000
X1.1S0
X.5S1000
X1.4S0
X.6S1000
X.9S0
X.5S1000
X8.2S0
X.7S1000
X11.1S0
X.6S1000
X9S0
X2.1S1000
X1.1S0
X.5S1000
X1.5S0
X.5S1000
X.9S0
X.5S1000
X26.3S0
X2S1000
X1.2S0
X.5S1000
X1.4S0
X.5S1000
X1S0
X.5S1000
X8.1S0
X.7S1000
X11.2S0
X.7S1000
X8.9S0
X2.1S1000
X1.1S0
X.4S1000
X1.5S0
X.5S1000
X1S0
X.5S1000
X2.916S0
X-.1Y.1
X-2.916
X-.5S1000
X-.8S0
X-.6S1000
X-1.4S0
X-.4S1000
X-1.3S0
X-2.1S1000
X-8.8S0
X-.7S1000
X-11.3S0
X-.6S1000
X-8.2S0
X-.5S1000
X-.8S0
X-.6S1000
X-1.4S0
X-.4S1000
X-1.3S0
X-2.1S1000
X-26.3S0
X-.5S1000
X-.8S0
X-.6S1000
X-1.3S0
X-.5S1000
X-1.3S0
X-2.1S1000
X-8.8S0
X-.6S1000
X-11.4S0
X-.6S1000
X-8.2S0
X-.5S1000
X-.8S0
X-.6S1000
X-1.4S0
X-.4S1000
X-1.3S0
X-2.1S1000
X-26.2S0
X-.5S1000
X-.8S0
X-.6S1000
X-1.4S0
X-.4S1000
X-1.4S0
X-2S1000
X-8.8S0
X-.7S1000
X-11.3S0
X-.7S1000
X-8.1S0
X-.5S1000
X-.8S0
X-.6S1000
X-1.4S0
X-.4S1000
X-1.4S0
X-2S1000
X-26.2S0
X-.5S1000
X-.8S0
X-.6S1000
X-1.4S0
X-.5S1000
X-1.3S0
X-2.1S1000
X-8.8S0
X-.6S1000
X-11.3S0
X-.7S1000
X-8.1S0
X-.6S1000
X-.8S0
X-.6S1000
X-1.3S0
X-.5S1000
X-1.3S0
X-2.1S1000
X-2.917S0
X-.1Y.1
X2.917
X.7S1000
X.2S0
X.1S1000
X.2S0
X.9S1000
X1.4S0
X.5S1000
X1.2S0
X.8S1000
X.5S0
X.6S1000
X8.2S0
X.7S1000
X11.5S0
X.6S1000
X8.6S0
X.7S1000
X.1S0
X.1S1000
X.2S0
X1S1000
X1.5S0
X.4S1000
X1.2S0
X.8S1000
X.5S0
X.6S1000
X26.3S0
X.6S1000
X.1S0
X.1S1000
X.2S0
X1.1S1000
X1.4S0
X.4S1000
X1.3S0
X.7S1000
X.6S0
X.6S1000
X8.2S0
X.6S1000
X11.5S0
X.7S1000
X8.6S0
X.6S1000
X.1S0
X.1S1000
X.1S0
X.1S1000
X.1S0
X1S1000
X1.4S0
X.4S1000
X1.3S0
X.7S1000
X.6S0
X.6S1000
X26.2S0
X.6S1000
X.1S0
X.1S1000
X.1S0
X.1S1000
X.2S0
X1S1000
X1.3S0
X.4S1000
X1.4S0
X.7S1000
X.5S0
X.6S1000
X8.2S0
X.7S1000
X11.5S0
X.7S1000
X8.5S0
X.6S1000
X.1S0
X.1S1000
X.1S0
X.1S1000
X.1S0
X1.1S1000
X1.3S0
X.4S1000
X1.4S0
X.7S1000
X.5S0
X.6S1000
X26.3S0
X.7S1000
X.1S0
X.1S1000
X.1S0
X.1S1000
X.1S0
X.9S1000
X1.4S0
X.4S1000
X1.4S0
X.6S1000
X.6S0
X.6S1000
X8.2S0
X.6S1000
X11.5S0
X.7S1000
X8.6S0
X.7S1000
X.1S0
X.1S1000
X.1S0
X.1S1000
X.1S0
X.9S1000
X1.4S0
X.4S1000
X1.4S0
X.6S1000
X.6S0
X.6S1000
X2.916S0
X-.2Y.1
X-2.916
X-1.8S1000
X-1.2S0
X-.4S1000
X-1.4S0
X-.7S1000
X-.4S0
X-.2S1000
X-.5S0
X-.4S1000
X-8.5S0
X-.6S1000
X-11.7S0
X-.6S1000
X-8.4S0
X-1.7S1000
X-1.2S0
X-.5S1000
X-1.3S0
X-.7S1000
X-.4S0
X-.2S1000
X-.5S0
X-.4S1000
X-26.4S0
X-1.8S1000
X-1.1S0
X-.5S1000
X-1.4S0
X-.7S1000
X-.3S0
X-.2S1000
X-.5S0
X-.5S1000
X-8.4S0
X-.7S1000
X-11.6S0
X-.6S1000
X-8.4S0
X-1.8S1000
X-1.2S0
X-.4S1000
X-1.4S0
X-.7S1000
X-.3S0
X-.3S1000
X-.4S0
X-.5S1000
X-26.3S0
X-1.8S1000
X-1.2S0
X-.5S1000
X-1.3S0
X-.7S1000
X-.4S0
X-.2S1000
X-.5S0
X-.4S1000
X-8.5S0
X-.6S1000
X-11.6S0
X-.7S1000
X-8.4S0
X-1.7S1000
X-1.2S0
X-.5S1000
X-1.3S0
X-.7S1000
X-.4S0
X-.2S1000
X-.5S0
X-.4S1000
X-26.3S0
X-1.8S1000
X-1.2S0
X-.5S1000
X-1.4S0
X-.6S1000
X-.4S0
X-.2S1000
X-.5S0
X-.5S1000
X-8.4S0
X-.7S1000
X-11.6S0
X-.6S1000
X-8.4S0
X-1.8S1000
X-1.1S0
X-.5S1000
X-1.4S0
X-.7S1000
X-.3S0
X-.2S1000
X-.5S0
X-.5S1000
X-2.917S0
X-.1Y.1
X2.917
X.4S1000
X.5S0
X.5S1000
X.2S0
X.7S1000
X1.3S0
X.6S1000
X1S0
X1.8S1000
X8.4S0
X.7S1000
X11.7S0
X.7S1000
X8.2S0
X.5S1000
X.4S0
X.5S1000
X.3S0
X.6S1000
X1.4S0
X.5S1000
X1S0
X1.8S1000
X26.4S0
X.4S1000
X.4S0
X.5S1000
X.3S0
X.6S1000
X1.4S0
X.6S1000
X1S0
X1.7S1000
X8.5S0
X.6S1000
X11.8S0
X.6S1000
X8.3S0
X.4S1000
X.4S0
X.5S1000
X.3S0
X.6S1000
X1.4S0
X.6S1000
X1S0
X1.7S1000
X26.4S0
X.4S1000
X.4S0
X.6S1000
X.3S0
X.6S1000
X1.3S0
X.6S1000
X1.1S0
X1.7S1000
X8.4S0
X.7S1000
X11.7S0
X.7S1000
X8.2S0
X.4S1000
X.5S0
X.5S1000
X.3S0
X.6S1000
X1.3S0
X.6S1000
X1S0
X1.8S1000
X26.4S0
X.4S1000
X.4S0
X.5S1000
X.3S0
X.6S1000
X1.4S0
X.5S1000
X1.1S0
X1.7S1000
X8.4S0
X.7S1000
X11.8S0
X.6S1000
X8.3S0
X.4S1000
X.4S0
X.6S1000
X.2S0
X.6S1000
X1.4S0
X.6S1000
X1S0
X1.7S1000
X2.916S0
X-.1Y.1
X-2.916
X-1.6S1000
X-1S0
X-.7S1000
X-1.3S0
X-.5S1000
X-.3S0
X-.6S1000
X-.5S0
X-.3S1000
X-8.2S0
X-.7S1000
X-11.9S0
X-.6S1000
X-8.5S0
X-1.6S1000
X-1S0
X-.7S1000
X-1.3S0
X-.5S1000
X-.3S0
X-.6S1000
X-.5S0
X-.4S1000
X-26.5S0
X-1.6S1000
X-1S0
X-.6S1000
X-1.4S0
X-.5S1000
X-.3S0
X-.6S1000
X-.4S0
X-.4S1000
X-8.2S0
X-.6S1000
X-11.9S0
X-.7S1000
X-8.5S0
X-1.6S1000
X-1S0
X-.6S1000
X-1.4S0
X-.5S1000
X-.3S0
X-.6S1000
X-.5S0
X-.3S1000
X-26.5S0
X-1.6S1000
X-1S0
X-.7S1000
X-1.3S0
X-.5S1000
X-.3S0
X-.6S1000
X-.5S0
X-.4S1000
X-8.1S0
X-.7S1000
X-11.8S0
X-.7S1000
X-8.5S0
X-1.7S1000
X-.9S0
X-.7S1000
X-1.3S0
X-.5S1000
X-.3S0
X-.6S1000
X-.5S0
X-.4S1000
X-26.5S0
X-1.6S1000
X-.9S0
X-.7S1000
X-1.3S0
X-.6S1000
X-.3S0
X-.5S1000
X-.5S0
X-.4S1000
X-8.2S0
X-.6S1000
X-11.9S0
X-.6S1000
X-8.6S0
X-1.7S1000
X-.8S0
X-.7S1000
X-1.3S0
X-.5S1000
X-.4S0
X-.5S1000
X-.5S0
X-.4S1000
X-2.917S0
X-.1Y.1
X2.917
X.4S1000
X.9S0
X.2S1000
X.4S0
X.4S1000
X1.3S0
X.8S1000
X.8S0
X.5S1000
X.5S0
X.7S1000
X8.5S0
X.7S1000
X11.9S0
X.7S1000
X8.1S0
X.3S1000
X.9S0
X.2S1000
X.4S0
X.4S1000
X1.4S0
X.8S1000
X.6S0
X.6S1000
X.5S0
X.7S1000
X26.5S0
X.4S1000
X.8S0
X.2S1000
X.4S0
X.5S1000
X1.3S0
X.8S1000
X.7S0
X.6S1000
X.4S0
X.7S1000
X8.5S0
X.7S1000
X11.9S0
X.7S1000
X8.1S0
X.4S1000
X.9S0
X.1S1000
X.4S0
X.5S1000
X1.3S0
X.8S1000
X.7S0
X.6S1000
X.4S0
X.7S1000
X26.5S0
X.4S1000
X.9S0
X.2S1000
X.4S0
X.4S1000
X1.3S0
X.8S1000
X.7S0
X.7S1000
X.4S0
X.7S1000
X8.5S0
X.6S1000
X12S0
X.7S1000
X8S0
X.4S1000
X.9S0
X.2S1000
X.4S0
X.4S1000
X1.3S0
X.8S1000
X.7S0
X.6S1000
X.5S0
X.7S1000
X26.5S0
X.4S1000
X.8S0
X.2S1000
X.4S0
X.5S1000
X1.3S0
X.8S1000
X.7S0
X.6S1000
X.4S0
X.7S1000
X8.5S0
X.8S1000
X11.9S0
X.6S1000
X8.1S0
X.4S1000
X.9S0
X.1S1000
X.4S0
X.5S1000
X1.3S0
X.8S1000
X.7S0
X.6S1000
X.5S0
X.7S1000
X2.916S0
Y.1
X-2.916
X-.5S1000
X-.9S0
X-.5S1000
X-.1S0
X-.1S1000
X-.2S0
X-1.1S1000
X-1.2S0
X-.5S1000
X-1.5S0
X-.3S1000
X-8S0
X-.7S1000
X-12.1S0
X-.6S1000
X-8.4S0
X-.5S1000
X-.9S0
X-.7S1000
X-.2S0
X-1.1S1000
X-1.2S0
X-.5S1000
X-1.5S0
X-.3S1000
X-26.4S0
X-.5S1000
X-1S0
X-.5S1000
X-.1S0
X-.1S1000
X-.3S0
X-1S1000
X-1.2S0
X-.4S1000
X-1.5S0
X-.4S1000
X-8S0
X-.7S1000
X-12S0
X-.7S1000
X-8.3S0
X-.5S1000
X-1S0
X-.6S1000
X-.3S0
X-1.1S1000
X-1.2S0
X-.5S1000
X-1.5S0
X-.3S1000
X-26.4S0
X-.5S1000
X-.9S0
X-.5S1000
X-.1S0
X-.1S1000
X-.2S0
X-1.1S1000
X-1.2S0
X-.5S1000
X-1.5S0
X-.3S1000
X-8.1S0
X-.6S1000
X-12.1S0
X-.6S1000
X-8.4S0
X-.5S1000
X-1S0
X-.4S1000
X-.1S0
X-.1S1000
X-.3S0
X-1S1000
X-1.2S0
X-.5S1000
X-1.5S0
X-.3S1000
X-26.5S0
X-.4S1000
X-.9S0
X-.6S1000
X-.1S0
X-.1S1000
X-.2S0
X-1S1000
X-1.2S0
X-.5S1000
X-1.5S0
X-.3S1000
X-8.1S0
X-.6S1000
X-12.1S0
X-.7S1000
X-8.4S0
X-.4S1000
X-1.1S0
X-.5S1000
X-.4S0
X-.9S1000
X-1.2S0
X-.5S1000
X-1.5S0
X-.4S1000
X-2.917S0
Y.1
X2.917
X.4S1000
X1.5S0
X.5S1000
X1S0
X2S1000
X.6S0
X.3S1000
X.3S0
X.3S1000
X8.4S0
X.6S1000
X12.2S0
X.7S1000
X8S0
X.3S1000
X1.5S0
X.5S1000
X1.1S0
X1.9S1000
X.6S0
X.3S1000
X.3S0
X.3S1000
X26.5S0
X.3S1000
X1.6S0
X.4S1000
X1.1S0
X2S1000
X.6S0
X.3S1000
X.3S0
X.2S1000
X8.4S0
X.7S1000
X12.2S0
X.6S1000
X8S0
X.3S1000
X1.6S0
X.4S1000
X1.1S0
X2S1000
X.6S0
X.3S1000
X.3S0
X.3S1000
X26.4S0
X.4S1000
X1.5S0
X.4S1000
X1.1S0
X2S1000
X.7S0
X.2S1000
X.3S0
X.3S1000
X8.4S0
X.6S1000
X12.2S0
X.7S1000
X7.9S0
X.4S1000
X1.4S0
X.5S1000
X1.1S0
X2S1000
X.6S0
X.3S1000
X.3S0
X.3S1000
X26.5S0
X.4S1000
X1.5S0
X.4S1000
X1.1S0
X2S1000
X.6S0
X.3S1000
X.3S0
X.3S1000
X8.3S0
X.7S1000
X12.2S0
X.6S1000
X8S0
X.4S1000
X1.5S0
X.4S1000
X1.1S0
X2S1000
X.6S0
X.3S1000
X.3S0
X.4S1000
X2.916S0
X-.1Y.1
X-2.916
X-.3S1000
X-.3S0
X-.3S1000
X-.7S0
X-1S1000
X-.3S0
X-.7S1000
X-1S0
X-.5S1000
X-1.5S0
X-.3S1000
X-7.8S0
X-.8S1000
X-12.3S0
X-.6S1000
X-8.4S0
X-.2S1000
X-.4S0
X-.2S1000
X-.7S0
X-1S1000
X-.4S0
X-.6S1000
X-1S0
X-.5S1000
X-1.5S0
X-.3S1000
X-26.4S0
X-.4S1000
X-.3S0
X-.2S1000
X-.7S0
X-1.1S1000
X-.3S0
X-.7S1000
X-.9S0
X-.5S1000
X-1.5S0
X-.4S1000
X-7.9S0
X-.6S1000
X-12.4S0
X-.6S1000
X-8.2S0
X-.4S1000
X-.3S0
X-.3S1000
X-.7S0
X-1S1000
X-.3S0
X-.7S1000
X-1S0
X-.4S1000
X-1.6S0
X-.3S1000
X-26.4S0
X-.3S1000
X-.3S0
X-.3S1000
X-.7S0
X-1S1000
X-.3S0
X-.7S1000
X-1S0
X-.5S1000
X-1.4S0
X-.4S1000
X-7.9S0
X-.7S1000
X-12.3S0
X-.6S1000
X-8.3S0
X-.3S1000
X-.3S0
X-.3S1000
X-.7S0
X-1S1000
X-.3S0
X-.7S1000
X-1S0
X-.5S1000
X-1.5S0
X-.3S1000
X-26.4S0
X-.3S1000
X-.4S0
X-.2S1000
X-.7S0
X-1S1000
X-.4S0
X-.6S1000
X-1.1S0
X-.4S1000
X-1.5S0
X-.3S1000
X-7.9S0
X-.7S1000
X-12.3S0
X-.7S1000
X-8.2S0
X-.3S1000
X-.4S0
X-.2S1000
X-.7S0
X-1.1S1000
X-.3S0
X-.6S1000
X-1S0
X-.6S1000
X-1.4S0
X-.4S1000
X-2.917S0
X.1Y.1
X2.917
X.3S1000
X1.5S0
X.4S1000
X1S0
X.5S1000
X.7S0
X.8S1000
X1.4S0
X.2S1000
X8.3S0
X.6S1000
X12.5S0
X.6S1000
X7.9S0
X.3S1000
X1.5S0
X.5S1000
X.9S0
X.5S1000
X.7S0
X.8S1000
X1.4S0
X.2S1000
X26.5S0
X.4S1000
X1.4S0
X.5S1000
X.9S0
X.6S1000
X.7S0
X.8S1000
X1.3S0
X.2S1000
X8.3S0
X.7S1000
X12.4S0
X.7S1000
X7.8S0
X.3S1000
X1.5S0
X.5S1000
X.9S0
X.6S1000
X.7S0
X.8S1000
X1.3S0
X.3S1000
X26.4S0
X.4S1000
X1.4S0
X.6S1000
X.8S0
X.6S1000
X.7S0
X.8S1000
X1.3S0
X.3S1000
X8.3S0
X.6S1000
X12.4S0
X.7S1000
X7.8S0
X.4S1000
X1.4S0
X.6S1000
X.8S0
X.6S1000
X.7S0
X.8S1000
X1.3S0
X.3S1000
X26.5S0
X.3S1000
X1.5S0
X.6S1000
X.8S0
X.6S1000
X.7S0
X.7S1000
X1.4S0
X.3S1000
X8.2S0
X.7S1000
X12.4S0
X.6S1000
X7.9S0
X.3S1000
X1.5S0
X.6S1000
X.8S0
X.6S1000
X.7S0
X.8S1000
X1.3S0
X.4S1000
X2.916S0
X-.1Y.1
X-2.916
X-.3S1000
X-1.3S0
X-.7S1000
X-.9S0
X-.6S1000
X-.7S0
X-.6S1000
X-1.4S0
X-.3S1000
X-7.8S0
X-.8S1000
X-12.5S0
X-.6S1000
X-8.2S0
X-.3S1000
X-1.3S0
X-.7S1000
X-.9S0
X-.6S1000
X-.7S0
X-.6S1000
X-1.4S0
X-.3S1000
X-26.5S0
X-.3S1000
X-1.4S0
X-.6S1000
X-1S0
X-.6S1000
X-.7S0
X-.6S1000
X-1.4S0
X-.3S1000
X-7.9S0
X-.6S1000
X-12.5S0
X-.7S1000
X-8.1S0
X-.3S1000
X-1.4S0
X-.6S1000
X-1S0
X-.6S1000
X-.7S0
X-.6S1000
X-1.4S0
X-.3S1000
X-26.6S0
X-.2S1000
X-1.4S0
X-.6S1000
X-.9S0
X-.6S1000
X-.7S0
X-.7S1000
X-1.3S0
X-.3S1000
X-7.9S0
X-.6S1000
X-12.6S0
X-.6S1000
X-8.2S0
X-.3S1000
X-1.4S0
X-.6S1000
X-.9S0
X-.6S1000
X-.7S0
X-.7S1000
X-1.3S0
X-.3S1000
X-26.6S0
X-.2S1000
X-1.4S0
X-.7S1000
X-.9S0
X-.6S1000
X-.6S0
X-.7S1000
X-1.3S0
X-.4S1000
X-7.8S0
X-.7S1000
X-12.5S0
X-.7S1000
X-8.2S0
X-.2S1000
X-1.5S0
X-.6S1000
X-.9S0
X-.6S1000
X-.7S0
X-.6S1000
X-1.3S0
X-.4S1000
X-2.917S0
Y.1
X2.917
X.4S1000
X1.2S0
X.9S1000
X.4S0
X.6S1000
X1.2S0
X.5S1000
X1.4S0
X.3S1000
X8S0
X.7S1000
X12.7S0
X.6S1000
X7.8S0
X.4S1000
X1.2S0
X.8S1000
X.5S0
X.6S1000
X1.2S0
X.5S1000
X1.5S0
X.2S1000
X26.5S0
X.3S1000
X1.3S0
X.7S1000
X.5S0
X.7S1000
X1S0
X.6S1000
X1.5S0
X.1S1000
X8.2S0
X.6S1000
X12.7S0
X.7S1000
X7.8S0
X.3S1000
X1.3S0
X.8S1000
X.4S0
X.7S1000
X1.1S0
X.5S1000
X1.5S0
X.2S1000
X26.5S0
X.4S1000
X1.2S0
X.8S1000
X.4S0
X.7S1000
X1.1S0
X.5S1000
X1.5S0
X.2S1000
X8.1S0
X.7S1000
X12.7S0
X.6S1000
X7.9S0
X.4S1000
X1.1S0
X.9S1000
X.4S0
X.6S1000
X1.1S0
X.5S1000
X1.5S0
X.2S1000
X26.6S0
X.4S1000
X1.2S0
X.8S1000
X.4S0
X.7S1000
X1.1S0
X.6S1000
X1.4S0
X.2S1000
X8.1S0
X.6S1000
X12.7S0
X.7S1000
X7.8S0
X.4S1000
X1.2S0
X.8S1000
X.4S0
X.7S1000
X1.2S0
X.4S1000
X1.5S0
X.3S1000
X2.916S0
X-.1Y.1
X-2.916
X-.3S1000
X-1.3S0
X-.5S1000
X-1.3S0
X-1.9S1000
X-1S0
X-.4S1000
X-7.9S0
X-.6S1000
X-12.8S0
X-.7S1000
X-8S0
X-.3S1000
X-1.4S0
X-.5S1000
X-1.2S0
X-1.9S1000
X-1S0
X-.4S1000
X-26.6S0
X-.3S1000
X-1.4S0
X-.5S1000
X-1.2S0
X-2S1000
X-1S0
X-.4S1000
X-7.8S0
X-.7S1000
X-12.8S0
X-.7S1000
X-7.9S0
X-.3S1000
X-1.4S0
X-.5S1000
X-1.2S0
X-2S1000
X-.9S0
X-.5S1000
X-26.6S0
X-.3S1000
X-1.3S0
X-.5S1000
X-1.3S0
X-1.9S1000
X-1S0
X-.4S1000
X-7.9S0
X-.6S1000
X-12.8S0
X-.7S1000
X-8S0
X-.3S1000
X-1.3S0
X-.5S1000
X-1.3S0
X-1.9S1000
X-1S0
X-.5S1000
X-26.6S0
X-.2S1000
X-1.4S0
X-.5S1000
X-1.2S0
X-2S1000
X-.9S0
X-.5S1000
X-7.8S0
X-.7S1000
X-12.8S0
X-.6S1000
X-8.1S0
X-.2S1000
X-1.4S0
X-.5S1000
X-1.2S0
X-2.1S1000
X-.8S0
X-.5S1000
X-2.917S0
X.1Y.1
X2.917
X.5S1000
X.7S0
X2S1000
X1.4S0
X.4S1000
X1.4S0
X.3S1000
X7.9S0
X.6S1000
X13S0
X.6S1000
X7.9S0
X.5S1000
X.6S0
X2.1S1000
X1.4S0
X.4S1000
X1.4S0
X.3S1000
X26.6S0
X.5S1000
X.7S0
X2.1S1000
X1.3S0
X.5S1000
X1.3S0
X.3S1000
X7.9S0
X.7S1000
X12.9S0
X.7S1000
X7.8S0
X.5S1000
X.7S0
X2.1S1000
X1.4S0
X.4S1000
X1.3S0
X.3S1000
X26.7S0
X.4S1000
X.7S0
X2.1S1000
X1.4S0
X.4S1000
X1.3S0
X.3S1000
X8S0
X.6S1000
X13S0
X.7S1000
X7.8S0
X.5S1000
X.6S0
X2.1S1000
X1.4S0
X.4S1000
X1.3S0
X.3S1000
X26.7S0
X.5S1000
X.7S0
X2.1S1000
X1.3S0
X.5S1000
X1.3S0
X.2S1000
X8S0
X.7S1000
X13S0
X.6S1000
X7.8S0
X.5S1000
X.7S0
X2.1S1000
X1.4S0
X.4S1000
X1.3S0
X.4S1000
X2.916S0
X-.1Y.1
X-2.916
X-.3S1000
X-1.3S0
X-.4S1000
X-1.5S0
X-3.1S1000
X-7.8S0
X-.7S1000
X-13S0
X-.7S1000
X-7.9S0
X-.3S1000
X-1.3S0
X-.4S1000
X-1.5S0
X-3.1S1000
X-26.7S0
X-.4S1000
X-1.3S0
X-.4S1000
X-1.4S0
X-3.1S1000
X-7.8S0
X-.7S1000
X-13.1S0
X-.7S1000
X-7.8S0
X-.4S1000
X-1.3S0
X-.4S1000
X-1.4S0
X-3.1S1000
X-26.9S0
X-.2S1000
X-1.3S0
X-.4S1000
X-1.5S0
X-3.1S1000
X-7.8S0
X-.7S1000
X-13.1S0
X-.7S1000
X-7.9S0
X-.2S1000
X-1.3S0
X-.4S1000
X-1.5S0
X-3.1S1000
X-26.8S0
X-.3S1000
X-1.3S0
X-.4S1000
X-1.4S0
X-3.1S1000
X-7.9S0
X-.6S1000
X-13.1S0
X-.7S1000
X-7.9S0
X-.3S1000
X-1.3S0
X-.4S1000
X-1.4S0
X-3.1S1000
X-2.917S0
Y.1
X2.917
X3S1000
X1.5S0
X.4S1000
X1.3S0
X.3S1000
X7.8S0
X.7S1000
X13.2S0
X.7S1000
X7.8S0
X3S1000
X1.5S0
X.5S1000
X1.2S0
X.4S1000
X26.7S0
X3.1S1000
X1.5S0
X.4S1000
X1.2S0
X.4S1000
X7.8S0
X.7S1000
X13.2S0
X.6S1000
X7.9S0
X3S1000
X1.5S0
X.4S1000
X1.2S0
X.4S1000
X26.8S0
X3S1000
X1.5S0
X.4S1000
X1.2S0
X.5S1000
X7.7S0
X.7S1000
X13.2S0
X.6S1000
X7.9S0
X3S1000
X1.5S0
X.4S1000
X1.3S0
X.3S1000
X26.8S0
X3.1S1000
X1.5S0
X.4S1000
X1.2S0
X.4S1000
X7.8S0
X.6S1000
X13.3S0
X.7S1000
X7.7S0
X3.1S1000
X1.5S0
X.4S1000
X1.2S0
X.5S1000
X2.916S0
X-.1Y.1
X-2.916
X-.4S1000
X-1.1S0
X-.5S1000
X-1.6S0
X-3.2S1000
X-7.6S0
X-.6S1000
X-13.2S0
X-.7S1000
X-7.8S0
X-.4S1000
X-1.2S0
X-.5S1000
X-1.5S0
X-3.2S1000
X-26.5S0
X-.5S1000
X-1.1S0
X-.5S1000
X-1.5S0
X-3.3S1000
X-7.4S0
X-.7S1000
X-13.4S0
X-.6S1000
X-7.8S0
X-.4S1000
X-1.1S0
X-.5S1000
X-1.5S0
X-3.3S1000
X-26.5S0
X-.4S1000
X-1.2S0
X-.4S1000
X-1.6S0
X-3.2S1000
X-7.6S0
X-.6S1000
X-13.3S0
X-.6S1000
X-7.9S0
X-.3S1000
X-1.2S0
X-.4S1000
X-1.6S0
X-3.2S1000
X-26.6S0
X-.4S1000
X-1.1S0
X-.5S1000
X-1.5S0
X-3.3S1000
X-7.5S0
X-.6S1000
X-13.3S0
X-.7S1000
X-7.7S0
X-.5S1000
X-1.1S0
X-.5S1000
X-1.5S0
X-3.3S1000
X-2.917S0
X-.2Y.1
X2.917
X2.1S1000
X.6S0
X.7S1000
X1.6S0
X.6S1000
X1S0
X.4S1000
X7.8S0
X.6S1000
X13.4S0
X.7S1000
X7.2S0
X2.1S1000
X.6S0
X.7S1000
X1.6S0
X.6S1000
X1S0
X.4S1000
X26.3S0
X2.1S1000
X.6S0
X.8S1000
X1.5S0
X.6S1000
X1S0
X.5S1000
X7.7S0
X.7S1000
X13.4S0
X.6S1000
X7.2S0
X2.1S1000
X.6S0
X.8S1000
X1.5S0
X.6S1000
X1S0
X.5S1000
X26.3S0
X2S1000
X.7S0
X.7S1000
X1.5S0
X.6S1000
X1S0
X.5S1000
X7.7S0
X.7S1000
X13.4S0
X.7S1000
X7.2S0
X2.1S1000
X.6S0
X.7S1000
X1.6S0
X.6S1000
X1S0
X.4S1000
X26.3S0
X2.1S1000
X.6S0
X.8S1000
X1.5S0
X.6S1000
X1S0
X.4S1000
X7.8S0
X.6S1000
X13.5S0
X.7S1000
X7.1S0
X2.1S1000
X.6S0
X.8S1000
X1.5S0
X.6S1000
X1S0
X.5S1000
X2.916S0
X-.1Y.1
X-2.916
X-.4S1000
X-.9S0
X-.7S1000
X-1.6S0
X-.4S1000
X-1.1S0
X-2.1S1000
X-6.9S0
X-.6S1000
X-13.6S0
X-.7S1000
X-7.7S0
X-.5S1000
X-.8S0
X-.7S1000
X-1.6S0
X-.4S1000
X-1.1S0
X-2.2S1000
X-26S0
X-.5S1000
X-.9S0
X-.7S1000
X-1.5S0
X-.4S1000
X-1.2S0
X-2.1S1000
X-6.8S0
X-.7S1000
X-13.6S0
X-.6S1000
X-7.7S0
X-.5S1000
X-.9S0
X-.7S1000
X-1.5S0
X-.6S1000
X-1S0
X-2.1S1000
X-26.1S0
X-.4S1000
X-.9S0
X-.7S1000
X-1.6S0
X-.5S1000
X-1S0
X-2.1S1000
X-6.9S0
X-.6S1000
X-13.6S0
X-.7S1000
X-7.7S0
X-.5S1000
X-.8S0
X-.7S1000
X-1.6S0
X-.5S1000
X-1S0
X-2.2S1000
X-26S0
X-.5S1000
X-.9S0
X-.7S1000
X-1.5S0
X-.5S1000
X-1.1S0
X-2.1S1000
X-6.8S0
X-.7S1000
X-13.5S0
X-.7S1000
X-7.7S0
X-.5S1000
X-.9S0
X-.7S1000
X-1.5S0
X-.5S1000
X-1S0
X-2.2S1000
X-2.917S0
X-.2Y.1
X2.917
X2.2S1000
X1.3S0
X.4S1000
X1.5S0
X.8S1000
X.7S0
X.5S1000
X7.7S0
X.7S1000
X13.7S0
X.7S1000
X6.5S0
X2.2S1000
X1.3S0
X.4S1000
X1.4S0
X.9S1000
X.7S0
X.5S1000
X26S0
X2.1S1000
X1.4S0
X.3S1000
X1.5S0
X.9S1000
X.6S0
X.5S1000
X7.8S0
X.6S1000
X13.7S0
X.7S1000
X6.6S0
X2.1S1000
X1.4S0
X.3S1000
X1.6S0
X.8S1000
X.7S0
X.5S1000
X25.9S0
X2.2S1000
X1.3S0
X.3S1000
X1.6S0
X.8S1000
X.7S0
X.5S1000
X7.7S0
X.7S1000
X13.7S0
X.6S1000
X6.6S0
X2.2S1000
X1.3S0
X.4S1000
X1.5S0
X.8S1000
X.7S0
X.5S1000
X26S0
X2.1S1000
X1.4S0
X.3S1000
X1.5S0
X.8S1000
X.7S0
X.5S1000
X7.8S0
X.6S1000
X13.7S0
X.8S1000
X6.5S0
X2.1S1000
X1.4S0
X.3S1000
X1.6S0
X.8S1000
X.7S0
X.5S1000
X2.916S0
X-.2Y.1
X-2.916
X-.4S1000
X-.5S0
X-.6S1000
X-.2S0
X-.2S1000
X-1.5S0
X-.3S1000
X-1.4S0
X-2.2S1000
X-6.5S0
X-.6S1000
X-13.9S0
X-.6S1000
X-7.8S0
X-.5S1000
X-.5S0
X-.5S1000
X-.2S0
X-.3S1000
X-1.4S0
X-.3S1000
X-1.5S0
X-2.1S1000
X-26S0
X-.5S1000
X-.5S0
X-.5S1000
X-.2S0
X-.3S1000
X-1.4S0
X-.4S1000
X-1.4S0
X-2.2S1000
X-6.4S0
X-.7S1000
X-13.8S0
X-.6S1000
X-7.8S0
X-.5S1000
X-.5S0
X-.5S1000
X-.2S0
X-.3S1000
X-1.5S0
X-.3S1000
X-1.4S0
X-2.2S1000
X-25.9S0
X-.5S1000
X-.5S0
X-.6S1000
X-.2S0
X-.3S1000
X-1.4S0
X-.3S1000
X-1.4S0
X-2.2S1000
X-6.4S0
X-.7S1000
X-13.8S0
X-.7S1000
X-7.8S0
X-.5S1000
X-.4S0
X-.6S1000
X-.2S0
X-.3S1000
X-1.4S0
X-.3S1000
X-1.4S0
X-2.2S1000
X-26S0
X-.5S1000
X-.5S0
X-.6S1000
X-.1S0
X-.3S1000
X-1.4S0
X-.3S1000
X-1.5S0
X-2.2S1000
X-6.4S0
X-.6S1000
X-13.8S0
X-.7S1000
X-7.8S0
X-.5S1000
X-.5S0
X-.6S1000
X-.1S0
X-.3S1000
X-1.4S0
X-.4S1000
X-1.4S0
X-2.2S1000
X-2.917S0
X-.1Y.1
X2.917
X2.3S1000
X1.4S0
X.4S1000
X1.3S0
X.4S1000
X.2S0
X1.4S1000
X7.8S0
X.7S1000
X13.9S0
X.6S1000
X6.3S0
X2.3S1000
X1.5S0
X.3S1000
X1.3S0
X.4S1000
X.2S0
X1.4S1000
X26S0
X2.2S1000
X1.5S0
X.3S1000
X1.4S0
X.3S1000
X.2S0
X1.4S1000
X7.9S0
X.6S1000
X14S0
X.6S1000
X6.3S0
X2.2S1000
X1.5S0
X.3S1000
X1.5S0
X.2S1000
X.2S0
X1.5S1000
X25.9S0
X2.2S1000
X1.5S0
X.3S1000
X1.4S0
X.3S1000
X.3S0
X1.4S1000
X7.8S0
X.7S1000
X13.9S0
X.8S1000
X6.1S0
X2.3S1000
X1.4S0
X.3S1000
X1.4S0
X.3S1000
X.3S0
X1.4S1000
X26S0
X2.2S1000
X1.5S0
X.3S1000
X1.4S0
X.3S1000
X.3S0
X1.3S1000
X7.8S0
X.7S1000
X14S0
X.7S1000
X6.2S0
X2.2S1000
X1.5S0
X.3S1000
X1.4S0
X.3S1000
X.3S0
X1.3S1000
X2.916S0
X-.1Y.1
X-2.916
X-1.2S1000
X-.3S0
X-.4S1000
X-1.3S0
X-.3S1000
X-1.5S0
X-2.3S1000
X-6.2S0
X-.6S1000
X-14.1S0
X-.6S1000
X-7.9S0
X-1.2S1000
X-.4S0
X-.3S1000
X-1.3S0
X-.3S1000
X-1.5S0
X-2.3S1000
X-26.1S0
X-1.2S1000
X-.3S0
X-.3S1000
X-1.3S0
X-.4S1000
X-1.5S0
X-2.3S1000
X-6.1S0
X-.6S1000
X-14.1S0
X-.7S1000
X-7.9S0
X-1.2S1000
X-.3S0
X-.3S1000
X-1.4S0
X-.3S1000
X-1.5S0
X-2.3S1000
X-26S0
X-1.2S1000
X-.3S0
X-.4S1000
X-1.3S0
X-.3S1000
X-1.5S0
X-2.3S1000
X-6.2S0
X-.6S1000
X-14S0
X-.7S1000
X-7.9S0
X-1.2S1000
X-.4S0
X-.3S1000
X-1.3S0
X-.3S1000
X-1.5S0
X-2.3S1000
X-26.1S0
X-1.1S1000
X-.4S0
X-.4S1000
X-1.2S0
X-.4S1000
X-1.5S0
X-2.3S1000
X-6.1S0
X-.6S1000
X-14.1S0
X-.6S1000
X-8S0
X-1.1S1000
X-.4S0
X-.3S1000
X-1.3S0
X-.4S1000
X-1.5S0
X-2.3S1000
X-2.917S0
Y.1
X2.917
X.7S1000
X.6S0
X1S1000
X1.5S0
X.4S1000
X1.1S0
X.5S1000
X.4S0
X1S1000
X8S0
X.7S1000
X14.1S0
X.7S1000
X6S0
X.7S1000
X.6S0
X1S1000
X1.6S0
X.4S1000
X1S0
X.5S1000
X.5S0
X.9S1000
X26.1S0
X.7S1000
X.6S0
X1S1000
X1.6S0
X.4S1000
X1S0
X.5S1000
X.6S0
X.9S1000
X7.9S0
X.7S1000
X14.1S0
X.7S1000
X6S0
X.8S1000
X.5S0
X1S1000
X1.6S0
X.4S1000
X1.1S0
X.4S1000
X.6S0
X.9S1000
X26S0
X.7S1000
X.7S0
X1S1000
X1.5S0
X.4S1000
X1.1S0
X.4S1000
X.6S0
X.9S1000
X8S0
X.6S1000
X14.2S0
X.7S1000
X5.9S0
X.7S1000
X.7S0
X1S1000
X1.5S0
X.4S1000
X1.1S0
X.4S1000
X.6S0
X.9S1000
X26.1S0
X.7S1000
X.6S0
X1.1S1000
X1.5S0
X.4S1000
X1S0
X.5S1000
X.6S0
X.8S1000
X8S0
X.8S1000
X14.1S0
X.6S1000
X6S0
X.7S1000
X.6S0
X1.1S1000
X1.5S0
X.4S1000
X1.1S0
X.4S1000
X.6S0
X.9S1000
X2.916S0
X-.4Y.1
X-2.916
X-.2S1000
X-.1S0
X-.1S1000
X-.7S0
X-.7S1000
X-.6S0
X-.6S1000
X-1.6S0
X-.7S1000
X-1.2S0
X-.4S1000
X-5.9S0
X-.7S1000
X-14.3S0
X-.6S1000
X-8.3S0
X-.4S1000
X-.8S0
X-.6S1000
X-.7S0
X-.5S1000
X-1.6S0
X-.7S1000
X-1.2S0
X-.5S1000
X-26.4S0
X-.2S1000
X-.9S0
X-.6S1000
X-.7S0
X-.6S1000
X-1.5S0
X-.8S1000
X-1.1S0
X-.5S1000
X-5.9S0
X-.6S1000
X-14.3S0
X-.7S1000
X-8.3S0
X-.2S1000
X-.1S0
X-.1S1000
X-.7S0
X-.6S1000
X-.7S0
X-.6S1000
X-1.6S0
X-.7S1000
X-1.1S0
X-.5S1000
X-26.2S0
X-.1S1000
X-.2S0
X-.2S1000
X-.8S0
X-.6S1000
X-.8S0
X-.5S1000
X-1.6S0
X-.7S1000
X-1.2S0
X-.4S1000
X-5.9S0
X-.7S1000
X-14.3S0
X-.6S1000
X-8.3S0
X-.4S1000
X-.8S0
X-.5S1000
X-.8S0
X-.5S1000
X-1.6S0
X-.7S1000
X-1.2S0
X-.5S1000
X-26.3S0
X-.3S1000
X-1S0
X-.5S1000
X-.7S0
X-.6S1000
X-1.6S0
X-.6S1000
X-1.2S0
X-.5S1000
X-5.9S0
X-.6S1000
X-14.3S0
X-.7S1000
X-8.3S0
X-.2S1000
X-.9S0
X-.6S1000
X-.7S0
X-.6S1000
X-1.6S0
X-.6S1000
X-1.2S0
X-.5S1000
X-2.917S0
X-.1Y.1
X2.917
X.4S1000
X1.4S0
X.7S1000
X1.5S0
X1.8S1000
X9.4S0
X.7S1000
X14.4S0
X.7S1000
X5.7S0
X.4S1000
X1.4S0
X.7S1000
X1.5S0
X1.8S1000
X27.5S0
X.5S1000
X1.3S0
X.7S1000
X1.5S0
X1.9S1000
X9.4S0
X.6S1000
X14.5S0
X.6S1000
X5.8S0
X.4S1000
X1.3S0
X.7S1000
X1.5S0
X1.9S1000
X27.5S0
X.4S1000
X1.5S0
X.5S1000
X1.6S0
X1.8S1000
X9.4S0
X.7S1000
X14.4S0
X.8S1000
X5.6S0
X.4S1000
X1.5S0
X.6S1000
X1.5S0
X1.8S1000
X27.5S0
X.4S1000
X1.5S0
X.6S1000
X1.5S0
X1.9S1000
X9.4S0
X.7S1000
X14.4S0
X.6S1000
X5.8S0
X.4S1000
X1.4S0
X.6S1000
X1.5S0
X1.9S1000
X2.916S0
Y.1
X-2.916
X-1.9S1000
X-1.5S0
X-.6S1000
X-1.5S0
X-.4S1000
X-5.5S0
X-.8S1000
X-14.5S0
X-.6S1000
X-9.5S0
X-1.8S1000
X-1.5S0
X-.6S1000
X-1.6S0
X-.3S1000
X-27.5S0
X-1.9S1000
X-1.5S0
X-.5S1000
X-1.6S0
X-.4S1000
X-5.6S0
X-.6S1000
X-14.6S0
X-.6S1000
X-9.4S0
X-1.9S1000
X-1.5S0
X-.5S1000
X-1.6S0
X-.4S1000
X-27.5S0
X-1.8S1000
X-1.5S0
X-.5S1000
X-1.6S0
X-.4S1000
X-5.6S0
X-.7S1000
X-14.5S0
X-.7S1000
X-9.4S0
X-1.8S1000
X-1.5S0
X-.5S1000
X-1.6S0
X-.4S1000
X-27.5S0
X-1.8S1000
X-1.6S0
X-.5S1000
X-1.6S0
X-.3S1000
X-5.6S0
X-.7S1000
X-14.6S0
X-.6S1000
X-9.4S0
X-1.9S1000
X-1.5S0
X-.5S1000
X-1.6S0
X-.3S1000
X-2.917S0
X-.1Y.1
X2.917
X.4S1000
X1.7S0
X.5S1000
X1.4S0
X1.8S1000
X9.4S0
X.7S1000
X14.7S0
X.6S1000
X5.5S0
X.4S1000
X1.7S0
X.5S1000
X1.4S0
X1.8S1000
X27.5S0
X.4S1000
X1.7S0
X.4S1000
X1.5S0
X1.8S1000
X9.5S0
X.7S1000
X14.6S0
X.7S1000
X5.5S0
X.3S1000
X1.7S0
X.4S1000
X1.5S0
X1.9S1000
X27.5S0
X.3S1000
X1.7S0
X.5S1000
X1.4S0
X1.9S1000
X9.5S0
X.6S1000
X14.6S0
X.7S1000
X5.5S0
X.3S1000
X1.7S0
X.6S1000
X1.4S0
X1.8S1000
X27.5S0
X.5S1000
X1.6S0
X.5S1000
X1.4S0
X1.9S1000
X9.4S0
X.7S1000
X14.6S0
X.6S1000
X5.6S0
X.3S1000
X1.7S0
X.5S1000
X1.4S0
X1.9S1000
X2.916S0
X-.1Y.1
X-2.916
X-1.9S1000
X-1.3S0
X-.4S1000
X-1.8S0
X-.4S1000
X-5.3S0
X-.7S1000
X-14.9S0
X-.6S1000
X-9.4S0
X-1.9S1000
X-1.3S0
X-.4S1000
X-1.8S0
X-.4S1000
X-27.5S0
X-1.9S1000
X-1.3S0
X-.5S1000
X-1.8S0
X-.3S1000
X-5.5S0
X-.6S1000
X-14.8S0
X-.6S1000
X-9.5S0
X-1.9S1000
X-1.3S0
X-.4S1000
X-1.8S0
X-.3S1000
X-27.6S0
X-1.9S1000
X-1.3S0
X-.4S1000
X-1.8S0
X-.4S1000
X-5.4S0
X-.6S1000
X-14.8S0
X-.7S1000
X-9.4S0
X-1.9S1000
X-1.3S0
X-.4S1000
X-1.8S0
X-.4S1000
X-27.5S0
X-1.9S1000
X-1.3S0
X-.4S1000
X-1.9S0
X-.3S1000
X-5.4S0
X-.7S1000
X-14.8S0
X-.6S1000
X-9.4S0
X-1.9S1000
X-1.3S0
X-.5S1000
X-1.8S0
X-.3S1000
X-2.917S0
Y.1
X2.917
X.3S1000
X1.9S0
X.4S1000
X1.2S0
X1.9S1000
X9.4S0
X.7S1000
X14.9S0
X.6S1000
X5.4S0
X.3S1000
X1.9S0
X.4S1000
X1.2S0
X1.9S1000
X27.6S0
X.3S1000
X1.9S0
X.4S1000
X1.2S0
X1.9S1000
X9.4S0
X.7S1000
X15S0
X.6S1000
X5.3S0
X.4S1000
X1.8S0
X.4S1000
X1.2S0
X1.9S1000
X27.6S0
X.4S1000
X1.8S0
X.5S1000
X1.1S0
X2S1000
X9.4S0
X.6S1000
X15S0
X.7S1000
X5.3S0
X.3S1000
X1.8S0
X.5S1000
X1.2S0
X1.9S1000
X27.6S0
X.3S1000
X1.9S0
X.4S1000
X1.2S0
X1.9S1000
X9.5S0
X.6S1000
X14.9S0
X.7S1000
X5.3S0
X.4S1000
X1.8S0
X.4S1000
X1.2S0
X2S1000
X2.916S0
X-.1Y.1
X-2.916
X-2S1000
X-1S0
X-.5S1000
X-1.9S0
X-.4S1000
X-5.1S0
X-.7S1000
X-14.9S0
X-.1S1000
X-.1S0
X-.6S1000
X-9.4S0
X-2.1S1000
X-1S0
X-.4S1000
X-1.9S0
X-.4S1000
X-27.5S0
X-2.1S1000
X-1S0
X-.4S1000
X-1.9S0
X-.4S1000
X-5.2S0
X-.6S1000
X-15.1S0
X-.7S1000
X-9.4S0
X-2S1000
X-1S0
X-.4S1000
X-1.9S0
X-.4S1000
X-27.6S0
X-2.1S1000
X-.9S0
X-.5S1000
X-1.9S0
X-.4S1000
X-5.2S0
X-.6S1000
X-15.1S0
X-.6S1000
X-9.4S0
X-2.1S1000
X-.9S0
X-.5S1000
X-1.9S0
X-.4S1000
X-27.5S0
X-2.1S1000
X-1S0
X-.4S1000
X-1.9S0
X-.4S1000
X-5.2S0
X-.6S1000
X-15.1S0
X-.7S1000
X-9.3S0
X-2.1S1000
X-1S0
X-.4S1000
X-1.9S0
X-.4S1000
X-2.917S0
X-.1Y.1
X2.917
X.4S1000
X2.1S0
X.4S1000
X.7S0
X2.2S1000
X9.4S0
X.6S1000
X15.2S0
X.7S1000
X5S0
X.5S1000
X2S0
X.4S1000
X.7S0
X2.2S1000
X27.6S0
X.4S1000
X2S0
X.4S1000
X.7S0
X2.3S1000
X9.3S0
X.7S1000
X15.2S0
X.7S1000
X5S0
X.4S1000
X2S0
X.5S1000
X.6S0
X2.3S1000
X27.5S0
X.4S1000
X2S0
X.5S1000
X.7S0
X2.2S1000
X9.3S0
X.7S1000
X15.2S0
X.7S1000
X5S0
X.4S1000
X2S0
X.5S1000
X.7S0
X2.2S1000
X27.6S0
X.4S1000
X2S0
X.5S1000
X.6S0
X2.3S1000
X9.3S0
X.6S1000
X15.3S0
X.6S1000
X5.1S0
X.4S1000
X2S0
X.5S1000
X.7S0
X2.2S1000
X2.916S0
Y.1
X-2.916
X-.9S1000
X-.4S0
X-1.2S1000
X-.2S0
X-.6S1000
X-2.1S0
X-.4S1000
X-5S0
X-.6S1000
X-15.3S0
X-.8S1000
X-9.2S0
X-.9S1000
X-.4S0
X-1.2S1000
X-.2S0
X-.7S1000
X-2S0
X-.5S1000
X-27.5S0
X-.9S1000
X-.3S0
X-1.3S1000
X-.1S0
X-.7S1000
X-2S0
X-.5S1000
X-4.9S0
X-.7S1000
X-15.3S0
X-.7S1000
X-9.3S0
X-.9S1000
X-.4S0
X-1.2S1000
X-.1S0
X-.7S1000
X-2.1S0
X-.4S1000
X-27.5S0
X-.9S1000
X-.4S0
X-1.2S1000
X-.2S0
X-.7S1000
X-2S0
X-.5S1000
X-5S0
X-.6S1000
X-15.3S0
X-.7S1000
X-9.2S0
X-.9S1000
X-.4S0
X-1.2S1000
X-.2S0
X-.7S1000
X-2S0
X-.5S1000
X-27.5S0
X-.9S1000
X-.3S0
X-1.3S1000
X-.1S0
X-.7S1000
X-2S0
X-.5S1000
X-5S0
X-.6S1000
X-15.3S0
X-.7S1000
X-9.3S0
X-.9S1000
X-.3S0
X-1.3S1000
X-.1S0
X-.7S1000
X-2S0
X-.5S1000
X-2.917S0
X-.1Y.1
X2.917
X.7S1000
X.9S0
X.2S1000
X.8S0
X1.8S1000
X1.2S0
X.4S1000
X1.5S0
X.6S1000
X7S0
X.7S1000
X15.4S0
X.7S1000
X4.9S0
X.6S1000
X.9S0
X.2S1000
X.8S0
X1.8S1000
X1.2S0
X.4S1000
X1.6S0
X.5S1000
X25.4S0
X.6S1000
X.9S0
X.2S1000
X.8S0
X1.8S1000
X1.1S0
X.4S1000
X1.6S0
X.5S1000
X7.1S0
X.7S1000
X15.4S0
X.6S1000
X5S0
X.6S1000
X.9S0
X.2S1000
X.8S0
X1.8S1000
X1.1S0
X.4S1000
X1.6S0
X.6S1000
X25.3S0
X.6S1000
X.9S0
X.3S1000
X.7S0
X1.8S1000
X1.1S0
X.4S1000
X1.6S0
X.6S1000
X7S0
X.7S1000
X15.4S0
X.6S1000
X5S0
X.6S1000
X.9S0
X.2S1000
X.8S0
X1.8S1000
X1.1S0
X.4S1000
X1.6S0
X.6S1000
X25.4S0
X.6S1000
X.9S0
X.3S1000
X.6S0
X1.8S1000
X1.2S0
X.4S1000
X1.6S0
X.5S1000
X7.1S0
X.7S1000
X15.4S0
X.6S1000
X5S0
X.6S1000
X.9S0
X.3S1000
X.7S0
X1.7S1000
X1.2S0
X.4S1000
X1.6S0
X.6S1000
X2.916S0
X.3Y.1
X-2.916
X-1.5S1000
X-.2S0
X-.1S1000
X-.6S0
X-.4S1000
X-1.5S0
X-1.5S1000
X-.7S0
X-1.8S1000
X-4.9S0
X-.7S1000
X-15.4S0
X-.7S1000
X-6.7S0
X-1.4S1000
X-.2S0
X-.1S1000
X-.8S0
X-.3S1000
X-1.5S0
X-1.5S1000
X-.7S0
X-.7S1000
X-.1S0
X-1.1S1000
X-25S0
X-1.4S1000
X-.2S0
X-.1S1000
X-.7S0
X-.3S1000
X-1.5S0
X-1.6S1000
X-.7S0
X-.6S1000
X-.1S0
X-1.1S1000
X-4.8S0
X-.7S1000
X-15.6S0
X-.6S1000
X-6.7S0
X-1.4S1000
X-.2S0
X-.1S1000
X-.7S0
X-.3S1000
X-1.5S0
X-1.6S1000
X-.7S0
X-.6S1000
X-.1S0
X-1.1S1000
X-25.1S0
X-1.3S1000
X-.2S0
X-.1S1000
X-.7S0
X-.4S1000
X-1.5S0
X-1.5S1000
X-.7S0
X-.6S1000
X-.1S0
X-.1S1000
X-.1S0
X-1S1000
X-4.8S0
X-.7S1000
X-15.5S0
X-.7S1000
X-6.7S0
X-1.3S1000
X-.2S0
X-.1S1000
X-.7S0
X-.4S1000
X-1.5S0
X-1.5S1000
X-.7S0
X-.6S1000
X-.1S0
X-.1S1000
X-.1S0
X-1S1000
X-25S0
X-1.4S1000
X-.2S0
X-.1S1000
X-.7S0
X-.4S1000
X-1.4S0
X-1.5S1000
X-.7S0
X-.8S1000
X-.1S0
X-1S1000
X-4.8S0
X-.7S1000
X-15.5S0
X-.7S1000
X-6.7S0
X-1.4S1000
X-.1S0
X-.1S1000
X-.8S0
X-.4S1000
X-1.4S0
X-1.5S1000
X-.7S0
X-.8S1000
X-.1S0
X-1S1000
X-2.917S0
X-.1Y.1
X2.917
X.3S1000
X.2S0
X1.4S1000
X.9S0
X.8S1000
X2.1S0
X.4S1000
X.3S0
X2.3S1000
X6.3S0
X.7S1000
X15.7S0
X.6S1000
X4.9S0
X.1S1000
X.2S0
X1.4S1000
X.9S0
X.8S1000
X2.1S0
X.4S1000
X.3S0
X2.3S1000
X24.7S0
X.2S1000
X.2S0
X1.4S1000
X.9S0
X.8S1000
X2.2S0
X.4S1000
X.3S0
X2.3S1000
X6.3S0
X.6S1000
X15.7S0
X.7S1000
X4.8S0
X.2S1000
X.2S0
X1.4S1000
X.8S0
X.8S1000
X.2S0
X.1S1000
X1.9S0
X.4S1000
X.3S0
X2.3S1000
X24.6S0
X.3S1000
X.1S0
X1.5S1000
X.9S0
X.7S1000
X.1S0
X.1S1000
X2S0
X.4S1000
X.3S0
X2.3S1000
X6.3S0
X.7S1000
X15.7S0
X.6S1000
X4.7S0
X.3S1000
X.1S0
X1.5S1000
X.9S0
X.8S1000
X.1S0
X.1S1000
X1.9S0
X.4S1000
X.3S0
X2.3S1000
X24.8S0
X.2S1000
X.1S0
X1.4S1000
X1S0
X.7S1000
X2.2S0
X.4S1000
X.3S0
X2.2S1000
X6.4S0
X.6S1000
X15.7S0
X.7S1000
X4.7S0
X.3S1000
X.1S0
X1.5S1000
X.9S0
X.7S1000
X.2S0
X.1S1000
X1.9S0
X.4S1000
X.3S0
X2.3S1000
X2.916S0
X.1Y.1
X-2.916
X-3.1S1000
X-2.5S0
X-.4S1000
X-1S0
X-1.1S1000
X-.5S0
X-.1S1000
X-4.8S0
X-.6S1000
X-15.8S0
X-.7S1000
X-6.1S0
X-3.1S1000
X-2.5S0
X-.4S1000
X-1S0
X-1.1S1000
X-.5S0
X-.2S1000
X-24.5S0
X-3.2S1000
X-2.4S0
X-.5S1000
X-1S0
X-1S1000
X-.5S0
X-.2S1000
X-4.6S0
X-.8S1000
X-15.8S0
X-.6S1000
X-6.1S0
X-3.2S1000
X-2.4S0
X-.5S1000
X-1S0
X-1S1000
X-.5S0
X-.2S1000
X-24.6S0
X-3.1S1000
X-2.5S0
X-.4S1000
X-1S0
X-1.1S1000
X-.5S0
X-.2S1000
X-4.7S0
X-.6S1000
X-15.8S0
X-.7S1000
X-6.1S0
X-3.1S1000
X-2.5S0
X-.4S1000
X-1S0
X-1.1S1000
X-25.2S0
X-3.1S1000
X-2.5S0
X-.4S1000
X-1S0
X-1.1S1000
X-.6S0
X-.1S1000
X-4.7S0
X-.7S1000
X-15.8S0
X-.6S1000
X-6.1S0
X-3.1S1000
X-2.5S0
X-.5S1000
X-.9S0
X-1.1S1000
X-.6S0
X-.1S1000
X-2.917S0
X.9Y.1
X2.917
X.7S1000
X1.2S0
X.3S1000
X2.6S0
X4.1S1000
X5S0
X.7S1000
X15.9S0
X.7S1000
X5.5S0
X.7S1000
X1.2S0
X.3S1000
X2.6S0
X4.1S1000
X24.4S0
X.8S1000
X1.1S0
X.3S1000
X2.6S0
X4.2S1000
X5S0
X.6S1000
X15.9S0
X.7S1000
X5.5S0
X.8S1000
X1.2S0
X.2S1000
X2.6S0
X4.2S1000
X24.3S0
