; LightBurn Pro 2.0.05
; GRBL-LPC device profile, absolute coords
; Bounds: X15.94 Y13.2 to X285.97 Y198.4
G00 G17 G40 G21 G54
G90
M4
; Image @ 7000 мм/мин, 100% power
M8
G0 X22.136Y63.299
; Layer C00
G91
G1 X2.916F7000S0
X.3S1000
X.1S0
X.4S1000
X.1S0
X.2S1000
X2S0
X.3S1000
X.1S0
X.3S1000
X.1S0
X.1S1000
X1.1S0
X.9S1000
X1.3S0
X1S1000
X.6S0
X.4S1000
X.1S0
X.3S1000
X.6S0
X.3S1000
X.1S0
X.3S1000
X.5S0
X.4S1000
X.1S0
X.3S1000
X.7S0
X.5S1000
X.1S0
X.2S1000
X1.3S0
X.5S1000
X.1S0
X.3S1000
X.7S0
X.3S1000
X.1S0
X.2S1000
X.9S0
X.2S1000
X.1S0
X.3S1000
X1.6S0
X.3S1000
X1.4S0
X.4S1000
X.1S0
X.2S1000
X2S0
X.4S1000
X.1S0
X.1S1000
X1.9S0
X.4S1000
X.1S0
X.2S1000
X1.3S0
X.3S1000
X.1S0
X.3S1000
X1.8S0
X.2S1000
X.1S0
X.3S1000
X.6S0
X.3S1000
X.1S0
X.3S1000
X.6S0
X.4S1000
X.1S0
X.2S1000
X.8S0
X.3S1000
X.1S0
X.2S1000
X1.8S0
X.3S1000
X.1S0
X.4S1000
X2.4S0
X.4S1000
X.1S0
X.1S1000
X1S0
X.3S1000
X.1S0
X.4S1000
X.1S0
X.1S1000
X1S0
X.3S1000
X.1S0
X.3S1000
X.1S0
X.2S1000
X1.1S0
X.3S1000
X.1S0
X.3S1000
X.1S0
X.2S1000
X1.8S0
X.2S1000
X.1S0
X.3S1000
X.1S0
X.2S1000
X1.5S0
X.2S1000
X.1S0
X.2S1000
X17.3S0
X.3S1000
X.1S0
X.4S1000
X.1S0
X.2S1000
X1.9S0
X.4S1000
X.1S0
X.3S1000
X.1S0
X.1S1000
X1S0
X.2S1000
X.1S0
X.2S1000
X.1S0
X.2S1000
X1.4S0
X.2S1000
X.1S0
X.3S1000
X.1S0
X.3S1000
X.6S0
X.3S1000
X.1S0
X.4S1000
X.6S0
X.4S1000
X.1S0
X.3S1000
X.5S0
X.3S1000
X.1S0
X.3S1000
X.7S0
X.4S1000
X.1S0
X.3S1000
X1.3S0
X.2S1000
X.1S0
X.3S1000
X.1S0
X.2S1000
X.7S0
X.2S1000
X.1S0
X.3S1000
X1S0
X.4S1000
X.1S0
X.2S1000
X1.4S0
X.3S1000
X1.4S0
X.3S1000
X.1S0
X.3S1000
X2.1S0
X.5S1000
X1.9S0
X.7S1000
X1.3S0
X.3S1000
X.1S0
X.3S1000
X1.8S0
X.2S1000
X.1S0
X.2S1000
X.7S0
X.2S1000
X.1S0
X.3S1000
X.1S0
X.1S1000
X.6S0
X.5S1000
X.1S0
X.2S1000
X.7S0
X.5S1000
X1.9S0
X.4S1000
X.1S0
X.2S1000
X2.4S0
X.2S1000
X.1S0
X.2S1000
X1.1S0
X.2S1000
X.1S0
X.3S1000
X.1S0
X.3S1000
X1.1S0
X.2S1000
X.1S0
X.3S1000
X.1S0
X.2S1000
X1.1S0
X.6S1000
X.1S0
X.3S1000
X1.9S0
X.6S1000
X.1S0
X.2S1000
X1.5S0
X.4S1000
X17.3S0
X.2S1000
X.1S0
X.3S1000
X.1S0
X.3S1000
X2.1S0
X.3S1000
X.1S0
X.3S1000
X.1S0
X.1S1000
X1.1S0
X.3S1000
X.1S0
X.3S1000
X.1S0
X.1S1000
X1.2S0
X.3S1000
X.1S0
X.3S1000
X.1S0
X.2S1000
X.7S0
X.2S1000
X.1S0
X.3S1000
X.1S0
X.2S1000
X.5S0
X.3S1000
X.1S0
X.3S1000
X.6S0
X.7S1000
X.7S0
X.7S1000
X1.4S0
X.8S1000
X.8S0
X.4S1000
X.1S0
X.2S1000
X.8S0
X.2S1000
X.1S0
X.3S1000
X1.6S0
X.3S1000
X1.3S0
X.8S1000
X2.1S0
X.5S1000
X1.9S0
X.7S1000
X1.3S0
X.4S1000
X.1S0
X.2S1000
X1.7S0
X.2S1000
X.1S0
X.2S1000
X.1S0
X.1S1000
X.5S0
X.2S1000
X.1S0
X.2S1000
X.1S0
X.2S1000
X.6S0
X.2S1000
X.1S0
X.2S1000
X.1S0
X.2S1000
X.7S0
X.2S1000
X.1S0
X.3S1000
X1.9S0
X.3S1000
X.1S0
X.3S1000
X2.4S0
X.2S1000
X.1S0
X.3S1000
X1S0
X.3S1000
X.1S0
X.4S1000
X1.2S0
X.9S1000
X1.1S0
X1S1000
X2S0
X.3S1000
X.1S0
X.3S1000
X1.6S0
X.2S1000
X.1S0
X.3S1000
X17.2S0
X1.1S1000
X1.9S0
X.8S1000
X.1S0
X.1S1000
X1S0
X.3S1000
X.1S0
X.3S1000
X.1S0
X.1S1000
X1.3S0
X.2S1000
X.1S0
X.3S1000
X.1S0
X.2S1000
X.7S0
X.2S1000
X.1S0
X.2S1000
X.1S0
X.3S1000
X.5S0
X.2S1000
X.1S0
X.3S1000
X.1S0
X.1S1000
X.6S0
X.3S1000
X.1S0
X.2S1000
X.7S0
X.2S1000
X.1S0
X.3S1000
X.1S0
X.1S1000
X1.3S0
X.2S1000
X.1S0
X.2S1000
X.1S0
X.2S1000
X.8S0
X.2S1000
X.1S0
X.2S1000
X.1S0
X.1S1000
X.9S0
X.4S1000
X.1S0
X.2S1000
X1.4S0
X.4S1000
X1.3S0
X.8S1000
X2S0
X.5S1000
X1.9S0
X.5S1000
X.1S0
X.1S1000
X1.3S0
X.5S1000
X.1S0
X.2S1000
X1.7S0
X.2S1000
X.1S0
X.3S1000
X.6S0
X.6S1000
X.101S0
X.099S1000
X.6S0
X.7S1000
X.8S0
X.5S1000
X1.9S0
X.7S1000
X2.4S0
X.6S1000
X1S0
X1S1000
X1.1S0
X.3S1000
X.1S0
X.3S1000
X.1S0
X.1S1000
X1.1S0
X.4S1000
X.1S0
X.5S1000
X1.9S0
X.4S1000
X.1S0
X.4S1000
X1.5S0
X.5S1000
X2.917S0
X.1Y.1
X-2.917
X-.7S1000
X-1.4S0
X-.9S1000
X-1.799S0
X-1.101S1000
X-1.1S0
X-1S1000
X-1S0
X-1S1000
X-.9S0
X-.7S1000
X-2.3S0
X-.8S1000
X-1.8S0
X-.7S1000
X-.7S0
X-.8S1000
X-.5S0
X-.8S1000
X-.5S0
X-.7S1000
X-1.7S0
X-.8S1000
X-1.2S0
X-.8S1000
X-1.8S0
X-.7S1000
X-1.9S0
X-.9S1000
X-1.1S0
X-.5S1000
X-1.4S0
X-.7S1000
X-.8S0
X-.7S1000
X-.8S0
X-.9S1000
X-1.3S0
X-.8S1000
X-.6S0
X-.8S1000
X-.4S0
X-.9S1000
X-.4S0
X-1S1000
X-.6S0
X-1S1000
X-1.2S0
X-.9S1000
X-1S0
X-1.1S1000
X-1.8S0
X-1.2S1000
X-17.2S0
X-.7S1000
X-1.4S0
X-.9S1000
X-1.8S0
X-1.1S1000
X-1.1S0
X-1S1000
X-1S0
X-1S1000
X-.9S0
X-.6S1000
X-2.4S0
X-.8S1000
X-1.8S0
X-.6S1000
X-.7S0
X-.9S1000
X-.5S0
X-.8S1000
X-.4S0
X-.8S1000
X-1.7S0
X-.8S1000
X-1.1S0
X-.8S1000
X-1.9S0
X-.6S1000
X-2S0
X-.9S1000
X-1.1S0
X-.5S1000
X-1.4S0
X-.7S1000
X-.8S0
X-.7S1000
X-.7S0
X-.9S1000
X-1.3S0
X-.8S1000
X-.6S0
X-.9S1000
X-.4S0
X-.8S1000
X-.5S0
X-.9S1000
X-.6S0
X-1S1000
X-1.3S0
X-.9S1000
X-.9S0
X-1.2S1000
X-1.8S0
X-1.1S1000
X-17.2S0
X-.7S1000
X-1.4S0
X-1S1000
X-1.8S0
X-1.1S1000
X-1.1S0
X-.9S1000
X-1S0
X-1S1000
X-.9S0
X-.7S1000
X-2.3S0
X-.9S1000
X-1.8S0
X-.6S1000
X-.7S0
X-.8S1000
X-.6S0
X-.7S1000
X-.5S0
X-.7S1000
X-1.7S0
X-.9S1000
X-1.1S0
X-.8S1000
X-1.9S0
X-.6S1000
X-1.9S0
X-.9S1000
X-1.1S0
X-.5S1000
X-1.4S0
X-.7S1000
X-.8S0
X-.8S1000
X-.7S0
X-.9S1000
X-1.3S0
X-.8S1000
X-.6S0
X-.8S1000
X-.5S0
X-.8S1000
X-.4S0
X-1S1000
X-.6S0
X-1S1000
X-1.2S0
X-.9S1000
X-1S0
X-1.1S1000
X-1.8S0
X-1.2S1000
X-17.2S0
X-.6S1000
X-1.5S0
X-.9S1000
X-1.8S0
X-1.1S1000
X-1.1S0
X-.9S1000
X-1.1S0
X-.9S1000
X-1S0
X-.6S1000
X-2.3S0
X-.9S1000
X-1.8S0
X-.6S1000
X-.7S0
X-.9S1000
X-.5S0
X-.7S1000
X-.5S0
X-.7S1000
X-1.8S0
X-.8S1000
X-1.2S0
X-.7S1000
X-1.9S0
X-.6S1000
X-2S0
X-.8S1000
X-1.2S0
X-.5S1000
X-1.3S0
X-.8S1000
X-.8S0
X-.7S1000
X-.7S0
X-.9S1000
X-1.3S0
X-.8S1000
X-.6S0
X-.8S1000
X-.5S0
X-.9S1000
X-.3S0
X-1S1000
X-.6S0
X-1S1000
X-1.3S0
X-.8S1000
X-1.1S0
X-1.1S1000
X-1.8S0
X-1.1S1000
X-2.916S0
Y.1
X2.916
X1.2S1000
X1.8S0
X1.1S1000
X1S0
X.9S1000
X1.3S0
X.9S1000
X.7S0
X.9S1000
X.4S0
X.9S1000
X.4S0
X.8S1000
X.6S0
X.8S1000
X1.3S0
X.9S1000
X.8S0
X.7S1000
X.7S0
X.8S1000
X1.4S0
X.4S1000
X1.2S0
X.8S1000
X2S0
X.6S1000
X1.9S0
X.8S1000
X1.1S0
X.8S1000
X1.8S0
X.6S1000
X.5S0
X.8S1000
X.5S0
X.9S1000
X.7S0
X.6S1000
X1.8S0
X.8S1000
X2.3S0
X.7S1000
X.9S0
X1S1000
X1S0
X1S1000
X1S0
X1.1S1000
X1.8S0
X1S1000
X1.4S0
X.7S1000
X17.3S0
X1.1S1000
X1.9S0
X1S1000
X1S0
X.9S1000
X1.3S0
X1S1000
X.6S0
X.9S1000
X.5S0
X.8S1000
X.4S0
X.9S1000
X.6S0
X.8S1000
X1.3S0
X.8S1000
X.8S0
X.7S1000
X.8S0
X.7S1000
X1.4S0
X.5S1000
X1.1S0
X.9S1000
X1.9S0
X.6S1000
X1.9S0
X.7S1000
X1.3S0
X.7S1000
X1.8S0
X.7S1000
X.5S0
X.7S1000
X.5S0
X.9S1000
X.7S0
X.7S1000
X1.7S0
X.8S1000
X2.4S0
X.6S1000
X1S0
X.9S1000
X1.1S0
X1S1000
X1S0
X1.1S1000
X1.8S0
X1S1000
X1.3S0
X.8S1000
X17.2S0
X1.2S1000
X1.9S0
X1S1000
X1S0
X.9S1000
X1.2S0
X1S1000
X.6S0
X1S1000
X.4S0
X.8S1000
X.5S0
X.8S1000
X.6S0
X.8S1000
X1.3S0
X.9S1000
X.7S0
X.7S1000
X.8S0
X.7S1000
X1.5S0
X.4S1000
X1.2S0
X.8S1000
X2S0
X.6S1000
X1.9S0
X.7S1000
X1.2S0
X.8S1000
X1.7S0
X.8S1000
X.4S0
X.8S1000
X.6S0
X.8S1000
X.6S0
X.7S1000
X1.7S0
X.9S1000
X2.3S0
X.7S1000
X.9S0
X1S1000
X1S0
X.9S1000
X1.1S0
X1.1S1000
X1.8S0
X1S1000
X1.4S0
X.8S1000
X17.2S0
X1.1S1000
X1.9S0
X1.1S1000
X.9S0
X.9S1000
X1.3S0
X1S1000
X.6S0
X.9S1000
X.5S0
X.8S1000
X.4S0
X.9S1000
X.6S0
X.8S1000
X1.3S0
X.8S1000
X.8S0
X.7S1000
X.8S0
X.7S1000
X1.4S0
X.5S1000
X1.2S0
X.8S1000
X2S0
X.6S1000
X1.8S0
X.8S1000
X1.101S0
X.799S1000
X1.8S0
X.7S1000
X.5S0
X.701S1000
X.5S0
X.899S1000
X.7S0
X.6S1000
X1.801S0
X.899S1000
X2.3S0
X.6S1000
X1S0
X.9S1000
X1.1S0
X.9S1000
X1.1S0
X1.1S1000
X1.8S0
X1S1000
X1.301S0
X.799S1000
X2.917S0
Y.1
X-2.917
X-.799S1000
X-1.401S0
X-1S1000
X-1.8S0
X-1S1000
X-1.1S0
X-1S1000
X-1S0
X-1S1000
X-.9S0
X-.6S1000
X-2.4S0
X-.799S1000
X-1.701S0
X-.7S1000
X-.7S0
X-.8S1000
X-.599S0
X-.701S1000
X-.5S0
X-.7S1000
X-1.8S0
X-.7S1000
X-1.2S0
X-.8S1000
X-1.8S0
X-.7S1000
X-1.9S0
X-.9S1000
X-1.2S0
X-.3S1000
X-1.5S0
X-.7S1000
X-.8S0
X-.7S1000
X-.7S0
X-.9S1000
X-1.3S0
X-.8S1000
X-.6S0
X-.8S1000
X-.5S0
X-.8S1000
X-.4S0
X-1S1000
X-.6S0
X-1S1000
X-1.2S0
X-.9S1000
X-1.1S0
X-1S1000
X-1.8S0
X-1.2S1000
X-17.2S0
X-.9S1000
X-1.4S0
X-.9S1000
X-1.9S0
X-1S1000
X-1S0
X-1S1000
X-1.1S0
X-.9S1000
X-1S0
X-.6S1000
X-2.3S0
X-.8S1000
X-1.8S0
X-.7S1000
X-.7S0
X-.8S1000
X-.5S0
X-.8S1000
X-.5S0
X-.7S1000
X-1.7S0
X-.7S1000
X-1.4S0
X-.6S1000
X-1.9S0
X-.6S1000
X-2S0
X-.8S1000
X-1.2S0
X-.5S1000
X-1.3S0
X-.8S1000
X-.8S0
X-.6S1000
X-.8S0
X-.9S1000
X-1.3S0
X-.8S1000
X-.5S0
X-.9S1000
X-.4S0
X-.8S1000
X-.5S0
X-.9S1000
X-.6S0
X-1S1000
X-1.3S0
X-.9S1000
X-.9S0
X-1.2S1000
X-1.8S0
X-1.1S1000
X-17.3S0
X-.8S1000
X-1.4S0
X-1S1000
X-1.8S0
X-1.1S1000
X-1S0
X-1S1000
X-1S0
X-1S1000
X-.9S0
X-.6S1000
X-2.4S0
X-.8S1000
X-1.8S0
X-.6S1000
X-.7S0
X-.9S1000
X-.4S0
X-.8S1000
X-.5S0
X-.7S1000
X-1.8S0
X-.8S1000
X-1.1S0
X-.8S1000
X-1.9S0
X-.5S1000
X-2S0
X-.8S1000
X-1.3S0
X-.4S1000
X-1.4S0
X-.7S1000
X-.8S0
X-.7S1000
X-.7S0
X-.9S1000
X-1.3S0
X-.8S1000
X-.6S0
X-.8S1000
X-.5S0
X-.8S1000
X-.4S0
X-1S1000
X-.6S0
X-1S1000
X-1.2S0
X-.9S1000
X-1S0
X-1.1S1000
X-1.9S0
X-1.1S1000
X-17.3S0
X-.8S1000
X-1.4S0
X-.9S1000
X-1.8S0
X-1.1S1000
X-1.1S0
X-.9S1000
X-1S0
X-1S1000
X-1S0
X-.6S1000
X-2.3S0
X-.9S1000
X-1.7S0
X-.7S1000
X-.6S0
X-.9S1000
X-.5S0
X-.8S1000
X-.4S0
X-.7S1000
X-1.8S0
X-.8S1000
X-1.2S0
X-.7S1000
X-1.9S0
X-.6S1000
X-1.9S0
X-.9S1000
X-1.1S0
X-.5S1000
X-1.4S0
X-.7S1000
X-.9S0
X-.6S1000
X-.8S0
X-.8S1000
X-1.3S0
X-.9S1000
X-.5S0
X-.9S1000
X-.4S0
X-.8S1000
X-.5S0
X-.9S1000
X-.6S0
X-1S1000
X-1.3S0
X-.9S1000
X-.9S0
X-1.1S1000
X-1.9S0
X-1.1S1000
X-2.916S0
Y.1
X2.916
X1.2S1000
X1.8S0
X1.1S1000
X1S0
X.9S1000
X1.2S0
X1S1000
X.6S0
X1S1000
X.4S0
X.8S1000
X.5S0
X.7S1000
X.7S0
X.8S1000
X1.3S0
X.8S1000
X.8S0
X.7S1000
X.8S0
X.7S1000
X1.4S0
X.4S1000
X1.2S0
X.9S1000
X1.9S0
X.6S1000
X1.9S0
X.8S1000
X1.2S0
X.7S1000
X1.7S0
X.7S1000
X.5S0
X.8S1000
X.6S0
X.7S1000
X.7S0
X.7S1000
X1.7S0
X.8S1000
X2.4S0
X.6S1000
X.9S0
X1S1000
X1S0
X1S1000
X1S0
X1.1S1000
X1.9S0
X.8S1000
X1.5S0
X.8S1000
X17.4S0
X1.1S1000
X1.8S0
X1.1S1000
X1S0
X.9S1000
X1.3S0
X.9S1000
X.7S0
X.9S1000
X.5S0
X.7S1000
X.5S0
X.8S1000
X.6S0
X.8S1000
X1.3S0
X.9S1000
X.7S0
X.6S1000
X.9S0
X.7S1000
X1.4S0
X.5S1000
X1.1S0
X.9S1000
X1.9S0
X.6S1000
X1.9S0
X.7S1000
X1.3S0
X.7S1000
X1.8S0
X.7S1000
X.4S0
X.8S1000
X.6S0
X.8S1000
X.7S0
X.6S1000
X1.8S0
X.8S1000
X2.3S0
X.6S1000
X1S0
X1S1000
X1S0
X.9S1000
X1.1S0
X1.1S1000
X1.8S0
X.9S1000
X1.4S0
X.9S1000
X17.3S0
X1.2S1000
X1.8S0
X1.1S1000
X1S0
X.9S1000
X1.2S0
X1S1000
X.6S0
X.9S1000
X.5S0
X.8S1000
X.5S0
X.7S1000
X.7S0
X.8S1000
X1.3S0
X.8S1000
X.8S0
X.6S1000
X.9S0
X.7S1000
X1.4S0
X.4S1000
X1.2S0
X.8S1000
X2.1S0
X.5S1000
X1.9S0
X.7S1000
X1.2S0
X.8S1000
X1.7S0
X.7S1000
X.5S0
X.7S1000
X.6S0
X.8S1000
X.7S0
X.6S1000
X1.8S0
X.8S1000
X2.3S0
X.7S1000
X.9S0
X1S1000
X1S0
X1S1000
X1S0
X1.1S1000
X1.9S0
X.9S1000
X1.4S0
X.9S1000
X17.3S0
X1.1S1000
X1.9S0
X1S1000
X1S0
X.9S1000
X1.3S0
X.9S1000
X.7S0
X.9S1000
X.5S0
X.7S1000
X.5S0
X.8S1000
X.6S0
X.8S1000
X1.3S0
X.9S1000
X.7S0
X.7S1000
X.8S0
X.7S1000
X1.4S0
X.5S1000
X1.2S0
X.8S1000
X2S0
X.6S1000
X1.8S0
X.8S1000
X1.2S0
X.7S1000
X1.8S0
X.7S1000
X.4S0
X.9S1000
X.5S0
X.8S1000
X.7S0
X.6S1000
X1.801S0
X.799S1000
X2.3S0
X.6S1000
X1S0
X1S1000
X1S0
X1S1000
X1S0
X1.1S1000
X1.8S0
X.901S1000
X1.399S0
X.9S1000
X2.917S0
Y.1
X-2.917
X-.9S1000
X-1.5S0
X-.8S1000
X-1.9S0
X-1.1S1000
X-1S0
X-.9S1000
X-1.1S0
X-.9S1000
X-1S0
X-.6S1000
X-2.4S0
X-.8S1000
X-1.7S0
X-.699S1000
X-.701S0
X-.799S1000
X-.5S0
X-.801S1000
X-.5S0
X-.6S1000
X-1.8S0
X-.799S1000
X-1.101S0
X-.8S1000
X-1.8S0
X-.6S1000
X-2S0
X-.8S1000
X-1.2S0
X-.4S1000
X-1.4S0
X-.7S1000
X-.9S0
X-.6S1000
X-.8S0
X-.9S1000
X-1.2S0
X-.9S1000
X-.5S0
X-.8S1000
X-.5S0
X-.8S1000
X-.4S0
X-1S1000
X-.6S0
X-1S1000
X-1.3S0
X-.8S1000
X-1S0
X-1.1S1000
X-1.9S0
X-1.1S1000
X-17.3S0
X-1S1000
X-1.5S0
X-.8S1000
X-1.9S0
X-1S1000
X-1S0
X-1S1000
X-1S0
X-1S1000
X-1S0
X-.6S1000
X-2.3S0
X-.8S1000
X-1.8S0
X-.6S1000
X-.7S0
X-.8S1000
X-.5S0
X-.8S1000
X-.5S0
X-.7S1000
X-1.7S0
X-.7S1000
X-1.3S0
X-.7S1000
X-1.9S0
X-.6S1000
X-2S0
X-.7S1000
X-1.2S0
X-.5S1000
X-1.4S0
X-.7S1000
X-.8S0
X-.7S1000
X-.7S0
X-.9S1000
X-1.3S0
X-.8S1000
X-.6S0
X-.8S1000
X-.5S0
X-.8S1000
X-.4S0
X-.9S1000
X-.7S0
X-.9S1000
X-1.3S0
X-.9S1000
X-1S0
X-1S1000
X-1.9S0
X-1.1S1000
X-17.4S0
X-.9S1000
X-1.5S0
X-.8S1000
X-1.9S0
X-1.1S1000
X-1S0
X-1S1000
X-1S0
X-1S1000
X-.9S0
X-.6S1000
X-2.4S0
X-.8S1000
X-1.7S0
X-.7S1000
X-.7S0
X-.8S1000
X-.5S0
X-.8S1000
X-.5S0
X-.7S1000
X-1.7S0
X-.8S1000
X-1.1S0
X-.8S1000
X-1.9S0
X-.6S1000
X-1.9S0
X-.8S1000
X-1.3S0
X-.4S1000
X-1.3S0
X-.7S1000
X-.9S0
X-.6S1000
X-.8S0
X-.9S1000
X-1.3S0
X-.8S1000
X-.6S0
X-.7S1000
X-.5S0
X-.8S1000
X-.4S0
X-1S1000
X-.6S0
X-1S1000
X-1.3S0
X-.8S1000
X-1S0
X-1.1S1000
X-1.9S0
X-1.1S1000
X-17.4S0
X-.9S1000
X-1.4S0
X-.9S1000
X-1.8S0
X-1.1S1000
X-1S0
X-1S1000
X-1S0
X-1S1000
X-.9S0
X-.7S1000
X-2.3S0
X-.8S1000
X-1.8S0
X-.6S1000
X-.7S0
X-.8S1000
X-.6S0
X-.7S1000
X-.5S0
X-.7S1000
X-1.7S0
X-.8S1000
X-1.2S0
X-.7S1000
X-1.9S0
X-.6S1000
X-1.9S0
X-.9S1000
X-1.2S0
X-.4S1000
X-1.4S0
X-.7S1000
X-.9S0
X-.6S1000
X-.7S0
X-.9S1000
X-1.3S0
X-.8S1000
X-.6S0
X-.8S1000
X-.4S0
X-.8S1000
X-.5S0
X-.9S1000
X-.6S0
X-1S1000
X-1.3S0
X-.9S1000
X-.9S0
X-1.1S1000
X-1.9S0
X-1.1S1000
X-2.916S0
Y.1
X2.916
X1.2S1000
X1.9S0
X1S1000
X1S0
X.9S1000
X1.2S0
X1S1000
X.6S0
X1S1000
X.4S0
X.8S1000
X.5S0
X.7S1000
X.6S0
X.9S1000
X1.2S0
X.9S1000
X.8S0
X.6S1000
X.9S0
X.6S1000
X1.4S0
X.5S1000
X1.1S0
X.9S1000
X1.9S0
X.6S1000
X1.9S0
X.8S1000
X1.1S0
X.8S1000
X1.7S0
X.7S1000
X.5S0
X.7S1000
X.5S0
X.9S1000
X.7S0
X.6S1000
X1.8S0
X.8S1000
X2.3S0
X.6S1000
X.9S0
X1S1000
X1.1S0
X.9S1000
X1S0
X1.1S1000
X1.9S0
X.8S1000
X1.5S0
X.9S1000
X17.5S0
X1.1S1000
X1.9S0
X1.1S1000
X.9S0
X.9S1000
X1.2S0
X1S1000
X.7S0
X.9S1000
X.5S0
X.7S1000
X.5S0
X.7S1000
X.6S0
X.9S1000
X1.3S0
X.8S1000
X.8S0
X.7S1000
X.8S0
X.7S1000
X1.4S0
X.4S1000
X1.2S0
X.8S1000
X2S0
X.5S1000
X1.9S0
X.8S1000
X1.1S0
X.8S1000
X1.7S0
X.7S1000
X.5S0
X.8S1000
X.6S0
X.7S1000
X.7S0
X.6S1000
X1.9S0
X.7S1000
X2.3S0
X.7S1000
X.9S0
X1S1000
X1.1S0
X.9S1000
X1S0
X1S1000
X1.9S0
X.9S1000
X1.4S0
X1S1000
X17.4S0
X1.2S1000
X1.9S0
X1S1000
X1S0
X.9S1000
X1.2S0
X1S1000
X.6S0
X1S1000
X.4S0
X.8S1000
X.5S0
X.7S1000
X.6S0
X.8S1000
X1.3S0
X.9S1000
X.7S0
X.7S1000
X.8S0
X.7S1000
X1.4S0
X.4S1000
X1.2S0
X.8S1000
X2S0
X.6S1000
X1.9S0
X.7S1000
X1.2S0
X.8S1000
X1.7S0
X.7S1000
X.4S0
X.8S1000
X.5S0
X.9S1000
X.7S0
X.6S1000
X1.8S0
X.7S1000
X2.4S0
X.6S1000
X.9S0
X1S1000
X1.1S0
X.9S1000
X1S0
X1.1S1000
X1.9S0
X.8S1000
X1.5S0
X1S1000
X17.4S0
X1.1S1000
X1.9S0
X1.1S1000
X.9S0
X.9S1000
X1.3S0
X1S1000
X.6S0
X.9S1000
X.5S0
X.7S1000
X.5S0
X.7S1000
X.7S0
X.8S1000
X1.3S0
X.8S1000
X.8S0
X.6S1000
X.9S0
X.7S1000
X1.4S0
X.4S1000
X1.2S0
X.8S1000
X2.1S0
X.5S1000
X1.8S0
X.7S1000
X1.3S0
X.7S1000
X1.8S0
X.6S1000
X.5S0
X.801S1000
X.599S0
X.7S1000
X.701S0
X.599S1000
X1.901S0
X.699S1000
X2.301S0
X.699S1000
X.9S0
X.901S1000
X1.099S0
X1S1000
X1S0
X1S1000
X1.901S0
X.899S1000
X1.4S0
X1S1000
X2.917S0
Y.1
X-2.917
X-1S1000
X-1.5S0
X-.799S1000
X-1.901S0
X-1.099S1000
X-1S0
X-.901S1000
X-1.099S0
X-1S1000
X-.901S0
X-.599S1000
X-2.301S0
X-.8S1000
X-1.8S0
X-.599S1000
X-.701S0
X-.799S1000
X-.601S0
X-.7S1000
X-.5S0
X-.6S1000
X-1.8S0
X-.799S1000
X-1.101S0
X-.8S1000
X-1.8S0
X-.6S1000
X-2S0
X-.8S1000
X-1.2S0
X-.4S1000
X-1.4S0
X-.7S1000
X-.8S0
X-.7S1000
X-.7S0
X-.9S1000
X-1.3S0
X-.8S1000
X-.6S0
X-.7S1000
X-.5S0
X-.8S1000
X-.4S0
X-1S1000
X-.6S0
X-1S1000
X-1.2S0
X-.9S1000
X-1S0
X-1S1000
X-1.9S0
X-1.2S1000
X-17.4S0
X-1.1S1000
X-1.5S0
X-.8S1000
X-1.9S0
X-1S1000
X-1S0
X-1S1000
X-1S0
X-1S1000
X-1S0
X-.5S1000
X-2.4S0
X-.8S1000
X-1.7S0
X-.7S1000
X-.7S0
X-.7S1000
X-.5S0
X-.9S1000
X-.4S0
X-.7S1000
X-1.8S0
X-.7S1000
X-1.2S0
X-.7S1000
X-1.9S0
X-.6S1000
X-1.9S0
X-.9S1000
X-1.2S0
X-.4S1000
X-1.4S0
X-.7S1000
X-.9S0
X-.5S1000
X-.8S0
X-.8S1000
X-1.3S0
X-.9S1000
X-.5S0
X-.8S1000
X-.5S0
X-.8S1000
X-.4S0
X-.9S1000
X-.7S0
X-1S1000
X-1.2S0
X-.9S1000
X-1S0
X-1S1000
X-1.9S0
X-1.1S1000
X-17.5S0
X-1S1000
X-1.5S0
X-.8S1000
X-1.9S0
X-1.1S1000
X-1S0
X-.9S1000
X-1.1S0
X-1S1000
X-.9S0
X-.6S1000
X-2.3S0
X-.8S1000
X-1.8S0
X-.6S1000
X-.7S0
X-.8S1000
X-.6S0
X-.7S1000
X-.5S0
X-.7S1000
X-1.7S0
X-.7S1000
X-1.3S0
X-.7S1000
X-1.9S0
X-.6S1000
X-1.9S0
X-.8S1000
X-1.2S0
X-.4S1000
X-1.4S0
X-.7S1000
X-.9S0
X-.6S1000
X-.8S0
X-.8S1000
X-1.3S0
X-.8S1000
X-.6S0
X-.7S1000
X-.6S0
X-.7S1000
X-.4S0
X-1S1000
X-.6S0
X-1S1000
X-1.2S0
X-.9S1000
X-1S0
X-1S1000
X-1.9S0
X-1.2S1000
X-17.5S0
X-1S1000
X-1.4S0
X-.8S1000
X-1.9S0
X-1.1S1000
X-1S0
X-1S1000
X-1S0
X-1S1000
X-.9S0
X-.6S1000
X-2.4S0
X-.8S1000
X-1.7S0
X-.6S1000
X-.7S0
X-.8S1000
X-.5S0
X-.9S1000
X-.4S0
X-.7S1000
X-1.7S0
X-.8S1000
X-1.2S0
X-.7S1000
X-1.9S0
X-.6S1000
X-1.9S0
X-.8S1000
X-1.3S0
X-.3S1000
X-1.4S0
X-.7S1000
X-.9S0
X-.6S1000
X-.8S0
X-.8S1000
X-1.3S0
X-.8S1000
X-.7S0
X-.7S1000
X-.5S0
X-.7S1000
X-.5S0
X-.9S1000
X-.7S0
X-1S1000
X-1.2S0
X-.9S1000
X-.9S0
X-1.1S1000
X-1.9S0
X-1.1S1000
X-2.916S0
X.1Y.1
X2.916
X1.1S1000
X1.9S0
X1S1000
X1S0
X.8S1000
X1.3S0
X.9S1000
X.7S0
X1S1000
X.4S0
X.7S1000
X.6S0
X.7S1000
X.6S0
X.8S1000
X1.2S0
X1S1000
X.6S0
X.8S1000
X.8S0
X.7S1000
X1.4S0
X.3S1000
X1.3S0
X.8S1000
X2S0
X.5S1000
X1.9S0
X.7S1000
X1.3S0
X.7S1000
X1.7S0
X.7S1000
X.4S0
X.8S1000
X.5S0
X.9S1000
X.7S0
X.6S1000
X1.8S0
X.7S1000
X2.4S0
X.5S1000
X1S0
X.9S1000
X1.1S0
X.9S1000
X1S0
X1.1S1000
X1.9S0
X.8S1000
X1.5S0
X1S1000
X17.6S0
X1.1S1000
X1.9S0
X1S1000
X1S0
X.9S1000
X1.2S0
X1S1000
X.6S0
X1S1000
X.4S0
X.8S1000
X.5S0
X.7S1000
X.6S0
X.8S1000
X1.3S0
X.9S1000
X.8S0
X.6S1000
X.8S0
X.7S1000
X1.4S0
X.4S1000
X1.2S0
X.8S1000
X2S0
X.6S1000
X1.8S0
X.8S1000
X1.1S0
X.8S1000
X1.7S0
X.7S1000
X.5S0
X.8S1000
X.5S0
X.8S1000
X.7S0
X.6S1000
X1.8S0
X.7S1000
X2.4S0
X.6S1000
X.9S0
X1S1000
X1.1S0
X.9S1000
X1S0
X1.1S1000
X1.9S0
X.7S1000
X1.5S0
X1.1S1000
X17.6S0
X1.1S1000
X1.9S0
X1S1000
X1S0
X.8S1000
X1.3S0
X1S1000
X.6S0
X.9S1000
X.5S0
X.8S1000
X.5S0
X.7S1000
X.6S0
X.8S1000
X1.3S0
X.8S1000
X.8S0
X.6S1000
X.9S0
X.7S1000
X1.4S0
X.4S1000
X1.2S0
X.8S1000
X2S0
X.5S1000
X1.9S0
X.6S1000
X1.4S0
X.7S1000
X1.7S0
X.6S1000
X.5S0
X.8S1000
X.6S0
X.7S1000
X.7S0
X.6S1000
X1.8S0
X.8S1000
X2.3S0
X.6S1000
X1S0
X.9S1000
X1.1S0
X.9S1000
X1S0
X1.1S1000
X1.9S0
X.8S1000
X1.5S0
X1.1S1000
X17.5S0
X1.1S1000
X1.9S0
X1S1000
X1S0
X.9S1000
X1.2S0
X1S1000
X.7S0
X.9S1000
X.4S0
X.8S1000
X.5S0
X.8S1000
X.5S0
X.8S1000
X1.4S0
X.8S1000
X.8S0
X.6S1000
X.8S0
X.7S1000
X1.4S0
X.5S1000
X1.1S0
X.8S1000
X2S0
X.6S1000
X1.8S0
X.8S1000
X1.2S0
X.7S1000
X1.701S0
X.699S1000
X.5S0
X.801S1000
X.5S0
X.799S1000
X.701S0
X.599S1000
X1.8S0
X.7S1000
X2.401S0
X.599S1000
X.901S0
X1.099S1000
X1S0
X.901S1000
X1S0
X1.099S1000
X1.901S0
X.699S1000
X1.5S0
X1.1S1000
X2.917S0
Y.1
X-2.917
X-1.1S1000
X-1.5S0
X-.8S1000
X-1.899S0
X-1.101S1000
X-1S0
X-.899S1000
X-1S0
X-1S1000
X-1S0
X-.5S1000
X-2.401S0
X-.8S1000
X-1.7S0
X-.599S1000
X-.701S0
X-.799S1000
X-.5S0
X-.801S1000
X-.5S0
X-.699S1000
X-1.701S0
X-.7S1000
X-1.2S0
X-.8S1000
X-1.8S0
X-.6S1000
X-2S0
X-.7S1000
X-1.3S0
X-.4S1000
X-1.4S0
X-.7S1000
X-.9S0
X-.5S1000
X-.8S0
X-.9S1000
X-1.2S0
X-.8S1000
X-.7S0
X-.7S1000
X-.5S0
X-.7S1000
X-.5S0
X-1S1000
X-.5S0
X-1S1000
X-1.3S0
X-.8S1000
X-1S0
X-1S1000
X-1.9S0
X-1.1S1000
X-17.7S0
X-1.1S1000
X-1.4S0
X-.9S1000
X-1.9S0
X-1S1000
X-1S0
X-1S1000
X-1S0
X-1S1000
X-.9S0
X-.6S1000
X-2.4S0
X-.7S1000
X-1.8S0
X-.6S1000
X-.7S0
X-.8S1000
X-.5S0
X-.8S1000
X-.5S0
X-.6S1000
X-1.8S0
X-.7S1000
X-1.2S0
X-.7S1000
X-1.9S0
X-.6S1000
X-1.9S0
X-.9S1000
X-1.2S0
X-.3S1000
X-1.4S0
X-.7S1000
X-.8S0
X-.7S1000
X-.7S0
X-.9S1000
X-1.3S0
X-.8S1000
X-.6S0
X-.7S1000
X-.5S0
X-.8S1000
X-.4S0
X-1S1000
X-.6S0
X-.9S1000
X-1.3S0
X-.9S1000
X-.9S0
X-1.1S1000
X-1.9S0
X-1.1S1000
X-17.6S0
X-1.1S1000
X-1.5S0
X-.8S1000
X-1.9S0
X-1.1S1000
X-1S0
X-.9S1000
X-1S0
X-1S1000
X-1S0
X-.5S1000
X-2.4S0
X-.8S1000
X-1.7S0
X-.6S1000
X-.7S0
X-.9S1000
X-.4S0
X-.8S1000
X-.5S0
X-.7S1000
X-1.7S0
X-.7S1000
X-1.3S0
X-.7S1000
X-1.8S0
X-.6S1000
X-2S0
X-.8S1000
X-1.1S0
X-.5S1000
X-1.4S0
X-.7S1000
X-.9S0
X-.6S1000
X-.7S0
X-.9S1000
X-1.2S0
X-.8S1000
X-.6S0
X-.8S1000
X-.5S0
X-.7S1000
X-.5S0
X-.9S1000
X-.7S0
X-.9S1000
X-1.3S0
X-.8S1000
X-1S0
X-1S1000
X-1.9S0
X-1.1S1000
X-17.7S0
X-1.1S1000
X-1.5S0
X-.7S1000
X-1.9S0
X-1.1S1000
X-1S0
X-.9S1000
X-1.1S0
X-1S1000
X-.9S0
X-.6S1000
X-2.3S0
X-.8S1000
X-1.8S0
X-.6S1000
X-.7S0
X-.7S1000
X-.6S0
X-.8S1000
X-.5S0
X-.6S1000
X-1.7S0
X-.8S1000
X-1.2S0
X-.7S1000
X-1.8S0
X-.6S1000
X-2S0
X-.8S1000
X-1.2S0
X-.4S1000
X-1.5S0
X-.6S1000
X-.9S0
X-.6S1000
X-.7S0
X-.9S1000
X-1.3S0
X-.8S1000
X-.6S0
X-.7S1000
X-.6S0
X-.6S1000
X-.5S0
X-1S1000
X-.6S0
X-1S1000
X-1.2S0
X-.8S1000
X-1S0
X-1.1S1000
X-1.9S0
X-1.1S1000
X-2.916S0
X.1Y.1
X2.916
X1.1S1000
X1.9S0
X1S1000
X1S0
X.8S1000
X1.3S0
X.9S1000
X.7S0
X.9S1000
X.5S0
X.7S1000
X.5S0
X.8S1000
X.6S0
X.7S1000
X1.3S0
X.9S1000
X.8S0
X.5S1000
X.9S0
X.7S1000
X1.4S0
X.4S1000
X1.2S0
X.8S1000
X2S0
X.6S1000
X1.8S0
X.7S1000
X1.2S0
X.8S1000
X1.7S0
X.6S1000
X.5S0
X.8S1000
X.5S0
X.8S1000
X.7S0
X.6S1000
X1.8S0
X.7S1000
X2.4S0
X.5S1000
X1S0
X1S1000
X1S0
X.9S1000
X1S0
X1.1S1000
X1.9S0
X.8S1000
X1.4S0
X1.2S1000
X17.7S0
X1.1S1000
X1.9S0
X1S1000
X1S0
X.8S1000
X1.3S0
X1S1000
X.6S0
X1S1000
X.4S0
X.7S1000
X.5S0
X.8S1000
X.6S0
X.8S1000
X1.3S0
X.8S1000
X.8S0
X.6S1000
X.9S0
X.7S1000
X1.4S0
X.3S1000
X1.2S0
X.9S1000
X1.9S0
X.6S1000
X1.8S0
X.7S1000
X1.2S0
X.8S1000
X1.7S0
X.7S1000
X.4S0
X.8S1000
X.6S0
X.7S1000
X.7S0
X.6S1000
X1.8S0
X.8S1000
X2.3S0
X.6S1000
X.9S0
X1S1000
X1.1S0
X.9S1000
X1S0
X1.1S1000
X1.8S0
X.8S1000
X1.5S0
X1.1S1000
X17.8S0
X1.1S1000
X1.9S0
X1S1000
X1S0
X.8S1000
X1.3S0
X.9S1000
X.7S0
X.9S1000
X.5S0
X.6S1000
X.6S0
X.7S1000
X.7S0
X.8S1000
X1.2S0
X.9S1000
X.8S0
X.5S1000
X.9S0
X.7S1000
X1.4S0
X.4S1000
X1.2S0
X.8S1000
X1.9S0
X.6S1000
X1.9S0
X.7S1000
X1.2S0
X.7S1000
X1.8S0
X.6S1000
X.5S0
X.8S1000
X.5S0
X.8S1000
X.7S0
X.6S1000
X1.8S0
X.7S1000
X2.4S0
X.5S1000
X1S0
X1S1000
X1S0
X.9S1000
X1S0
X1.1S1000
X1.9S0
X.8S1000
X1.4S0
X1.2S1000
X17.8S0
X1S1000
X1.9S0
X1S1000
X1S0
X.8S1000
X1.3S0
X1S1000
X.6S0
X1S1000
X.4S0
X.7S1000
X.6S0
X.7S1000
X.6S0
X.8S1000
X1.3S0
X.8S1000
X.8S0
X.6S1000
X.9S0
X.7S1000
X1.4S0
X.3S1000
X1.2S0
X.9S1000
X1.9S0
X.6S1000
X1.8S0
X.8S1000
X1.101S0
X.799S1000
X1.7S0
X.699S1000
X.4S0
X.8S1000
X.601S0
X.699S1000
X.7S0
X.601S1000
X1.799S0
X.8S1000
X2.3S0
X.601S1000
X1S0
X.899S1000
X1.101S0
X.899S1000
X1S0
X1.101S1000
X1.899S0
X.8S1000
X1.4S0
X1.1S1000
X2.917S0
X-.1Y.1
X-2.917
X-1.099S1000
X-1.401S0
X-.8S1000
X-1.9S0
X-1.1S1000
X-1S0
X-.9S1000
X-1S0
X-1S1000
X-1S0
X-.5S1000
X-2.399S0
X-.701S1000
X-1.799S0
X-.601S1000
X-.7S0
X-.699S1000
X-.601S0
X-.8S1000
X-.5S0
X-.599S1000
X-1.701S0
X-.7S1000
X-1.3S0
X-.7S1000
X-1.8S0
X-.5S1000
X-2S0
X-.9S1000
X-1.1S0
X-.4S1000
X-1.4S0
X-.7S1000
X-.9S0
X-.6S1000
X-.7S0
X-.9S1000
X-1.3S0
X-.8S1000
X-.6S0
X-.7S1000
X-.5S0
X-.7S1000
X-.5S0
X-.9S1000
X-.7S0
X-.9S1000
X-1.3S0
X-.8S1000
X-1S0
X-1S1000
X-1.9S0
X-1.1S1000
X-18S0
X-1.1S1000
X-1.4S0
X-.8S1000
X-1.8S0
X-1.1S1000
X-1.1S0
X-.8S1000
X-1.1S0
X-.9S1000
X-1S0
X-.6S1000
X-2.3S0
X-.8S1000
X-1.8S0
X-.5S1000
X-.7S0
X-.8S1000
X-.5S0
X-.8S1000
X-.5S0
X-.6S1000
X-1.8S0
X-.7S1000
X-1.2S0
X-.7S1000
X-1.9S0
X-.6S1000
X-1.9S0
X-.8S1000
X-1.2S0
X-.4S1000
X-1.4S0
X-.7S1000
X-.8S0
X-.7S1000
X-.7S0
X-.8S1000
X-1.3S0
X-.8S1000
X-.6S0
X-.8S1000
X-.5S0
X-.7S1000
X-.4S0
X-1S1000
X-.7S0
X-.8S1000
X-1.3S0
X-.8S1000
X-1S0
X-1.1S1000
X-1.8S0
X-1.1S1000
X-18S0
X-1.1S1000
X-1.4S0
X-.8S1000
X-1.9S0
X-1.1S1000
X-1S0
X-.9S1000
X-1S0
X-1S1000
X-1S0
X-.5S1000
X-2.4S0
X-.7S1000
X-1.8S0
X-.6S1000
X-.7S0
X-.7S1000
X-.6S0
X-.8S1000
X-.5S0
X-.6S1000
X-1.7S0
X-.7S1000
X-1.3S0
X-.7S1000
X-1.8S0
X-.6S1000
X-1.9S0
X-.9S1000
X-1.2S0
X-.3S1000
X-1.5S0
X-.6S1000
X-.9S0
X-.6S1000
X-.8S0
X-.8S1000
X-1.3S0
X-.8S1000
X-.6S0
X-.7S1000
X-.5S0
X-.7S1000
X-.6S0
X-.8S1000
X-.7S0
X-.9S1000
X-1.3S0
X-.8S1000
X-1S0
X-1S1000
X-1.9S0
X-1.1S1000
X-17.9S0
X-1.2S1000
X-1.4S0
X-.8S1000
X-1.8S0
X-1.1S1000
X-1S0
X-.9S1000
X-1S0
X-1S1000
X-1S0
X-.5S1000
X-2.4S0
X-.8S1000
X-1.7S0
X-.6S1000
X-.7S0
X-.8S1000
X-.5S0
X-.8S1000
X-.5S0
X-.6S1000
X-1.7S0
X-.8S1000
X-1.3S0
X-.6S1000
X-1.8S0
X-.6S1000
X-2S0
X-.8S1000
X-1.2S0
X-.3S1000
X-1.5S0
X-.6S1000
X-.9S0
X-.6S1000
X-.8S0
X-.8S1000
X-1.3S0
X-.8S1000
X-.6S0
X-.8S1000
X-.5S0
X-.7S1000
X-.5S0
X-.9S1000
X-.6S0
X-.9S1000
X-1.3S0
X-.8S1000
X-1.1S0
X-1S1000
X-1.8S0
X-1.1S1000
X-1.7S0
X-.1S1000
X-2.916S0
Y.1
X2.916
X.1S1000
X1.7S0
X1.2S1000
X1.8S0
X1S1000
X1.1S0
X.7S1000
X1.3S0
X.9S1000
X.7S0
X.9S1000
X.5S0
X.6S1000
X.6S0
X.7S1000
X.7S0
X.7S1000
X1.3S0
X.8S1000
X.8S0
X.6S1000
X.9S0
X.6S1000
X1.5S0
X.4S1000
X1.1S0
X.8S1000
X2S0
X.6S1000
X1.8S0
X.7S1000
X1.3S0
X.7S1000
X1.7S0
X.6S1000
X.5S0
X.8S1000
X.5S0
X.8S1000
X.7S0
X.5S1000
X1.8S0
X.8S1000
X2.3S0
X.5S1000
X1S0
X1S1000
X1S0
X.9S1000
X1.1S0
X1S1000
X1.9S0
X.8S1000
X1.4S0
X1.1S1000
X16.3S0
X.1S1000
X1.7S0
X1.1S1000
X1.8S0
X1.1S1000
X1S0
X.7S1000
X1.3S0
X.9S1000
X.7S0
X.9S1000
X.5S0
X.6S1000
X.6S0
X.7S1000
X.7S0
X.8S1000
X1.2S0
X.9S1000
X.7S0
X.6S1000
X.9S0
X.7S1000
X1.4S0
X.4S1000
X1.2S0
X.8S1000
X1.9S0
X.6S1000
X1.8S0
X.7S1000
X1.2S0
X.8S1000
X1.7S0
X.6S1000
X.5S0
X.8S1000
X.6S0
X.7S1000
X.7S0
X.6S1000
X1.8S0
X.7S1000
X2.4S0
X.5S1000
X1S0
X1S1000
X1S0
X.8S1000
X1.1S0
X1S1000
X1.9S0
X.8S1000
X1.4S0
X1.2S1000
X16.2S0
X.1S1000
X1.7S0
X1.1S1000
X1.9S0
X1S1000
X1.1S0
X.7S1000
X1.3S0
X.9S1000
X.7S0
X.9S1000
X.5S0
X.6S1000
X.6S0
X.7S1000
X.6S0
X.8S1000
X1.3S0
X.8S1000
X.8S0
X.6S1000
X.9S0
X.6S1000
X1.4S0
X.4S1000
X1.2S0
X.8S1000
X2S0
X.6S1000
X1.8S0
X.7S1000
X1.2S0
X.7S1000
X1.7S0
X.7S1000
X.4S0
X.8S1000
X.6S0
X.7S1000
X.7S0
X.6S1000
X1.8S0
X.8S1000
X2.3S0
X.5S1000
X1S0
X1S1000
X1S0
X.9S1000
X1S0
X1.1S1000
X1.8S0
X.9S1000
X1.4S0
X1.1S1000
X16.2S0
X.2S1000
X1.7S0
X1.1S1000
X1.8S0
X1.1S1000
X1S0
X.7S1000
X1.3S0
X.9S1000
X.7S0
X.9S1000
X.6S0
X.5S1000
X.6S0
X.7S1000
X.7S0
X.8S1000
X1.2S0
X.9S1000
X.7S0
X.7S1000
X.8S0
X.7S1000
X1.4S0
X.3S1000
X1.3S0
X.8S1000
X1.9S0
X.6S1000
X1.8S0
X.8S1000
X1.101S0
X.799S1000
X1.701S0
X.599S1000
X.5S0
X.8S1000
X.601S0
X.799S1000
X.6S0
X.601S1000
X1.799S0
X.8S1000
X2.3S0
X.5S1000
X1S0
X1S1000
X1S0
X.9S1000
X1S0
X1.1S1000
X1.8S0
X.801S1000
X1.399S0
X1.2S1000
X2.917S0
X-.1Y.1
X-2.916
X-1.101S1000
X-1.399S0
X-.801S1000
X-1.9S0
X-1S1000
X-1.1S0
X-.9S1000
X-1S0
X-.9S1000
X-1.1S0
X-.5S1000
X-2.299S0
X-.801S1000
X-1.8S0
X-.5S1000
X-.7S0
X-.8S1000
X-.5S0
X-.8S1000
X-.5S0
X-.599S1000
X-1.701S0
X-.7S1000
X-1.2S0
X-.8S1000
X-1.8S0
X-.6S1000
X-1.9S0
X-.8S1000
X-1.2S0
X-.4S1000
X-1.4S0
X-.7S1000
X-.9S0
X-.5S1000
X-.8S0
X-.8S1000
X-1.3S0
X-.8S1000
X-.6S0
X-.7S1000
X-.6S0
X-.6S1000
X-.6S0
X-.9S1000
X-.6S0
X-.9S1000
X-1.3S0
X-.7S1000
X-1.1S0
X-1S1000
X-1.9S0
X-1.1S1000
X-1.7S0
X-.2S1000
X-16.3S0
X-1.1S1000
X-1.4S0
X-.8S1000
X-1.8S0
X-1.1S1000
X-1S0
X-.9S1000
X-1.1S0
X-.9S1000
X-1S0
X-.5S1000
X-2.3S0
X-.8S1000
X-1.8S0
X-.6S1000
X-.6S0
X-.8S1000
X-.6S0
X-.8S1000
X-.4S0
X-.7S1000
X-1.7S0
X-.8S1000
X-1.1S0
X-.7S1000
X-1.9S0
X-.6S1000
X-1.9S0
X-.8S1000
X-1.2S0
X-.3S1000
X-1.5S0
X-.6S1000
X-.9S0
X-.6S1000
X-.7S0
X-.9S1000
X-1.3S0
X-.7S1000
X-.7S0
X-.7S1000
X-.5S0
X-.6S1000
X-.6S0
X-.9S1000
X-.7S0
X-.9S1000
X-1.3S0
X-.7S1000
X-1S0
X-1.1S1000
X-1.8S0
X-1.1S1000
X-1.7S0
X-.2S1000
X-16.3S0
X-1.1S1000
X-1.4S0
X-.8S1000
X-1.9S0
X-1S1000
X-1.1S0
X-.9S1000
X-1S0
X-.9S1000
X-1.1S0
X-.5S1000
X-2.3S0
X-.8S1000
X-1.8S0
X-.5S1000
X-.7S0
X-.8S1000
X-.5S0
X-.8S1000
X-.5S0
X-.6S1000
X-1.7S0
X-.7S1000
X-1.3S0
X-.7S1000
X-1.8S0
X-.6S1000
X-1.9S0
X-.8S1000
X-1.3S0
X-.3S1000
X-1.4S0
X-.7S1000
X-.9S0
X-.5S1000
X-.8S0
X-.9S1000
X-1.2S0
X-.8S1000
X-.6S0
X-.7S1000
X-.6S0
X-.6S1000
X-.5S0
X-1S1000
X-.6S0
X-.9S1000
X-1.3S0
X-.8S1000
X-1S0
X-1S1000
X-1.8S0
X-1.2S1000
X-1.7S0
X-.1S1000
X-16.3S0
X-1.2S1000
X-1.4S0
X-.8S1000
X-1.8S0
X-1.1S1000
X-1S0
X-.9S1000
X-1S0
X-1S1000
X-1S0
X-.5S1000
X-2.4S0
X-.7S1000
X-1.8S0
X-.6S1000
X-.7S0
X-.7S1000
X-.6S0
X-.8S1000
X-.4S0
X-.6S1000
X-1.8S0
X-.7S1000
X-1.2S0
X-.7S1000
X-1.8S0
X-.6S1000
X-2S0
X-.8S1000
X-1.2S0
X-.3S1000
X-1.4S0
X-.7S1000
X-.9S0
X-.6S1000
X-.7S0
X-.9S1000
X-1.3S0
X-.7S1000
X-.7S0
X-.7S1000
X-.6S0
X-.6S1000
X-.5S0
X-.9S1000
X-.7S0
X-.8S1000
X-1.3S0
X-.8S1000
X-1.1S0
X-.9S1000
X-1.9S0
X-1.2S1000
X-1.7S0
X-.1S1000
X-2.916S0
Y.1
X2.916
X.3S1000
X1.6S0
X1.1S1000
X1.9S0
X1S1000
X1S0
X.8S1000
X1.3S0
X.9S1000
X.7S0
X.8S1000
X.5S0
X.7S1000
X.5S0
X.8S1000
X.6S0
X.8S1000
X1.3S0
X.8S1000
X.7S0
X.6S1000
X.9S0
X.6S1000
X1.5S0
X.3S1000
X1.2S0
X.9S1000
X1.9S0
X.6S1000
X1.8S0
X.7S1000
X1.2S0
X.7S1000
X1.8S0
X.6S1000
X.4S0
X.8S1000
X.5S0
X.8S1000
X.7S0
X.6S1000
X1.8S0
X.7S1000
X2.4S0
X.4S1000
X1.1S0
X.9S1000
X1.1S0
X.8S1000
X1.1S0
X1S1000
X1.9S0
X.8S1000
X1.4S0
X1.1S1000
X16.4S0
X.2S1000
X1.7S0
X1S1000
X1.9S0
X1S1000
X1.1S0
X.7S1000
X1.3S0
X.9S1000
X.7S0
X.9S1000
X.5S0
X.6S1000
X.6S0
X.7S1000
X.7S0
X.6S1000
X1.4S0
X.8S1000
X.8S0
X.6S1000
X.9S0
X.5S1000
X1.5S0
X.4S1000
X1.2S0
X.8S1000
X1.9S0
X.6S1000
X1.8S0
X.7S1000
X1.2S0
X.7S1000
X1.8S0
X.6S1000
X.5S0
X.8S1000
X.5S0
X.8S1000
X.7S0
X.5S1000
X1.8S0
X.8S1000
X2.3S0
X.5S1000
X1S0
X1S1000
X1S0
X.9S1000
X1S0
X1.1S1000
X1.8S0
X.8S1000
X1.4S0
X1.1S1000
X16.4S0
X.2S1000
X1.7S0
X1.1S1000
X1.9S0
X1S1000
X1S0
X.8S1000
X1.3S0
X.9S1000
X.6S0
X.9S1000
X.5S0
X.7S1000
X.5S0
X.8S1000
X.6S0
X.8S1000
X1.2S0
X.9S1000
X.8S0
X.5S1000
X.9S0
X.6S1000
X1.5S0
X.3S1000
X1.2S0
X.8S1000
X1.9S0
X.6S1000
X1.9S0
X.7S1000
X1.2S0
X.7S1000
X1.7S0
X.6S1000
X.5S0
X.8S1000
X.6S0
X.7S1000
X.7S0
X.5S1000
X1.9S0
X.7S1000
X2.3S0
X.5S1000
X1.1S0
X.9S1000
X1S0
X.9S1000
X1.1S0
X1S1000
X1.9S0
X.7S1000
X1.5S0
X1.1S1000
X16.3S0
X.3S1000
X1.7S0
X1.1S1000
X1.8S0
X1.1S1000
X1S0
X.7S1000
X1.3S0
X.9S1000
X.7S0
X.9S1000
X.5S0
X.7S1000
X.5S0
X.7S1000
X.7S0
X.7S1000
X1.3S0
X.8S1000
X.8S0
X.6S1000
X.9S0
X.5S1000
X1.5S0
X.4S1000
X1.2S0
X.8S1000
X1.9S0
X.6S1000
X1.8S0
X.7S1000
X1.3S0
X.6S1000
X1.801S0
X.599S1000
X.5S0
X.8S1000
X.5S0
X.8S1000
X.7S0
X.5S1000
X1.8S0
X.801S1000
X2.299S0
X.5S1000
X1S0
X1S1000
X1S0
X.9S1000
X1S0
X1.1S1000
X1.8S0
X.8S1000
X1.5S0
X1.101S1000
X2.916S0
X-.1Y.1
X-2.917
X-1.1S1000
X-1.5S0
X-.7S1000
X-1.9S0
X-1S1000
X-1S0
X-1S1000
X-1S0
X-.9S1000
X-1S0
X-.5S1000
X-2.4S0
X-.7S1000
X-1.8S0
X-.6S1000
X-.6S0
X-.8S1000
X-.6S0
X-.7S1000
X-.5S0
X-.599S1000
X-1.801S0
X-.699S1000
X-1.201S0
X-.7S1000
X-1.8S0
X-.6S1000
X-1.9S0
X-.8S1000
X-1.2S0
X-.4S1000
X-1.4S0
X-.6S1000
X-.9S0
X-.6S1000
X-.7S0
X-.9S1000
X-1.3S0
X-.7S1000
X-.7S0
X-.6S1000
X-.6S0
X-.6S1000
X-.5S0
X-1S1000
X-.6S0
X-.9S1000
X-1.3S0
X-.8S1000
X-1S0
X-1S1000
X-1.9S0
X-1.1S1000
X-1.7S0
X-.3S1000
X-16.3S0
X-1.2S1000
X-1.4S0
X-.7S1000
X-1.9S0
X-1.1S1000
X-1S0
X-.9S1000
X-1S0
X-1S1000
X-1S0
X-.4S1000
X-2.4S0
X-.8S1000
X-1.8S0
X-.5S1000
X-.7S0
X-.8S1000
X-.5S0
X-.8S1000
X-.5S0
X-.6S1000
X-1.7S0
X-.7S1000
X-1.2S0
X-.7S1000
X-1.9S0
X-.5S1000
X-2S0
X-.8S1000
X-1.1S0
X-.4S1000
X-1.4S0
X-.7S1000
X-.9S0
X-.5S1000
X-.8S0
X-.8S1000
X-1.3S0
X-.8S1000
X-.6S0
X-.7S1000
X-.6S0
X-.6S1000
X-.5S0
X-.9S1000
X-.7S0
X-.9S1000
X-1.3S0
X-.7S1000
X-1.1S0
X-1S1000
X-1.8S0
X-1.1S1000
X-1.7S0
X-.3S1000
X-16.4S0
X-1.1S1000
X-1.5S0
X-.7S1000
X-1.9S0
X-1.1S1000
X-.9S0
X-1S1000
X-1S0
X-.9S1000
X-1S0
X-.5S1000
X-2.4S0
X-.7S1000
X-1.8S0
X-.6S1000
X-.7S0
X-.7S1000
X-.6S0
X-.7S1000
X-.5S0
X-.6S1000
X-1.8S0
X-.7S1000
X-1.2S0
X-.7S1000
X-1.8S0
X-.6S1000
X-1.9S0
X-.8S1000
X-1.2S0
X-.4S1000
X-1.4S0
X-.6S1000
X-.9S0
X-.6S1000
X-.8S0
X-.8S1000
X-1.3S0
X-.7S1000
X-.7S0
X-.7S1000
X-.5S0
X-.6S1000
X-.6S0
X-.9S1000
X-.6S0
X-.9S1000
X-1.3S0
X-.8S1000
X-1S0
X-1S1000
X-1.9S0
X-1.1S1000
X-1.7S0
X-.2S1000
X-16.5S0
X-1.1S1000
X-1.4S0
X-.8S1000
X-1.9S0
X-1S1000
X-1S0
X-.9S1000
X-1S0
X-.9S1000
X-1.1S0
X-.5S1000
X-2.3S0
X-.7S1000
X-1.9S0
X-.5S1000
X-.7S0
X-.7S1000
X-.6S0
X-.8S1000
X-.4S0
X-.6S1000
X-1.8S0
X-.7S1000
X-1.2S0
X-.7S1000
X-1.8S0
X-.6S1000
X-1.9S0
X-.8S1000
X-1.3S0
X-.3S1000
X-1.4S0
X-.7S1000
X-.9S0
X-.5S1000
X-.8S0
X-.8S1000
X-1.3S0
X-.7S1000
X-.7S0
X-.7S1000
X-.6S0
X-.6S1000
X-.5S0
X-.9S1000
X-.7S0
X-.8S1000
X-1.4S0
X-.7S1000
X-1S0
X-1S1000
X-1.9S0
X-1.1S1000
X-1.7S0
X-.3S1000
X-2.916S0
Y.1
X2.916
X.3S1000
X1.8S0
X1S1000
X1.9S0
X1S1000
X1.1S0
X.7S1000
X1.3S0
X.9S1000
X.7S0
X.9S1000
X.5S0
X.6S1000
X.6S0
X.6S1000
X.7S0
X.7S1000
X1.3S0
X.8S1000
X.8S0
X.6S1000
X.9S0
X.6S1000
X1.4S0
X.4S1000
X1.2S0
X.7S1000
X2S0
X.6S1000
X1.8S0
X.6S1000
X1.4S0
X.6S1000
X1.7S0
X.6S1000
X.5S0
X.8S1000
X.5S0
X.8S1000
X.7S0
X.5S1000
X1.8S0
X.8S1000
X2.3S0
X.5S1000
X1S0
X.9S1000
X1.1S0
X.9S1000
X1S0
X1S1000
X1.9S0
X.7S1000
X1.5S0
X1.1S1000
X16.5S0
X.3S1000
X1.7S0
X1.1S1000
X1.9S0
X1S1000
X1S0
X.8S1000
X1.2S0
X.9S1000
X.7S0
X.9S1000
X.5S0
X.6S1000
X.6S0
X.7S1000
X.6S0
X.8S1000
X1.3S0
X.8S1000
X.8S0
X.5S1000
X.9S0
X.6S1000
X1.5S0
X.3S1000
X1.2S0
X.8S1000
X1.9S0
X.6S1000
X1.8S0
X.7S1000
X1.3S0
X.6S1000
X1.8S0
X.6S1000
X.4S0
X.8S1000
X.6S0
X.8S1000
X.6S0
X.5S1000
X1.8S0
X.8S1000
X2.3S0
X.5S1000
X1S0
X.9S1000
X1.1S0
X.9S1000
X1S0
X1S1000
X2S0
X.7S1000
X1.4S0
X1.1S1000
X16.5S0
X.3S1000
X1.7S0
X1.1S1000
X2S0
X.9S1000
X1S0
X.8S1000
X1.3S0
X.9S1000
X.6S0
X.9S1000
X.6S0
X.6S1000
X.5S0
X.7S1000
X.7S0
X.7S1000
X1.3S0
X.8S1000
X.8S0
X.5S1000
X.9S0
X.7S1000
X1.4S0
X.3S1000
X1.3S0
X.8S1000
X1.9S0
X.5S1000
X1.9S0
X.7S1000
X1.1S0
X.8S1000
X1.7S0
X.6S1000
X.5S0
X.8S1000
X.5S0
X.8S1000
X.7S0
X.5S1000
X1.8S0
X.7S1000
X2.4S0
X.5S1000
X1S0
X.9S1000
X1S0
X.9S1000
X1S0
X1.1S1000
X1.9S0
X.7S1000
X1.5S0
X1.1S1000
X16.4S0
X.4S1000
X1.7S0
X1.1S1000
X1.9S0
X1S1000
X1S0
X.8S1000
X1.2S0
X.9S1000
X.7S0
X.9S1000
X.5S0
X.6S1000
X.6S0
X.7S1000
X.6S0
X.8S1000
X1.3S0
X.8S1000
X.8S0
X.5S1000
X.9S0
X.7S1000
X1.4S0
X.3S1000
X1.2S0
X.8S1000
X2S0
X.5S1000
X1.8S0
X.7S1000
X1.3S0
X.7S1000
X1.701S0
X.599S1000
X.401S0
X.799S1000
X.6S0
X.7S1000
X.7S0
X.5S1000
X1.9S0
X.7S1000
X2.4S0
X.4S1000
X1S0
X1S1000
X1S0
X.9S1000
X1S0
X1.1S1000
X1.9S0
X.7S1000
X1.4S0
X1.1S1000
X2.917S0
Y.1
X-2.917
X-1.1S1000
X-1.5S0
X-.699S1000
X-1.901S0
X-1S1000
X-1S0
X-.9S1000
X-1.1S0
X-.9S1000
X-1S0
X-.5S1000
X-2.3S0
X-.8S1000
X-1.8S0
X-.5S1000
X-.6S0
X-.8S1000
X-.6S0
X-.799S1000
X-.401S0
X-.599S1000
X-1.801S0
X-.699S1000
X-1.201S0
X-.7S1000
X-1.8S0
X-.6S1000
X-1.9S0
X-.8S1000
X-1.2S0
X-.3S1000
X-1.5S0
X-.6S1000
X-.9S0
X-.5S1000
X-.8S0
X-.8S1000
X-1.3S0
X-.7S1000
X-.7S0
X-.7S1000
X-.6S0
X-.6S1000
X-.5S0
X-.8S1000
X-.7S0
X-.9S1000
X-1.3S0
X-.8S1000
X-1S0
X-.9S1000
X-2S0
X-1S1000
X-1.8S0
X-.4S1000
X-16.5S0
X-1.1S1000
X-1.4S0
X-.7S1000
X-2S0
X-1S1000
X-1S0
X-.9S1000
X-1.1S0
X-.9S1000
X-1S0
X-.4S1000
X-2.4S0
X-.8S1000
X-1.7S0
X-.5S1000
X-.7S0
X-.8S1000
X-.6S0
X-.7S1000
X-.5S0
X-.6S1000
X-1.7S0
X-.7S1000
X-1.2S0
X-.7S1000
X-1.9S0
X-.5S1000
X-1.9S0
X-.8S1000
X-1.3S0
X-.2S1000
X-1.6S0
X-.5S1000
X-.9S0
X-.6S1000
X-.8S0
X-.7S1000
X-1.4S0
X-.7S1000
X-.6S0
X-.7S1000
X-.6S0
X-.6S1000
X-.5S0
X-.9S1000
X-.7S0
X-.9S1000
X-1.2S0
X-.8S1000
X-1S0
X-1S1000
X-1.9S0
X-1.1S1000
X-1.7S0
X-.4S1000
X-16.5S0
X-1.1S1000
X-1.5S0
X-.7S1000
X-1.9S0
X-1S1000
X-1S0
X-.9S1000
X-1.1S0
X-.9S1000
X-1S0
X-.4S1000
X-2.4S0
X-.8S1000
X-1.8S0
X-.5S1000
X-.7S0
X-.7S1000
X-.6S0
X-.8S1000
X-.5S0
X-.5S1000
X-1.8S0
X-.7S1000
X-1.2S0
X-.7S1000
X-1.8S0
X-.6S1000
X-1.9S0
X-.8S1000
X-1.2S0
X-.3S1000
X-1.4S0
X-.8S1000
X-.8S0
X-.5S1000
X-.8S0
X-.8S1000
X-1.3S0
X-.7S1000
X-.7S0
X-.7S1000
X-.6S0
X-.6S1000
X-.5S0
X-.9S1000
X-.6S0
X-.9S1000
X-1.3S0
X-.8S1000
X-1S0
X-1S1000
X-1.9S0
X-1S1000
X-1.7S0
X-.4S1000
X-16.6S0
X-1.1S1000
X-1.4S0
X-.7S1000
X-2S0
X-1S1000
X-1S0
X-.9S1000
X-1S0
X-.9S1000
X-1.1S0
X-.4S1000
X-2.4S0
X-.7S1000
X-1.8S0
X-.5S1000
X-.7S0
X-.8S1000
X-.5S0
X-.8S1000
X-.5S0
X-.6S1000
X-1.7S0
X-.7S1000
X-1.2S0
X-.7S1000
X-1.8S0
X-.6S1000
X-1.9S0
X-.8S1000
X-1.2S0
X-.3S1000
X-1.5S0
X-.7S1000
X-.8S0
X-.5S1000
X-.9S0
X-.7S1000
X-1.4S0
X-.7S1000
X-.6S0
X-.7S1000
X-.6S0
X-.6S1000
X-.5S0
X-.9S1000
X-.7S0
X-.9S1000
X-1.3S0
X-.7S1000
X-1S0
X-1S1000
X-1.9S0
X-1.1S1000
X-1.7S0
X-.4S1000
X-2.916S0
Y.1
X2.916
X.5S1000
X1.7S0
X1.1S1000
X1.9S0
X.9S1000
X1.1S0
X.7S1000
X1.2S0
X1S1000
X.6S0
X.9S1000
X.6S0
X.5S1000
X.6S0
X.7S1000
X.7S0
X.7S1000
X1.3S0
X.8S1000
X.8S0
X.5S1000
X.9S0
X.6S1000
X1.5S0
X.3S1000
X1.2S0
X.8S1000
X1.9S0
X.6S1000
X1.8S0
X.7S1000
X1.1S0
X.8S1000
X1.7S0
X.6S1000
X.5S0
X.8S1000
X.5S0
X.8S1000
X.7S0
X.5S1000
X1.7S0
X.8S1000
X2.4S0
X.4S1000
X1S0
X.9S1000
X1S0
X1S1000
X1S0
X1S1000
X1.9S0
X.7S1000
X1.5S0
X1.1S1000
X16.6S0
X.4S1000
X1.7S0
X1.1S1000
X1.9S0
X1S1000
X1S0
X.7S1000
X1.3S0
X.9S1000
X.7S0
X.9S1000
X.5S0
X.6S1000
X.6S0
X.6S1000
X.7S0
X.7S1000
X1.3S0
X.8S1000
X.8S0
X.5S1000
X.9S0
X.6S1000
X1.5S0
X.3S1000
X1.2S0
X.7S1000
X2S0
X.6S1000
X1.8S0
X.7S1000
X1.2S0
X.7S1000
X1.8S0
X.5S1000
X.5S0
X.8S1000
X.5S0
X.8S1000
X.7S0
X.5S1000
X1.8S0
X.7S1000
X2.4S0
X.4S1000
X1.1S0
X.9S1000
X1S0
X.9S1000
X1S0
X1S1000
X2S0
X.6S1000
X1.5S0
X1.1S1000
X16.6S0
X.5S1000
X1.7S0
X1S1000
X2S0
X.9S1000
X1S0
X.8S1000
X1.3S0
X.9S1000
X.7S0
X.8S1000
X.5S0
X.6S1000
X.6S0
X.7S1000
X.7S0
X.6S1000
X1.4S0
X.8S1000
X.8S0
X.5S1000
X.9S0
X.6S1000
X1.5S0
X.3S1000
X1.2S0
X.8S1000
X1.9S0
X.5S1000
X1.9S0
X.7S1000
X1.2S0
X.7S1000
X1.7S0
X.6S1000
X.4S0
X.8S1000
X.6S0
X.8S1000
X.6S0
X.5S1000
X1.8S0
X.8S1000
X2.4S0
X.4S1000
X1S0
X.9S1000
X1.1S0
X.8S1000
X1.1S0
X1S1000
X1.9S0
X.7S1000
X1.4S0
X1.2S1000
X16.5S0
X.5S1000
X1.7S0
X1.1S1000
X1.9S0
X1S1000
X1S0
X.7S1000
X1.3S0
X.9S1000
X.7S0
X.9S1000
X.5S0
X.6S1000
X.6S0
X.6S1000
X.7S0
X.7S1000
X1.3S0
X.8S1000
X.8S0
X.5S1000
X.9S0
X.7S1000
X1.4S0
X.4S1000
X1.1S0
X.8S1000
X1.9S0
X.6S1000
X1.8S0
X.7S1000
X1.3S0
X.6S1000
X1.801S0
X.5S1000
X.5S0
X.799S1000
X.5S0
X.8S1000
X.7S0
X.6S1000
X1.7S0
X.7S1000
X2.5S0
X.3S1000
X1.1S0
X.9S1000
X1S0
X.901S1000
X1S0
X1S1000
X2S0
X.699S1000
X1.4S0
X1.1S1000
X2.917S0
X-.1Y.1
X-2.917
X-1S1000
X-1.5S0
X-.7S1000
X-1.899S0
X-1S1000
X-1S0
X-.901S1000
X-1.099S0
X-.901S1000
X-1S0
X-.4S1000
X-2.4S0
X-.799S1000
X-1.701S0
X-.5S1000
X-.7S0
X-.8S1000
X-.5S0
X-.799S1000
X-.5S0
X-.5S1000
X-1.701S0
X-.7S1000
X-1.3S0
X-.7S1000
X-1.8S0
X-.6S1000
X-1.9S0
X-.8S1000
X-1.2S0
X-.3S1000
X-1.5S0
X-.5S1000
X-1S0
X-.5S1000
X-.8S0
X-.7S1000
X-1.4S0
X-.6S1000
X-.7S0
X-.7S1000
X-.6S0
X-.6S1000
X-.5S0
X-.9S1000
X-.7S0
X-.8S1000
X-1.3S0
X-.8S1000
X-1S0
X-.9S1000
X-1.9S0
X-1.1S1000
X-1.7S0
X-.6S1000
X-16.6S0
X-1.1S1000
X-1.4S0
X-.7S1000
X-2S0
X-1S1000
X-1S0
X-.9S1000
X-1S0
X-.9S1000
X-1.1S0
X-.4S1000
X-2.4S0
X-.7S1000
X-1.8S0
X-.5S1000
X-.7S0
X-.7S1000
X-.6S0
X-.8S1000
X-.5S0
X-.5S1000
X-1.7S0
X-.8S1000
X-1.2S0
X-.6S1000
X-1.9S0
X-.5S1000
X-2S0
X-.7S1000
X-1.2S0
X-.3S1000
X-1.5S0
X-.6S1000
X-.9S0
X-.5S1000
X-.9S0
X-.7S1000
X-1.3S0
X-.7S1000
X-.7S0
X-.6S1000
X-.7S0
X-.5S1000
X-.5S0
X-.9S1000
X-.7S0
X-.9S1000
X-1.2S0
X-.8S1000
X-1S0
X-1S1000
X-1.9S0
X-1.1S1000
X-1.7S0
X-.5S1000
X-16.7S0
X-1S1000
X-1.4S0
X-.8S1000
X-1.9S0
X-1S1000
X-1S0
X-.9S1000
X-1.1S0
X-.9S1000
X-1S0
X-.4S1000
X-2.4S0
X-.8S1000
X-1.7S0
X-.5S1000
X-.7S0
X-.8S1000
X-.5S0
X-.8S1000
X-.5S0
X-.5S1000
X-1.8S0
X-.7S1000
X-1.2S0
X-.7S1000
X-1.8S0
X-.6S1000
X-1.9S0
X-.8S1000
X-1.2S0
X-.3S1000
X-1.4S0
X-.6S1000
X-1S0
X-.5S1000
X-.8S0
X-.7S1000
X-1.4S0
X-.7S1000
X-.6S0
X-.7S1000
X-.6S0
X-.6S1000
X-.5S0
X-.9S1000
X-.7S0
X-.9S1000
X-1.2S0
X-.8S1000
X-1S0
X-.9S1000
X-1.9S0
X-1.1S1000
X-1.7S0
X-.5S1000
X-16.7S0
X-1.1S1000
X-1.5S0
X-.6S1000
X-2S0
X-1S1000
X-1S0
X-.9S1000
X-1S0
X-.9S1000
X-1S0
X-.5S1000
X-2.3S0
X-.8S1000
X-1.8S0
X-.5S1000
X-.7S0
X-.7S1000
X-.6S0
X-.8S1000
X-.4S0
X-.6S1000
X-1.7S0
X-.7S1000
X-1.2S0
X-.7S1000
X-1.8S0
X-.6S1000
X-2S0
X-.7S1000
X-1.2S0
X-.3S1000
X-1.5S0
X-.6S1000
X-.9S0
X-.5S1000
X-.9S0
X-.7S1000
X-1.3S0
X-.8S1000
X-.5S0
X-.7S1000
X-.6S0
X-.6S1000
X-.5S0
X-.9S1000
X-.7S0
X-.9S1000
X-1.2S0
X-.8S1000
X-1S0
X-1S1000
X-1.9S0
X-1S1000
X-1.8S0
X-.5S1000
X-2.916S0
Y.1
X2.916
X.6S1000
X1.7S0
X1.1S1000
X1.9S0
X.9S1000
X1.1S0
X.7S1000
X1.3S0
X.9S1000
X.6S0
X.9S1000
X.5S0
X.6S1000
X.6S0
X.7S1000
X.6S0
X.7S1000
X1.4S0
X.7S1000
X.8S0
X.5S1000
X.9S0
X.6S1000
X1.5S0
X.3S1000
X1.2S0
X.8S1000
X1.9S0
X.6S1000
X1.8S0
X.7S1000
X1.1S0
X.8S1000
X1.7S0
X.6S1000
X.4S0
X.8S1000
X.6S0
X.7S1000
X.7S0
X.5S1000
X1.8S0
X.7S1000
X2.4S0
X.4S1000
X1.1S0
X.8S1000
X1.1S0
X.9S1000
X1S0
X1S1000
X1.9S0
X.7S1000
X1.5S0
X1S1000
X16.8S0
X.5S1000
X1.7S0
X1.1S1000
X1.9S0
X1S1000
X1S0
X.7S1000
X1.3S0
X.9S1000
X.6S0
X.9S1000
X.6S0
X.5S1000
X.6S0
X.7S1000
X.7S0
X.7S1000
X1.3S0
X.7S1000
X.9S0
X.5S1000
X.8S0
X.7S1000
X1.5S0
X.2S1000
X1.3S0
X.7S1000
X1.9S0
X.6S1000
X1.8S0
X.7S1000
X1.2S0
X.7S1000
X1.7S0
X.6S1000
X.5S0
X.7S1000
X.6S0
X.8S1000
X.6S0
X.5S1000
X1.8S0
X.8S1000
X2.4S0
X.4S1000
X1S0
X.9S1000
X1S0
X.9S1000
X1S0
X1S1000
X2S0
X.6S1000
X1.5S0
X1.1S1000
X16.7S0
X.6S1000
X1.7S0
X1.1S1000
X1.8S0
X1S1000
X1.1S0
X.7S1000
X1.2S0
X.9S1000
X.7S0
X.9S1000
X.5S0
X.6S1000
X.6S0
X.7S1000
X.6S0
X.7S1000
X1.3S0
X.8S1000
X.8S0
X.5S1000
X.9S0
X.7S1000
X1.4S0
X.3S1000
X1.2S0
X.8S1000
X1.9S0
X.5S1000
X1.9S0
X.7S1000
X1.2S0
X.7S1000
X1.7S0
X.5S1000
X.5S0
X.8S1000
X.5S0
X.8S1000
X.7S0
X.5S1000
X1.7S0
X.8S1000
X2.4S0
X.4S1000
X1S0
X1S1000
X1S0
X.9S1000
X1S0
X1S1000
X1.9S0
X.7S1000
X1.5S0
X1S1000
X16.7S0
X.6S1000
X1.7S0
X1.1S1000
X1.9S0
X1S1000
X1S0
X.7S1000
X1.3S0
X.9S1000
X.7S0
X.8S1000
X.6S0
X.5S1000
X.6S0
X.7S1000
X.6S0
X.8S1000
X1.3S0
X.8S1000
X.8S0
X.5S1000
X.9S0
X.6S1000
X1.5S0
X.2S1000
X1.3S0
X.8S1000
X1.8S0
X.6S1000
X1.8S0
X.7S1000
X1.201S0
X.699S1000
X1.7S0
X.601S1000
X.5S0
X.699S1000
X.6S0
X.8S1000
X.7S0
X.4S1000
X1.801S0
X.799S1000
X2.4S0
X.4S1000
X1S0
X.901S1000
X1.099S0
X.8S1000
X1S0
X1S1000
X2S0
X.7S1000
X1.401S0
X1.099S1000
X2.917S0
X-.1Y.1
X-2.916
X-1S1000
X-1.5S0
X-.701S1000
X-1.9S0
X-1S1000
X-1S0
X-.899S1000
X-1S0
X-.901S1000
X-1.099S0
X-.301S1000
X-2.5S0
X-.699S1000
X-1.801S0
X-.5S1000
X-.6S0
X-.8S1000
X-.6S0
X-.699S1000
X-.5S0
X-.601S1000
X-1.7S0
X-.6S1000
X-1.3S0
X-.7S1000
X-1.8S0
X-.5S1000
X-1.9S0
X-.8S1000
X-1.2S0
X-.3S1000
X-1.4S0
X-.8S1000
X-.8S0
X-.5S1000
X-.8S0
X-.8S1000
X-1.3S0
X-.7S1000
X-.7S0
X-.6S1000
X-.7S0
X-.5S1000
X-.5S0
X-.9S1000
X-.7S0
X-.8S1000
X-1.3S0
X-.7S1000
X-1.1S0
X-1S1000
X-1.9S0
X-1S1000
X-1.7S0
X-.7S1000
X-16.8S0
X-1S1000
X-1.5S0
X-.6S1000
X-2S0
X-1S1000
X-1S0
X-.8S1000
X-1.1S0
X-.9S1000
X-1.1S0
X-.3S1000
X-2.4S0
X-.8S1000
X-1.8S0
X-.4S1000
X-.7S0
X-.8S1000
X-.5S0
X-.7S1000
X-.6S0
X-.5S1000
X-1.8S0
X-.6S1000
X-1.3S0
X-.6S1000
X-1.9S0
X-.5S1000
X-1.9S0
X-.8S1000
X-1.2S0
X-.3S1000
X-1.5S0
X-.6S1000
X-.9S0
X-.5S1000
X-.8S0
X-.7S1000
X-1.3S0
X-.8S1000
X-.6S0
X-.7S1000
X-.6S0
X-.5S1000
X-.6S0
X-.9S1000
X-.6S0
X-.9S1000
X-1.3S0
X-.7S1000
X-1S0
X-1S1000
X-1.9S0
X-1.1S1000
X-1.6S0
X-.7S1000
X-16.8S0
X-1S1000
X-1.5S0
X-.7S1000
X-1.9S0
X-1S1000
X-1S0
X-.9S1000
X-1S0
X-.9S1000
X-1.1S0
X-.4S1000
X-2.4S0
X-.7S1000
X-1.8S0
X-.5S1000
X-.7S0
X-.7S1000
X-.6S0
X-.8S1000
X-.4S0
X-.6S1000
X-1.7S0
X-.7S1000
X-1.2S0
X-.7S1000
X-1.8S0
X-.6S1000
X-1.9S0
X-.7S1000
X-1.2S0
X-.3S1000
X-1.5S0
X-.6S1000
X-.9S0
X-.5S1000
X-.8S0
X-.8S1000
X-1.3S0
X-.8S1000
X-.6S0
X-.6S1000
X-.7S0
X-.5S1000
X-.5S0
X-.9S1000
X-.7S0
X-.8S1000
X-1.3S0
X-.7S1000
X-1.1S0
X-1S1000
X-1.8S0
X-1.1S1000
X-1.7S0
X-.6S1000
X-16.8S0
X-1.1S1000
X-1.4S0
X-.8S1000
X-1.9S0
X-1S1000
X-1S0
X-.8S1000
X-1.1S0
X-.9S1000
X-1.1S0
X-.3S1000
X-2.4S0
X-.7S1000
X-1.8S0
X-.5S1000
X-.7S0
X-.7S1000
X-.6S0
X-.8S1000
X-.5S0
X-.5S1000
X-1.7S0
X-.7S1000
X-1.3S0
X-.6S1000
X-1.8S0
X-.6S1000
X-1.9S0
X-.8S1000
X-1.2S0
X-.3S1000
X-1.4S0
X-.7S1000
X-.8S0
X-.5S1000
X-.9S0
X-.7S1000
X-1.3S0
X-.8S1000
X-.7S0
X-.5S1000
X-.7S0
X-.5S1000
X-.6S0
X-.8S1000
X-.7S0
X-.9S1000
X-1.3S0
X-.7S1000
X-1S0
X-1S1000
X-1.9S0
X-1.1S1000
X-1.6S0
X-.7S1000
X-2.916S0
Y.1
X2.916
X.7S1000
X1.7S0
X1.1S1000
X1.9S0
X.9S1000
X1.1S0
X.7S1000
X1.3S0
X.8S1000
X.7S0
X.9S1000
X.5S0
X.5S1000
X.7S0
X.6S1000
X.7S0
X.7S1000
X1.3S0
X.8S1000
X.8S0
X.5S1000
X.9S0
X.6S1000
X1.4S0
X.3S1000
X1.3S0
X.7S1000
X1.9S0
X.6S1000
X1.8S0
X.7S1000
X1.1S0
X.8S1000
X1.7S0
X.5S1000
X.5S0
X.8S1000
X.5S0
X.8S1000
X.7S0
X.4S1000
X1.8S0
X.7S1000
X2.5S0
X.3S1000
X1.1S0
X.9S1000
X1S0
X.8S1000
X1.1S0
X1S1000
X1.9S0
X.7S1000
X1.4S0
X1.1S1000
X16.9S0
X.6S1000
X1.7S0
X1.1S1000
X1.9S0
X1S1000
X1S0
X.7S1000
X1.3S0
X.9S1000
X.6S0
X.9S1000
X.6S0
X.5S1000
X.6S0
X.7S1000
X.6S0
X.7S1000
X1.3S0
X.8S1000
X.8S0
X.5S1000
X.9S0
X.6S1000
X1.5S0
X.3S1000
X1.2S0
X.8S1000
X1.8S0
X.6S1000
X1.8S0
X.7S1000
X1.1S0
X.8S1000
X1.7S0
X.6S1000
X.4S0
X.8S1000
X.6S0
X.7S1000
X.7S0
X.5S1000
X1.8S0
X.7S1000
X2.4S0
X.3S1000
X1.1S0
X.9S1000
X1.1S0
X.8S1000
X1S0
X1.1S1000
X1.8S0
X.7S1000
X1.5S0
X1S1000
X16.9S0
X.7S1000
X1.7S0
X1.1S1000
X1.9S0
X.9S1000
X1.1S0
X.6S1000
X1.3S0
X.9S1000
X.7S0
X.9S1000
X.5S0
X.5S1000
X.7S0
X.6S1000
X.6S0
X.8S1000
X1.3S0
X.7S1000
X.9S0
X.5S1000
X.9S0
X.5S1000
X1.5S0
X.3S1000
X1.2S0
X.8S1000
X1.9S0
X.6S1000
X1.8S0
X.6S1000
X1.3S0
X.7S1000
X1.7S0
X.5S1000
X.5S0
X.7S1000
X.6S0
X.8S1000
X.7S0
X.5S1000
X1.8S0
X.6S1000
X2.5S0
X.3S1000
X1.1S0
X.9S1000
X1S0
X.9S1000
X1S0
X1S1000
X1.9S0
X.7S1000
X1.4S0
X1.1S1000
X16.8S0
X.8S1000
X1.6S0
X1.2S1000
X1.8S0
X1S1000
X1S0
X.7S1000
X1.3S0
X.9S1000
X.6S0
X.9S1000
X.6S0
X.5S1000
X.6S0
X.7S1000
X.6S0
X.7S1000
X1.3S0
X.8S1000
X.9S0
X.4S1000
X.9S0
X.6S1000
X1.5S0
X.3S1000
X1.2S0
X.7S1000
X1.9S0
X.6S1000
X1.8S0
X.7S1000
X1.3S0
X.7S1000
X1.6S0
X.601S1000
X.399S0
X.8S1000
X.6S0
X.701S1000
X.699S0
X.5S1000
X1.801S0
X.699S1000
X2.4S0
X.401S1000
X1S0
X1S1000
X1S0
X.799S1000
X1S0
X1.1S1000
X1.8S0
X.7S1000
X1.5S0
X1S1000
X2.917S0
Y.1
X-2.917
X-1.1S1000
X-1.5S0
X-.6S1000
X-1.9S0
X-1S1000
X-1.1S0
X-.8S1000
X-1S0
X-.899S1000
X-1.101S0
X-.3S1000
X-2.5S0
X-.7S1000
X-1.7S0
X-.4S1000
X-.799S0
X-.801S1000
X-.5S0
X-.8S1000
X-.5S0
X-.5S1000
X-1.7S0
X-.699S1000
X-1.201S0
X-.7S1000
X-1.8S0
X-.6S1000
X-1.8S0
X-.8S1000
X-1.2S0
X-.3S1000
X-1.5S0
X-.6S1000
X-.9S0
X-.4S1000
X-.9S0
X-.7S1000
X-1.3S0
X-.7S1000
X-.7S0
X-.6S1000
X-.7S0
X-.4S1000
X-.6S0
X-.9S1000
X-.7S0
X-.8S1000
X-1.4S0
X-.6S1000
X-1.1S0
X-.9S1000
X-1.9S0
X-1S1000
X-1.8S0
X-.8S1000
X-16.9S0
X-1S1000
X-1.5S0
X-.7S1000
X-1.8S0
X-1.1S1000
X-1S0
X-.8S1000
X-1S0
X-1S1000
X-1.1S0
X-.3S1000
X-2.4S0
X-.7S1000
X-1.8S0
X-.5S1000
X-.7S0
X-.7S1000
X-.6S0
X-.7S1000
X-.5S0
X-.5S1000
X-1.8S0
X-.7S1000
X-1.2S0
X-.7S1000
X-1.7S0
X-.6S1000
X-1.9S0
X-.7S1000
X-1.3S0
X-.2S1000
X-1.5S0
X-.7S1000
X-.8S0
X-.5S1000
X-.8S0
X-.8S1000
X-1.3S0
X-.7S1000
X-.7S0
X-.5S1000
X-.7S0
X-.5S1000
X-.6S0
X-.9S1000
X-.6S0
X-.9S1000
X-1.3S0
X-.7S1000
X-1S0
X-1S1000
X-1.9S0
X-1S1000
X-1.8S0
X-.7S1000
X-16.9S0
X-1.1S1000
X-1.5S0
X-.6S1000
X-1.9S0
X-1S1000
X-1.1S0
X-.8S1000
X-1S0
X-.9S1000
X-1.1S0
X-.3S1000
X-2.5S0
X-.7S1000
X-1.7S0
X-.4S1000
X-.8S0
X-.8S1000
X-.5S0
X-.7S1000
X-.6S0
X-.5S1000
X-1.7S0
X-.7S1000
X-1.2S0
X-.7S1000
X-1.8S0
X-.6S1000
X-1.8S0
X-.8S1000
X-1.2S0
X-.3S1000
X-1.5S0
X-.6S1000
X-.9S0
X-.4S1000
X-.9S0
X-.7S1000
X-1.3S0
X-.8S1000
X-.7S0
X-.5S1000
X-.7S0
X-.5S1000
X-.5S0
X-.9S1000
X-.8S0
X-.7S1000
X-1.4S0
X-.6S1000
X-1.1S0
X-.9S1000
X-1.9S0
X-1.1S1000
X-1.7S0
X-.7S1000
X-17S0
X-1.1S1000
X-1.4S0
X-.6S1000
X-1.9S0
X-1.1S1000
X-1S0
X-.8S1000
X-1S0
X-1S1000
X-1.1S0
X-.2S1000
X-2.5S0
X-.7S1000
X-1.7S0
X-.5S1000
X-.7S0
X-.8S1000
X-.5S0
X-.8S1000
X-.5S0
X-.5S1000
X-1.7S0
X-.7S1000
X-1.2S0
X-.7S1000
X-1.8S0
X-.6S1000
X-1.9S0
X-.7S1000
X-1.3S0
X-.2S1000
X-1.5S0
X-.6S1000
X-.9S0
X-.5S1000
X-.9S0
X-.7S1000
X-1.3S0
X-.7S1000
X-.6S0
X-.7S1000
X-.6S0
X-.5S1000
X-.6S0
X-.9S1000
X-.7S0
X-.8S1000
X-1.3S0
X-.7S1000
X-1.1S0
X-.9S1000
X-1.9S0
X-1.1S1000
X-1.6S0
X-.8S1000
X-2.916S0
Y.1
X2.916
X.8S1000
X1.7S0
X1.1S1000
X1.9S0
X.9S1000
X1.1S0
X.6S1000
X1.4S0
X.7S1000
X.8S0
X.9S1000
X.5S0
X.5S1000
X.6S0
X.6S1000
X.7S0
X.8S1000
X1.3S0
X.7S1000
X.9S0
X.4S1000
X.9S0
X.6S1000
X1.5S0
X.3S1000
X1.2S0
X.8S1000
X1.8S0
X.6S1000
X1.8S0
X.7S1000
X1.1S0
X.7S1000
X1.8S0
X.5S1000
X.5S0
X.7S1000
X.6S0
X.8S1000
X.6S0
X.5S1000
X1.7S0
X.8S1000
X2.4S0
X.3S1000
X1.1S0
X.9S1000
X1.1S0
X.8S1000
X1S0
X1S1000
X1.9S0
X.6S1000
X1.5S0
X1S1000
X17.1S0
X.8S1000
X1.6S0
X1.1S1000
X1.9S0
X.9S1000
X1.1S0
X.7S1000
X1.3S0
X.8S1000
X.7S0
X.9S1000
X.6S0
X.5S1000
X.6S0
X.6S1000
X.7S0
X.7S1000
X1.3S0
X.7S1000
X.9S0
X.5S1000
X.8S0
X.6S1000
X1.5S0
X.3S1000
X1.2S0
X.7S1000
X1.9S0
X.6S1000
X1.8S0
X.7S1000
X1.2S0
X.7S1000
X1.7S0
X.5S1000
X.5S0
X.8S1000
X.5S0
X.8S1000
X.7S0
X.5S1000
X1.7S0
X.7S1000
X2.5S0
X.2S1000
X1.1S0
X1S1000
X1S0
X.8S1000
X1S0
X1.1S1000
X1.8S0
X.7S1000
X1.4S0
X1.1S1000
X17S0
X.9S1000
X1.6S0
X1.1S1000
X1.9S0
X.9S1000
X1.1S0
X.6S1000
X1.3S0
X.9S1000
X.7S0
X.9S1000
X.6S0
X.4S1000
X.7S0
X.6S1000
X.6S0
X.7S1000
X1.4S0
X.6S1000
X.9S0
X.5S1000
X.9S0
X.6S1000
X1.5S0
X.2S1000
X1.3S0
X.6S1000
X2S0
X.6S1000
X1.7S0
X.7S1000
X1.3S0
X.6S1000
X1.7S0
X.6S1000
X.4S0
X.8S1000
X.6S0
X.7S1000
X.8S0
X.4S1000
X1.7S0
X.7S1000
X2.5S0
X.3S1000
X1.1S0
X.9S1000
X1S0
X.8S1000
X1.1S0
X1S1000
X1.9S0
X.6S1000
X1.5S0
X1.1S1000
X16.9S0
X.9S1000
X1.7S0
X1S1000
X1.9S0
X1S1000
X1.1S0
X.6S1000
X1.3S0
X.8S1000
X.7S0
X.9S1000
X.6S0
X.5S1000
X.6S0
X.6S1000
X.7S0
X.7S1000
X1.3S0
X.7S1000
X.9S0
X.5S1000
X.9S0
X.6S1000
X1.4S0
X.3S1000
X1.2S0
X.8S1000
X1.8S0
X.6S1000
X1.8S0
X.7S1000
X1.201S0
X.699S1000
X1.7S0
X.5S1000
X.601S0
X.699S1000
X.5S0
X.801S1000
X.699S0
X.5S1000
X1.801S0
X.599S1000
X2.5S0
X.3S1000
X1S0
X1S1000
X1S0
X.8S1000
X1.1S0
X1S1000
X1.8S0
X.7S1000
X1.5S0
X1S1000
X2.917S0
Y.1
X-2.917
X-1.1S1000
X-1.5S0
X-.6S1000
X-1.9S0
X-1S1000
X-1S0
X-.9S1000
X-1S0
X-.9S1000
X-1.1S0
X-.299S1000
X-2.401S0
X-.7S1000
X-1.7S0
X-.5S1000
X-.699S0
X-.801S1000
X-.6S0
X-.7S1000
X-.5S0
X-.5S1000
X-1.6S0
X-.799S1000
X-1.201S0
X-.7S1000
X-1.8S0
X-.5S1000
X-1.9S0
X-.8S1000
X-1.2S0
X-.2S1000
X-1.6S0
X-.6S1000
X-.8S0
X-.5S1000
X-.8S0
X-.7S1000
X-1.4S0
X-.7S1000
X-.6S0
X-.6S1000
X-.7S0
X-.5S1000
X-.5S0
X-1S1000
X-.6S0
X-.9S1000
X-1.2S0
X-.8S1000
X-1S0
X-.9S1000
X-1.9S0
X-1.1S1000
X-1.7S0
X-.9S1000
X-17S0
X-1.1S1000
X-1.4S0
X-.7S1000
X-1.8S0
X-1S1000
X-1.1S0
X-.8S1000
X-1S0
X-1S1000
X-1S0
X-.3S1000
X-2.5S0
X-.6S1000
X-1.8S0
X-.5S1000
X-.7S0
X-.7S1000
X-.6S0
X-.8S1000
X-.5S0
X-.5S1000
X-1.6S0
X-.7S1000
X-1.3S0
X-.7S1000
X-1.7S0
X-.6S1000
X-1.9S0
X-.7S1000
X-1.3S0
X-.2S1000
X-1.5S0
X-.6S1000
X-.9S0
X-.4S1000
X-.9S0
X-.7S1000
X-1.3S0
X-.7S1000
X-.7S0
X-.7S1000
X-.5S0
X-.5S1000
X-.6S0
X-.9S1000
X-.7S0
X-.8S1000
X-1.3S0
X-.7S1000
X-1.1S0
X-.9S1000
X-1.9S0
X-1S1000
X-1.8S0
X-.8S1000
X-17.1S0
X-1S1000
X-1.5S0
X-.6S1000
X-1.9S0
X-1S1000
X-1.1S0
X-.8S1000
X-1S0
X-.9S1000
X-1.1S0
X-.3S1000
X-2.4S0
X-.7S1000
X-1.8S0
X-.4S1000
X-.7S0
X-.8S1000
X-.6S0
X-.7S1000
X-.5S0
X-.5S1000
X-1.7S0
X-.7S1000
X-1.2S0
X-.7S1000
X-1.8S0
X-.5S1000
X-1.9S0
X-.8S1000
X-1.2S0
X-.3S1000
X-1.5S0
X-.6S1000
X-.8S0
X-.5S1000
X-.9S0
X-.6S1000
X-1.4S0
X-.7S1000
X-.6S0
X-.7S1000
X-.6S0
X-.4S1000
X-.6S0
X-1S1000
X-.6S0
X-.9S1000
X-1.3S0
X-.6S1000
X-1.1S0
X-.9S1000
X-1.9S0
X-1.1S1000
X-1.7S0
X-.8S1000
X-17.1S0
X-1S1000
X-1.5S0
X-.6S1000
X-1.9S0
X-1.1S1000
X-1S0
X-.8S1000
X-1S0
X-1S1000
X-1S0
X-.3S1000
X-2.5S0
X-.6S1000
X-1.8S0
X-.5S1000
X-.7S0
X-.7S1000
X-.6S0
X-.7S1000
X-.5S0
X-.5S1000
X-1.8S0
X-.6S1000
X-1.2S0
X-.7S1000
X-1.8S0
X-.6S1000
X-1.9S0
X-.7S1000
X-1.2S0
X-.4S1000
X-1.4S0
X-.6S1000
X-.8S0
X-.5S1000
X-.9S0
X-.7S1000
X-1.3S0
X-.7S1000
X-.7S0
X-.6S1000
X-.6S0
X-.5S1000
X-.6S0
X-.9S1000
X-.7S0
X-.8S1000
X-1.3S0
X-.7S1000
X-1S0
X-.9S1000
X-2S0
X-1S1000
X-1.7S0
X-.9S1000
X-2.916S0
Y.1
X2.916
X.9S1000
X1.7S0
X1.1S1000
X1.9S0
X.9S1000
X1.1S0
X.6S1000
X1.4S0
X.8S1000
X.7S0
X.8S1000
X.6S0
X.5S1000
X.7S0
X.5S1000
X.7S0
X.7S1000
X1.3S0
X.7S1000
X.9S0
X.5S1000
X.8S0
X.6S1000
X1.5S0
X.3S1000
X1.2S0
X.7S1000
X2S0
X.5S1000
X1.8S0
X.6S1000
X1.2S0
X.7S1000
X1.8S0
X.5S1000
X.4S0
X.8S1000
X.6S0
X.7S1000
X.7S0
X.4S1000
X1.8S0
X.7S1000
X2.5S0
X.2S1000
X1.1S0
X.9S1000
X1.1S0
X.8S1000
X1S0
X1S1000
X1.9S0
X.6S1000
X1.5S0
X1.1S1000
X17.1S0
X.9S1000
X1.7S0
X1.1S1000
X1.9S0
X.9S1000
X1S0
X.7S1000
X1.3S0
X.8S1000
X.7S0
X.8S1000
X.6S0
X.5S1000
X.7S0
X.5S1000
X.7S0
X.7S1000
X1.3S0
X.8S1000
X.9S0
X.4S1000
X.9S0
X.6S1000
X1.4S0
X.3S1000
X1.2S0
X.8S1000
X1.9S0
X.5S1000
X1.8S0
X.7S1000
X1.2S0
X.6S1000
X1.8S0
X.5S1000
X.5S0
X.7S1000
X.6S0
X.8S1000
X.6S0
X.5S1000
X1.8S0
X.6S1000
X2.5S0
X.3S1000
X1.1S0
X.9S1000
X1S0
X.9S1000
X.9S0
X1.1S1000
X1.9S0
X.6S1000
X1.4S0
X1.1S1000
X17.1S0
X1S1000
X1.6S0
X1.1S1000
X1.9S0
X.9S1000
X1.1S0
X.7S1000
X1.2S0
X.8S1000
X.7S0
X.9S1000
X.6S0
X.5S1000
X.6S0
X.6S1000
X.7S0
X.7S1000
X1.3S0
X.7S1000
X.9S0
X.4S1000
X.9S0
X.6S1000
X1.5S0
X.3S1000
X1.2S0
X.8S1000
X1.8S0
X.6S1000
X1.7S0
X.7S1000
X1.2S0
X.7S1000
X1.8S0
X.5S1000
X.5S0
X.7S1000
X.5S0
X.8S1000
X.7S0
X.4S1000
X1.8S0
X.7S1000
X2.5S0
X.2S1000
X1.2S0
X.8S1000
X1S0
X.9S1000
X1S0
X1S1000
X1.9S0
X.6S1000
X1.5S0
X1S1000
X17.1S0
X1S1000
X1.7S0
X1.1S1000
X1.9S0
X.9S1000
X1S0
X.7S1000
X1.3S0
X.8S1000
X.7S0
X.9S1000
X.6S0
X.4S1000
X.7S0
X.5S1000
X.7S0
X.7S1000
X1.4S0
X.6S1000
X1S0
X.4S1000
X.9S0
X.6S1000
X1.4S0
X.3S1000
X1.2S0
X.7S1000
X2S0
X.5S1000
X1.8S0
X.7S1000
X1.201S0
X.699S1000
X1.7S0
X.5S1000
X.5S0
X.7S1000
X.6S0
X.801S1000
X.699S0
X.4S1000
X1.8S0
X.601S1000
X2.5S0
X.299S1000
X1.1S0
X.9S1000
X1S0
X.8S1000
X1S0
X1.1S1000
X1.9S0
X.6S1000
X1.4S0
X1.1S1000
X2.917S0
X-.1Y.1
X-2.917
X-1S1000
X-1.5S0
X-.5S1000
X-2S0
X-1S1000
X-1S0
X-.8S1000
X-1.1S0
X-.8S1000
X-1.1S0
X-.299S1000
X-2.401S0
X-.7S1000
X-1.8S0
X-.4S1000
X-.8S0
X-.7S1000
X-.6S0
X-.7S1000
X-.399S0
X-.601S1000
X-1.7S0
X-.699S1000
X-1.201S0
X-.7S1000
X-1.8S0
X-.5S1000
X-1.9S0
X-.7S1000
X-1.3S0
X-.2S1000
X-1.5S0
X-.6S1000
X-.9S0
X-.4S1000
X-.9S0
X-.7S1000
X-1.3S0
X-.7S1000
X-.7S0
X-.6S1000
X-.6S0
X-.5S1000
X-.6S0
X-.8S1000
X-.8S0
X-.8S1000
X-1.3S0
X-.6S1000
X-1.1S0
X-.9S1000
X-1.9S0
X-1.1S1000
X-1.6S0
X-1.1S1000
X-17.1S0
X-1.1S1000
X-1.4S0
X-.6S1000
X-2S0
X-1S1000
X-1S0
X-.8S1000
X-1.1S0
X-.8S1000
X-1.1S0
X-.3S1000
X-2.5S0
X-.6S1000
X-1.8S0
X-.4S1000
X-.7S0
X-.8S1000
X-.6S0
X-.7S1000
X-.5S0
X-.5S1000
X-1.7S0
X-.6S1000
X-1.3S0
X-.7S1000
X-1.7S0
X-.6S1000
X-1.8S0
X-.8S1000
X-1.2S0
X-.3S1000
X-1.5S0
X-.6S1000
X-.8S0
X-.5S1000
X-.9S0
X-.7S1000
X-1.3S0
X-.7S1000
X-.7S0
X-.5S1000
X-.7S0
X-.5S1000
X-.5S0
X-.9S1000
X-.7S0
X-.8S1000
X-1.3S0
X-.6S1000
X-1.1S0
X-1S1000
X-1.8S0
X-1.1S1000
X-1.7S0
X-1S1000
X-17.2S0
X-1S1000
X-1.5S0
X-.6S1000
X-1.9S0
X-1S1000
X-1S0
X-.8S1000
X-1.1S0
X-.9S1000
X-1S0
X-.3S1000
X-2.5S0
X-.6S1000
X-1.8S0
X-.4S1000
X-.8S0
X-.7S1000
X-.6S0
X-.7S1000
X-.5S0
X-.5S1000
X-1.7S0
X-.8S1000
X-1.1S0
X-.7S1000
X-1.8S0
X-.5S1000
X-2S0
X-.6S1000
X-1.3S0
X-.2S1000
X-1.5S0
X-.6S1000
X-.9S0
X-.4S1000
X-.9S0
X-.7S1000
X-1.3S0
X-.7S1000
X-.7S0
X-.6S1000
X-.6S0
X-.5S1000
X-.6S0
X-.8S1000
X-.8S0
X-.8S1000
X-1.3S0
X-.6S1000
X-1.1S0
X-.9S1000
X-1.9S0
X-1S1000
X-1.7S0
X-1S1000
X-17.2S0
X-1.1S1000
X-1.4S0
X-.6S1000
X-2S0
X-1S1000
X-1S0
X-.8S1000
X-1S0
X-.9S1000
X-1.1S0
X-.3S1000
X-2.4S0
X-.7S1000
X-1.8S0
X-.3S1000
X-.8S0
X-.7S1000
X-.6S0
X-.8S1000
X-.5S0
X-.4S1000
X-1.8S0
X-.6S1000
X-1.3S0
X-.6S1000
X-1.8S0
X-.5S1000
X-1.9S0
X-.8S1000
X-1.2S0
X-.2S1000
X-1.5S0
X-.6S1000
X-.9S0
X-.5S1000
X-.8S0
X-.8S1000
X-1.3S0
X-.6S1000
X-.8S0
X-.5S1000
X-.7S0
X-.4S1000
X-.6S0
X-.9S1000
X-.7S0
X-.8S1000
X-1.3S0
X-.6S1000
X-1.1S0
X-.9S1000
X-1.9S0
X-1.1S1000
X-1.7S0
X-1S1000
X-2.916S0
Y.1
X2.916
X1.1S1000
X1.7S0
X1S1000
X1.9S0
X.9S1000
X1.1S0
X.7S1000
X1.2S0
X.8S1000
X.8S0
X.8S1000
X.6S0
X.4S1000
X.7S0
X.6S1000
X.7S0
X.7S1000
X1.3S0
X.7S1000
X.9S0
X.4S1000
X.9S0
X.6S1000
X1.4S0
X.3S1000
X1.2S0
X.7S1000
X2S0
X.5S1000
X1.8S0
X.6S1000
X1.2S0
X.7S1000
X1.7S0
X.5S1000
X.6S0
X.6S1000
X.6S0
X.8S1000
X.7S0
X.4S1000
X1.8S0
X.6S1000
X2.5S0
X.3S1000
X1.1S0
X.8S1000
X1S0
X.9S1000
X1S0
X1S1000
X1.9S0
X.6S1000
X1.5S0
X1S1000
X17.3S0
X1S1000
X1.7S0
X1.1S1000
X1.9S0
X.9S1000
X1.1S0
X.6S1000
X1.3S0
X.8S1000
X.7S0
X.8S1000
X.6S0
X.4S1000
X.7S0
X.6S1000
X.7S0
X.7S1000
X1.3S0
X.7S1000
X.9S0
X.5S1000
X.8S0
X.6S1000
X1.5S0
X.2S1000
X1.3S0
X.7S1000
X1.9S0
X.5S1000
X1.8S0
X.7S1000
X1.2S0
X.6S1000
X1.8S0
X.4S1000
X.5S0
X.8S1000
X.6S0
X.7S1000
X.7S0
X.4S1000
X1.8S0
X.7S1000
X2.4S0
X.3S1000
X1.1S0
X.9S1000
X1S0
X.9S1000
X1S0
X.9S1000
X2S0
X.5S1000
X1.5S0
X1S1000
X17.3S0
X1.1S1000
X1.7S0
X1S1000
X1.9S0
X.9S1000
X1.1S0
X.6S1000
X1.3S0
X.8S1000
X.8S0
X.8S1000
X.6S0
X.4S1000
X.7S0
X.6S1000
X.7S0
X.7S1000
X1.3S0
X.7S1000
X.9S0
X.4S1000
X.9S0
X.6S1000
X1.4S0
X.3S1000
X1.2S0
X.7S1000
X1.9S0
X.6S1000
X1.7S0
X.7S1000
X1.3S0
X.7S1000
X1.6S0
X.5S1000
X.6S0
X.6S1000
X.6S0
X.7S1000
X.8S0
X.4S1000
X1.8S0
X.7S1000
X2.4S0
X.3S1000
X1.1S0
X.8S1000
X1.1S0
X.8S1000
X1S0
X1S1000
X1.9S0
X.6S1000
X1.5S0
X1S1000
X17.2S0
X1.1S1000
X1.7S0
X1.1S1000
X1.9S0
X.9S1000
X1.1S0
X.6S1000
X1.3S0
X.8S1000
X.7S0
X.8S1000
X.6S0
X.5S1000
X.6S0
X.6S1000
X.7S0
X.7S1000
X1.3S0
X.7S1000
X.9S0
X.5S1000
X.8S0
X.6S1000
X1.5S0
X.2S1000
X1.3S0
X.7S1000
X1.9S0
X.5S1000
X1.8S0
X.7S1000
X1.201S0
X.699S1000
X1.7S0
X.5S1000
X.5S0
X.7S1000
X.6S0
X.7S1000
X.7S0
X.401S1000
X1.799S0
X.701S1000
X2.399S0
X.3S1000
X1.1S0
X.9S1000
X1S0
X.9S1000
X1S0
X.901S1000
X2S0
X.599S1000
X1.401S0
X1.099S1000
X2.917S0
X-.1Y.1
X-2.916
X-1S1000
X-1.5S0
X-.5S1000
X-2S0
X-1S1000
X-1S0
X-.901S1000
X-1S0
X-.8S1000
X-1.1S0
X-.3S1000
X-2.399S0
X-.701S1000
X-1.799S0
X-.301S1000
X-.8S0
X-.7S1000
X-.6S0
X-.8S1000
X-.5S0
X-.299S1000
X-1.901S0
X-.599S1000
X-1.201S0
X-.7S1000
X-1.8S0
X-.5S1000
X-1.9S0
X-.7S1000
X-1.3S0
X-.2S1000
X-1.5S0
X-.6S1000
X-.8S0
X-.5S1000
X-.9S0
X-.7S1000
X-1.2S0
X-.7S1000
X-.8S0
X-.5S1000
X-.7S0
X-.4S1000
X-.6S0
X-.8S1000
X-.8S0
X-.8S1000
X-1.3S0
X-.6S1000
X-1.1S0
X-.8S1000
X-2S0
X-1S1000
X-1.7S0
X-1.2S1000
X-17.3S0
X-1S1000
X-1.4S0
X-.6S1000
X-2S0
X-1S1000
X-.9S0
X-.9S1000
X-1S0
X-.9S1000
X-1.1S0
X-.3S1000
X-2.4S0
X-.7S1000
X-1.8S0
X-.3S1000
X-.8S0
X-.7S1000
X-.6S0
X-.7S1000
X-.4S0
X-.6S1000
X-1.7S0
X-.6S1000
X-1.3S0
X-.7S1000
X-1.7S0
X-.6S1000
X-1.8S0
X-.8S1000
X-1.2S0
X-.3S1000
X-1.4S0
X-.6S1000
X-.9S0
X-.4S1000
X-.9S0
X-.7S1000
X-1.3S0
X-.7S1000
X-.7S0
X-.6S1000
X-.7S0
X-.4S1000
X-.6S0
X-.8S1000
X-.7S0
X-.8S1000
X-1.3S0
X-.6S1000
X-1.1S0
X-.9S1000
X-1.9S0
X-1.1S1000
X-1.7S0
X-1.1S1000
X-17.3S0
X-1S1000
X-1.5S0
X-.5S1000
X-2S0
X-1S1000
X-1S0
X-.9S1000
X-1S0
X-.8S1000
X-1.1S0
X-.3S1000
X-2.5S0
X-.6S1000
X-1.8S0
X-.3S1000
X-.8S0
X-.8S1000
X-.5S0
X-.7S1000
X-.6S0
X-.4S1000
X-1.7S0
X-.7S1000
X-1.2S0
X-.7S1000
X-1.8S0
X-.5S1000
X-1.9S0
X-.7S1000
X-1.3S0
X-.2S1000
X-1.5S0
X-.6S1000
X-.8S0
X-.5S1000
X-.9S0
X-.7S1000
X-1.2S0
X-.7S1000
X-.8S0
X-.5S1000
X-.7S0
X-.4S1000
X-.6S0
X-.8S1000
X-.8S0
X-.8S1000
X-1.3S0
X-.6S1000
X-1.1S0
X-.9S1000
X-1.9S0
X-1S1000
X-1.7S0
X-1.1S1000
X-17.4S0
X-1S1000
X-1.5S0
X-.5S1000
X-2S0
X-.9S1000
X-1S0
X-.9S1000
X-1S0
X-.9S1000
X-1.1S0
X-.2S1000
X-2.5S0
X-.6S1000
X-1.8S0
X-.4S1000
X-.8S0
X-.7S1000
X-.6S0
X-.7S1000
X-.5S0
X-.5S1000
X-1.7S0
X-.6S1000
X-1.3S0
X-.6S1000
X-1.8S0
X-.5S1000
X-1.9S0
X-.7S1000
X-1.3S0
X-.3S1000
X-1.4S0
X-.6S1000
X-.9S0
X-.5S1000
X-.8S0
X-.7S1000
X-1.3S0
X-.7S1000
X-.7S0
X-.5S1000
X-.8S0
X-.3S1000
X-.7S0
X-.8S1000
X-.7S0
X-.9S1000
X-1.2S0
X-.6S1000
X-1.1S0
X-.9S1000
X-1.9S0
X-1S1000
X-1.7S0
X-1.2S1000
X-2.916S0
Y.1
X2.916
X1.2S1000
X1.7S0
X1.1S1000
X1.8S0
X1S1000
X1S0
X.6S1000
X1.3S0
X.8S1000
X.8S0
X.8S1000
X.6S0
X.4S1000
X.7S0
X.5S1000
X.8S0
X.7S1000
X1.2S0
X.7S1000
X.9S0
X.5S1000
X.8S0
X.6S1000
X1.5S0
X.2S1000
X1.3S0
X.6S1000
X2S0
X.5S1000
X1.8S0
X.6S1000
X1.2S0
X.8S1000
X1.6S0
X.6S1000
X.4S0
X.7S1000
X.6S0
X.7S1000
X.7S0
X.4S1000
X1.8S0
X.7S1000
X2.4S0
X.3S1000
X1.1S0
X.9S1000
X1S0
X.8S1000
X1S0
X1S1000
X2S0
X.5S1000
X1.5S0
X1S1000
X17.4S0
X1.2S1000
X1.6S0
X1.1S1000
X1.9S0
X.9S1000
X1.1S0
X.6S1000
X1.3S0
X.8S1000
X.7S0
X.8S1000
X.6S0
X.4S1000
X.7S0
X.6S1000
X.7S0
X.7S1000
X1.3S0
X.7S1000
X.8S0
X.5S1000
X.8S0
X.6S1000
X1.5S0
X.2S1000
X1.3S0
X.6S1000
X2S0
X.5S1000
X1.8S0
X.7S1000
X1.2S0
X.6S1000
X1.8S0
X.5S1000
X.4S0
X.7S1000
X.6S0
X.8S1000
X.7S0
X.4S1000
X1.8S0
X.7S1000
X2.4S0
X.2S1000
X1.2S0
X.8S1000
X1S0
X.9S1000
X1S0
X.9S1000
X2S0
X.6S1000
X1.4S0
X1S1000
X17.4S0
X1.2S1000
X1.7S0
X1S1000
X1.9S0
X.9S1000
X1.1S0
X.6S1000
X1.3S0
X.8S1000
X.8S0
X.8S1000
X.6S0
X.4S1000
X.7S0
X.5S1000
X.7S0
X.7S1000
X1.3S0
X.7S1000
X.9S0
X.4S1000
X.9S0
X.6S1000
X1.5S0
X.2S1000
X1.2S0
X.8S1000
X1.8S0
X.6S1000
X1.7S0
X.7S1000
X1.2S0
X.7S1000
X1.7S0
X.5S1000
X.5S0
X.7S1000
X.6S0
X.7S1000
X.7S0
X.4S1000
X1.8S0
X.7S1000
X2.4S0
X.3S1000
X1.1S0
X.8S1000
X1S0
X.9S1000
X1S0
X.9S1000
X2.1S0
X.5S1000
X1.4S0
X1S1000
X17.4S0
X1.3S1000
X1.6S0
X1.1S1000
X1.9S0
X.9S1000
X1.1S0
X.6S1000
X1.3S0
X.8S1000
X.7S0
X.8S1000
X.6S0
X.4S1000
X.7S0
X.6S1000
X.7S0
X.7S1000
X1.3S0
X.7S1000
X.9S0
X.4S1000
X.8S0
X.6S1000
X1.5S0
X.3S1000
X1.2S0
X.6S1000
X2S0
X.5S1000
X1.8S0
X.7S1000
X1.201S0
X.699S1000
X1.7S0
X.4S1000
X.6S0
X.601S1000
X.599S0
X.8S1000
X.7S0
X.401S1000
X1.799S0
X.6S1000
X2.5S0
X.2S1000
X1.2S0
X.8S1000
X1S0
X.901S1000
X1S0
X.899S1000
X2S0
X.601S1000
X1.399S0
X1S1000
X2.917S0
Y.1
X-2.917
X-1.1S1000
X-1.4S0
X-.5S1000
X-2S0
X-1S1000
X-1S0
X-.8S1000
X-1S0
X-.9S1000
X-1.1S0
X-.3S1000
X-2.4S0
X-.7S1000
X-1.699S0
X-.401S1000
X-.8S0
X-.7S1000
X-.5S0
X-.7S1000
X-.5S0
X-.5S1000
X-1.7S0
X-.699S1000
X-1.201S0
X-.7S1000
X-1.8S0
X-.5S1000
X-1.9S0
X-.7S1000
X-1.2S0
X-.2S1000
X-1.6S0
X-.5S1000
X-.9S0
X-.4S1000
X-.9S0
X-.7S1000
X-1.3S0
X-.7S1000
X-.7S0
X-.6S1000
X-.6S0
X-.4S1000
X-.6S0
X-.9S1000
X-.7S0
X-.8S1000
X-1.3S0
X-.6S1000
X-1.1S0
X-.9S1000
X-1.9S0
X-1S1000
X-1.7S0
X-1.2S1000
X-17.5S0
X-1S1000
X-1.5S0
X-.5S1000
X-2S0
X-1S1000
X-.9S0
X-.9S1000
X-1S0
X-.8S1000
X-1.2S0
X-.2S1000
X-2.5S0
X-.6S1000
X-1.8S0
X-.3S1000
X-.8S0
X-.8S1000
X-.5S0
X-.7S1000
X-.6S0
X-.3S1000
X-1.8S0
X-.7S1000
X-1.2S0
X-.7S1000
X-1.7S0
X-.5S1000
X-2S0
X-.6S1000
X-1.3S0
X-.2S1000
X-1.5S0
X-.6S1000
X-.9S0
X-.4S1000
X-.9S0
X-.6S1000
X-1.3S0
X-.7S1000
X-.7S0
X-.6S1000
X-.7S0
X-.4S1000
X-.6S0
X-.8S1000
X-.8S0
X-.7S1000
X-1.3S0
X-.6S1000
X-1.1S0
X-.9S1000
X-1.9S0
X-1S1000
X-1.7S0
X-1.2S1000
X-17.6S0
X-1S1000
X-1.4S0
X-.5S1000
X-2S0
X-1S1000
X-1S0
X-.8S1000
X-1S0
X-.9S1000
X-1.1S0
X-.3S1000
X-2.4S0
X-.7S1000
X-1.7S0
X-.4S1000
X-.8S0
X-.7S1000
X-.6S0
X-.6S1000
X-.6S0
X-.4S1000
X-1.8S0
X-.6S1000
X-1.2S0
X-.7S1000
X-1.8S0
X-.5S1000
X-1.9S0
X-.7S1000
X-1.3S0
X-.2S1000
X-1.5S0
X-.5S1000
X-.9S0
X-.4S1000
X-.9S0
X-.7S1000
X-1.3S0
X-.7S1000
X-.7S0
X-.6S1000
X-.6S0
X-.4S1000
X-.7S0
X-.8S1000
X-.7S0
X-.8S1000
X-1.3S0
X-.6S1000
X-1.1S0
X-.9S1000
X-1.9S0
X-1S1000
X-1.7S0
X-1.2S1000
X-17.5S0
X-1S1000
X-1.4S0
X-.6S1000
X-2S0
X-.9S1000
X-1S0
X-.9S1000
X-1S0
X-.8S1000
X-1.2S0
X-.2S1000
X-2.5S0
X-.6S1000
X-1.8S0
X-.3S1000
X-.8S0
X-.7S1000
X-.6S0
X-.7S1000
X-.5S0
X-.5S1000
X-1.7S0
X-.6S1000
X-1.3S0
X-.6S1000
X-1.8S0
X-.5S1000
X-1.9S0
X-.7S1000
X-1.3S0
X-.2S1000
X-1.5S0
X-.6S1000
X-.9S0
X-.4S1000
X-.9S0
X-.7S1000
X-1.3S0
X-.6S1000
X-.7S0
X-.6S1000
X-.7S0
X-.4S1000
X-.6S0
X-.8S1000
X-.7S0
X-.8S1000
X-1.3S0
X-.6S1000
X-1.1S0
X-.9S1000
X-1.9S0
X-1S1000
X-1.7S0
X-1.2S1000
X-2.916S0
Y.1
X2.916
X1.2S1000
X1.7S0
X1.1S1000
X1.8S0
X1S1000
X1S0
X.6S1000
X1.3S0
X.8S1000
X.7S0
X.9S1000
X.6S0
X.3S1000
X.8S0
X.5S1000
X.7S0
X.7S1000
X1.3S0
X.7S1000
X.9S0
X.4S1000
X.9S0
X.5S1000
X1.5S0
X.3S1000
X1.2S0
X.7S1000
X1.9S0
X.5S1000
X1.8S0
X.6S1000
X1.3S0
X.6S1000
X1.7S0
X.4S1000
X.5S0
X.8S1000
X.6S0
X.7S1000
X.8S0
X.3S1000
X1.8S0
X.6S1000
X2.5S0
X.2S1000
X1.1S0
X.9S1000
X1S0
X.8S1000
X1S0
X1S1000
X1.9S0
X.6S1000
X1.4S0
X1S1000
X17.7S0
X1.1S1000
X1.7S0
X1.1S1000
X1.9S0
X.9S1000
X1.1S0
X.6S1000
X1.3S0
X.7S1000
X.8S0
X.8S1000
X.6S0
X.4S1000
X.7S0
X.5S1000
X.8S0
X.6S1000
X1.3S0
X.7S1000
X.9S0
X.4S1000
X.9S0
X.6S1000
X1.4S0
X.3S1000
X1.2S0
X.8S1000
X1.8S0
X.5S1000
X1.8S0
X.6S1000
X1.2S0
X.8S1000
X1.6S0
X.5S1000
X.5S0
X.7S1000
X.6S0
X.7S1000
X.8S0
X.3S1000
X1.8S0
X.7S1000
X2.4S0
X.2S1000
X1.2S0
X.8S1000
X1S0
X.9S1000
X1S0
X.9S1000
X2S0
X.5S1000
X1.5S0
X1S1000
X17.6S0
X1.2S1000
X1.7S0
X1.1S1000
X1.9S0
X.8S1000
X1.1S0
X.6S1000
X1.3S0
X.8S1000
X.7S0
X.9S1000
X.6S0
X.3S1000
X.7S0
X.6S1000
X.7S0
X.7S1000
X1.3S0
X.7S1000
X.9S0
X.4S1000
X.8S0
X.6S1000
X1.5S0
X.2S1000
X1.3S0
X.7S1000
X1.9S0
X.5S1000
X1.7S0
X.7S1000
X1.2S0
X.7S1000
X1.7S0
X.5S1000
X.4S0
X.7S1000
X.6S0
X.7S1000
X.8S0
X.4S1000
X1.7S0
X.7S1000
X2.5S0
X.2S1000
X1.1S0
X.9S1000
X1S0
X.8S1000
X1S0
X1S1000
X2S0
X.5S1000
X1.4S0
X1.1S1000
X17.5S0
X1.3S1000
X1.7S0
X1S1000
X1.9S0
X.9S1000
X1.1S0
X.6S1000
X1.3S0
X.7S1000
X.8S0
X.8S1000
X.6S0
X.4S1000
X.7S0
X.6S1000
X.7S0
X.6S1000
X1.3S0
X.7S1000
X.9S0
X.4S1000
X.9S0
X.6S1000
X1.4S0
X.3S1000
X1.2S0
X.8S1000
X1.8S0
X.5S1000
X1.8S0
X.7S1000
X1.201S0
X.599S1000
X1.7S0
X.5S1000
X.5S0
X.701S1000
X.599S0
X.7S1000
X.8S0
X.3S1000
X1.8S0
X.7S1000
X2.4S0
X.201S1000
X1.199S0
X.801S1000
X1.099S0
X.8S1000
X1S0
X1S1000
X1.9S0
X.5S1000
X1.5S0
X1S1000
X2.917S0
Y.1
X-2.917
X-1.1S1000
X-1.4S0
X-.6S1000
X-1.9S0
X-1S1000
X-1S0
X-.799S1000
X-1S0
X-.901S1000
X-1.099S0
X-.201S1000
X-2.5S0
X-.6S1000
X-1.8S0
X-.3S1000
X-.8S0
X-.7S1000
X-.599S0
X-.701S1000
X-.5S0
X-.4S1000
X-1.7S0
X-.8S1000
X-1.2S0
X-.6S1000
X-1.8S0
X-.5S1000
X-1.9S0
X-.7S1000
X-1.2S0
X-.3S1000
X-1.4S0
X-.6S1000
X-.9S0
X-.4S1000
X-.9S0
X-.6S1000
X-1.3S0
X-.7S1000
X-.7S0
X-.5S1000
X-.8S0
X-.3S1000
X-.6S0
X-.9S1000
X-.7S0
X-.8S1000
X-1.3S0
X-.6S1000
X-1.1S0
X-.8S1000
X-2S0
X-1S1000
X-1.7S0
X-1.2S1000
X-17.7S0
X-1S1000
X-1.5S0
X-.5S1000
X-1.9S0
X-1S1000
X-1S0
X-.8S1000
X-1.1S0
X-.8S1000
X-1.2S0
X-.2S1000
X-2.4S0
X-.7S1000
X-1.8S0
X-.3S1000
X-.8S0
X-.6S1000
X-.7S0
X-.6S1000
X-.6S0
X-.4S1000
X-1.7S0
X-.7S1000
X-1.2S0
X-.7S1000
X-1.7S0
X-.5S1000
X-1.9S0
X-.7S1000
X-1.3S0
X-.2S1000
X-1.4S0
X-.6S1000
X-.9S0
X-.4S1000
X-.9S0
X-.7S1000
X-1.3S0
X-.6S1000
X-.8S0
X-.5S1000
X-.8S0
X-.2S1000
X-.7S0
X-.9S1000
X-.6S0
X-.8S1000
X-1.3S0
X-.6S1000
X-1.1S0
X-.9S1000
X-1.9S0
X-1.1S1000
X-1.6S0
X-1.2S1000
X-17.7S0
X-1.1S1000
X-1.4S0
X-.6S1000
X-1.9S0
X-1S1000
X-1S0
X-.8S1000
X-1S0
X-.9S1000
X-1.1S0
X-.2S1000
X-2.5S0
X-.6S1000
X-1.8S0
X-.3S1000
X-.8S0
X-.7S1000
X-.6S0
X-.7S1000
X-.5S0
X-.5S1000
X-1.7S0
X-.6S1000
X-1.3S0
X-.6S1000
X-1.8S0
X-.5S1000
X-1.9S0
X-.7S1000
X-1.2S0
X-.2S1000
X-1.5S0
X-.6S1000
X-.9S0
X-.4S1000
X-.9S0
X-.6S1000
X-1.4S0
X-.6S1000
X-.7S0
X-.5S1000
X-.8S0
X-.3S1000
X-.6S0
X-.9S1000
X-.7S0
X-.8S1000
X-1.3S0
X-.6S1000
X-1.1S0
X-.8S1000
X-2S0
X-1S1000
X-1.7S0
X-1.2S1000
X-17.7S0
X-1S1000
X-1.5S0
X-.5S1000
X-2S0
X-.9S1000
X-1S0
X-.9S1000
X-1S0
X-.8S1000
X-1.2S0
X-.1S1000
X-2.5S0
X-.7S1000
X-1.7S0
X-.4S1000
X-.8S0
X-.7S1000
X-.6S0
X-.6S1000
X-.5S0
X-.5S1000
X-1.7S0
X-.7S1000
X-1.2S0
X-.6S1000
X-1.8S0
X-.5S1000
X-1.9S0
X-.7S1000
X-1.2S0
X-.3S1000
X-1.4S0
X-.6S1000
X-.9S0
X-.4S1000
X-.9S0
X-.7S1000
X-1.3S0
X-.6S1000
X-.7S0
X-.6S1000
X-.7S0
X-.4S1000
X-.6S0
X-.9S1000
X-.7S0
X-.7S1000
X-1.4S0
X-.5S1000
X-1.1S0
X-.9S1000
X-1.9S0
X-1S1000
X-1.7S0
X-1.2S1000
X-2.916S0
Y.1
X2.916
X1.2S1000
X1.7S0
X1S1000
X2S0
X.8S1000
X1.1S0
X.6S1000
X1.3S0
X.8S1000
X.7S0
X.9S1000
X.6S0
X.3S1000
X.7S0
X.6S1000
X.6S0
X.7S1000
X1.4S0
X.6S1000
X.9S0
X.4S1000
X.9S0
X.6S1000
X1.4S0
X.3S1000
X1.1S0
X.8S1000
X1.9S0
X.5S1000
X1.8S0
X.6S1000
X1.3S0
X.6S1000
X1.7S0
X.4S1000
X.6S0
X.6S1000
X.6S0
X.7S1000
X.8S0
X.3S1000
X1.8S0
X.7S1000
X2.4S0
X.2S1000
X1.1S0
X.9S1000
X1.1S0
X.7S1000
X1S0
X1S1000
X1.9S0
X.5S1000
X1.5S0
X1S1000
X1.5S0
X.1S1000
X16.3S0
X1.2S1000
X1.6S0
X1.1S1000
X1.9S0
X.9S1000
X1.1S0
X.5S1000
X1.3S0
X.8S1000
X.7S0
X.9S1000
X.7S0
X.2S1000
X.8S0
X.5S1000
X.7S0
X.7S1000
X1.3S0
X.7S1000
X.8S0
X.4S1000
X.9S0
X.6S1000
X1.5S0
X.2S1000
X1.2S0
X.7S1000
X1.9S0
X.5S1000
X1.8S0
X.6S1000
X1.3S0
X.7S1000
X1.7S0
X.4S1000
X.5S0
X.7S1000
X.6S0
X.6S1000
X.8S0
X.4S1000
X1.7S0
X.7S1000
X2.5S0
X.1S1000
X1.2S0
X.8S1000
X1.1S0
X.7S1000
X1.1S0
X1S1000
X1.9S0
X.5S1000
X1.5S0
X1S1000
X1.4S0
X.2S1000
X16.2S0
X1.2S1000
X1.7S0
X1.1S1000
X1.9S0
X.8S1000
X1.1S0
X.6S1000
X1.3S0
X.8S1000
X.7S0
X.8S1000
X.7S0
X.3S1000
X.8S0
X.5S1000
X.7S0
X.6S1000
X1.3S0
X.7S1000
X.9S0
X.4S1000
X.9S0
X.6S1000
X1.4S0
X.3S1000
X1.2S0
X.7S1000
X1.9S0
X.5S1000
X1.7S0
X.7S1000
X1.2S0
X.6S1000
X1.8S0
X.5S1000
X.5S0
X.7S1000
X.5S0
X.7S1000
X.8S0
X.3S1000
X1.8S0
X.6S1000
X2.5S0
X.2S1000
X1.1S0
X.9S1000
X1S0
X.8S1000
X1S0
X1S1000
X1.9S0
X.6S1000
X1.4S0
X1S1000
X1.5S0
X.2S1000
X16.2S0
X1.2S1000
X1.6S0
X1.1S1000
X1.9S0
X.9S1000
X1.1S0
X.6S1000
X1.2S0
X.8S1000
X.7S0
X.9S1000
X.7S0
X.2S1000
X.8S0
X.5S1000
X.7S0
X.7S1000
X1.3S0
X.7S1000
X.8S0
X.5S1000
X.8S0
X.6S1000
X1.5S0
X.2S1000
X1.2S0
X.8S1000
X1.8S0
X.5S1000
X1.8S0
X.6S1000
X1.301S0
X.699S1000
X1.6S0
X.5S1000
X.5S0
X.701S1000
X.599S0
X.6S1000
X.801S0
X.399S1000
X1.7S0
X.7S1000
X2.5S0
X.1S1000
X1.2S0
X.901S1000
X1S0
X.699S1000
X1.1S0
X1S1000
X1.9S0
X.5S1000
X1.5S0
X1S1000
X1.4S0
X.2S1000
X2.917S0
Y.1
X-2.917
X-.299S1000
X-1.401S0
X-1S1000
X-1.5S0
X-.5S1000
X-1.9S0
X-1S1000
X-1S0
X-.699S1000
X-1.101S0
X-.8S1000
X-1.2S0
X-.2S1000
X-2.4S0
X-.7S1000
X-1.8S0
X-.299S1000
X-.801S0
X-.699S1000
X-.5S0
X-.701S1000
X-.5S0
X-.5S1000
X-1.7S0
X-.599S1000
X-1.301S0
X-.6S1000
X-1.8S0
X-.5S1000
X-1.9S0
X-.6S1000
X-1.3S0
X-.2S1000
X-1.5S0
X-.5S1000
X-.9S0
X-.4S1000
X-.9S0
X-.7S1000
X-1.3S0
X-.6S1000
X-.8S0
X-.4S1000
X-.8S0
X-.3S1000
X-.7S0
X-.8S1000
X-.7S0
X-.8S1000
X-1.3S0
X-.6S1000
X-1.1S0
X-.8S1000
X-1.9S0
X-1.1S1000
X-1.7S0
X-1.2S1000
X-16.2S0
X-.3S1000
X-1.5S0
X-.9S1000
X-1.5S0
X-.5S1000
X-2S0
X-.9S1000
X-1.1S0
X-.7S1000
X-1S0
X-.9S1000
X-1.2S0
X-.1S1000
X-2.5S0
X-.6S1000
X-1.8S0
X-.3S1000
X-.8S0
X-.7S1000
X-.6S0
X-.6S1000
X-.6S0
X-.4S1000
X-1.7S0
X-.7S1000
X-1.2S0
X-.7S1000
X-1.7S0
X-.5S1000
X-1.9S0
X-.7S1000
X-1.2S0
X-.3S1000
X-1.4S0
X-.6S1000
X-.9S0
X-.4S1000
X-.9S0
X-.6S1000
X-1.3S0
X-.7S1000
X-.7S0
X-.5S1000
X-.8S0
X-.2S1000
X-.7S0
X-.9S1000
X-.7S0
X-.8S1000
X-1.3S0
X-.5S1000
X-1.1S0
X-.9S1000
X-1.9S0
X-1S1000
X-1.7S0
X-1.2S1000
X-16.3S0
X-.2S1000
X-1.5S0
X-1S1000
X-1.5S0
X-.5S1000
X-1.9S0
X-1S1000
X-1S0
X-.8S1000
X-1S0
X-.8S1000
X-1.2S0
X-.2S1000
X-2.4S0
X-.7S1000
X-1.8S0
X-.3S1000
X-.8S0
X-.7S1000
X-.6S0
X-.7S1000
X-.5S0
X-.4S1000
X-1.7S0
X-.6S1000
X-1.3S0
X-.6S1000
X-1.8S0
X-.5S1000
X-1.8S0
X-.8S1000
X-1.2S0
X-.2S1000
X-1.5S0
X-.5S1000
X-1S0
X-.3S1000
X-.9S0
X-.7S1000
X-1.3S0
X-.6S1000
X-.8S0
X-.5S1000
X-.7S0
X-.3S1000
X-.7S0
X-.8S1000
X-.7S0
X-.8S1000
X-1.3S0
X-.6S1000
X-1.1S0
X-.8S1000
X-2S0
X-1S1000
X-1.7S0
X-1.2S1000
X-16.3S0
X-.2S1000
X-1.4S0
X-1S1000
X-1.5S0
X-.5S1000
X-1.9S0
X-1.1S1000
X-.9S0
X-.8S1000
X-1S0
X-.9S1000
X-1.2S0
X-.1S1000
X-2.5S0
X-.6S1000
X-1.8S0
X-.3S1000
X-.8S0
X-.7S1000
X-.6S0
X-.7S1000
X-.4S0
X-.5S1000
X-1.7S0
X-.7S1000
X-1.2S0
X-.6S1000
X-1.8S0
X-.5S1000
X-1.9S0
X-.7S1000
X-1.2S0
X-.2S1000
X-1.5S0
X-.6S1000
X-.9S0
X-.4S1000
X-.8S0
X-.7S1000
X-1.4S0
X-.6S1000
X-.7S0
X-.5S1000
X-.8S0
X-.3S1000
X-.6S0
X-.9S1000
X-.7S0
X-.7S1000
X-1.4S0
X-.5S1000
X-1.1S0
X-.8S1000
X-2S0
X-1S1000
X-1.7S0
X-1.2S1000
X-2.916S0
Y.1
X2.916
X1.3S1000
X1.6S0
X1.1S1000
X1.9S0
X.8S1000
X1.1S0
X.6S1000
X1.3S0
X.8S1000
X.7S0
X.8S1000
X.7S0
X.3S1000
X.8S0
X.4S1000
X.8S0
X.6S1000
X1.3S0
X.7S1000
X.9S0
X.3S1000
X1S0
X.5S1000
X1.5S0
X.2S1000
X1.2S0
X.8S1000
X1.8S0
X.5S1000
X1.8S0
X.6S1000
X1.3S0
X.5S1000
X1.8S0
X.4S1000
X.6S0
X.6S1000
X.6S0
X.7S1000
X.8S0
X.3S1000
X1.8S0
X.6S1000
X2.4S0
X.2S1000
X1.2S0
X.8S1000
X1S0
X.8S1000
X1S0
X1S1000
X2S0
X.4S1000
X1.5S0
X1S1000
X1.4S0
X.3S1000
X16.4S0
X1.2S1000
X1.7S0
X1S1000
X1.9S0
X.8S1000
X1.2S0
X.5S1000
X1.3S0
X.8S1000
X.7S0
X.9S1000
X.6S0
X.3S1000
X.8S0
X.5S1000
X.7S0
X.6S1000
X1.4S0
X.6S1000
X.9S0
X.4S1000
X.9S0
X.5S1000
X1.5S0
X.2S1000
X1.3S0
X.6S1000
X1.9S0
X.5S1000
X1.8S0
X.6S1000
X1.3S0
X.7S1000
X1.6S0
X.5S1000
X.5S0
X.7S1000
X.5S0
X.7S1000
X.8S0
X.3S1000
X1.8S0
X.6S1000
X2.5S0
X.1S1000
X1.2S0
X.9S1000
X1S0
X.7S1000
X1.1S0
X1S1000
X1.9S0
X.4S1000
X1.6S0
X.9S1000
X1.5S0
X.3S1000
X16.3S0
X1.3S1000
X1.6S0
X1S1000
X2S0
X.8S1000
X1.1S0
X.6S1000
X1.3S0
X.8S1000
X.7S0
X.8S1000
X.7S0
X.2S1000
X.8S0
X.5S1000
X.8S0
X.5S1000
X1.4S0
X.6S1000
X.9S0
X.4S1000
X.9S0
X.6S1000
X1.5S0
X.2S1000
X1.2S0
X.7S1000
X1.9S0
X.5S1000
X1.7S0
X.7S1000
X1.2S0
X.7S1000
X1.7S0
X.4S1000
X.5S0
X.7S1000
X.6S0
X.6S1000
X.8S0
X.3S1000
X1.8S0
X.7S1000
X2.4S0
X.2S1000
X1.1S0
X.9S1000
X1S0
X.8S1000
X1S0
X1S1000
X1.9S0
X.5S1000
X1.5S0
X1S1000
X1.4S0
X.4S1000
X16.3S0
X1.2S1000
X1.7S0
X1S1000
X1.9S0
X.8S1000
X1.2S0
X.5S1000
X1.3S0
X.8S1000
X.7S0
X.9S1000
X.7S0
X.2S1000
X.8S0
X.5S1000
X.7S0
X.6S1000
X1.4S0
X.6S1000
X.9S0
X.4S1000
X.9S0
X.5S1000
X1.5S0
X.2S1000
X1.3S0
X.7S1000
X1.8S0
X.5S1000
X1.8S0
X.6S1000
X1.301S0
X.699S1000
X1.7S0
X.4S1000
X.5S0
X.701S1000
X.599S0
X.6S1000
X.801S0
X.299S1000
X1.8S0
X.6S1000
X2.5S0
X.1S1000
X1.201S0
X.899S1000
X1S0
X.7S1000
X1.1S0
X1S1000
X1.9S0
X.5S1000
X1.5S0
X.901S1000
X1.5S0
X.299S1000
X2.917S0
Y.1
X-2.917
X-.299S1000
X-1.5S0
X-1S1000
X-1.5S0
X-.5S1000
X-1.901S0
X-1S1000
X-1S0
X-.7S1000
X-1.1S0
X-.799S1000
X-1.201S0
X-.1S1000
X-2.5S0
X-.6S1000
X-1.8S0
X-.299S1000
X-.801S0
X-.699S1000
X-.601S0
X-.6S1000
X-.5S0
X-.5S1000
X-1.6S0
X-.699S1000
X-1.301S0
X-.6S1000
X-1.7S0
X-.6S1000
X-1.8S0
X-.7S1000
X-1.3S0
X-.2S1000
X-1.4S0
X-.6S1000
X-.9S0
X-.3S1000
X-1S0
X-.6S1000
X-1.3S0
X-.7S1000
X-.7S0
X-.5S1000
X-.8S0
X-.2S1000
X-.7S0
X-.8S1000
X-.7S0
X-.8S1000
X-1.3S0
X-.5S1000
X-1.2S0
X-.8S1000
X-1.9S0
X-1.1S1000
X-1.6S0
X-1.2S1000
X-16.4S0
X-.4S1000
X-1.5S0
X-.9S1000
X-1.6S0
X-.4S1000
X-2S0
X-.9S1000
X-1S0
X-.8S1000
X-1S0
X-.9S1000
X-3.8S0
X-.6S1000
X-1.7S0
X-.4S1000
X-.8S0
X-.7S1000
X-.5S0
X-.7S1000
X-.5S0
X-.5S1000
X-1.7S0
X-.6S1000
X-1.2S0
X-.7S1000
X-1.7S0
X-.5S1000
X-1.8S0
X-.8S1000
X-1.2S0
X-.2S1000
X-1.5S0
X-.5S1000
X-.9S0
X-.4S1000
X-.9S0
X-.7S1000
X-1.3S0
X-.6S1000
X-.7S0
X-.5S1000
X-.8S0
X-.3S1000
X-.6S0
X-.9S1000
X-.7S0
X-.8S1000
X-1.3S0
X-.5S1000
X-1.1S0
X-.8S1000
X-2S0
X-1S1000
X-1.7S0
X-1.2S1000
X-16.4S0
X-.4S1000
X-1.4S0
X-1S1000
X-1.5S0
X-.5S1000
X-1.9S0
X-1S1000
X-1S0
X-.7S1000
X-1.1S0
X-.8S1000
X-1.2S0
X-.1S1000
X-2.5S0
X-.6S1000
X-1.8S0
X-.3S1000
X-.8S0
X-.7S1000
X-.6S0
X-.6S1000
X-.5S0
X-.5S1000
X-1.7S0
X-.7S1000
X-1.2S0
X-.6S1000
X-1.8S0
X-.5S1000
X-1.8S0
X-.7S1000
X-1.3S0
X-.2S1000
X-1.4S0
X-.6S1000
X-1S0
X-.3S1000
X-.9S0
X-.6S1000
X-1.4S0
X-.6S1000
X-.7S0
X-.5S1000
X-.8S0
X-.3S1000
X-.6S0
X-.9S1000
X-.7S0
X-.7S1000
X-1.3S0
X-.6S1000
X-1.1S0
X-.8S1000
X-1.9S0
X-1.1S1000
X-1.6S0
X-1.2S1000
X-16.5S0
X-.3S1000
X-1.5S0
X-1S1000
X-1.5S0
X-.4S1000
X-1.9S0
X-1S1000
X-1S0
X-.8S1000
X-1S0
X-.9S1000
X-1.1S0
X-.2S1000
X-2.4S0
X-.7S1000
X-1.8S0
X-.3S1000
X-.7S0
X-.7S1000
X-.6S0
X-.7S1000
X-.5S0
X-.4S1000
X-1.7S0
X-.7S1000
X-1.2S0
X-.6S1000
X-1.8S0
X-.5S1000
X-1.9S0
X-.6S1000
X-1.3S0
X-.2S1000
X-1.5S0
X-.5S1000
X-.9S0
X-.4S1000
X-.9S0
X-.6S1000
X-1.4S0
X-.6S1000
X-.7S0
X-.5S1000
X-.8S0
X-.3S1000
X-.6S0
X-.9S1000
X-.7S0
X-.7S1000
X-1.4S0
X-.5S1000
X-1.1S0
X-.8S1000
X-2S0
X-1S1000
X-1.7S0
X-1.2S1000
X-2.916S0
X.1Y.1
X2.916
X1.2S1000
X1.7S0
X1S1000
X1.9S0
X.8S1000
X1.2S0
X.5S1000
X1.3S0
X.7S1000
X.8S0
X.8S1000
X.7S0
X.2S1000
X.8S0
X.5S1000
X.7S0
X.7S1000
X1.3S0
X.6S1000
X.9S0
X.3S1000
X1S0
X.6S1000
X1.4S0
X.2S1000
X1.2S0
X.7S1000
X1.9S0
X.5S1000
X1.8S0
X.6S1000
X1.2S0
X.6S1000
X1.8S0
X.3S1000
X.6S0
X.7S1000
X.5S0
X.7S1000
X.8S0
X.3S1000
X1.8S0
X.6S1000
X3.8S0
X.9S1000
X.9S0
X.8S1000
X1S0
X1S1000
X2S0
X.4S1000
X1.5S0
X1S1000
X1.4S0
X.4S1000
X16.5S0
X1.2S1000
X1.7S0
X1S1000
X2S0
X.8S1000
X1.1S0
X.5S1000
X1.3S0
X.8S1000
X.7S0
X.9S1000
X.6S0
X.3S1000
X.8S0
X.4S1000
X.7S0
X.7S1000
X1.3S0
X.6S1000
X1S0
X.3S1000
X.9S0
X.6S1000
X1.5S0
X.1S1000
X1.2S0
X.7S1000
X1.9S0
X.5S1000
X1.8S0
X.6S1000
X1.3S0
X.6S1000
X1.7S0
X.4S1000
X.5S0
X.8S1000
X.6S0
X.6S1000
X.8S0
X.2S1000
X1.8S0
X.7S1000
X2.5S0
X.1S1000
X1.1S0
X.9S1000
X1S0
X.8S1000
X1S0
X.9S1000
X2S0
X.4S1000
X1.5S0
X1S1000
X1.5S0
X.4S1000
X16.5S0
X1.2S1000
X1.7S0
X1S1000
X1.9S0
X.8S1000
X1.2S0
X.5S1000
X1.3S0
X.7S1000
X.8S0
X.8S1000
X.6S0
X.3S1000
X.8S0
X.5S1000
X.7S0
X.6S1000
X1.4S0
X.6S1000
X.9S0
X.3S1000
X1S0
X.5S1000
X1.5S0
X.2S1000
X1.2S0
X.7S1000
X1.9S0
X.5S1000
X1.7S0
X.7S1000
X1.2S0
X.7S1000
X1.7S0
X.4S1000
X.5S0
X.7S1000
X.6S0
X.6S1000
X.8S0
X.3S1000
X1.8S0
X.6S1000
X2.5S0
X.1S1000
X1.2S0
X.8S1000
X1S0
X.8S1000
X1S0
X1S1000
X1.9S0
X.5S1000
X1.5S0
X.9S1000
X1.5S0
X.5S1000
X16.5S0
X1.1S1000
X1.7S0
X1S1000
X2S0
X.8S1000
X1.1S0
X.5S1000
X1.3S0
X.8S1000
X.7S0
X.9S1000
X.6S0
X.3S1000
X.8S0
X.4S1000
X.8S0
X.6S1000
X1.3S0
X.7S1000
X.9S0
X.3S1000
X.9S0
X.6S1000
X1.5S0
X.1S1000
X1.3S0
X.6S1000
X1.9S0
X.5S1000
X1.8S0
X.6S1000
X1.301S0
X.599S1000
X1.7S0
X.4S1000
X.5S0
X.801S1000
X.599S0
X.6S1000
X.801S0
X.299S1000
X1.701S0
X.699S1000
X2.5S0
X.1S1000
X1.1S0
X.9S1000
X1S0
X.8S1000
X1S0
X.901S1000
X2S0
X.399S1000
X1.601S0
X.899S1000
X1.5S0
X.4S1000
X2.917S0
Y.1
X-2.917
X-.5S1000
X-1.5S0
X-.9S1000
X-1.5S0
X-.399S1000
X-2S0
X-1S1000
X-.901S0
X-.9S1000
X-1S0
X-.8S1000
X-3.8S0
X-.599S1000
X-1.801S0
X-.3S1000
X-.8S0
X-.599S1000
X-.601S0
X-.7S1000
X-.5S0
X-.3S1000
X-1.8S0
X-.599S1000
X-1.301S0
X-.6S1000
X-1.8S0
X-.5S1000
X-1.8S0
X-.7S1000
X-1.2S0
X-.2S1000
X-1.5S0
X-.5S1000
X-1S0
X-.3S1000
X-.9S0
X-.6S1000
X-1.4S0
X-.6S1000
X-.7S0
X-.5S1000
X-.8S0
X-.3S1000
X-.6S0
X-.8S1000
X-.8S0
X-.7S1000
X-1.3S0
X-.5S1000
X-1.2S0
X-.8S1000
X-1.9S0
X-1S1000
X-1.7S0
X-1.2S1000
X-16.5S0
X-.5S1000
X-1.5S0
X-1S1000
X-1.5S0
X-.4S1000
X-2S0
X-.9S1000
X-1S0
X-.8S1000
X-1S0
X-.9S1000
X-1.1S0
X-.1S1000
X-2.5S0
X-.7S1000
X-1.7S0
X-.3S1000
X-.8S0
X-.7S1000
X-.5S0
X-.7S1000
X-.6S0
X-.4S1000
X-1.6S0
X-.7S1000
X-1.3S0
X-.6S1000
X-1.7S0
X-.5S1000
X-1.9S0
X-.7S1000
X-1.2S0
X-.2S1000
X-1.5S0
X-.5S1000
X-.9S0
X-.3S1000
X-1S0
X-.6S1000
X-1.3S0
X-.7S1000
X-.7S0
X-.4S1000
X-.8S0
X-.3S1000
X-.7S0
X-.8S1000
X-.8S0
X-.7S1000
X-1.3S0
X-.5S1000
X-1.1S0
X-.8S1000
X-1.9S0
X-1.1S1000
X-1.6S0
X-1.2S1000
X-16.6S0
X-.5S1000
X-1.5S0
X-.9S1000
X-1.5S0
X-.4S1000
X-2.1S0
X-.9S1000
X-1S0
X-.8S1000
X-1S0
X-.8S1000
X-1.2S0
X-.1S1000
X-2.5S0
X-.6S1000
X-1.7S0
X-.4S1000
X-.8S0
X-.6S1000
X-.6S0
X-.7S1000
X-.5S0
X-.3S1000
X-1.8S0
X-.6S1000
X-1.3S0
X-.6S1000
X-1.8S0
X-.5S1000
X-1.8S0
X-.7S1000
X-1.2S0
X-.2S1000
X-1.5S0
X-.5S1000
X-1S0
X-.3S1000
X-.9S0
X-.7S1000
X-1.3S0
X-.6S1000
X-.7S0
X-.6S1000
X-.7S0
X-.3S1000
X-.6S0
X-.8S1000
X-.8S0
X-.7S1000
X-1.3S0
X-.5S1000
X-1.2S0
X-.8S1000
X-1.9S0
X-1S1000
X-1.7S0
X-1.2S1000
X-16.6S0
X-.4S1000
X-1.5S0
X-1S1000
X-1.5S0
X-.4S1000
X-2S0
X-.9S1000
X-1S0
X-.8S1000
X-1S0
X-.9S1000
X-1.1S0
X-.1S1000
X-2.5S0
X-.6S1000
X-1.8S0
X-.3S1000
X-.8S0
X-.7S1000
X-.6S0
X-.6S1000
X-.5S0
X-.4S1000
X-1.7S0
X-.7S1000
X-1.2S0
X-.6S1000
X-1.8S0
X-.5S1000
X-1.9S0
X-.6S1000
X-1.3S0
X-.2S1000
X-1.4S0
X-.6S1000
X-.9S0
X-.3S1000
X-1S0
X-.6S1000
X-1.3S0
X-.7S1000
X-.7S0
X-.5S1000
X-.7S0
X-.3S1000
X-.7S0
X-.8S1000
X-.7S0
X-.8S1000
X-1.3S0
X-.5S1000
X-1.1S0
X-.9S1000
X-1.9S0
X-1S1000
X-1.6S0
X-1.2S1000
X-2.916S0
X.1Y.1
X2.916
X1.1S1000
X1.7S0
X1S1000
X1.9S0
X.9S1000
X1.1S0
X.5S1000
X1.3S0
X.7S1000
X.8S0
X.8S1000
X.7S0
X.2S1000
X.8S0
X.5S1000
X.7S0
X.6S1000
X1.3S0
X.7S1000
X.9S0
X.3S1000
X.9S0
X.6S1000
X1.5S0
X.1S1000
X1.2S0
X.8S1000
X1.8S0
X.5S1000
X1.8S0
X.6S1000
X1.2S0
X.6S1000
X1.8S0
X.4S1000
X.5S0
X.7S1000
X.6S0
X.6S1000
X.8S0
X.2S1000
X1.8S0
X.7S1000
X3.7S0
X.9S1000
X1S0
X.8S1000
X1S0
X.9S1000
X2S0
X.4S1000
X1.5S0
X.9S1000
X1.5S0
X.5S1000
X16.7S0
X1.2S1000
X1.7S0
X1S1000
X1.8S0
X.9S1000
X1.1S0
X.5S1000
X1.3S0
X.7S1000
X.8S0
X.8S1000
X.7S0
X.2S1000
X.8S0
X.5S1000
X.7S0
X.6S1000
X1.4S0
X.6S1000
X.9S0
X.4S1000
X.9S0
X.5S1000
X1.5S0
X.2S1000
X1.2S0
X.7S1000
X1.8S0
X.5S1000
X1.8S0
X.6S1000
X1.3S0
X.6S1000
X1.7S0
X.4S1000
X.5S0
X.7S1000
X.5S0
X.7S1000
X.8S0
X.3S1000
X1.8S0
X.6S1000
X3.8S0
X.8S1000
X1S0
X.8S1000
X1S0
X.9S1000
X2S0
X.4S1000
X1.5S0
X1S1000
X1.5S0
X.5S1000
X16.7S0
X1.1S1000
X1.7S0
X1S1000
X1.9S0
X.8S1000
X1.2S0
X.5S1000
X1.3S0
X.7S1000
X.8S0
X.8S1000
X.6S0
X.3S1000
X.7S0
X.6S1000
X.7S0
X.6S1000
X1.3S0
X.7S1000
X.9S0
X.3S1000
X.9S0
X.6S1000
X1.4S0
X.2S1000
X1.3S0
X.7S1000
X1.8S0
X.5S1000
X1.7S0
X.6S1000
X1.3S0
X.6S1000
X1.8S0
X.4S1000
X.5S0
X.6S1000
X.7S0
X.6S1000
X.8S0
X.3S1000
X1.7S0
X.6S1000
X3.8S0
X.8S1000
X1S0
X.8S1000
X1S0
X.9S1000
X2.1S0
X.4S1000
X1.4S0
X1S1000
X1.5S0
X.6S1000
X16.6S0
X1.2S1000
X1.7S0
X1S1000
X1.9S0
X.8S1000
X1.1S0
X.5S1000
X1.4S0
X.6S1000
X.8S0
X.8S1000
X.7S0
X.2S1000
X.8S0
X.5S1000
X.7S0
X.6S1000
X1.4S0
X.6S1000
X.9S0
X.4S1000
X.9S0
X.5S1000
X1.5S0
X.2S1000
X1.2S0
X.7S1000
X1.8S0
X.5S1000
X1.8S0
X.6S1000
X1.301S0
X.599S1000
X1.7S0
X.4S1000
X.5S0
X.7S1000
X.601S0
X.699S1000
X.7S0
X.3S1000
X1.801S0
X.599S1000
X3.8S0
X.8S1000
X1S0
X.801S1000
X1S0
X.899S1000
X2S0
X.4S1000
X1.5S0
X1S1000
X1.5S0
X.5S1000
X2.917S0
Y.1
X-2.917
X-.6S1000
X-1.4S0
X-1.1S1000
X-1.4S0
X-.4S1000
X-2S0
X-1S1000
X-.899S0
X-.801S1000
X-1S0
X-.9S1000
X-3.799S0
X-.601S1000
X-1.7S0
X-.3S1000
X-.8S0
X-.599S1000
X-.601S0
X-.7S1000
X-.5S0
X-.3S1000
X-1.8S0
X-.599S1000
X-1.301S0
X-.6S1000
X-1.8S0
X-.4S1000
X-1.9S0
X-.7S1000
X-1.2S0
X-.2S1000
X-1.5S0
X-.5S1000
X-1S0
X-.2S1000
X-1S0
X-.6S1000
X-1.3S0
X-.7S1000
X-.6S0
X-.6S1000
X-.7S0
X-.3S1000
X-.6S0
X-.8S1000
X-.8S0
X-.7S1000
X-1.3S0
X-.5S1000
X-1.2S0
X-.8S1000
X-1.9S0
X-1S1000
X-1.7S0
X-1.1S1000
X-16.7S0
X-.7S1000
X-1.4S0
X-1S1000
X-1.5S0
X-.4S1000
X-2S0
X-.9S1000
X-1S0
X-.8S1000
X-1S0
X-.8S1000
X-3.8S0
X-.6S1000
X-1.8S0
X-.3S1000
X-.8S0
X-.6S1000
X-.6S0
X-.6S1000
X-.5S0
X-.5S1000
X-1.6S0
X-.7S1000
X-1.3S0
X-.6S1000
X-1.7S0
X-.5S1000
X-1.9S0
X-.6S1000
X-1.3S0
X-.2S1000
X-1.4S0
X-.6S1000
X-.9S0
X-.3S1000
X-.9S0
X-.6S1000
X-1.4S0
X-.6S1000
X-.7S0
X-.5S1000
X-.8S0
X-.2S1000
X-.7S0
X-.8S1000
X-.8S0
X-.6S1000
X-1.4S0
X-.5S1000
X-1.1S0
X-.9S1000
X-1.8S0
X-1S1000
X-1.7S0
X-1.2S1000
X-16.7S0
X-.6S1000
X-1.5S0
X-1S1000
X-1.4S0
X-.4S1000
X-2S0
X-1S1000
X-.9S0
X-.8S1000
X-1S0
X-.9S1000
X-3.8S0
X-.6S1000
X-1.7S0
X-.3S1000
X-.8S0
X-.6S1000
X-.6S0
X-.7S1000
X-.5S0
X-.4S1000
X-1.7S0
X-.6S1000
X-1.3S0
X-.6S1000
X-1.8S0
X-.4S1000
X-1.9S0
X-.8S1000
X-1.1S0
X-.2S1000
X-1.5S0
X-.5S1000
X-1S0
X-.2S1000
X-1S0
X-.6S1000
X-1.3S0
X-.7S1000
X-.7S0
X-.5S1000
X-.7S0
X-.3S1000
X-.7S0
X-.7S1000
X-.8S0
X-.7S1000
X-1.3S0
X-.5S1000
X-1.2S0
X-.8S1000
X-1.9S0
X-1S1000
X-1.7S0
X-1.1S1000
X-16.8S0
X-.5S1000
X-1.5S0
X-1S1000
X-1.5S0
X-.4S1000
X-2S0
X-.9S1000
X-1S0
X-.8S1000
X-1S0
X-.8S1000
X-3.8S0
X-.6S1000
X-1.8S0
X-.2S1000
X-.8S0
X-.7S1000
X-.5S0
X-.7S1000
X-.6S0
X-.4S1000
X-1.6S0
X-.7S1000
X-1.2S0
X-.6S1000
X-1.8S0
X-.5S1000
X-1.9S0
X-.6S1000
X-1.2S0
X-.2S1000
X-1.5S0
X-.5S1000
X-1S0
X-.3S1000
X-1S0
X-.5S1000
X-1.4S0
X-.6S1000
X-.8S0
X-.4S1000
X-.7S0
X-.3S1000
X-.7S0
X-.8S1000
X-.8S0
X-.7S1000
X-1.3S0
X-.4S1000
X-1.2S0
X-.8S1000
X-1.9S0
X-1.1S1000
X-1.6S0
X-1.2S1000
X-2.916S0
Y.1
X2.916
X1.2S1000
X1.7S0
X1S1000
X1.9S0
X.9S1000
X1.1S0
X.5S1000
X1.2S0
X.8S1000
X.8S0
X.7S1000
X.7S0
X.3S1000
X.7S0
X.5S1000
X.8S0
X.6S1000
X1.3S0
X.6S1000
X1S0
X.2S1000
X1S0
X.5S1000
X1.5S0
X.2S1000
X1.2S0
X.6S1000
X1.9S0
X.5S1000
X1.8S0
X.6S1000
X1.1S0
X.7S1000
X1.7S0
X.5S1000
X.5S0
X.6S1000
X.6S0
X.6S1000
X.8S0
X.4S1000
X1.7S0
X.6S1000
X3.7S0
X.9S1000
X1S0
X.8S1000
X1S0
X.8S1000
X2.1S0
X.4S1000
X1.4S0
X1S1000
X1.5S0
X.6S1000
X16.8S0
X1.2S1000
X1.6S0
X1.1S1000
X1.9S0
X.8S1000
X1.2S0
X.4S1000
X1.3S0
X.7S1000
X.8S0
X.8S1000
X.7S0
X.2S1000
X.8S0
X.5S1000
X.7S0
X.6S1000
X1.4S0
X.5S1000
X1S0
X.2S1000
X1S0
X.6S1000
X1.4S0
X.2S1000
X1.2S0
X.7S1000
X1.9S0
X.4S1000
X1.8S0
X.6S1000
X1.2S0
X.6S1000
X1.8S0
X.4S1000
X.5S0
X.7S1000
X.6S0
X.6S1000
X.8S0
X.2S1000
X1.8S0
X.6S1000
X3.8S0
X.8S1000
X1S0
X.8S1000
X1S0
X.9S1000
X2S0
X.4S1000
X1.5S0
X1S1000
X1.4S0
X.7S1000
X16.8S0
X1.1S1000
X1.7S0
X1S1000
X1.9S0
X.9S1000
X1.1S0
X.5S1000
X1.3S0
X.6S1000
X.9S0
X.7S1000
X.7S0
X.3S1000
X.7S0
X.5S1000
X.7S0
X.6S1000
X1.4S0
X.6S1000
X.9S0
X.3S1000
X1S0
X.5S1000
X1.5S0
X.2S1000
X1.1S0
X.7S1000
X1.9S0
X.5S1000
X1.7S0
X.6S1000
X1.3S0
X.7S1000
X1.6S0
X.4S1000
X.5S0
X.7S1000
X.7S0
X.6S1000
X.7S0
X.3S1000
X1.7S0
X.6S1000
X3.9S0
X.8S1000
X1S0
X.8S1000
X.9S0
X.9S1000
X2.1S0
X.4S1000
X1.5S0
X.9S1000
X1.5S0
X.7S1000
X16.7S0
X1.2S1000
X1.6S0
X1.1S1000
X1.9S0
X.8S1000
X1.2S0
X.4S1000
X1.3S0
X.7S1000
X.8S0
X.7S1000
X.8S0
X.2S1000
X.8S0
X.5S1000
X.7S0
X.6S1000
X1.4S0
X.6S1000
X.9S0
X.3S1000
X.9S0
X.6S1000
X1.4S0
X.2S1000
X1.2S0
X.8S1000
X1.8S0
X.4S1000
X1.8S0
X.6S1000
X1.301S0
X.599S1000
X1.7S0
X.4S1000
X.5S0
X.7S1000
X.5S0
X.7S1000
X.8S0
X.3S1000
X1.801S0
X.5S1000
X3.799S0
X.8S1000
X1S0
X.8S1000
X1S0
X.9S1000
X2S0
X.4S1000
X1.5S0
X1S1000
X1.4S0
X.7S1000
X2.917S0
Y.1
X-2.917
X-.7S1000
X-1.5S0
X-.9S1000
X-1.5S0
X-.4S1000
X-2S0
X-1S1000
X-.9S0
X-.8S1000
X-1S0
X-.8S1000
X-3.799S0
X-.601S1000
X-1.8S0
X-.2S1000
X-.8S0
X-.599S1000
X-.601S0
X-.7S1000
X-.5S0
X-.4S1000
X-1.7S0
X-.7S1000
X-1.2S0
X-.6S1000
X-1.8S0
X-.4S1000
X-1.9S0
X-.6S1000
X-1.3S0
X-.2S1000
X-1.4S0
X-.5S1000
X-1S0
X-.3S1000
X-.9S0
X-.6S1000
X-1.4S0
X-.6S1000
X-.8S0
X-.4S1000
X-.8S0
X-.2S1000
X-.7S0
X-.8S1000
X-.7S0
X-.7S1000
X-1.4S0
X-.4S1000
X-1.2S0
X-.8S1000
X-1.9S0
X-1S1000
X-1.7S0
X-1.1S1000
X-16.8S0
X-.8S1000
X-1.4S0
X-1S1000
X-1.5S0
X-.4S1000
X-2S0
X-.9S1000
X-1S0
X-.8S1000
X-1S0
X-.8S1000
X-3.8S0
X-.5S1000
X-1.8S0
X-.3S1000
X-.8S0
X-.6S1000
X-.6S0
X-.7S1000
X-.5S0
X-.3S1000
X-1.8S0
X-.6S1000
X-1.3S0
X-.6S1000
X-1.7S0
X-.5S1000
X-1.8S0
X-.7S1000
X-1.2S0
X-.2S1000
X-1.5S0
X-.5S1000
X-.9S0
X-.3S1000
X-1S0
X-.6S1000
X-1.3S0
X-.6S1000
X-.8S0
X-.4S1000
X-.8S0
X-.2S1000
X-.7S0
X-.8S1000
X-.8S0
X-.7S1000
X-1.3S0
X-.4S1000
X-1.2S0
X-.8S1000
X-1.9S0
X-1.1S1000
X-1.6S0
X-1.2S1000
X-16.8S0
X-.7S1000
X-1.5S0
X-1S1000
X-1.4S0
X-.4S1000
X-2S0
X-1S1000
X-.9S0
X-.8S1000
X-1S0
X-.8S1000
X-3.8S0
X-.6S1000
X-1.8S0
X-.2S1000
X-.8S0
X-.7S1000
X-.6S0
X-.6S1000
X-.5S0
X-.4S1000
X-1.7S0
X-.6S1000
X-1.3S0
X-.6S1000
X-1.8S0
X-.4S1000
X-1.9S0
X-.7S1000
X-1.2S0
X-.2S1000
X-1.4S0
X-.6S1000
X-.9S0
X-.3S1000
X-1S0
X-.5S1000
X-1.4S0
X-.6S1000
X-.8S0
X-.4S1000
X-.8S0
X-.2S1000
X-.7S0
X-.8S1000
X-.8S0
X-.7S1000
X-1.3S0
X-.4S1000
X-1.2S0
X-.8S1000
X-1.9S0
X-1S1000
X-1.7S0
X-1.2S1000
X-16.8S0
X-.7S1000
X-1.5S0
X-.9S1000
X-1.5S0
X-.4S1000
X-2S0
X-.9S1000
X-1S0
X-.8S1000
X-1S0
X-.7S1000
X-3.9S0
X-.6S1000
X-1.7S0
X-.3S1000
X-.8S0
X-.5S1000
X-.7S0
X-.7S1000
X-.5S0
X-.3S1000
X-1.7S0
X-.7S1000
X-1.2S0
X-.6S1000
X-1.8S0
X-.5S1000
X-1.8S0
X-.7S1000
X-1.2S0
X-.2S1000
X-1.5S0
X-.6S1000
X-.8S0
X-.3S1000
X-1S0
X-.6S1000
X-1.3S0
X-.6S1000
X-.8S0
X-.4S1000
X-.8S0
X-.2S1000
X-.7S0
X-.8S1000
X-.8S0
X-.7S1000
X-1.3S0
X-.5S1000
X-1.1S0
X-.8S1000
X-1.9S0
X-1S1000
X-1.7S0
X-1.2S1000
X-2.916S0
X.1Y.1
X2.916
X1.2S1000
X1.6S0
X1S1000
X2S0
X.7S1000
X1.2S0
X.5S1000
X1.3S0
X.7S1000
X.8S0
X.7S1000
X.8S0
X.1S1000
X.9S0
X.4S1000
X.7S0
X.6S1000
X1.4S0
X.6S1000
X.9S0
X.3S1000
X.9S0
X.6S1000
X1.4S0
X.1S1000
X1.3S0
X.7S1000
X1.8S0
X.5S1000
X1.8S0
X.5S1000
X1.3S0
X.6S1000
X1.7S0
X.4S1000
X.5S0
X.7S1000
X.6S0
X.6S1000
X.8S0
X.3S1000
X1.7S0
X.6S1000
X3.8S0
X.8S1000
X1S0
X.7S1000
X1S0
X1S1000
X2S0
X.4S1000
X1.5S0
X.9S1000
X1.5S0
X.7S1000
X16.9S0
X1.2S1000
X1.7S0
X.9S1000
X2S0
X.8S1000
X1.1S0
X.5S1000
X1.3S0
X.7S1000
X.8S0
X.8S1000
X.7S0
X.2S1000
X.8S0
X.4S1000
X.8S0
X.5S1000
X1.4S0
X.6S1000
X.9S0
X.3S1000
X1S0
X.5S1000
X1.5S0
X.1S1000
X1.3S0
X.6S1000
X1.9S0
X.4S1000
X1.8S0
X.6S1000
X1.2S0
X.7S1000
X1.7S0
X.3S1000
X.6S0
X.6S1000
X.7S0
X.5S1000
X.8S0
X.3S1000
X1.7S0
X.6S1000
X3.8S0
X.8S1000
X1S0
X.8S1000
X1S0
X.9S1000
X2S0
X.4S1000
X1.5S0
X.9S1000
X1.5S0
X.8S1000
X16.9S0
X1.1S1000
X1.7S0
X1S1000
X2S0
X.8S1000
X1.1S0
X.4S1000
X1.4S0
X.7S1000
X.7S0
X.8S1000
X.7S0
X.2S1000
X.8S0
X.4S1000
X.8S0
X.6S1000
X1.4S0
X.5S1000
X1S0
X.2S1000
X1S0
X.5S1000
X1.5S0
X.2S1000
X1.2S0
X.7S1000
X1.8S0
X.5S1000
X1.7S0
X.6S1000
X1.3S0
X.6S1000
X1.7S0
X.4S1000
X.5S0
X.7S1000
X.6S0
X.6S1000
X.8S0
X.3S1000
X1.7S0
X.6S1000
X3.8S0
X.8S1000
X1S0
X.8S1000
X.9S0
X1S1000
X1.9S0
X.4S1000
X1.5S0
X.9S1000
X1.6S0
X.8S1000
X16.8S0
X1.2S1000
X1.7S0
X1S1000
X1.9S0
X.8S1000
X1.2S0
X.4S1000
X1.3S0
X.7S1000
X.8S0
X.8S1000
X.7S0
X.2S1000
X.8S0
X.4S1000
X.8S0
X.6S1000
X1.3S0
X.6S1000
X.9S0
X.3S1000
X1S0
X.5S1000
X1.5S0
X.1S1000
X1.2S0
X.7S1000
X1.9S0
X.4S1000
X1.8S0
X.6S1000
X1.2S0
X.7S1000
X1.7S0
X.3S1000
X.6S0
X.6S1000
X.701S0
X.599S1000
X.8S0
X.2S1000
X1.8S0
X.601S1000
X3.699S0
X.801S1000
X1S0
X.799S1000
X1S0
X.9S1000
X2S0
X.4S1000
X1.5S0
X.901S1000
X1.5S0
X.799S1000
X2.917S0
Y.1
X-2.917
X-.799S1000
X-1.601S0
X-.8S1000
X-1.599S0
X-.301S1000
X-2S0
X-.9S1000
X-1.1S0
X-.699S1000
X-1S0
X-.801S1000
X-3.8S0
X-.6S1000
X-1.7S0
X-.3S1000
X-.799S0
X-.5S1000
X-.701S0
X-.7S1000
X-.5S0
X-.3S1000
X-1.7S0
X-.7S1000
X-1.2S0
X-.6S1000
X-1.8S0
X-.4S1000
X-1.8S0
X-.7S1000
X-1.3S0
X-.1S1000
X-1.5S0
X-.5S1000
X-1S0
X-.2S1000
X-1S0
X-.6S1000
X-1.3S0
X-.6S1000
X-.8S0
X-.4S1000
X-.8S0
X-.2S1000
X-.7S0
X-.8S1000
X-.7S0
X-.8S1000
X-1.3S0
X-.4S1000
X-1.2S0
X-.7S1000
X-2S0
X-1S1000
X-1.6S0
X-1.2S1000
X-16.9S0
X-.9S1000
X-1.5S0
X-.9S1000
X-1.5S0
X-.4S1000
X-2S0
X-.9S1000
X-1S0
X-.8S1000
X-1S0
X-.8S1000
X-3.7S0
X-.6S1000
X-1.8S0
X-.3S1000
X-.7S0
X-.6S1000
X-.6S0
X-.7S1000
X-.5S0
X-.3S1000
X-1.8S0
X-.6S1000
X-1.3S0
X-.6S1000
X-1.7S0
X-.5S1000
X-1.8S0
X-.7S1000
X-1.2S0
X-.2S1000
X-1.5S0
X-.5S1000
X-.9S0
X-.3S1000
X-1S0
X-.6S1000
X-1.3S0
X-.5S1000
X-.8S0
X-.4S1000
X-.9S0
X-.1S1000
X-.7S0
X-.8S1000
X-.8S0
X-.7S1000
X-1.3S0
X-.5S1000
X-1.1S0
X-.8S1000
X-2S0
X-.9S1000
X-1.7S0
X-1.1S1000
X-17S0
X-.9S1000
X-1.5S0
X-.8S1000
X-1.6S0
X-.3S1000
X-2S0
X-.9S1000
X-1.1S0
X-.7S1000
X-1S0
X-.8S1000
X-3.8S0
X-.5S1000
X-1.8S0
X-.3S1000
X-.7S0
X-.7S1000
X-.6S0
X-.7S1000
X-.5S0
X-.4S1000
X-1.7S0
X-.6S1000
X-1.2S0
X-.6S1000
X-1.8S0
X-.4S1000
X-1.9S0
X-.7S1000
X-1.2S0
X-.1S1000
X-1.5S0
X-.6S1000
X-.9S0
X-.2S1000
X-1S0
X-.6S1000
X-1.3S0
X-.6S1000
X-.8S0
X-.4S1000
X-.9S0
X-.1S1000
X-.7S0
X-.8S1000
X-.7S0
X-.8S1000
X-1.3S0
X-.4S1000
X-1.2S0
X-.7S1000
X-2S0
X-1S1000
X-1.6S0
X-1.2S1000
X-17S0
X-.8S1000
X-1.5S0
X-.9S1000
X-1.6S0
X-.3S1000
X-1.9S0
X-1S1000
X-1S0
X-.7S1000
X-1.1S0
X-.8S1000
X-3.7S0
X-.6S1000
X-1.8S0
X-.2S1000
X-.7S0
X-.7S1000
X-.6S0
X-.7S1000
X-.5S0
X-.4S1000
X-1.6S0
X-.7S1000
X-1.3S0
X-.5S1000
X-1.8S0
X-.4S1000
X-1.9S0
X-.7S1000
X-1.2S0
X-.1S1000
X-1.6S0
X-.4S1000
X-1S0
X-.2S1000
X-1.1S0
X-.5S1000
X-1.3S0
X-.6S1000
X-.8S0
X-.4S1000
X-.8S0
X-.2S1000
X-.7S0
X-.9S1000
X-.7S0
X-.7S1000
X-1.3S0
X-.5S1000
X-1.1S0
X-.8S1000
X-1.9S0
X-1S1000
X-1.7S0
X-1.1S1000
X-2.916S0
X.1Y.1
X2.916
X1.1S1000
X1.7S0
X.9S1000
X2S0
X.7S1000
X1.2S0
X.4S1000
X1.4S0
X.7S1000
X.7S0
X.8S1000
X.8S0
X.1S1000
X.8S0
X.4S1000
X.8S0
X.6S1000
X1.3S0
X.5S1000
X1.1S0
X.2S1000
X.9S0
X.6S1000
X1.5S0
X.1S1000
X1.2S0
X.7S1000
X1.9S0
X.4S1000
X1.8S0
X.5S1000
X1.3S0
X.6S1000
X1.8S0
X.3S1000
X.5S0
X.7S1000
X.5S0
X.7S1000
X.8S0
X.2S1000
X1.7S0
X.6S1000
X3.8S0
X.8S1000
X1S0
X.7S1000
X1S0
X1S1000
X2S0
X.3S1000
X1.6S0
X.8S1000
X1.5S0
X.9S1000
X17.1S0
X1.1S1000
X1.7S0
X.9S1000
X2S0
X.8S1000
X1.1S0
X.5S1000
X1.3S0
X.7S1000
X.8S0
X.7S1000
X.8S0
X.1S1000
X.9S0
X.3S1000
X.9S0
X.5S1000
X1.4S0
X.5S1000
X1S0
X.2S1000
X1S0
X.5S1000
X1.5S0
X.1S1000
X1.3S0
X.7S1000
X1.8S0
X.4S1000
X1.8S0
X.6S1000
X1.2S0
X.7S1000
X1.7S0
X.3S1000
X.5S0
X.7S1000
X.6S0
X.6S1000
X.8S0
X.3S1000
X1.7S0
X.6S1000
X3.8S0
X.7S1000
X1S0
X.8S1000
X1S0
X.9S1000
X2S0
X.4S1000
X1.5S0
X.9S1000
X1.5S0
X.9S1000
X17S0
X1.2S1000
X1.6S0
X1S1000
X2S0
X.7S1000
X1.2S0
X.4S1000
X1.4S0
X.7S1000
X.7S0
X.8S1000
X.7S0
X.2S1000
X.8S0
X.4S1000
X.8S0
X.6S1000
X1.3S0
X.6S1000
X1S0
X.2S1000
X1S0
X.5S1000
X1.4S0
X.2S1000
X1.2S0
X.7S1000
X1.8S0
X.5S1000
X1.7S0
X.6S1000
X1.3S0
X.6S1000
X1.7S0
X.4S1000
X.5S0
X.6S1000
X.7S0
X.6S1000
X.7S0
X.3S1000
X1.7S0
X.6S1000
X3.8S0
X.8S1000
X1S0
X.7S1000
X1.1S0
X.9S1000
X2S0
X.3S1000
X1.5S0
X.9S1000
X1.5S0
X1S1000
X17S0
X1.1S1000
X1.7S0
X.9S1000
X2S0
X.8S1000
X1.1S0
X.5S1000
X1.3S0
X.7S1000
X.8S0
X.7S1000
X.8S0
X.1S1000
X.9S0
X.4S1000
X.8S0
X.5S1000
X1.4S0
X.5S1000
X1S0
X.2S1000
X1S0
X.5S1000
X1.5S0
X.1S1000
X1.2S0
X.7S1000
X1.9S0
X.4S1000
X1.8S0
X.6S1000
X1.2S0
X.7S1000
X1.6S0
X.4S1000
X.5S0
X.7S1000
X.6S0
X.7S1000
X.7S0
X.3S1000
X1.8S0
X.601S1000
X3.699S0
X.801S1000
X1S0
X.699S1000
X1S0
X.9S1000
X2S0
X.401S1000
X1.5S0
X.899S1000
X1.5S0
X.9S1000
X2.917S0
Y.1
X-2.917
X-1S1000
X-1.5S0
X-.9S1000
X-1.5S0
X-.3S1000
X-2S0
X-1S1000
X-1S0
X-.7S1000
X-1S0
X-.8S1000
X-3.7S0
X-.6S1000
X-1.799S0
X-.201S1000
X-.799S0
X-.601S1000
X-.6S0
X-.7S1000
X-.5S0
X-.3S1000
X-1.7S0
X-.7S1000
X-1.2S0
X-.6S1000
X-1.8S0
X-.4S1000
X-1.9S0
X-.6S1000
X-1.2S0
X-.2S1000
X-1.4S0
X-.6S1000
X-.9S0
X-.2S1000
X-1.1S0
X-.6S1000
X-1.2S0
X-.6S1000
X-.8S0
X-.4S1000
X-.8S0
X-.2S1000
X-.7S0
X-.8S1000
X-.8S0
X-.7S1000
X-1.2S0
X-.5S1000
X-1.1S0
X-.8S1000
X-2S0
X-.9S1000
X-1.7S0
X-1.2S1000
X-17S0
X-1S1000
X-1.5S0
X-.9S1000
X-1.5S0
X-.4S1000
X-2S0
X-.9S1000
X-1S0
X-.7S1000
X-1.1S0
X-.7S1000
X-3.7S0
X-.6S1000
X-1.8S0
X-.3S1000
X-.7S0
X-.7S1000
X-.6S0
X-.6S1000
X-.6S0
X-.2S1000
X-1.8S0
X-.6S1000
X-1.3S0
X-.6S1000
X-1.7S0
X-.5S1000
X-1.8S0
X-.7S1000
X-1.2S0
X-.1S1000
X-1.5S0
X-.6S1000
X-.9S0
X-.2S1000
X-1.1S0
X-.4S1000
X-1.4S0
X-.6S1000
X-.8S0
X-.4S1000
X-.8S0
X-.1S1000
X-.8S0
X-.7S1000
X-.8S0
X-.7S1000
X-1.3S0
X-.5S1000
X-1.1S0
X-.7S1000
X-2S0
X-1S1000
X-1.7S0
X-1.1S1000
X-17.1S0
X-1S1000
X-1.5S0
X-.9S1000
X-1.5S0
X-.3S1000
X-2S0
X-1S1000
X-1S0
X-.6S1000
X-1.1S0
X-.8S1000
X-3.7S0
X-.6S1000
X-1.8S0
X-.2S1000
X-.8S0
X-.6S1000
X-.6S0
X-.7S1000
X-.5S0
X-.4S1000
X-1.6S0
X-.7S1000
X-1.2S0
X-.6S1000
X-1.8S0
X-.4S1000
X-1.9S0
X-.7S1000
X-1.1S0
X-.2S1000
X-1.5S0
X-.5S1000
X-1S0
X-.1S1000
X-1.1S0
X-.6S1000
X-1.2S0
X-.6S1000
X-.8S0
X-.4S1000
X-.8S0
X-.2S1000
X-.7S0
X-.8S1000
X-.8S0
X-.7S1000
X-1.3S0
X-.4S1000
X-1.2S0
X-.7S1000
X-2S0
X-.9S1000
X-1.7S0
X-1.2S1000
X-17.1S0
X-.9S1000
X-1.5S0
X-.9S1000
X-1.5S0
X-.4S1000
X-2S0
X-.9S1000
X-1S0
X-.7S1000
X-1.1S0
X-.7S1000
X-3.8S0
X-.5S1000
X-1.8S0
X-.3S1000
X-.8S0
X-.5S1000
X-.6S0
X-.7S1000
X-.5S0
X-.4S1000
X-1.7S0
X-.7S1000
X-1.2S0
X-.5S1000
X-1.8S0
X-.4S1000
X-1.9S0
X-.6S1000
X-1.3S0
X-.1S1000
X-1.5S0
X-.6S1000
X-.9S0
X-.3S1000
X-.9S0
X-.6S1000
X-1.3S0
X-.5S1000
X-.9S0
X-.3S1000
X-.9S0
X-.1S1000
X-.7S0
X-.8S1000
X-.8S0
X-.7S1000
X-1.3S0
X-.4S1000
X-1.2S0
X-.7S1000
X-2S0
X-1S1000
X-1.6S0
X-1.2S1000
X-2.916S0
X.1Y.1
X2.916
X1.1S1000
X1.7S0
X.9S1000
X1.9S0
X.8S1000
X1.2S0
X.4S1000
X1.4S0
X.6S1000
X.8S0
X.8S1000
X.7S0
X.1S1000
X.9S0
X.4S1000
X.8S0
X.6S1000
X1.3S0
X.5S1000
X1S0
X.2S1000
X1S0
X.4S1000
X1.6S0
X.2S1000
X1.1S0
X.7S1000
X1.9S0
X.4S1000
X1.8S0
X.5S1000
X1.3S0
X.6S1000
X1.7S0
X.4S1000
X.5S0
X.6S1000
X.7S0
X.6S1000
X.7S0
X.3S1000
X1.7S0
X.6S1000
X3.8S0
X.7S1000
X1S0
X.7S1000
X1.1S0
X.9S1000
X2S0
X.3S1000
X1.5S0
X.9S1000
X1.5S0
X1S1000
X17.2S0
X1.1S1000
X1.7S0
X1S1000
X1.9S0
X.8S1000
X1.1S0
X.5S1000
X1.3S0
X.7S1000
X.7S0
X.8S1000
X.8S0
X.1S1000
X.8S0
X.4S1000
X.8S0
X.6S1000
X1.3S0
X.5S1000
X1S0
X.3S1000
X.9S0
X.6S1000
X1.4S0
X.1S1000
X1.3S0
X.6S1000
X1.9S0
X.4S1000
X1.8S0
X.6S1000
X1.2S0
X.6S1000
X1.8S0
X.3S1000
X.5S0
X.7S1000
X.6S0
X.6S1000
X.8S0
X.2S1000
X1.8S0
X.5S1000
X3.8S0
X.8S1000
X1S0
X.7S1000
X1S0
X.9S1000
X2S0
X.3S1000
X1.6S0
X.9S1000
X1.5S0
X1S1000
X17.2S0
X1.1S1000
X1.7S0
X.9S1000
X2S0
X.7S1000
X1.2S0
X.4S1000
X1.3S0
X.7S1000
X.8S0
X.8S1000
X.7S0
X.1S1000
X.9S0
X.4S1000
X.8S0
X.5S1000
X1.3S0
X.6S1000
X1S0
X.2S1000
X1S0
X.5S1000
X1.5S0
X.1S1000
X1.3S0
X.6S1000
X1.8S0
X.5S1000
X1.7S0
X.6S1000
X1.3S0
X.6S1000
X1.7S0
X.3S1000
X.5S0
X.7S1000
X.6S0
X.6S1000
X.8S0
X.2S1000
X1.8S0
X.6S1000
X3.7S0
X.8S1000
X1S0
X.7S1000
X1.1S0
X.9S1000
X2S0
X.3S1000
X1.5S0
X.9S1000
X1.5S0
X1.1S1000
X17.1S0
X1.1S1000
X1.7S0
X1S1000
X2S0
X.7S1000
X1.1S0
X.5S1000
X1.3S0
X.7S1000
X.8S0
X.7S1000
X.8S0
X.1S1000
X.8S0
X.4S1000
X.8S0
X.6S1000
X1.3S0
X.6S1000
X1S0
X.2S1000
X1S0
X.5S1000
X1.4S0
X.2S1000
X1.2S0
X.7S1000
X1.8S0
X.5S1000
X1.7S0
X.6S1000
X1.2S0
X.601S1000
X1.799S0
X.3S1000
X.5S0
X.7S1000
X.6S0
X.601S1000
X.799S0
X.201S1000
X1.799S0
X.6S1000
X3.7S0
X.8S1000
X1S0
X.7S1000
X1.1S0
X.801S1000
X2S0
X.299S1000
X1.6S0
X.9S1000
X1.5S0
X1S1000
X2.917S0
Y.1
X-2.917
X-1.1S1000
X-1.5S0
X-.9S1000
X-1.5S0
X-.299S1000
X-2S0
X-.901S1000
X-1S0
X-.8S1000
X-1S0
X-.7S1000
X-3.8S0
X-.6S1000
X-1.699S0
X-.301S1000
X-.699S0
X-.601S1000
X-.7S0
X-.6S1000
X-.5S0
X-.4S1000
X-1.699S0
X-.601S1000
X-1.2S0
X-.6S1000
X-1.7S0
X-.5S1000
X-1.8S0
X-.7S1000
X-1.2S0
X-.1S1000
X-1.6S0
X-.5S1000
X-.9S0
X-.2S1000
X-1S0
X-.5S1000
X-1.4S0
X-.5S1000
X-.8S0
X-.4S1000
X-1.7S0
X-.8S1000
X-.8S0
X-.7S1000
X-1.3S0
X-.4S1000
X-1.1S0
X-.8S1000
X-2S0
X-.9S1000
X-1.7S0
X-1.1S1000
X-17.2S0
X-1.2S1000
X-1.5S0
X-.9S1000
X-1.5S0
X-.3S1000
X-2S0
X-.9S1000
X-1S0
X-.7S1000
X-1S0
X-.8S1000
X-3.7S0
X-.6S1000
X-1.8S0
X-.2S1000
X-.8S0
X-.6S1000
X-.6S0
X-.7S1000
X-.5S0
X-.3S1000
X-1.7S0
X-.6S1000
X-1.3S0
X-.6S1000
X-1.7S0
X-.5S1000
X-1.8S0
X-.7S1000
X-1.2S0
X-.1S1000
X-1.5S0
X-.5S1000
X-.9S0
X-.3S1000
X-1S0
X-.5S1000
X-1.3S0
X-.6S1000
X-.8S0
X-.4S1000
X-.8S0
X-.1S1000
X-.8S0
X-.8S1000
X-.7S0
X-.7S1000
X-1.3S0
X-.4S1000
X-1.2S0
X-.8S1000
X-1.9S0
X-1S1000
X-1.6S0
X-1.2S1000
X-17.2S0
X-1.1S1000
X-1.5S0
X-.9S1000
X-1.5S0
X-.3S1000
X-2S0
X-.9S1000
X-1.1S0
X-.7S1000
X-1S0
X-.8S1000
X-3.7S0
X-.6S1000
X-1.7S0
X-.3S1000
X-.7S0
X-.6S1000
X-.7S0
X-.6S1000
X-.5S0
X-.4S1000
X-1.7S0
X-.6S1000
X-1.2S0
X-.6S1000
X-1.7S0
X-.5S1000
X-1.8S0
X-.7S1000
X-1.2S0
X-.1S1000
X-1.6S0
X-.4S1000
X-1S0
X-.2S1000
X-1S0
X-.6S1000
X-1.3S0
X-.5S1000
X-.8S0
X-.4S1000
X-1.7S0
X-.8S1000
X-.8S0
X-.7S1000
X-1.3S0
X-.4S1000
X-1.1S0
X-.8S1000
X-2S0
X-.9S1000
X-1.7S0
X-1.1S1000
X-17.3S0
X-1.1S1000
X-1.5S0
X-.8S1000
X-1.6S0
X-.3S1000
X-2S0
X-.9S1000
X-1S0
X-.7S1000
X-1S0
X-.8S1000
X-3.7S0
X-.6S1000
X-1.8S0
X-.2S1000
X-.8S0
X-.6S1000
X-.6S0
X-.6S1000
X-.6S0
X-.2S1000
X-1.9S0
X-.5S1000
X-1.3S0
X-.5S1000
X-1.8S0
X-.4S1000
X-1.9S0
X-.7S1000
X-1.2S0
X-.1S1000
X-1.5S0
X-.5S1000
X-.9S0
X-.2S1000
X-1.1S0
X-.5S1000
X-1.3S0
X-.6S1000
X-.8S0
X-.4S1000
X-.8S0
X-.1S1000
X-.8S0
X-.8S1000
X-.7S0
X-.7S1000
X-1.4S0
X-.3S1000
X-1.2S0
X-.7S1000
X-2S0
X-1S1000
X-1.6S0
X-1.2S1000
X-2.916S0
X.1Y.1
X2.916
X1.1S1000
X1.7S0
X.9S1000
X2S0
X.8S1000
X1.2S0
X.3S1000
X1.3S0
X.7S1000
X.8S0
X.8S1000
X.7S0
X.1S1000
X.9S0
X.4S1000
X.8S0
X.5S1000
X1.3S0
X.6S1000
X.9S0
X.3S1000
X.9S0
X.6S1000
X1.5S0
X.1S1000
X1.2S0
X.6S1000
X1.9S0
X.5S1000
X1.7S0
X.5S1000
X1.3S0
X.6S1000
X1.7S0
X.3S1000
X.5S0
X.7S1000
X.6S0
X.6S1000
X.8S0
X.2S1000
X1.8S0
X.6S1000
X3.7S0
X.8S1000
X1S0
X.7S1000
X1S0
X.8S1000
X2.1S0
X.3S1000
X1.4S0
X1S1000
X1.5S0
X1.1S1000
X17.3S0
X1.2S1000
X1.6S0
X1S1000
X1.9S0
X.8S1000
X1.2S0
X.4S1000
X1.3S0
X.6S1000
X.8S0
X.8S1000
X.7S0
X.1S1000
X.9S0
X.4S1000
X.8S0
X.5S1000
X1.4S0
X.5S1000
X1S0
X.2S1000
X.9S0
X.6S1000
X1.5S0
X.1S1000
X1.2S0
X.7S1000
X1.8S0
X.5S1000
X1.7S0
X.6S1000
X1.2S0
X.6S1000
X1.8S0
X.2S1000
X.6S0
X.6S1000
X.7S0
X.6S1000
X.7S0
X.2S1000
X1.8S0
X.6S1000
X3.7S0
X.8S1000
X1S0
X.8S1000
X.9S0
X.9S1000
X2S0
X.3S1000
X1.5S0
X.9S1000
X1.5S0
X1.1S1000
X17.4S0
X1.1S1000
X1.7S0
X1S1000
X1.9S0
X.8S1000
X1.1S0
X.4S1000
X1.3S0
X.7S1000
X.8S0
X.8S1000
X1.7S0
X.3S1000
X.8S0
X.6S1000
X1.3S0
X.6S1000
X1S0
X.2S1000
X.9S0
X.5S1000
X2.9S0
X.7S1000
X1.8S0
X.4S1000
X1.7S0
X.6S1000
X1.2S0
X.7S1000
X1.7S0
X.3S1000
X.5S0
X.6S1000
X.7S0
X.6S1000
X.8S0
X.2S1000
X1.8S0
X.5S1000
X3.7S0
X.9S1000
X.9S0
X.8S1000
X1S0
X.9S1000
X2S0
X.2S1000
X1.6S0
X.9S1000
X1.5S0
X1.1S1000
X17.3S0
X1.2S1000
X1.6S0
X1S1000
X1.9S0
X.8S1000
X1.2S0
X.4S1000
X1.3S0
X.6S1000
X.8S0
X.8S1000
X.8S0
X.1S1000
X.8S0
X.4S1000
X.8S0
X.5S1000
X1.4S0
X.5S1000
X1S0
X.2S1000
X1S0
X.5S1000
X1.5S0
X.1S1000
X1.2S0
X.7S1000
X1.8S0
X.5S1000
X1.7S0
X.6S1000
X1.2S0
X.601S1000
X1.799S0
X.3S1000
X.5S0
X.6S1000
X.7S0
X.601S1000
X.699S0
X.2S1000
X1.8S0
X.6S1000
X3.701S0
X.799S1000
X1S0
X.701S1000
X1S0
X.899S1000
X2.101S0
X.199S1000
X1.5S0
X1S1000
X1.4S0
X1.2S1000
X2.917S0
X-.1Y.1
X-2.917
X-1.1S1000
X-1.5S0
X-.9S1000
X-1.5S0
X-.3S1000
X-2.1S0
X-.799S1000
X-1S0
X-.701S1000
X-1S0
X-.799S1000
X-3.801S0
X-.5S1000
X-1.8S0
X-.2S1000
X-.8S0
X-.6S1000
X-.6S0
X-.699S1000
X-.5S0
X-.201S1000
X-1.799S0
X-.601S1000
X-1.3S0
X-.5S1000
X-1.7S0
X-.5S1000
X-1.8S0
X-.7S1000
X-1.2S0
X-.1S1000
X-1.5S0
X-.5S1000
X-1S0
X-.2S1000
X-1S0
X-.5S1000
X-1.3S0
X-.6S1000
X-.8S0
X-.3S1000
X-1.7S0
X-.8S1000
X-.8S0
X-.6S1000
X-1.4S0
X-.4S1000
X-1.1S0
X-.8S1000
X-1.9S0
X-1S1000
X-1.7S0
X-1.1S1000
X-17.4S0
X-1.2S1000
X-1.5S0
X-.9S1000
X-1.5S0
X-.3S1000
X-2S0
X-.9S1000
X-1S0
X-.7S1000
X-1S0
X-.8S1000
X-3.7S0
X-.6S1000
X-1.8S0
X-.2S1000
X-.7S0
X-.6S1000
X-.7S0
X-.6S1000
X-.5S0
X-.4S1000
X-1.6S0
X-.7S1000
X-1.2S0
X-.6S1000
X-1.7S0
X-.4S1000
X-1.9S0
X-.7S1000
X-2.7S0
X-.6S1000
X-.9S0
X-.2S1000
X-1.1S0
X-.5S1000
X-1.3S0
X-.5S1000
X-.8S0
X-.4S1000
X-1.7S0
X-.8S1000
X-.8S0
X-.6S1000
X-1.4S0
X-.3S1000
X-1.2S0
X-.8S1000
X-1.9S0
X-1S1000
X-1.6S0
X-1.2S1000
X-17.4S0
X-1.1S1000
X-1.5S0
X-1S1000
X-1.4S0
X-.3S1000
X-2.1S0
X-.8S1000
X-1S0
X-.7S1000
X-1S0
X-.8S1000
X-3.8S0
X-.5S1000
X-1.8S0
X-.2S1000
X-.8S0
X-.6S1000
X-.6S0
X-.7S1000
X-.5S0
X-.3S1000
X-1.7S0
X-.6S1000
X-1.3S0
X-.5S1000
X-1.7S0
X-.5S1000
X-1.8S0
X-.7S1000
X-1.2S0
X-.1S1000
X-1.6S0
X-.4S1000
X-1S0
X-.2S1000
X-1S0
X-.5S1000
X-1.3S0
X-.6S1000
X-.8S0
X-.4S1000
X-1.6S0
X-.8S1000
X-.8S0
X-.6S1000
X-1.4S0
X-.4S1000
X-1.1S0
X-.8S1000
X-1.9S0
X-1S1000
X-1.7S0
X-1.1S1000
X-17.5S0
X-1.1S1000
X-1.5S0
X-.9S1000
X-1.5S0
X-.3S1000
X-2S0
X-.9S1000
X-1S0
X-.7S1000
X-1S0
X-.8S1000
X-3.7S0
X-.5S1000
X-1.8S0
X-.2S1000
X-.8S0
X-.6S1000
X-.6S0
X-.7S1000
X-.5S0
X-.3S1000
X-1.7S0
X-.7S1000
X-1.2S0
X-.5S1000
X-1.7S0
X-.5S1000
X-1.9S0
X-.6S1000
X-1.2S0
X-.1S1000
X-1.6S0
X-.5S1000
X-.9S0
X-.2S1000
X-1S0
X-.5S1000
X-1.4S0
X-.6S1000
X-.7S0
X-.4S1000
X-.9S0
X-.1S1000
X-.7S0
X-.8S1000
X-.8S0
X-.6S1000
X-1.3S0
X-.4S1000
X-1.2S0
X-.7S1000
X-1.9S0
X-1.1S1000
X-1.6S0
X-1.2S1000
X-2.916S0
X.1Y.1
X2.916
X1.1S1000
X1.7S0
X1S1000
X1.9S0
X.8S1000
X1.1S0
X.4S1000
X1.3S0
X.7S1000
X.8S0
X.8S1000
X1.7S0
X.3S1000
X.8S0
X.5S1000
X1.4S0
X.5S1000
X1S0
X.2S1000
X1S0
X.4S1000
X1.6S0
X.1S1000
X1.2S0
X.7S1000
X1.8S0
X.5S1000
X1.7S0
X.5S1000
X1.3S0
X.6S1000
X1.7S0
X.3S1000
X.5S0
X.6S1000
X.7S0
X.6S1000
X.7S0
X.2S1000
X1.8S0
X.6S1000
X3.7S0
X.8S1000
X1S0
X.7S1000
X1S0
X.8S1000
X2.1S0
X.3S1000
X1.4S0
X1S1000
X1.5S0
X1S1000
X17.7S0
X1.1S1000
X1.6S0
X1.1S1000
X1.8S0
X.8S1000
X1.2S0
X.3S1000
X1.4S0
X.6S1000
X.8S0
X.8S1000
X1.7S0
X.3S1000
X.8S0
X.6S1000
X1.3S0
X.5S1000
X1S0
X.3S1000
X.9S0
X.5S1000
X1.5S0
X.1S1000
X1.2S0
X.7S1000
X1.8S0
X.5S1000
X1.7S0
X.5S1000
X1.3S0
X.6S1000
X1.8S0
X.2S1000
X.5S0
X.7S1000
X.6S0
X.6S1000
X.8S0
X.2S1000
X1.8S0
X.5S1000
X3.7S0
X.8S1000
X1S0
X.8S1000
X.9S0
X.9S1000
X2.1S0
X.2S1000
X1.5S0
X.9S1000
X1.5S0
X1.1S1000
X17.6S0
X1.2S1000
X1.6S0
X1S1000
X1.9S0
X.8S1000
X1.2S0
X.3S1000
X1.4S0
X.6S1000
X.8S0
X.8S1000
X1.7S0
X.3S1000
X.8S0
X.6S1000
X1.3S0
X.5S1000
X1S0
X.2S1000
X.9S0
X.5S1000
X1.6S0
X.1S1000
X1.2S0
X.6S1000
X1.9S0
X.4S1000
X1.7S0
X.6S1000
X1.2S0
X.7S1000
X1.7S0
X.2S1000
X.6S0
X.6S1000
X.7S0
X.6S1000
X.7S0
X.2S1000
X1.8S0
X.6S1000
X3.7S0
X.8S1000
X1S0
X.7S1000
X1S0
X.8S1000
