; LightBurn Pro 2.0.05
; GRBL device profile, absolute coords
; Bounds: X0.03 Y1.89 to X303.22 Y211.47
G00 G17 G40 G21 G54
G90
M4
; Image @ 7500 мм/мин, 80% power
M8
G0 X5.026Y51.889
; Layer C00
G91
G0 X3.125
G1 X3.43F7500S800
G1 X0.91S0
G1 X6.09S800
G1 X1.61S0
G1 X55.37S800
G1 X1.19S0
G1 X1.12S800
G1 X1.33S0
G1 X5.25S800
G1 X1.12S0
G1 X3.57S800
G1 X1.12S0
G1 X4.41S800
G1 X1.12S0
G1 X20.23S800
G1 X1.19S0
G1 X1.33S800
G1 X1.12S0
G1 X9.8S800
G1 X1.19S0
G1 X3.01S800
G1 X1.26S0
G1 X19.88S800
G1 X1.12S0
G1 X37.1S800
G1 X0.84S0
G1 X1.54S800
G1 X0.91S0
G1 X10.57S800
G1 X1.4S0
G1 X3.15S800
G1 X2.45S0
G1 X5.39S800
G1 X0.98S0
G1 X9.1S800
G1 X1.4S0
G1 X58.59S800
G1 X1.33S0
G1 X2.45S800
G1 X1.54S0
G1 X10.43S800
G0 X3.125
G0 Y0.07
G0 X-3.125
G1 X-10.08
G1 X-1.54S0
G1 X-2.52S800
G1 X-0.07S0
G1 X-0.07S800
G1 X-1.26S0
G1 X-58.52S800
G1 X-1.4S0
G1 X-9.1S800
G1 X-1.12S0
G1 X-5.18S800
G1 X-0.07S0
G1 X-0.07S800
G1 X-1.4S0
G1 X-0.35S800
G1 X-0.91S0
G1 X-2.8S800
G1 X-1.54S0
G1 X-10.57S800
G1 X-0.98S0
G1 X-1.54S800
G1 X-0.84S0
G1 X-37.03S800
G1 X-1.19S0
G1 X-19.81S800
G1 X-0.07S0
G1 X-0.07S800
G1 X-1.12S0
G1 X-3.01S800
G1 X-1.19S0
G1 X-9.73S800
G1 X-1.19S0
G1 X-1.26S800
G1 X-0.07S0
G1 X-0.07S800
G1 X-1.12S0
G1 X-20.23S800
G1 X-1.19S0
G1 X-4.27S800
G1 X-1.12S0
G1 X-0.07S800
G1 X-0.07S0
G1 X-3.43S800
G1 X-1.19S0
G1 X-5.18S800
G1 X-1.4S0
G1 X-1.05S800
G1 X-1.26S0
G1 X-55.3S800
G1 X-1.68S0
G1 X-6.44S800
G1 X-0.91S0
G1 X-3.29S800
G0 X-3.125
G0 Y0.07
G0 X3.125
G1 X3.29
G1 X0.91S0
G1 X6.65S800
G1 X1.61S0
G1 X55.37S800
G1 X1.26S0
G1 X1.12S800
G1 X1.26S0
G1 X5.18S800
G1 X1.19S0
G1 X3.57S800
G1 X1.19S0
G1 X4.27S800
G1 X1.19S0
G1 X20.16S800
G1 X1.26S0
G1 X1.26S800
G1 X1.19S0
G1 X9.8S800
G1 X1.19S0
G1 X3.01S800
G1 X1.26S0
G1 X19.81S800
G1 X1.12S0
G1 X36.96S800
G1 X0.91S0
G1 X1.54S800
G1 X0.98S0
G1 X10.71S800
G1 X1.54S0
G1 X2.45S800
G1 X0.7S0
G1 X0.84S800
G1 X1.47S0
G1 X5.25S800
G1 X0.98S0
G1 X9.24S800
G1 X1.4S0
G1 X58.52S800
G1 X1.33S0
G1 X2.59S800
G1 X1.47S0
G1 X9.94S800
G0 X3.125
G0 Y0.07
G0 X-3.125
G1 X-9.52
G1 X-1.54S0
G1 X-2.52S800
G1 X-1.47S0
G1 X-58.45S800
G1 X-1.4S0
G1 X-9.31S800
G1 X-1.12S0
G1 X-5.04S800
G1 X-1.47S0
G1 X-1.47S800
G1 X-0.42S0
G1 X-2.17S800
G1 X-1.54S0
G1 X-10.85S800
G1 X-0.91S0
G1 X-1.54S800
G1 X-0.91S0
G1 X-36.89S800
G1 X-1.19S0
G1 X-19.81S800
G1 X-1.19S0
G1 X-3.01S800
G1 X-1.19S0
G1 X-9.8S800
G1 X-1.12S0
G1 X-1.33S800
G1 X-1.26S0
G1 X-20.23S800
G1 X-1.12S0
G1 X-4.34S800
G1 X-1.19S0
G1 X-3.57S800
G1 X-1.12S0
G1 X-5.18S800
G1 X-1.26S0
G1 X-1.12S800
G1 X-1.26S0
G1 X-55.37S800
G1 X-1.68S0
G1 X-6.65S800
G1 X-1.12S0
G1 X-2.94S800
G0 X-3.125
G0 X0.14Y0.07
G0 X3.125
G1 X0.07
G1 X0.07S0
G1 X2.87S800
G1 X1.19S0
G1 X6.58S800
G1 X1.75S0
G1 X55.37S800
G1 X1.19S0
G1 X1.19S800
G1 X1.26S0
G1 X5.11S800
G1 X1.12S0
G1 X3.57S800
G1 X1.19S0
G1 X4.34S800
G1 X1.12S0
G1 X20.3S800
G1 X1.26S0
G1 X1.26S800
G1 X1.12S0
G1 X9.8S800
G1 X1.19S0
G1 X3.01S800
G1 X1.19S0
G1 X19.88S800
G1 X1.05S0
G1 X36.89S800
G1 X0.91S0
G1 X1.54S800
G1 X0.98S0
G1 X10.92S800
G1 X1.61S0
G1 X1.82S800
G1 X0.35S0
G1 X1.82S800
G1 X1.33S0
G1 X0.07S800
G1 X0.07S0
G1 X4.97S800
G1 X1.05S0
G1 X9.45S800
G1 X1.33S0
G1 X58.52S800
G1 X1.4S0
G1 X0.07S800
G1 X0.07S0
G1 X2.38S800
G1 X0.07S0
G1 X0.07S800
G1 X1.47S0
G1 X9.24S800
G0 X3.125
G0 Y0.07
G0 X-3.125
G1 X-9.03
G1 X-1.54S0
G1 X-2.45S800
G1 X-1.54S0
G1 X-58.52S800
G1 X-1.4S0
G1 X-9.38S800
G1 X-1.12S0
G1 X-4.9S800
G1 X-1.47S0
G1 X-1.96S800
G1 X-0.42S0
G1 X-1.47S800
G1 X-1.75S0
G1 X-10.99S800
G1 X-0.98S0
G1 X-1.54S800
G1 X-0.91S0
G1 X-36.82S800
G1 X-1.12S0
G1 X-19.81S800
G1 X-1.19S0
G1 X-3.08S800
G1 X-1.19S0
G1 X-9.73S800
G1 X-1.19S0
G1 X-1.19S800
G1 X-1.33S0
G1 X-20.23S800
G1 X-1.19S0
G1 X-4.27S800
G1 X-1.19S0
G1 X-3.64S800
G1 X-1.05S0
G1 X-5.11S800
G1 X-1.33S0
G1 X-1.12S800
G1 X-1.26S0
G1 X-55.3S800
G1 X-1.82S0
G1 X-6.58S800
G1 X-1.19S0
G1 X-2.87S800
G0 X-3.125
G0 X0.28Y0.07
G0 X3.125
G1 X2.87
G1 X1.12S0
G1 X6.65S800
G1 X1.82S0
G1 X55.3S800
G1 X1.26S0
G1 X1.12S800
G1 X1.33S0
G1 X5.04S800
G1 X1.12S0
G1 X3.64S800
G1 X1.19S0
G1 X4.27S800
G1 X1.19S0
G1 X20.3S800
G1 X1.26S0
G1 X1.19S800
G1 X1.19S0
G1 X9.73S800
G1 X1.19S0
G1 X3.08S800
G1 X1.19S0
G1 X19.74S800
G1 X1.19S0
G1 X36.75S800
G1 X0.84S0
G1 X1.61S800
G1 X0.91S0
G1 X11.2S800
G1 X1.82S0
G1 X1.05S800
G1 X0.49S0
G1 X2.24S800
G1 X1.4S0
G1 X4.9S800
G1 X0.98S0
G1 X9.59S800
G1 X1.4S0
G1 X58.52S800
G1 X1.61S0
G1 X2.45S800
G1 X1.47S0
G1 X8.68S800
G0 X3.125
G0 Y0.07
G0 X-3.125
G1 X-8.4
G1 X-1.54S0
G1 X-2.17S800
G1 X-0.14S0
G1 X-0.07S800
G1 X-1.68S0
G1 X-58.52S800
G1 X-1.4S0
G1 X-9.59S800
G1 X-0.98S0
G1 X-4.83S800
G1 X-1.47S0
G1 X-2.38S800
G1 X-0.49S0
G1 X-0.7S800
G1 X-0.07S0
G1 X-0.07S800
G1 X-1.75S0
G1 X-11.34S800
G1 X-0.91S0
G1 X-1.61S800
G1 X-0.91S0
G1 X-36.75S800
G1 X-1.05S0
G1 X-19.81S800
G1 X-1.19S0
G1 X-3.08S800
G1 X-1.19S0
G1 X-9.73S800
G1 X-1.19S0
G1 X-1.26S800
G1 X-1.12S0
G1 X-0.07S800
G1 X-0.07S0
G1 X-20.23S800
G1 X-1.19S0
G1 X-4.27S800
G1 X-1.26S0
G1 X-3.64S800
G1 X-1.05S0
G1 X-5.04S800
G1 X-1.26S0
G1 X-1.12S800
G1 X-0.07S0
G1 X-0.07S800
G1 X-1.12S0
G1 X-55.3S800
G1 X-1.89S0
G1 X-6.65S800
G1 X-1.12S0
G1 X-2.87S800
G1 X-1.19S0
G1 X-0.07S800
G0 X-3.125
G0 Y0.07
G0 X3.125
G1 X0.21
G1 X1.26S0
G1 X2.87S800
G1 X1.12S0
G1 X6.58S800
G1 X1.96S0
G1 X55.23S800
G1 X1.26S0
G1 X1.19S800
G1 X1.26S0
G1 X5.04S800
G1 X1.05S0
G1 X3.64S800
G1 X1.19S0
G1 X4.34S800
G1 X1.12S0
G1 X20.37S800
G1 X1.26S0
G1 X1.19S800
G1 X1.19S0
G1 X9.73S800
G1 X1.19S0
G1 X3.08S800
G1 X1.26S0
G1 X19.67S800
G1 X1.12S0
G1 X36.68S800
G1 X0.91S0
G1 X1.54S800
G1 X0.98S0
G1 X11.41S800
G1 X1.96S0
G1 X0.42S800
G1 X0.56S0
G1 X2.59S800
G1 X1.47S0
G1 X4.69S800
G1 X1.12S0
G1 X9.59S800
G1 X1.4S0
G1 X58.59S800
G1 X1.75S0
G1 X2.24S800
G1 X1.54S0
G1 X8.12S800
G0 X3.125
G0 Y0.07
G0 X-3.125
G1 X-7.77
G1 X-1.54S0
G1 X-2.03S800
G1 X-2.03S0
G1 X-58.59S800
G1 X-1.4S0
G1 X-9.59S800
G1 X-1.19S0
G1 X-4.62S800
G1 X-1.47S0
G1 X-2.73S800
G1 X-2.66S0
G1 X-11.69S800
G1 X-0.91S0
G1 X-1.61S800
G1 X-0.91S0
G1 X-36.54S800
G1 X-1.19S0
G1 X-19.67S800
G1 X-1.19S0
G1 X-3.08S800
G1 X-1.26S0
G1 X-9.66S800
G1 X-1.19S0
G1 X-1.19S800
G1 X-1.26S0
G1 X-20.37S800
G1 X-1.19S0
G1 X-4.27S800
G1 X-1.19S0
G1 X-3.64S800
G1 X-1.12S0
G1 X-4.97S800
G1 X-1.26S0
G1 X-1.12S800
G1 X-1.33S0
G1 X-55.23S800
G1 X-1.96S0
G1 X-6.65S800
G1 X-1.12S0
G1 X-2.87S800
G1 X-1.19S0
G1 X-0.49S800
G0 X-3.125
G0 Y0.07
G0 X3.125
G1 X0.7
G1 X1.26S0
G1 X2.8S800
G1 X1.12S0
G1 X6.58S800
G1 X2.03S0
G1 X55.23S800
G1 X1.26S0
G1 X0.07S800
G1 X0.07S0
G1 X0.98S800
G1 X0.07S0
G1 X0.07S800
G1 X1.19S0
G1 X0.07S800
G1 X0.07S0
G1 X4.83S800
G1 X1.05S0
G1 X3.71S800
G1 X1.12S0
G1 X0.07S800
G1 X0.07S0
G1 X4.2S800
G1 X1.12S0
G1 X0.07S800
G1 X0.07S0
G1 X20.3S800
G1 X1.26S0
G1 X1.12S800
G1 X1.19S0
G1 X9.8S800
G1 X1.12S0
G1 X3.08S800
G1 X1.26S0
G1 X19.67S800
G1 X1.12S0
G1 X36.61S800
G1 X0.84S0
G1 X1.68S800
G1 X0.91S0
G1 X11.76S800
G1 X0.07S0
G1 X0.07S800
G1 X2.31S0
G1 X2.94S800
G1 X1.47S0
G1 X4.55S800
G1 X1.26S0
G1 X9.52S800
G1 X0.07S0
G1 X0.07S800
G1 X1.26S0
G1 X58.66S800
G1 X0.07S0
G1 X0.07S800
G1 X1.89S0
G1 X0.07S800
G1 X0.07S0
G1 X0.07S800
G1 X0.07S0
G1 X1.75S800
G1 X1.54S0
G1 X7.49S800
G0 X3.125
G0 Y0.07
G0 X-3.125
G1 X-7.21
G1 X-1.54S0
G1 X-1.61S800
G1 X-2.38S0
G1 X-58.73S800
G1 X-1.4S0
G1 X-9.59S800
G1 X-1.33S0
G1 X-4.41S800
G1 X-1.47S0
G1 X-3.08S800
G1 X-2.17S0
G1 X-12.04S800
G1 X-0.98S0
G1 X-1.61S800
G1 X-0.84S0
G1 X-36.54S800
G1 X-1.12S0
G1 X-19.67S800
G1 X-1.19S0
G1 X-3.08S800
G1 X-1.19S0
G1 X-9.8S800
G1 X-1.12S0
G1 X-1.19S800
G1 X-1.26S0
G1 X-20.37S800
G1 X-1.19S0
G1 X-4.27S800
G1 X-1.19S0
G1 X-3.71S800
G1 X-1.05S0
G1 X-4.9S800
G1 X-1.26S0
G1 X-1.19S800
G1 X-1.33S0
G1 X-55.16S800
G1 X-2.1S0
G1 X-6.58S800
G1 X-1.12S0
G1 X-2.8S800
G1 X-1.26S0
G1 X-0.91S800
G0 X-3.125
G0 Y0.07
G0 X3.125
G1 X1.19
G1 X1.26S0
G1 X2.73S800
G1 X1.12S0
G1 X6.65S800
G1 X2.1S0
G1 X55.16S800
G1 X1.33S0
G1 X1.19S800
G1 X1.33S0
G1 X4.76S800
G1 X1.12S0
G1 X3.64S800
G1 X1.19S0
G1 X4.34S800
G1 X1.12S0
G1 X20.44S800
G1 X1.26S0
G1 X1.19S800
G1 X1.19S0
G1 X9.66S800
G1 X1.19S0
G1 X3.15S800
G1 X1.19S0
G1 X19.6S800
G1 X1.26S0
G1 X36.4S800
G1 X0.84S0
G1 X1.61S800
G1 X0.98S0
G1 X12.25S800
G1 X2.1S0
G1 X3.01S800
G1 X1.54S0
G1 X4.27S800
G1 X1.47S0
G1 X9.52S800
G1 X1.4S0
G1 X58.94S800
G1 X2.66S0
G1 X1.19S800
G1 X1.54S0
G1 X6.86S800
G0 X3.125
G0 Y0.07
G0 X-3.125
G1 X-6.51
G1 X-0.07S0
G1 X-0.07S800
G1 X-1.54S0
G1 X-0.42S800
G1 X-0.07S0
G1 X-0.07S800
G1 X-0.07S0
G1 X-0.14S800
G1 X-0.07S0
G1 X-0.07S800
G1 X-2.8S0
G1 X-59.08S800
G1 X-1.4S0
G1 X-9.45S800
G1 X-0.07S0
G1 X-0.07S800
G1 X-1.26S0
G1 X-0.07S800
G1 X-0.07S0
G1 X-4.27S800
G1 X-1.4S0
G1 X-0.07S800
G1 X-0.07S0
G1 X-2.94S800
G1 X-1.89S0
G1 X-0.07S800
G1 X-0.14S0
G1 X-12.39S800
G1 X-0.91S0
G1 X-1.68S800
G1 X-0.91S0
G1 X-36.26S800
G1 X-1.26S0
G1 X-19.53S800
G1 X-0.07S0
G1 X-0.07S800
G1 X-1.19S0
G1 X-3.08S800
G1 X-1.12S0
G1 X-0.07S800
G1 X-0.07S0
G1 X-9.66S800
G1 X-1.19S0
G1 X-1.05S800
G1 X-0.07S0
G1 X-0.07S800
G1 X-1.12S0
G1 X-0.07S800
G1 X-0.07S0
G1 X-20.37S800
G1 X-1.05S0
G1 X-0.07S800
G1 X-0.07S0
G1 X-4.27S800
G1 X-1.19S0
G1 X-3.57S800
G1 X-0.07S0
G1 X-0.07S800
G1 X-0.98S0
G1 X-0.07S800
G1 X-0.07S0
G1 X-4.62S800
G1 X-0.07S0
G1 X-0.07S800
G1 X-1.19S0
G1 X-0.07S800
G1 X-0.07S0
G1 X-0.98S800
G1 X-0.07S0
G1 X-0.07S800
G1 X-1.26S0
G1 X-55.3S800
G1 X-2.1S0
G1 X-6.51S800
G1 X-0.07S0
G1 X-0.07S800
G1 X-1.12S0
G1 X-2.73S800
G1 X-1.12S0
G1 X-0.07S800
G1 X-0.07S0
G1 X-1.33S800
G0 X-3.125
G0 Y0.07
G0 X3.125
G1 X1.61
G1 X1.26S0
G1 X2.73S800
G1 X1.12S0
G1 X6.58S800
G1 X2.17S0
G1 X55.23S800
G1 X1.33S0
G1 X1.12S800
G1 X1.33S0
G1 X4.76S800
G1 X1.12S0
G1 X3.64S800
G1 X1.19S0
G1 X4.34S800
G1 X1.12S0
G1 X20.44S800
G1 X1.26S0
G1 X1.12S800
G1 X1.19S0
G1 X9.73S800
G1 X1.19S0
G1 X3.15S800
G1 X1.19S0
G1 X19.6S800
G1 X1.4S0
G1 X36.05S800
G1 X0.98S0
G1 X1.61S800
G1 X0.98S0
G1 X12.74S800
G1 X1.82S0
G1 X3.01S800
G1 X1.47S0
G1 X4.34S800
G1 X1.33S0
G1 X9.59S800
G1 X1.4S0
G1 X59.22S800
G1 X5.18S0
G1 X6.3S800
G0 X3.125
G0 Y0.07
G0 X-3.125
G1 X-5.88
G1 X-5.04S0
G1 X-59.5S800
G1 X-1.4S0
G1 X-9.52S800
G1 X-1.4S0
G1 X-4.27S800
G1 X-1.54S0
G1 X-2.87S800
G1 X-1.75S0
G1 X-13.09S800
G1 X-0.91S0
G1 X-1.61S800
G1 X-0.98S0
G1 X-35.91S800
G1 X-1.54S0
G1 X-19.53S800
G1 X-1.26S0
G1 X-3.08S800
G1 X-1.19S0
G1 X-9.73S800
G1 X-1.19S0
G1 X-1.12S800
G1 X-1.26S0
G1 X-20.44S800
G1 X-1.19S0
G1 X-4.27S800
G1 X-1.19S0
G1 X-3.71S800
G1 X-1.12S0
G1 X-4.62S800
G1 X-1.4S0
G1 X-1.12S800
G1 X-1.33S0
G1 X-55.23S800
G1 X-2.17S0
G1 X-6.58S800
G1 X-1.19S0
G1 X-2.73S800
G1 X-1.19S0
G1 X-1.89S800
G0 X-3.125
G0 Y0.07
G0 X3.125
G1 X2.03
G1 X0.07S0
G1 X0.07S800
G1 X1.12S0
G1 X2.66S800
G1 X1.19S0
G1 X6.58S800
G1 X2.24S0
G1 X55.23S800
G1 X0.07S0
G1 X0.07S800
G1 X1.19S0
G1 X1.12S800
G1 X0.07S0
G1 X0.07S800
G1 X1.19S0
G1 X4.62S800
G1 X1.19S0
G1 X0.07S800
G1 X0.07S0
G1 X3.5S800
G1 X0.07S0
G1 X0.07S800
G1 X1.05S0
G1 X4.27S800
G1 X0.07S0
G1 X0.07S800
G1 X1.05S0
G1 X20.51S800
G1 X1.26S0
G1 X1.05S800
G1 X1.19S0
G1 X9.73S800
G1 X1.19S0
G1 X3.15S800
G1 X1.26S0
G1 X19.53S800
G1 X1.47S0
G1 X35.91S800
G1 X0.91S0
G1 X1.68S800
G1 X0.98S0
G1 X13.16S800
G1 X0.07S0
G1 X0.07S800
G1 X1.47S0
G1 X2.94S800
G1 X0.14S0
G1 X0.07S800
G1 X1.33S0
G1 X4.2S800
G1 X1.47S0
G1 X9.52S800
G1 X0.07S0
G1 X0.07S800
G1 X1.26S0
G1 X59.64S800
G1 X0.14S0
G1 X0.07S800
G1 X4.48S0
G1 X5.88S800
G0 X3.125
G0 Y0.07
G0 X-3.125
G1 X-5.88
G1 X-3.92S0
G1 X-60.06S800
G1 X-1.4S0
G1 X-9.59S800
G1 X-1.4S0
G1 X-4.2S800
G1 X-1.54S0
G1 X-2.87S800
G1 X-1.75S0
G1 X-13.3S800
G1 X-0.91S0
G1 X-1.68S800
G1 X-0.91S0
G1 X-35.77S800
G1 X-1.61S0
G1 X-19.53S800
G1 X-1.19S0
G1 X-3.15S800
G1 X-1.26S0
G1 X-9.66S800
G1 X-1.19S0
G1 X-1.05S800
G1 X-1.26S0
G1 X-20.51S800
G1 X-1.19S0
G1 X-4.27S800
G1 X-1.19S0
G1 X-3.64S800
G1 X-1.19S0
G1 X-4.62S800
G1 X-1.33S0
G1 X-1.12S800
G1 X-1.33S0
G1 X-55.23S800
G1 X-2.31S0
G1 X-6.51S800
G1 X-1.19S0
G1 X-2.66S800
G1 X-1.26S0
G1 X-2.31S800
G0 X-3.125
G0 Y0.07
G0 X3.125
G1 X2.52
G1 X1.33S0
G1 X2.59S800
G1 X1.19S0
G1 X6.51S800
G1 X2.38S0
G1 X55.23S800
G1 X1.33S0
G1 X1.19S800
G1 X1.33S0
G1 X4.48S800
G1 X1.19S0
G1 X3.64S800
G1 X1.19S0
G1 X4.34S800
G1 X1.12S0
G1 X20.58S800
G1 X1.26S0
G1 X1.05S800
G1 X1.19S0
G1 X9.66S800
G1 X1.26S0
G1 X3.15S800
G1 X1.19S0
G1 X19.53S800
G1 X1.68S0
G1 X35.63S800
G1 X0.91S0
G1 X1.61S800
G1 X0.98S0
G1 X13.37S800
G1 X1.75S0
G1 X2.94S800
G1 X1.54S0
G1 X4.13S800
G1 X1.47S0
G1 X9.52S800
G1 X1.4S0
G1 X60.76S800
G1 X2.94S0
G1 X5.88S800
G0 X3.125
G0 Y0.07
G0 X-3.125
G1 X-5.88
G1 X-1.26S0
G1 X-0.07S800
G1 X-0.28S0
G1 X-0.07S800
G1 X-0.14S0
G1 X-0.07S800
G1 X-0.14S0
G1 X-0.07S800
G1 X-0.14S0
G1 X-61.32S800
G1 X-1.4S0
G1 X-9.52S800
G1 X-1.4S0
G1 X-4.13S800
G1 X-1.54S0
G1 X-2.87S800
G1 X-1.89S0
G1 X-13.3S800
G1 X-1.05S0
G1 X-1.68S800
G1 X-0.91S0
G1 X-35.56S800
G1 X-1.68S0
G1 X-19.53S800
G1 X-1.19S0
G1 X-3.15S800
G1 X-1.19S0
G1 X-9.73S800
G1 X-1.19S0
G1 X-1.05S800
G1 X-1.26S0
G1 X-20.58S800
G1 X-1.12S0
G1 X-4.34S800
G1 X-1.19S0
G1 X-3.57S800
G1 X-1.19S0
G1 X-4.48S800
G1 X-1.4S0
G1 X-1.19S800
G1 X-1.26S0
G1 X-55.23S800
G1 X-2.45S0
G1 X-6.51S800
G1 X-1.19S0
G1 X-2.59S800
G1 X-1.26S0
G1 X-2.59S800
G0 X-3.125
G0 X0.28Y0.07
G0 X3.125
G1 X2.59
G1 X1.26S0
G1 X2.59S800
G1 X1.19S0
G1 X6.51S800
G1 X2.45S0
G1 X55.23S800
G1 X1.33S0
G1 X1.19S800
G1 X1.33S0
G1 X4.41S800
G1 X1.19S0
G1 X3.64S800
G1 X1.19S0
G1 X4.27S800
G1 X1.19S0
G1 X20.58S800
G1 X1.26S0
G1 X1.05S800
G1 X1.19S0
G1 X9.73S800
G1 X1.19S0
G1 X3.15S800
G1 X1.19S0
G1 X19.46S800
G1 X1.82S0
G1 X35.42S800
G1 X0.91S0
G1 X1.68S800
G1 X0.98S0
G1 X13.44S800
G1 X1.89S0
G1 X2.87S800
G1 X1.54S0
G1 X4.2S800
G1 X1.4S0
G1 X9.52S800
G1 X1.4S0
G1 X69.09S800
G0 X3.125
G0 Y0.07
G0 X-3.125
G1 X-68.81
G1 X-1.4S0
G1 X-9.45S800
G1 X-1.47S0
G1 X-4.13S800
G1 X-1.54S0
G1 X-2.8S800
G1 X-2.03S0
G1 X-13.51S800
G1 X-0.98S0
G1 X-1.68S800
G1 X-0.91S0
G1 X-35.28S800
G1 X-1.89S0
G1 X-19.46S800
G1 X-1.26S0
G1 X-3.08S800
G1 X-1.26S0
G1 X-9.73S800
G1 X-1.19S0
G1 X-0.98S800
G1 X-1.26S0
G1 X-20.58S800
G1 X-1.19S0
G1 X-4.27S800
G1 X-1.19S0
G1 X-3.64S800
G1 X-1.19S0
G1 X-4.41S800
G1 X-1.33S0
G1 X-1.19S800
G1 X-1.33S0
G1 X-55.23S800
G1 X-2.52S0
G1 X-6.44S800
G1 X-1.19S0
G1 X-2.59S800
G1 X-1.26S0
G1 X-2.59S800
G0 X-3.125
G0 X0.21Y0.07
G0 X3.125
G1 X2.52
G1 X1.26S0
G1 X2.59S800
G1 X1.19S0
G1 X6.44S800
G1 X1.19S0
G1 X0.07S800
G1 X1.33S0
G1 X55.23S800
G1 X1.26S0
G1 X1.19S800
G1 X1.4S0
G1 X4.41S800
G1 X1.19S0
G1 X3.57S800
G1 X1.19S0
G1 X4.34S800
G1 X1.12S0
G1 X20.65S800
G1 X1.19S0
G1 X1.05S800
G1 X1.19S0
G1 X9.73S800
G1 X1.19S0
G1 X3.15S800
G1 X1.26S0
G1 X19.39S800
G1 X1.96S0
G1 X35.14S800
G1 X0.91S0
G1 X1.75S800
G1 X0.98S0
G1 X13.51S800
G1 X2.1S0
G1 X2.8S800
G1 X1.54S0
G1 X4.06S800
G1 X1.47S0
G1 X9.45S800
G1 X1.4S0
G1 X68.67S800
G0 X3.125
G0 Y0.07
G0 X-3.125
G1 X-68.32
G1 X-1.4S0
G1 X-9.45S800
G1 X-1.47S0
G1 X-4.06S800
G1 X-1.54S0
G1 X-2.8S800
G1 X-2.24S0
G1 X-13.51S800
G1 X-0.98S0
G1 X-1.75S800
G1 X-0.91S0
G1 X-35S800
G1 X-2.03S0
G1 X-19.46S800
G1 X-1.19S0
G1 X-3.15S800
G1 X-1.26S0
G1 X-9.66S800
G1 X-1.19S0
G1 X-1.05S800
G1 X-1.26S0
G1 X-20.65S800
G1 X-1.12S0
G1 X-4.27S800
G1 X-1.26S0
G1 X-3.57S800
G1 X-1.19S0
G1 X-4.34S800
G1 X-1.4S0
G1 X-1.19S800
G1 X-1.26S0
G1 X-55.23S800
G1 X-1.33S0
G1 X-0.14S800
G1 X-1.12S0
G1 X-6.51S800
G1 X-1.19S0
G1 X-2.59S800
G1 X-1.19S0
G1 X-2.59S800
G0 X-3.125
G0 X-1.12Y0.07
G0 X3.125
G1 X0.14
G1 X1.26S0
G1 X2.59S800
G1 X1.19S0
G1 X2.59S800
G1 X1.19S0
G1 X6.44S800
G1 X1.12S0
G1 X0.21S800
G1 X1.33S0
G1 X55.23S800
G1 X1.26S0
G1 X1.26S800
G1 X1.33S0
G1 X4.34S800
G1 X1.19S0
G1 X3.57S800
G1 X1.19S0
G1 X4.27S800
G1 X1.19S0
G1 X20.65S800
G1 X1.26S0
G1 X0.98S800
G1 X1.26S0
G1 X9.66S800
G1 X1.26S0
G1 X3.08S800
G1 X1.26S0
G1 X19.39S800
G1 X2.1S0
G1 X34.93S800
G1 X0.91S0
G1 X1.68S800
G1 X1.05S0
G1 X13.58S800
G1 X2.31S0
G1 X2.8S800
G1 X1.54S0
G1 X4.06S800
G1 X1.4S0
G1 X9.45S800
G1 X1.4S0
G1 X68.04S800
G0 X3.125
G0 Y0.07
G0 X-3.125
G1 X-67.83
G1 X-1.4S0
G1 X-9.45S800
G1 X-1.47S0
G1 X-3.99S800
G1 X-1.54S0
G1 X-2.8S800
G1 X-2.38S0
G1 X-13.58S800
G1 X-0.98S0
G1 X-1.75S800
G1 X-0.98S0
G1 X-34.79S800
G1 X-2.17S0
G1 X-19.39S800
G1 X-1.19S0
G1 X-3.15S800
G1 X-1.26S0
G1 X-9.66S800
G1 X-1.26S0
G1 X-0.98S800
G1 X-1.19S0
G1 X-20.65S800
G1 X-1.19S0
G1 X-4.27S800
G1 X-1.19S0
G1 X-3.64S800
G1 X-1.19S0
G1 X-4.27S800
G1 X-1.33S0
G1 X-1.26S800
G1 X-1.33S0
G1 X-55.16S800
G1 X-1.33S0
G1 X-0.28S800
G1 X-1.12S0
G1 X-6.44S800
G1 X-1.19S0
G1 X-2.52S800
G1 X-1.26S0
G1 X-2.59S800
G1 X-1.19S0
G1 X-0.35S800
G0 X-3.125
G0 Y0.07
G0 X3.125
G1 X0.56
G1 X1.26S0
G1 X2.59S800
G1 X1.26S0
G1 X2.52S800
G1 X1.19S0
G1 X6.44S800
G1 X1.12S0
G1 X0.28S800
G1 X1.33S0
G1 X55.23S800
G1 X1.26S0
G1 X1.26S800
G1 X1.33S0
G1 X4.27S800
G1 X1.19S0
G1 X3.57S800
G1 X1.26S0
G1 X4.2S800
G1 X1.19S0
G1 X20.65S800
G1 X1.33S0
G1 X0.91S800
G1 X1.26S0
G1 X9.73S800
G1 X1.19S0
G1 X3.15S800
G1 X1.19S0
G1 X19.39S800
G1 X2.24S0
G1 X34.65S800
G1 X0.98S0
G1 X1.75S800
G1 X0.98S0
G1 X13.65S800
G1 X2.45S0
G1 X2.8S800
G1 X1.54S0
G1 X3.99S800
G1 X1.47S0
G1 X9.38S800
G1 X1.4S0
G1 X67.55S800
G0 X3.125
G0 Y0.07
G0 X-3.125
G1 X-67.27
G1 X-1.4S0
G1 X-9.45S800
G1 X-1.33S0
G1 X-3.99S800
G1 X-1.61S0
G1 X-2.8S800
G1 X-2.45S0
G1 X-13.72S800
G1 X-1.05S0
G1 X-1.68S800
G1 X-0.98S0
G1 X-34.51S800
G1 X-0.07S0
G1 X-0.07S800
G1 X-2.24S0
G1 X-19.32S800
G1 X-1.26S0
G1 X-3.15S800
G1 X-1.19S0
G1 X-9.66S800
G1 X-1.26S0
G1 X-0.91S800
G1 X-1.33S0
G1 X-20.72S800
G1 X-1.12S0
G1 X-4.27S800
G1 X-1.19S0
G1 X-3.57S800
G1 X-1.19S0
G1 X-4.27S800
G1 X-1.33S0
G1 X-1.26S800
G1 X-1.33S0
G1 X-55.16S800
G1 X-1.33S0
G1 X-0.35S800
G1 X-1.12S0
G1 X-6.44S800
G1 X-1.19S0
G1 X-2.52S800
G1 X-1.19S0
G1 X-2.59S800
G1 X-1.26S0
G1 X-0.84S800
G0 X-3.125
G0 Y0.07
G0 X3.125
G1 X0.98
G1 X1.26S0
G1 X2.59S800
G1 X1.26S0
G1 X2.52S800
G1 X1.19S0
G1 X6.37S800
G1 X1.12S0
G1 X0.42S800
G1 X1.33S0
G1 X55.16S800
G1 X1.33S0
G1 X1.26S800
G1 X1.33S0
G1 X4.2S800
G1 X1.19S0
G1 X3.57S800
G1 X1.19S0
G1 X4.27S800
G1 X1.19S0
G1 X20.72S800
G1 X1.33S0
G1 X0.91S800
G1 X1.19S0
G1 X9.66S800
G1 X1.26S0
G1 X3.15S800
G1 X1.26S0
G1 X19.32S800
G1 X2.31S0
G1 X34.51S800
G1 X0.98S0
G1 X1.68S800
G1 X1.05S0
G1 X13.72S800
G1 X2.59S0
G1 X2.73S800
G1 X1.61S0
G1 X3.92S800
G1 X1.54S0
G1 X9.31S800
G1 X1.4S0
G1 X67.06S800
G0 X3.125
G0 Y0.07
G0 X-3.125
G1 X-66.78
G1 X-1.4S0
G1 X-9.31S800
G1 X-1.47S0
G1 X-3.92S800
G1 X-1.54S0
G1 X-2.8S800
G1 X-2.66S0
G1 X-13.79S800
G1 X-1.05S0
G1 X-1.68S800
G1 X-0.98S0
G1 X-34.3S800
G1 X-2.52S0
G1 X-19.25S800
G1 X-1.26S0
G1 X-3.15S800
G1 X-1.26S0
G1 X-9.66S800
G1 X-1.19S0
G1 X-0.91S800
G1 X-1.33S0
G1 X-20.79S800
G1 X-1.12S0
G1 X-4.27S800
G1 X-1.19S0
G1 X-3.57S800
G1 X-1.26S0
G1 X-4.06S800
G1 X-1.4S0
G1 X-1.26S800
G1 X-1.33S0
G1 X-55.16S800
G1 X-1.33S0
G1 X-0.42S800
G1 X-1.19S0
G1 X-6.3S800
G1 X-1.26S0
G1 X-2.45S800
G1 X-1.26S0
G1 X-2.59S800
G1 X-1.26S0
G1 X-1.26S800
G0 X-3.125
G0 Y0.07
G0 X3.125
G1 X1.54
G1 X1.19S0
G1 X2.59S800
G1 X1.26S0
G1 X2.52S800
G1 X1.12S0
G1 X0.07S800
G1 X0.07S0
G1 X6.3S800
G1 X1.12S0
G1 X0.49S800
G1 X1.33S0
G1 X55.09S800
G1 X1.4S0
G1 X1.26S800
G1 X1.26S0
G1 X0.07S800
G1 X0.07S0
G1 X4.06S800
G1 X1.19S0
G1 X3.57S800
G1 X1.19S0
G1 X4.27S800
G1 X1.19S0
G1 X20.79S800
G1 X1.26S0
G1 X0.91S800
G1 X1.19S0
G1 X9.73S800
G1 X1.12S0
G1 X0.07S800
G1 X0.07S0
G1 X3.01S800
G1 X0.07S0
G1 X0.07S800
G1 X1.19S0
G1 X19.32S800
G1 X2.38S0
G1 X0.07S800
G1 X0.07S0
G1 X34.16S800
G1 X0.91S0
G1 X1.82S800
G1 X1.05S0
G1 X13.79S800
G1 X2.73S0
G1 X2.8S800
G1 X1.54S0
G1 X3.85S800
G1 X1.54S0
G1 X9.38S800
G1 X1.33S0
G1 X66.5S800
G0 X3.125
G0 Y0.07
G0 X-3.125
G1 X-66.29
G1 X-1.4S0
G1 X-9.24S800
G1 X-1.54S0
G1 X-3.85S800
G1 X-1.61S0
G1 X-2.73S800
G1 X-2.8S0
G1 X-13.86S800
G1 X-1.05S0
G1 X-1.75S800
G1 X-0.91S0
G1 X-34.16S800
G1 X-2.59S0
G1 X-19.25S800
G1 X-1.26S0
G1 X-3.15S800
G1 X-1.26S0
G1 X-9.66S800
G1 X-1.19S0
G1 X-0.84S800
G1 X-1.4S0
G1 X-20.79S800
G1 X-1.12S0
G1 X-4.27S800
G1 X-1.19S0
G1 X-3.64S800
G1 X-1.12S0
G1 X-4.13S800
G1 X-1.33S0
G1 X-1.33S800
G1 X-1.26S0
G1 X-55.16S800
G1 X-1.33S0
G1 X-0.56S800
G1 X-1.12S0
G1 X-6.3S800
G1 X-1.26S0
G1 X-2.45S800
G1 X-1.26S0
G1 X-2.66S800
G1 X-1.19S0
G1 X-1.68S800
G0 X-3.125
G0 Y0.07
G0 X3.125
G1 X1.96
G1 X1.26S0
G1 X2.59S800
G1 X1.26S0
G1 X2.45S800
G1 X1.19S0
G1 X6.3S800
G1 X1.19S0
G1 X0.56S800
G1 X1.4S0
G1 X55.09S800
G1 X1.33S0
G1 X1.26S800
G1 X1.4S0
G1 X4.06S800
G1 X1.19S0
G1 X3.57S800
G1 X1.19S0
G1 X4.27S800
G1 X1.12S0
G1 X20.86S800
G1 X1.33S0
G1 X0.84S800
G1 X1.19S0
G1 X9.66S800
G1 X1.19S0
G1 X3.22S800
G1 X1.33S0
G1 X19.18S800
G1 X2.66S0
G1 X33.95S800
G1 X0.98S0
G1 X1.82S800
G1 X0.98S0
G1 X13.93S800
G1 X1.26S0
G1 X0.07S800
G1 X1.54S0
G1 X2.73S800
G1 X1.61S0
G1 X3.85S800
G1 X1.47S0
G1 X9.31S800
G1 X1.4S0
G1 X65.94S800
G0 X3.125
G0 Y0.07
G0 X-3.125
G1 X-65.59
G1 X-0.07S0
G1 X-0.07S800
G1 X-1.4S0
G1 X-9.24S800
G1 X-1.47S0
G1 X-0.07S800
G1 X-0.07S0
G1 X-3.64S800
G1 X-0.07S0
G1 X-0.07S800
G1 X-1.54S0
G1 X-2.59S800
G1 X-0.07S0
G1 X-0.07S800
G1 X-1.47S0
G1 X-0.07S800
G1 X-0.07S0
G1 X-0.07S800
G1 X-1.26S0
G1 X-13.93S800
G1 X-1.05S0
G1 X-1.75S800
G1 X-0.98S0
G1 X-33.88S800
G1 X-0.07S0
G1 X-0.07S800
G1 X-2.52S0
G1 X-0.07S800
G1 X-0.07S0
G1 X-19.04S800
G1 X-0.07S0
G1 X-0.07S800
G1 X-1.19S0
G1 X-0.07S800
G1 X-0.07S0
G1 X-3.08S800
G1 X-1.26S0
G1 X-9.66S800
G1 X-1.19S0
G1 X-0.77S800
G1 X-1.4S0
G1 X-20.93S800
G1 X-1.12S0
G1 X-4.27S800
G1 X-1.05S0
G1 X-0.07S800
G1 X-0.07S0
G1 X-3.57S800
G1 X-1.12S0
G1 X-4.06S800
G1 X-1.26S0
G1 X-0.07S800
G1 X-0.07S0
G1 X-1.26S800
G1 X-1.33S0
G1 X-55.02S800
G1 X-0.07S0
G1 X-0.07S800
G1 X-1.33S0
G1 X-0.56S800
G1 X-1.12S0
G1 X-6.37S800
G1 X-1.19S0
G1 X-2.38S800
G1 X-0.07S0
G1 X-0.07S800
G1 X-1.19S0
G1 X-2.52S800
G1 X-0.07S0
G1 X-0.07S800
G1 X-1.19S0
G1 X-2.17S800
G0 X-3.125
G0 Y0.07
G0 X3.125
G1 X2.38
G1 X1.26S0
G1 X2.59S800
G1 X1.26S0
G1 X2.45S800
G1 X1.19S0
G1 X6.3S800
G1 X1.12S0
G1 X0.7S800
G1 X1.33S0
G1 X55.16S800
G1 X1.26S0
G1 X1.33S800
G1 X1.33S0
G1 X3.99S800
G1 X1.19S0
G1 X3.64S800
G1 X1.19S0
G1 X4.2S800
G1 X1.19S0
G1 X20.93S800
G1 X1.33S0
G1 X0.77S800
G1 X1.26S0
G1 X9.59S800
G1 X1.26S0
G1 X3.15S800
G1 X1.33S0
G1 X19.18S800
G1 X2.73S0
G1 X33.81S800
G1 X0.98S0
G1 X1.82S800
G1 X1.19S0
G1 X13.79S800
G1 X1.26S0
G1 X0.14S800
G1 X1.61S0
G1 X2.73S800
G1 X1.61S0
G1 X3.78S800
G1 X1.54S0
G1 X9.24S800
G1 X1.4S0
G1 X65.45S800
G0 X3.125
G0 Y0.07
G0 X-3.125
G1 X-65.17
G1 X-1.4S0
G1 X-9.24S800
G1 X-1.47S0
G1 X-3.78S800
G1 X-1.61S0
G1 X-2.66S800
G1 X-1.61S0
G1 X-0.28S800
G1 X-1.26S0
G1 X-13.65S800
G1 X-1.4S0
G1 X-1.82S800
G1 X-0.98S0
G1 X-33.67S800
G1 X-1.47S0
G1 X-0.14S800
G1 X-1.19S0
G1 X-19.18S800
G1 X-1.26S0
G1 X-3.22S800
G1 X-1.26S0
G1 X-9.59S800
G1 X-1.26S0
G1 X-0.77S800
G1 X-1.33S0
G1 X-21S800
G1 X-1.12S0
G1 X-4.2S800
G1 X-1.26S0
G1 X-3.57S800
G1 X-1.19S0
G1 X-3.99S800
G1 X-1.26S0
G1 X-1.33S800
G1 X-1.33S0
G1 X-55.16S800
G1 X-1.33S0
G1 X-0.77S800
G1 X-1.05S0
G1 X-6.3S800
G1 X-1.26S0
G1 X-2.38S800
G1 X-1.26S0
G1 X-2.59S800
G1 X-1.26S0
G1 X-2.66S800
G0 X-3.125
G0 Y0.07
G0 X3.125
G1 X2.8
G1 X0.07S0
G1 X0.07S800
G1 X1.12S0
G1 X2.66S800
G1 X1.26S0
G1 X2.45S800
G1 X1.19S0
G1 X6.23S800
G1 X1.05S0
G1 X0.07S800
G1 X0.07S0
G1 X0.7S800
G1 X1.33S0
G1 X0.07S800
G1 X0.07S0
G1 X54.95S800
G1 X0.07S0
G1 X0.07S800
G1 X1.19S0
G1 X0.07S800
G1 X0.07S0
G1 X1.19S800
G1 X0.07S0
G1 X0.07S800
G1 X1.19S0
G1 X3.99S800
G1 X1.12S0
G1 X0.07S800
G1 X0.07S0
G1 X3.43S800
G1 X0.07S0
G1 X0.07S800
G1 X1.12S0
G1 X4.27S800
G1 X1.12S0
G1 X21S800
G1 X1.33S0
G1 X0.7S800
G1 X1.26S0
G1 X9.66S800
G1 X1.19S0
G1 X0.07S800
G1 X0.07S0
G1 X3.08S800
G1 X1.26S0
G1 X0.07S800
G1 X0.07S0
G1 X19.04S800
G1 X1.26S0
G1 X0.07S800
G1 X0.07S0
G1 X0.07S800
G1 X1.4S0
G1 X0.07S800
G1 X0.07S0
G1 X33.46S800
G1 X0.98S0
G1 X1.82S800
G1 X1.54S0
G1 X0.07S800
G1 X0.07S0
G1 X13.44S800
G1 X1.19S0
G1 X0.07S800
G1 X0.07S0
G1 X0.21S800
G1 X1.61S0
G1 X0.07S800
G1 X0.07S0
G1 X2.52S800
G1 X0.07S0
G1 X0.07S800
G1 X1.54S0
G1 X3.71S800
G1 X0.07S0
G1 X0.07S800
G1 X1.33S0
G1 X0.07S800
G1 X0.07S0
G1 X9.1S800
G1 X1.4S0
G1 X64.96S800
G0 X3.125
G0 Y0.07
G0 X-3.125
G1 X-64.68
G1 X-1.4S0
G1 X-9.17S800
G1 X-1.47S0
G1 X-3.71S800
G1 X-1.68S0
G1 X-2.66S800
G1 X-1.61S0
G1 X-0.42S800
G1 X-1.26S0
G1 X-13.3S800
G1 X-1.82S0
G1 X-1.82S800
G1 X-0.98S0
G1 X-33.46S800
G1 X-1.54S0
G1 X-0.21S800
G1 X-1.26S0
G1 X-19.11S800
G1 X-1.26S0
G1 X-3.22S800
G1 X-1.26S0
G1 X-9.59S800
G1 X-1.26S0
G1 X-0.7S800
G1 X-1.33S0
G1 X-21.07S800
G1 X-1.12S0
G1 X-4.27S800
G1 X-1.19S0
G1 X-3.57S800
G1 X-1.19S0
G1 X-3.92S800
G1 X-1.33S0
G1 X-1.33S800
G1 X-1.33S0
G1 X-55.09S800
G1 X-1.33S0
G1 X-0.84S800
G1 X-1.12S0
G1 X-6.23S800
G1 X-1.19S0
G1 X-2.38S800
G1 X-1.33S0
G1 X-2.59S800
G1 X-1.26S0
G1 X-3.08S800
G0 X-3.125
G0 Y0.07
G0 X3.125
G1 X3.36
G1 X1.26S0
G1 X2.59S800
G1 X1.33S0
G1 X2.38S800
G1 X1.19S0
G1 X6.23S800
G1 X1.05S0
G1 X0.91S800
G1 X1.33S0
G1 X55.09S800
G1 X1.33S0
G1 X1.19S800
G1 X1.47S0
G1 X3.92S800
G1 X1.19S0
G1 X3.57S800
G1 X1.19S0
G1 X4.2S800
G1 X1.12S0
G1 X21.14S800
G1 X1.33S0
G1 X0.7S800
G1 X1.19S0
G1 X9.66S800
G1 X1.26S0
G1 X3.22S800
G1 X1.33S0
G1 X19.04S800
G1 X1.19S0
G1 X0.35S800
G1 X1.47S0
G1 X33.39S800
G1 X0.91S0
G1 X1.82S800
G1 X2.1S0
G1 X13.16S800
G1 X1.26S0
G1 X0.49S800
G1 X1.61S0
G1 X2.66S800
G1 X1.68S0
G1 X3.64S800
G1 X1.54S0
G1 X9.1S800
G1 X1.47S0
G1 X64.33S800
G0 X3.125
G0 Y0.07
G0 X-3.125
G1 X-64.19
G1 X-1.33S0
G1 X-9.17S800
G1 X-1.4S0
G1 X-0.07S800
G1 X-0.07S0
G1 X-3.5S800
G1 X-0.07S0
G1 X-0.07S800
G1 X-1.61S0
G1 X-2.59S800
G1 X-0.07S0
G1 X-0.07S800
G1 X-1.61S0
G1 X-0.49S800
G1 X-1.26S0
G1 X-13.02S800
G1 X-0.07S0
G1 X-0.07S800
G1 X-2.17S0
G1 X-1.75S800
G1 X-1.05S0
G1 X-33.11S800
G1 X-0.07S0
G1 X-0.07S800
G1 X-1.54S0
G1 X-0.21S800
G1 X-1.26S0
G1 X-19.11S800
G1 X-1.26S0
G1 X-3.15S800
G1 X-0.07S0
G1 X-0.07S800
G1 X-1.12S0
G1 X-0.07S800
G1 X-0.07S0
G1 X-9.59S800
G1 X-1.12S0
G1 X-0.07S800
G1 X-0.07S0
G1 X-0.63S800
G1 X-1.33S0
G1 X-21.14S800
G1 X-1.19S0
G1 X-4.06S800
G1 X-0.07S0
G1 X-0.07S800
G1 X-1.19S0
G1 X-3.57S800
G1 X-1.19S0
G1 X-3.92S800
G1 X-1.68S0
G1 X-0.77S800
G1 X-0.07S0
G1 X-0.07S800
G1 X-1.33S0
G1 X-55.09S800
G1 X-1.19S0
G1 X-0.07S800
G1 X-0.07S0
G1 X-0.98S800
G1 X-1.12S0
G1 X-6.02S800
G1 X-0.07S0
G1 X-0.07S800
G1 X-1.19S0
G1 X-2.24S800
G1 X-0.07S0
G1 X-0.07S800
G1 X-1.26S0
G1 X-2.66S800
G1 X-1.12S0
G1 X-0.07S800
G1 X-0.07S0
G1 X-3.5S800
G0 X-3.125
G0 Y0.07
G0 X3.125
G1 X3.78
G1 X1.26S0
G1 X2.66S800
G1 X1.33S0
G1 X2.24S800
G1 X1.26S0
G1 X6.16S800
G1 X1.12S0
G1 X0.98S800
G1 X1.33S0
G1 X55.09S800
G1 X1.33S0
G1 X0.49S800
G1 X0.56S0
G1 X0.28S800
G1 X1.33S0
G1 X3.85S800
G1 X1.19S0
G1 X3.57S800
G1 X1.19S0
G1 X4.2S800
G1 X1.19S0
G1 X21.14S800
G1 X1.4S0
G1 X0.56S800
G1 X1.26S0
G1 X9.59S800
G1 X1.26S0
G1 X3.22S800
G1 X1.33S0
G1 X19.04S800
G1 X1.26S0
G1 X0.35S800
G1 X1.54S0
G1 X33.11S800
G1 X0.98S0
G1 X1.61S800
G1 X2.66S0
G1 X12.95S800
G1 X1.26S0
G1 X0.56S800
G1 X1.61S0
G1 X2.73S800
G1 X1.61S0
G1 X3.64S800
G1 X1.54S0
G1 X9.1S800
G1 X1.4S0
G1 X63.84S800
G0 X3.125
G0 Y0.07
G0 X-3.125
G1 X-63.56
G1 X-1.4S0
G1 X-9.03S800
G1 X-1.54S0
G1 X-3.57S800
G1 X-1.75S0
G1 X-2.66S800
G1 X-1.61S0
G1 X-0.63S800
G1 X-1.26S0
G1 X-12.81S800
G1 X-2.03S0
G1 X-0.35S800
G1 X-0.56S0
G1 X-1.54S800
G1 X-0.98S0
G1 X-33.04S800
G1 X-1.47S0
G1 X-0.49S800
G1 X-1.19S0
G1 X-19.04S800
G1 X-1.33S0
G1 X-3.22S800
G1 X-1.26S0
G1 X-9.59S800
G1 X-1.26S0
G1 X-0.56S800
G1 X-1.4S0
G1 X-21.21S800
G1 X-1.12S0
G1 X-4.2S800
G1 X-1.26S0
G1 X-3.5S800
G1 X-1.19S0
G1 X-3.85S800
G1 X-1.33S0
G1 X-0.63S800
G1 X-2.03S0
G1 X-55.02S800
G1 X-1.4S0
G1 X-1.05S800
G1 X-1.12S0
G1 X-6.09S800
G1 X-1.26S0
G1 X-2.24S800
G1 X-1.33S0
G1 X-2.66S800
G1 X-1.26S0
G1 X-4.06S800
G0 X-3.125
G0 Y0.07
G0 X3.125
G1 X4.2
G1 X1.33S0
G1 X2.59S800
G1 X1.33S0
G1 X2.31S800
G1 X1.26S0
G1 X6.02S800
G1 X0.07S0
G1 X0.07S800
G1 X0.98S0
G1 X1.12S800
G1 X0.07S0
G1 X0.07S800
G1 X1.19S0
G1 X55.09S800
G1 X1.82S0
G1 X0.77S800
G1 X1.33S0
G1 X3.85S800
G1 X1.19S0
G1 X3.57S800
G1 X1.19S0
G1 X4.2S800
G1 X1.12S0
G1 X21.28S800
G1 X1.33S0
G1 X0.56S800
G1 X1.26S0
G1 X9.59S800
G1 X0.07S0
G1 X0.07S800
G1 X1.12S0
G1 X3.29S800
G1 X1.33S0
G1 X18.97S800
G1 X1.26S0
G1 X0.49S800
G1 X0.07S0
G1 X0.07S800
G1 X1.33S0
G1 X32.97S800
G1 X0.98S0
G1 X1.47S800
G1 X0.56S0
G1 X0.56S800
G1 X0.07S0
G1 X0.07S800
G1 X1.89S0
G1 X12.67S800
G1 X1.33S0
G1 X0.63S800
G1 X0.07S0
G1 X0.07S800
G1 X1.47S0
G1 X2.73S800
G1 X1.61S0
G1 X0.14S800
G1 X0.07S0
G1 X3.43S800
G1 X1.54S0
G1 X8.96S800
G1 X1.4S0
G1 X63.42S800
G0 X3.125
G0 Y0.07
G0 X-3.125
G1 X-63.07
G1 X-1.4S0
G1 X-8.96S800
G1 X-1.61S0
G1 X-3.5S800
G1 X-1.68S0
G1 X-2.73S800
G1 X-1.61S0
G1 X-0.7S800
G1 X-1.33S0
G1 X-12.53S800
G1 X-1.96S0
G1 X-0.91S800
G1 X-0.63S0
G1 X-1.33S800
G1 X-0.98S0
G1 X-32.83S800
G1 X-1.47S0
G1 X-0.63S800
G1 X-1.19S0
G1 X-18.97S800
G1 X-1.33S0
G1 X-3.29S800
G1 X-1.26S0
G1 X-9.59S800
G1 X-1.26S0
G1 X-0.56S800
G1 X-1.33S0
G1 X-21.28S800
G1 X-1.19S0
G1 X-4.13S800
G1 X-1.19S0
G1 X-3.57S800
G1 X-1.19S0
G1 X-3.85S800
G1 X-1.26S0
G1 X-1.19S800
G1 X-1.47S0
G1 X-55.02S800
G1 X-1.4S0
G1 X-1.12S800
G1 X-1.12S0
G1 X-6.09S800
G1 X-1.19S0
G1 X-2.31S800
G1 X-1.33S0
G1 X-2.59S800
G1 X-1.33S0
G1 X-4.48S800
G0 X-3.125
G0 Y0.07
G0 X3.125
G1 X4.76
G1 X1.33S0
G1 X2.59S800
G1 X1.33S0
G1 X2.24S800
G1 X1.26S0
G1 X6.02S800
G1 X1.12S0
G1 X1.19S800
G1 X1.4S0
G1 X55.02S800
G1 X1.19S0
G1 X1.47S800
G1 X1.26S0
G1 X3.78S800
G1 X1.19S0
G1 X3.57S800
G1 X1.26S0
G1 X4.13S800
G1 X1.19S0
G1 X21.28S800
G1 X1.33S0
G1 X0.56S800
G1 X1.26S0
G1 X9.59S800
G1 X1.26S0
G1 X3.29S800
G1 X1.26S0
G1 X19.04S800
G1 X1.19S0
G1 X0.63S800
G1 X1.54S0
G1 X32.69S800
G1 X1.05S0
G1 X1.19S800
G1 X0.63S0
G1 X1.19S800
G1 X2.03S0
G1 X12.32S800
G1 X1.33S0
G1 X0.84S800
G1 X1.61S0
G1 X2.66S800
G1 X1.68S0
G1 X3.5S800
G1 X1.54S0
G1 X8.96S800
G1 X1.4S0
G1 X62.79S800
G0 X3.125
G0 Y0.07
G0 X-3.125
G1 X-62.58
G1 X-1.4S0
G1 X-8.96S800
G1 X-1.54S0
G1 X-3.5S800
G1 X-1.68S0
G1 X-2.66S800
G1 X-1.47S0
G1 X-0.07S800
G1 X-0.14S0
G1 X-0.77S800
G1 X-1.4S0
G1 X-12.18S800
G1 X-2.03S0
G1 X-1.4S800
G1 X-0.63S0
G1 X-1.19S800
G1 X-0.98S0
G1 X-32.62S800
G1 X-1.54S0
G1 X-0.63S800
G1 X-1.26S0
G1 X-18.97S800
G1 X-1.33S0
G1 X-3.22S800
G1 X-1.33S0
G1 X-9.52S800
G1 X-1.33S0
G1 X-0.49S800
G1 X-1.33S0
G1 X-21.35S800
G1 X-1.12S0
G1 X-4.2S800
G1 X-1.26S0
G1 X-3.57S800
G1 X-1.19S0
G1 X-3.78S800
G1 X-1.26S0
G1 X-1.4S800
G1 X-1.26S0
G1 X-55.02S800
G1 X-1.33S0
G1 X-1.19S800
G1 X-1.19S0
G1 X-6.02S800
G1 X-1.19S0
G1 X-2.31S800
G1 X-1.26S0
G1 X-2.66S800
G1 X-1.26S0
G1 X-4.97S800
G0 X-3.125
G0 Y0.07
G0 X3.125
G1 X5.25
G1 X1.26S0
G1 X2.59S800
G1 X1.33S0
G1 X2.24S800
G1 X1.26S0
G1 X6.02S800
G1 X1.05S0
G1 X1.33S800
G1 X1.33S0
G1 X55.09S800
G1 X1.19S0
G1 X1.4S800
G1 X1.26S0
G1 X3.85S800
G1 X1.12S0
G1 X3.57S800
G1 X1.26S0
G1 X4.13S800
G1 X1.19S0
G1 X21.42S800
G1 X1.33S0
G1 X0.49S800
G1 X1.26S0
G1 X9.59S800
G1 X1.26S0
G1 X3.22S800
G1 X1.33S0
G1 X18.97S800
G1 X1.26S0
G1 X0.7S800
G1 X1.54S0
G1 X32.48S800
G1 X1.05S0
G1 X0.98S800
G1 X0.7S0
G1 X1.68S800
G1 X2.03S0
G1 X12.11S800
G1 X1.33S0
G1 X0.91S800
G1 X1.61S0
G1 X2.66S800
G1 X1.75S0
G1 X3.43S800
G1 X1.61S0
G1 X8.82S800
G1 X1.47S0
G1 X62.23S800
G0 X3.125
G0 Y0.07
G0 X-3.125
G1 X-61.95
G1 X-1.4S0
G1 X-8.82S800
G1 X-1.61S0
G1 X-3.43S800
G1 X-1.68S0
G1 X-2.73S800
G1 X-1.61S0
G1 X-0.98S800
G1 X-1.33S0
G1 X-11.9S800
G1 X-0.07S0
G1 X-0.07S800
G1 X-1.89S0
G1 X-1.96S800
G1 X-0.77S0
G1 X-0.91S800
G1 X-1.05S0
G1 X-32.41S800
G1 X-1.54S0
G1 X-0.7S800
G1 X-1.33S0
G1 X-18.9S800
G1 X-1.33S0
G1 X-3.22S800
G1 X-1.33S0
G1 X-9.52S800
G1 X-1.26S0
G1 X-0.56S800
G1 X-1.26S0
G1 X-21.49S800
G1 X-1.19S0
G1 X-4.13S800
G1 X-1.19S0
G1 X-3.57S800
G1 X-1.19S0
G1 X-3.78S800
G1 X-1.26S0
G1 X-1.4S800
G1 X-1.26S0
G1 X-55.02S800
G1 X-1.26S0
G1 X-1.4S800
G1 X-1.12S0
G1 X-5.95S800
G1 X-1.26S0
G1 X-2.24S800
G1 X-1.33S0
G1 X-2.59S800
G1 X-1.33S0
G1 X-5.46S800
G0 X-3.125
G0 Y0.07
G0 X3.125
G1 X5.67
G1 X1.26S0
G1 X2.66S800
G1 X1.33S0
G1 X2.17S800
G1 X1.33S0
G1 X5.88S800
G1 X1.12S0
G1 X1.4S800
G1 X1.33S0
G1 X55.02S800
G1 X1.19S0
G1 X1.47S800
G1 X1.26S0
G1 X3.71S800
G1 X1.26S0
G1 X3.5S800
G1 X1.26S0
G1 X4.13S800
G1 X1.19S0
G1 X21.42S800
G1 X1.4S0
G1 X0.42S800
G1 X1.26S0
G1 X9.59S800
G1 X1.26S0
G1 X3.29S800
G1 X1.26S0
G1 X18.97S800
G1 X1.26S0
G1 X0.77S800
G1 X1.54S0
G1 X32.27S800
G1 X1.12S0
G1 X0.84S800
G1 X0.77S0
G1 X2.1S800
G1 X2.03S0
G1 X11.83S800
G1 X1.4S0
G1 X0.98S800
G1 X1.61S0
G1 X2.73S800
G1 X1.75S0
G1 X3.36S800
G1 X1.54S0
G1 X8.82S800
G1 X1.4S0
G1 X61.81S800
G0 X3.125
G0 Y0.07
G0 X-3.125
G1 X-61.53
G1 X-1.4S0
G1 X-8.68S800
G1 X-1.61S0
G1 X-3.36S800
G1 X-1.75S0
G1 X-2.66S800
G1 X-1.68S0
G1 X-1.05S800
G1 X-1.33S0
G1 X-11.76S800
G1 X-1.96S0
G1 X-2.38S800
G1 X-0.84S0
G1 X-0.77S800
G1 X-1.05S0
G1 X-32.2S800
G1 X-1.47S0
G1 X-0.91S800
G1 X-1.26S0
G1 X-18.97S800
G1 X-1.26S0
G1 X-3.29S800
G1 X-1.26S0
G1 X-9.52S800
G1 X-1.33S0
G1 X-0.42S800
G1 X-1.4S0
G1 X-21.42S800
G1 X-1.19S0
G1 X-4.2S800
G1 X-1.19S0
G1 X-3.5S800
G1 X-1.26S0
G1 X-3.71S800
G1 X-1.26S0
G1 X-1.47S800
G1 X-1.19S0
G1 X-55.02S800
G1 X-1.26S0
G1 X-1.54S800
G1 X-1.05S0
G1 X-5.88S800
G1 X-1.26S0
G1 X-2.24S800
G1 X-1.33S0
G1 X-2.66S800
G1 X-1.33S0
G1 X-5.67S800
G0 X-3.125
G0 X0.28Y0.07
G0 X3.125
G1 X5.74
G1 X1.19S0
G1 X2.73S800
G1 X1.33S0
G1 X2.17S800
G1 X1.26S0
G1 X5.88S800
G1 X1.12S0
G1 X1.54S800
G1 X1.33S0
G1 X54.95S800
G1 X1.19S0
G1 X1.47S800
G1 X1.26S0
G1 X3.71S800
G1 X1.19S0
G1 X3.57S800
G1 X1.19S0
G1 X4.13S800
G1 X1.19S0
G1 X21.49S800
G1 X1.4S0
G1 X0.42S800
G1 X1.26S0
G1 X9.59S800
G1 X1.26S0
G1 X3.22S800
G1 X1.33S0
G1 X18.97S800
G1 X1.26S0
G1 X0.91S800
G1 X1.47S0
G1 X32.13S800
G1 X1.05S0
G1 X0.7S800
G1 X0.91S0
G1 X2.59S800
G1 X1.96S0
G1 X11.62S800
G1 X1.33S0
G1 X1.12S800
G1 X1.68S0
G1 X2.66S800
G1 X1.75S0
G1 X3.29S800
G1 X1.61S0
G1 X8.75S800
G1 X1.4S0
G1 X61.18S800
G0 X3.125
G0 Y0.07
G0 X-3.125
G1 X-60.97
G1 X-1.4S0
G1 X-8.68S800
G1 X-1.61S0
G1 X-3.29S800
G1 X-1.75S0
G1 X-2.73S800
G1 X-1.61S0
G1 X-1.19S800
G1 X-1.4S0
G1 X-11.48S800
G1 X-1.96S0
G1 X-2.73S800
G1 X-0.98S0
G1 X-0.63S800
G1 X-1.05S0
G1 X-31.99S800
G1 X-1.54S0
G1 X-0.98S800
G1 X-1.26S0
G1 X-18.9S800
G1 X-1.33S0
G1 X-3.22S800
G1 X-1.33S0
G1 X-9.52S800
G1 X-1.26S0
G1 X-0.42S800
G1 X-1.4S0
G1 X-21.56S800
G1 X-1.19S0
G1 X-4.06S800
G1 X-1.26S0
G1 X-3.5S800
G1 X-1.26S0
G1 X-3.71S800
G1 X-1.26S0
G1 X-1.47S800
G1 X-1.19S0
G1 X-54.88S800
G1 X-1.4S0
G1 X-1.54S800
G1 X-1.12S0
G1 X-5.81S800
G1 X-1.26S0
G1 X-2.24S800
G1 X-1.33S0
G1 X-2.66S800
G1 X-1.26S0
G1 X-5.74S800
G0 X-3.125
G0 X0.35Y0.07
G0 X3.125
G1 X5.67
G1 X1.26S0
G1 X2.73S800
G1 X1.26S0
G1 X2.24S800
G1 X1.26S0
G1 X5.74S800
G1 X1.12S0
G1 X1.61S800
G1 X1.4S0
G1 X54.88S800
G1 X1.19S0
G1 X1.47S800
G1 X1.26S0
G1 X3.71S800
G1 X1.26S0
G1 X3.5S800
G1 X1.26S0
G1 X4.06S800
G1 X1.19S0
G1 X21.63S800
G1 X1.33S0
G1 X0.42S800
G1 X1.26S0
G1 X9.52S800
G1 X1.26S0
G1 X3.29S800
G1 X1.33S0
G1 X18.9S800
G1 X1.26S0
G1 X1.05S800
G1 X1.47S0
G1 X31.92S800
G1 X1.05S0
G1 X0.63S800
G1 X1.05S0
G1 X2.87S800
G1 X2.03S0
G1 X11.34S800
G1 X1.33S0
G1 X1.26S800
G1 X1.61S0
G1 X2.73S800
G1 X1.75S0
G1 X3.29S800
G1 X1.61S0
G1 X8.61S800
G1 X1.4S0
G1 X60.69S800
G0 X3.125
G0 Y0.07
G0 X-3.125
G1 X-60.34
G1 X-0.07S0
G1 X-0.07S800
G1 X-1.26S0
G1 X-8.68S800
G1 X-1.54S0
G1 X-3.29S800
G1 X-1.75S0
G1 X-2.66S800
G1 X-0.07S0
G1 X-0.07S800
G1 X-1.61S0
G1 X-1.26S800
G1 X-1.33S0
G1 X-11.2S800
G1 X-0.07S0
G1 X-0.07S800
G1 X-1.89S0
G1 X-3.01S800
G1 X-1.19S0
G1 X-0.56S800
G1 X-1.05S0
G1 X-31.85S800
G1 X-1.47S0
G1 X-1.05S800
G1 X-1.26S0
G1 X-18.97S800
G1 X-1.26S0
G1 X-3.29S800
G1 X-1.26S0
G1 X-9.59S800
G1 X-1.26S0
G1 X-0.28S800
G1 X-1.4S0
G1 X-21.7S800
G1 X-1.12S0
G1 X-4.13S800
G1 X-1.26S0
G1 X-3.5S800
G1 X-1.19S0
G1 X-3.71S800
G1 X-1.26S0
G1 X-1.54S800
G1 X-1.19S0
G1 X-54.81S800
G1 X-1.4S0
G1 X-1.61S800
G1 X-1.12S0
G1 X-5.81S800
G1 X-1.26S0
G1 X-2.17S800
G1 X-1.33S0
G1 X-2.66S800
G1 X-1.26S0
G1 X-5.74S800
G0 X-3.125
G0 X-1.19Y0.07
G0 X3.125
G1 X0.14
G1 X1.26S0
G1 X5.67S800
G1 X1.26S0
G1 X2.73S800
G1 X1.33S0
G1 X2.17S800
G1 X1.33S0
G1 X5.67S800
G1 X1.12S0
G1 X1.68S800
G1 X1.4S0
G1 X54.81S800
G1 X1.19S0
G1 X1.47S800
G1 X1.33S0
G1 X3.71S800
G1 X1.19S0
G1 X3.5S800
G1 X1.26S0
G1 X4.06S800
G1 X1.19S0
G1 X21.7S800
G1 X1.4S0
G1 X0.28S800
G1 X1.26S0
G1 X9.52S800
G1 X1.33S0
G1 X3.29S800
G1 X1.26S0
G1 X18.9S800
G1 X1.26S0
G1 X1.12S800
G1 X1.54S0
G1 X31.71S800
G1 X1.12S0
G1 X0.56S800
G1 X1.33S0
G1 X2.94S800
G1 X2.03S0
G1 X11.13S800
G1 X1.33S0
G1 X1.33S800
G1 X1.61S0
G1 X2.8S800
G1 X1.75S0
G1 X3.15S800
G1 X1.68S0
G1 X8.54S800
G1 X1.4S0
G1 X60.2S800
G0 X3.125
G0 Y0.07
G0 X-3.125
G1 X-59.92
G1 X-1.4S0
G1 X-8.47S800
G1 X-1.61S0
G1 X-3.22S800
G1 X-1.68S0
G1 X-2.8S800
G1 X-1.68S0
G1 X-1.33S800
G1 X-1.4S0
G1 X-10.92S800
G1 X-2.03S0
G1 X-2.87S800
G1 X-1.75S0
G1 X-0.56S800
G1 X-1.05S0
G1 X-31.64S800
G1 X-1.47S0
G1 X-1.19S800
G1 X-1.26S0
G1 X-18.9S800
G1 X-1.26S0
G1 X-3.36S800
G1 X-1.26S0
G1 X-9.52S800
G1 X-1.26S0
G1 X-0.28S800
G1 X-1.4S0
G1 X-21.7S800
G1 X-1.19S0
G1 X-4.13S800
G1 X-1.19S0
G1 X-3.5S800
G1 X-1.26S0
G1 X-3.64S800
G1 X-1.33S0
G1 X-1.47S800
G1 X-1.19S0
G1 X-54.74S800
G1 X-1.4S0
G1 X-1.75S800
G1 X-1.19S0
G1 X-5.6S800
G1 X-1.33S0
G1 X-2.17S800
G1 X-1.33S0
G1 X-2.66S800
G1 X-1.33S0
G1 X-5.67S800
G1 X-1.26S0
G1 X-0.42S800
G0 X-3.125
G0 Y0.07
G0 X3.125
G1 X0.56
G1 X0.07S0
G1 X0.07S800
G1 X1.12S0
G1 X0.07S800
G1 X0.07S0
G1 X5.6S800
G1 X1.26S0
G1 X0.07S800
G1 X0.07S0
G1 X2.66S800
G1 X1.26S0
G1 X2.17S800
G1 X1.26S0
G1 X0.07S800
G1 X0.07S0
G1 X5.53S800
G1 X1.12S0
G1 X1.89S800
G1 X1.33S0
G1 X54.67S800
G1 X0.07S0
G1 X0.07S800
G1 X1.19S0
G1 X1.47S800
G1 X1.19S0
G1 X0.07S800
G1 X0.07S0
G1 X3.64S800
G1 X1.12S0
G1 X0.07S800
G1 X0.07S0
G1 X3.36S800
G1 X0.07S0
G1 X0.07S800
G1 X1.19S0
G1 X4.06S800
G1 X1.12S0
G1 X21.84S800
G1 X1.33S0
G1 X0.07S800
G1 X0.07S0
G1 X0.21S800
G1 X1.19S0
G1 X9.59S800
G1 X1.26S0
G1 X3.29S800
G1 X1.33S0
G1 X18.9S800
G1 X1.19S0
G1 X1.26S800
G1 X1.47S0
G1 X0.07S800
G1 X0.07S0
G1 X31.43S800
G1 X1.05S0
G1 X0.63S800
G1 X1.82S0
G1 X0.07S800
G1 X0.07S0
G1 X2.66S800
G1 X0.07S0
G1 X0.07S800
G1 X1.82S0
G1 X0.07S800
G1 X0.07S0
G1 X10.78S800
G1 X1.4S0
G1 X1.47S800
G1 X1.61S0
G1 X2.8S800
G1 X1.68S0
G1 X0.07S800
G1 X0.07S0
G1 X3.08S800
G1 X1.61S0
G1 X0.07S800
G1 X0.07S0
G1 X8.33S800
G1 X1.4S0
G1 X59.64S800
G0 X3.125
G0 Y0.07
G0 X-3.125
G1 X-59.43
G1 X-1.4S0
G1 X-8.4S800
G1 X-1.61S0
G1 X-3.08S800
G1 X-1.82S0
G1 X-2.8S800
G1 X-1.61S0
G1 X-1.47S800
G1 X-1.4S0
G1 X-10.71S800
G1 X-2.03S0
G1 X-2.8S800
G1 X-2.03S0
G1 X-0.63S800
G1 X-1.12S0
G1 X-31.43S800
G1 X-1.47S0
G1 X-1.26S800
G1 X-1.33S0
G1 X-18.83S800
G1 X-1.33S0
G1 X-3.29S800
G1 X-1.33S0
G1 X-9.45S800
G1 X-1.33S0
G1 X-0.14S800
G1 X-1.47S0
G1 X-21.77S800
G1 X-1.19S0
G1 X-4.06S800
G1 X-1.26S0
G1 X-3.5S800
G1 X-1.26S0
G1 X-3.64S800
G1 X-1.26S0
G1 X-1.54S800
G1 X-1.19S0
G1 X-54.67S800
G1 X-1.4S0
G1 X-1.89S800
G1 X-1.12S0
G1 X-5.6S800
G1 X-1.33S0
G1 X-2.17S800
G1 X-1.26S0
G1 X-2.73S800
G1 X-1.33S0
G1 X-5.67S800
G1 X-1.26S0
G1 X-0.84S800
G0 X-3.125
G0 Y0.07
G0 X3.125
G1 X1.12
G1 X1.26S0
G1 X5.67S800
G1 X1.33S0
G1 X2.73S800
G1 X1.26S0
G1 X2.17S800
G1 X1.33S0
G1 X5.53S800
G1 X1.12S0
G1 X1.96S800
G1 X1.4S0
G1 X54.67S800
G1 X1.19S0
G1 X1.54S800
G1 X1.26S0
G1 X3.64S800
G1 X1.26S0
G1 X3.5S800
G1 X1.26S0
G1 X4.06S800
G1 X1.19S0
G1 X21.84S800
G1 X1.4S0
G1 X0.14S800
G1 X1.33S0
G1 X9.52S800
G1 X1.26S0
G1 X3.29S800
G1 X1.33S0
G1 X18.83S800
G1 X1.33S0
G1 X1.26S800
G1 X1.54S0
G1 X31.36S800
G1 X1.05S0
G1 X0.7S800
G1 X2.17S0
G1 X2.87S800
G1 X1.96S0
G1 X10.57S800
G1 X1.4S0
G1 X1.54S800
G1 X1.68S0
G1 X2.8S800
G1 X1.75S0
G1 X3.08S800
G1 X1.68S0
G1 X8.33S800
G1 X1.4S0
G1 X59.08S800
G0 X3.125
G0 Y0.07
G0 X-3.125
G1 X-58.73
G1 X-0.07S0
G1 X-0.07S800
G1 X-1.4S0
G1 X-8.19S800
G1 X-0.07S0
G1 X-0.07S800
G1 X-1.54S0
G1 X-0.07S800
G1 X-0.07S0
G1 X-2.94S800
G1 X-0.07S0
G1 X-0.07S800
G1 X-1.61S0
G1 X-0.07S800
G1 X-0.07S0
G1 X-2.73S800
G1 X-0.07S0
G1 X-0.07S800
G1 X-1.47S0
G1 X-0.07S800
G1 X-0.07S0
G1 X-1.4S800
G1 X-0.07S0
G1 X-0.07S800
G1 X-1.26S0
G1 X-0.07S800
G1 X-0.07S0
G1 X-10.43S800
G1 X-0.07S0
G1 X-0.07S800
G1 X-1.75S0
G1 X-0.07S800
G1 X-0.07S0
G1 X-2.73S800
G1 X-0.07S0
G1 X-0.14S800
G1 X-1.96S0
G1 X-0.07S800
G1 X-0.07S0
G1 X-0.77S800
G1 X-1.12S0
G1 X-31.15S800
G1 X-0.07S0
G1 X-0.07S800
G1 X-1.47S0
G1 X-1.4S800
G1 X-1.26S0
G1 X-18.83S800
G1 X-1.33S0
G1 X-3.22S800
G1 X-0.07S0
G1 X-0.07S800
G1 X-1.19S0
G1 X-9.45S800
G1 X-0.07S0
G1 X-0.07S800
G1 X-1.33S0
G1 X-0.07S800
G1 X-1.26S0
G1 X-0.07S800
G1 X-0.07S0
G1 X-21.91S800
G1 X-1.19S0
G1 X-4.06S800
G1 X-1.19S0
G1 X-3.43S800
G1 X-0.07S0
G1 X-0.07S800
G1 X-1.19S0
G1 X-3.64S800
G1 X-1.26S0
G1 X-1.54S800
G1 X-1.26S0
G1 X-54.6S800
G1 X-1.33S0
G1 X-2.1S800
G1 X-1.05S0
G1 X-5.53S800
G1 X-1.26S0
G1 X-2.1S800
G1 X-0.07S0
G1 X-0.07S800
G1 X-1.19S0
G1 X-0.07S800
G1 X-0.07S0
G1 X-2.73S800
G1 X-1.19S0
G1 X-5.67S800
G1 X-0.07S0
G1 X-0.07S800
G1 X-1.12S0
G1 X-0.07S800
G1 X-0.07S0
G1 X-0.98S800
G1 X-0.07S0
G1 X-0.07S800
G0 X-3.125
G0 X0.28Y0.07
G0 X3.125
G1 X1.12
G1 X1.26S0
G1 X5.74S800
G1 X1.33S0
G1 X2.66S800
G1 X1.33S0
G1 X2.17S800
G1 X1.33S0
G1 X5.46S800
G1 X1.12S0
G1 X2.03S800
G1 X1.4S0
G1 X54.6S800
G1 X1.19S0
G1 X1.54S800
G1 X1.33S0
G1 X3.64S800
G1 X1.19S0
G1 X3.5S800
G1 X1.26S0
G1 X3.99S800
G1 X1.19S0
G1 X21.98S800
G1 X2.8S0
G1 X9.52S800
G1 X1.26S0
G1 X3.36S800
G1 X1.33S0
G1 X18.83S800
G1 X1.26S0
G1 X1.4S800
G1 X1.47S0
G1 X31.22S800
G1 X1.12S0
G1 X1.05S800
G1 X2.1S0
G1 X2.8S800
G1 X2.03S0
G1 X10.43S800
G1 X1.4S0
G1 X1.54S800
G1 X1.68S0
G1 X2.87S800
G1 X1.75S0
G1 X3.01S800
G1 X1.68S0
G1 X8.26S800
G1 X1.4S0
G1 X58.59S800
G0 X3.125
G0 Y0.07
G0 X-3.125
G1 X-58.17
G1 X-1.54S0
G1 X-8.12S800
G1 X-1.75S0
G1 X-2.94S800
G1 X-1.82S0
G1 X-2.87S800
G1 X-1.68S0
G1 X-1.61S800
G1 X-1.4S0
G1 X-10.29S800
G1 X-1.96S0
G1 X-2.87S800
G1 X-2.1S0
G1 X-1.26S800
G1 X-1.12S0
G1 X-31.08S800
G1 X-1.54S0
G1 X-1.4S800
G1 X-1.26S0
G1 X-18.83S800
G1 X-1.33S0
G1 X-3.29S800
G1 X-1.33S0
G1 X-9.45S800
G1 X-2.8S0
G1 X-22.05S800
G1 X-1.19S0
G1 X-4.06S800
G1 X-1.19S0
G1 X-3.5S800
G1 X-1.19S0
G1 X-3.64S800
G1 X-1.33S0
G1 X-1.54S800
G1 X-1.19S0
G1 X-54.53S800
G1 X-1.4S0
G1 X-2.17S800
G1 X-1.12S0
G1 X-5.39S800
G1 X-1.33S0
G1 X-2.17S800
G1 X-1.33S0
G1 X-2.66S800
G1 X-1.33S0
G1 X-5.74S800
G1 X-1.26S0
G1 X-1.12S800
G0 X-3.125
G0 X0.14Y0.07
G0 X3.125
G1 X0.07
G1 X0.07S0
G1 X0.98S800
G1 X0.07S0
G1 X0.07S800
G1 X1.19S0
G1 X5.74S800
G1 X1.26S0
G1 X2.73S800
G1 X1.26S0
G1 X0.07S800
G1 X0.07S0
G1 X2.1S800
G1 X1.26S0
G1 X0.07S800
G1 X0.07S0
G1 X5.32S800
G1 X1.05S0
G1 X2.24S800
G1 X0.07S0
G1 X0.07S800
G1 X1.26S0
G1 X54.46S800
G1 X0.07S0
G1 X0.07S800
G1 X1.05S0
G1 X1.68S800
G1 X1.19S0
G1 X3.64S800
G1 X1.19S0
G1 X3.5S800
G1 X0.07S0
G1 X0.07S800
G1 X1.12S0
G1 X4.06S800
G1 X1.12S0
G1 X0.07S800
G1 X0.07S0
G1 X21.98S800
G1 X2.73S0
G1 X9.52S800
G1 X1.26S0
G1 X3.29S800
G1 X0.07S0
G1 X0.07S800
G1 X1.26S0
G1 X18.76S800
G1 X0.07S0
G1 X0.07S800
G1 X1.19S0
G1 X1.47S800
G1 X0.07S0
G1 X0.07S800
G1 X1.33S0
G1 X0.07S800
G1 X0.07S0
G1 X30.87S800
G1 X1.12S0
G1 X1.26S800
G1 X2.17S0
G1 X0.14S800
G1 X0.07S0
G1 X2.73S800
G1 X0.07S0
G1 X0.07S800
G1 X1.82S0
G1 X10.15S800
G1 X1.47S0
G1 X0.07S800
G1 X0.07S0
G1 X1.54S800
G1 X1.61S0
G1 X0.07S800
G1 X0.07S0
G1 X2.73S800
G1 X0.07S0
G1 X0.07S800
G1 X1.68S0
G1 X3.01S800
G1 X0.07S0
G1 X0.07S800
G1 X1.54S0
G1 X8.12S800
G1 X1.54S0
G1 X57.96S800
G0 X3.125
G0 Y0.07
G0 X-3.125
G1 X-57.61
G1 X-1.61S0
G1 X-8.05S800
G1 X-1.68S0
G1 X-2.94S800
G1 X-1.82S0
G1 X-2.94S800
G1 X-1.61S0
G1 X-1.68S800
G1 X-1.47S0
G1 X-10.08S800
G1 X-1.96S0
G1 X-2.87S800
G1 X-1.96S0
G1 X-0.07S800
G1 X-0.56S0
G1 X-1.12S800
G1 X-1.12S0
G1 X-30.87S800
G1 X-1.54S0
G1 X-1.47S800
G1 X-1.33S0
G1 X-18.76S800
G1 X-1.4S0
G1 X-3.29S800
G1 X-1.26S0
G1 X-9.52S800
G1 X-2.73S0
G1 X-22.12S800
G1 X-1.19S0
G1 X-3.99S800
G1 X-1.26S0
G1 X-3.5S800
G1 X-1.19S0
G1 X-3.64S800
G1 X-1.26S0
G1 X-1.61S800
G1 X-1.19S0
G1 X-54.46S800
G1 X-1.4S0
G1 X-2.24S800
G1 X-1.19S0
G1 X-5.32S800
G1 X-1.33S0
G1 X-2.17S800
G1 X-1.26S0
G1 X-2.73S800
G1 X-1.33S0
G1 X-5.67S800
G1 X-1.33S0
G1 X-1.12S800
G0 X-3.125
G0 X-1.12Y0.07
G0 X3.125
G1 X0.14
G1 X1.26S0
G1 X1.12S800
G1 X1.33S0
G1 X5.67S800
G1 X1.4S0
G1 X2.66S800
G1 X1.33S0
G1 X2.1S800
G1 X1.4S0
G1 X4.55S800
G1 X1.89S0
G1 X2.24S800
G1 X1.4S0
G1 X54.46S800
G1 X1.19S0
G1 X1.61S800
G1 X1.26S0
G1 X3.57S800
G1 X1.26S0
G1 X3.5S800
G1 X1.26S0
G1 X3.99S800
G1 X1.19S0
G1 X22.19S800
G1 X2.73S0
G1 X9.45S800
G1 X1.26S0
G1 X3.36S800
G1 X1.33S0
G1 X18.76S800
G1 X1.33S0
G1 X1.54S800
G1 X1.54S0
G1 X30.8S800
G1 X1.05S0
G1 X0.98S800
G1 X0.63S0
G1 X0.35S800
G1 X1.89S0
G1 X2.94S800
G1 X1.96S0
G1 X10.01S800
G1 X1.4S0
G1 X1.75S800
G1 X1.68S0
G1 X2.94S800
G1 X1.82S0
G1 X2.87S800
G1 X1.68S0
G1 X7.98S800
G1 X1.68S0
G1 X57.26S800
G0 X3.125
G0 Y0.07
G0 X-3.125
G1 X-57.05
G1 X-1.61S0
G1 X-7.98S800
G1 X-1.61S0
G1 X-0.07S800
G1 X-0.07S0
G1 X-2.66S800
G1 X-0.07S0
G1 X-0.14S800
G1 X-1.82S0
G1 X-2.94S800
G1 X-1.54S0
G1 X-0.07S800
G1 X-0.07S0
G1 X-1.75S800
G1 X-1.26S0
G1 X-0.07S800
G1 X-0.07S0
G1 X-9.73S800
G1 X-0.07S0
G1 X-0.14S800
G1 X-1.96S0
G1 X-2.94S800
G1 X-1.89S0
G1 X-0.56S800
G1 X-0.63S0
G1 X-0.84S800
G1 X-1.12S0
G1 X-30.73S800
G1 X-1.54S0
G1 X-1.61S800
G1 X-1.33S0
G1 X-18.69S800
G1 X-1.4S0
G1 X-3.29S800
G1 X-1.33S0
G1 X-9.45S800
G1 X-2.52S0
G1 X-0.07S800
G1 X-0.07S0
G1 X-22.26S800
G1 X-1.19S0
G1 X-3.99S800
G1 X-1.26S0
G1 X-3.43S800
G1 X-1.26S0
G1 X-3.57S800
G1 X-1.19S0
G1 X-0.07S800
G1 X-0.07S0
G1 X-1.61S800
G1 X-1.19S0
G1 X-54.39S800
G1 X-1.4S0
G1 X-2.31S800
G1 X-2.31S0
G1 X-4.13S800
G1 X-1.33S0
G1 X-2.17S800
G1 X-1.19S0
G1 X-0.07S800
G1 X-0.07S0
G1 X-2.66S800
G1 X-1.33S0
G1 X-5.74S800
G1 X-1.26S0
G1 X-1.19S800
G1 X-1.19S0
G1 X-0.35S800
G0 X-3.125
G0 Y0.07
G0 X3.125
G1 X0.63
G1 X1.19S0
G1 X1.19S800
G1 X1.26S0
G1 X5.74S800
G1 X1.33S0
G1 X2.66S800
G1 X1.4S0
G1 X2.1S800
G1 X1.4S0
G1 X3.5S800
G1 X2.94S0
G1 X2.31S800
G1 X1.33S0
G1 X54.39S800
G1 X1.19S0
G1 X1.68S800
G1 X1.26S0
G1 X3.57S800
G1 X1.26S0
G1 X3.43S800
G1 X1.26S0
G1 X3.99S800
G1 X1.19S0
G1 X22.26S800
G1 X2.73S0
G1 X9.38S800
G1 X1.33S0
G1 X3.29S800
G1 X1.4S0
G1 X18.69S800
G1 X1.4S0
G1 X1.61S800
G1 X1.47S0
G1 X30.66S800
G1 X1.12S0
G1 X0.7S800
G1 X0.63S0
G1 X0.91S800
G1 X1.89S0
G1 X2.94S800
G1 X1.96S0
G1 X9.8S800
G1 X1.47S0
G1 X1.75S800
G1 X1.68S0
G1 X3.01S800
G1 X1.82S0
G1 X2.87S800
G1 X1.68S0
G1 X7.98S800
G1 X1.61S0
G1 X56.7S800
G0 X3.125
G0 Y0.07
G0 X-3.125
G1 X-56.28
G1 X-1.68S0
G1 X-7.98S800
G1 X-1.68S0
G1 X-2.8S800
G1 X-1.82S0
G1 X-3.08S800
G1 X-1.61S0
G1 X-1.82S800
G1 X-1.47S0
G1 X-9.73S800
G1 X-1.96S0
G1 X-2.87S800
G1 X-1.96S0
G1 X-1.19S800
G1 X-0.63S0
G1 X-0.63S800
G1 X-1.12S0
G1 X-30.52S800
G1 X-1.54S0
G1 X-1.61S800
G1 X-1.33S0
G1 X-18.76S800
G1 X-1.4S0
G1 X-3.29S800
G1 X-1.33S0
G1 X-9.38S800
G1 X-2.66S0
G1 X-22.33S800
G1 X-1.19S0
G1 X-4.06S800
G1 X-1.19S0
G1 X-3.43S800
G1 X-1.33S0
G1 X-3.5S800
G1 X-1.26S0
G1 X-1.68S800
G1 X-1.26S0
G1 X-54.25S800
G1 X-1.4S0
G1 X-2.31S800
G1 X-3.5S0
G1 X-2.94S800
G1 X-1.4S0
G1 X-2.1S800
G1 X-1.4S0
G1 X-2.66S800
G1 X-1.33S0
G1 X-5.74S800
G1 X-1.26S0
G1 X-1.19S800
G1 X-1.26S0
G1 X-0.84S800
G0 X-3.125
G0 Y0.07
G0 X3.125
G1 X1.05
G1 X1.19S0
G1 X1.19S800
G1 X1.26S0
G1 X5.74S800
G1 X1.4S0
G1 X2.66S800
G1 X1.4S0
G1 X2.03S800
G1 X0.07S0
G1 X0.07S800
G1 X1.26S0
G1 X2.59S800
G1 X1.54S0
G1 X0.07S800
G1 X0.28S0
G1 X0.07S800
G1 X0.21S0
G1 X0.07S800
G1 X1.68S0
G1 X2.31S800
G1 X1.33S0
G1 X54.32S800
G1 X1.19S0
G1 X1.68S800
G1 X1.26S0
G1 X3.57S800
G1 X1.26S0
G1 X3.43S800
G1 X1.26S0
G1 X3.99S800
G1 X1.19S0
G1 X22.4S800
G1 X2.59S0
G1 X9.45S800
G1 X1.33S0
G1 X3.29S800
G1 X1.4S0
G1 X18.69S800
G1 X1.33S0
G1 X1.75S800
G1 X1.47S0
G1 X30.45S800
G1 X1.19S0
G1 X0.49S800
G1 X0.7S0
G1 X1.26S800
G1 X0.14S0
G1 X0.07S800
G1 X1.75S0
G1 X2.94S800
G1 X1.96S0
G1 X9.66S800
G1 X1.47S0
G1 X1.82S800
G1 X1.61S0
G1 X3.08S800
G1 X1.89S0
G1 X2.73S800
G1 X1.75S0
G1 X7.91S800
G1 X1.68S0
G1 X56.07S800
G0 X3.125
G0 Y0.07
G0 X-3.125
G1 X-55.72
G1 X-1.68S0
G1 X-7.84S800
G1 X-1.75S0
G1 X-2.73S800
G1 X-1.89S0
G1 X-3.08S800
G1 X-1.68S0
G1 X-1.89S800
G1 X-1.47S0
G1 X-9.52S800
G1 X-1.96S0
G1 X-2.94S800
G1 X-1.89S0
G1 X-1.68S800
G1 X-0.63S0
G1 X-0.42S800
G1 X-1.12S0
G1 X-30.45S800
G1 X-1.47S0
G1 X-1.75S800
G1 X-1.33S0
G1 X-18.69S800
G1 X-1.4S0
G1 X-3.29S800
G1 X-1.33S0
G1 X-9.45S800
G1 X-2.52S0
G1 X-22.54S800
G1 X-1.19S0
G1 X-3.99S800
G1 X-1.19S0
G1 X-3.43S800
G1 X-1.26S0
G1 X-3.5S800
G1 X-1.33S0
G1 X-1.68S800
G1 X-1.19S0
G1 X-54.25S800
G1 X-1.4S0
G1 X-2.24S800
G1 X-1.54S0
G1 X-1.54S800
G1 X-1.26S0
G1 X-2.24S800
G1 X-1.33S0
G1 X-2.1S800
G1 X-1.4S0
G1 X-2.66S800
G1 X-1.4S0
G1 X-5.74S800
G1 X-1.26S0
G1 X-1.19S800
G1 X-1.19S0
G1 X-1.33S800
G0 X-3.125
G0 Y0.07
G0 X3.125
G1 X1.54
G1 X1.26S0
G1 X1.19S800
G1 X1.26S0
G1 X5.74S800
G1 X1.4S0
G1 X2.66S800
G1 X1.4S0
G1 X2.1S800
G1 X1.33S0
G1 X2.03S800
G1 X1.19S0
G1 X1.82S800
G1 X1.54S0
G1 X2.24S800
G1 X1.4S0
G1 X54.25S800
G1 X1.19S0
G1 X1.68S800
G1 X1.26S0
G1 X3.57S800
G1 X1.26S0
G1 X3.36S800
G1 X1.26S0
G1 X3.99S800
G1 X1.19S0
G1 X22.54S800
G1 X2.52S0
G1 X9.45S800
G1 X1.33S0
G1 X3.36S800
G1 X1.33S0
G1 X18.69S800
G1 X1.33S0
G1 X1.82S800
G1 X1.54S0
G1 X30.24S800
G1 X1.12S0
G1 X0.28S800
G1 X0.7S0
G1 X1.96S800
G1 X1.89S0
G1 X3.01S800
G1 X1.96S0
G1 X9.38S800
G1 X1.54S0
G1 X1.82S800
G1 X1.68S0
G1 X3.15S800
G1 X1.82S0
G1 X2.73S800
G1 X1.75S0
G1 X7.84S800
G1 X1.75S0
G1 X55.3S800
G0 X3.125
G0 Y0.07
G0 X-3.125
G1 X-55.16
G1 X-1.61S0
G1 X-7.91S800
G1 X-1.75S0
G1 X-2.66S800
G1 X-1.89S0
G1 X-3.15S800
G1 X-1.68S0
G1 X-1.89S800
G1 X-1.47S0
G1 X-9.38S800
G1 X-1.96S0
G1 X-2.94S800
G1 X-1.96S0
G1 X-2.1S800
G1 X-0.63S0
G1 X-0.21S800
G1 X-1.19S0
G1 X-30.24S800
G1 X-1.47S0
G1 X-1.82S800
G1 X-1.33S0
G1 X-18.69S800
G1 X-1.4S0
G1 X-3.36S800
G1 X-1.33S0
G1 X-9.38S800
G1 X-2.52S0
G1 X-22.61S800
G1 X-1.12S0
G1 X-3.99S800
G1 X-1.26S0
G1 X-3.36S800
G1 X-1.33S0
G1 X-3.5S800
G1 X-1.26S0
G1 X-1.75S800
G1 X-1.19S0
G1 X-54.18S800
G1 X-1.4S0
G1 X-2.24S800
G1 X-1.54S0
G1 X-1.82S800
G1 X-1.4S0
G1 X-1.82S800
G1 X-1.4S0
G1 X-2.03S800
G1 X-1.4S0
G1 X-2.73S800
G1 X-1.33S0
G1 X-5.81S800
G1 X-1.26S0
G1 X-1.12S800
G1 X-1.26S0
G1 X-1.75S800
G0 X-3.125
G0 Y0.07
G0 X3.125
G1 X2.03
G1 X1.19S0
G1 X1.19S800
G1 X1.26S0
G1 X5.81S800
G1 X1.33S0
G1 X2.73S800
G1 X1.4S0
G1 X2.1S800
G1 X1.33S0
G1 X1.82S800
G1 X1.33S0
G1 X1.89S800
G1 X1.54S0
G1 X2.31S800
G1 X1.4S0
G1 X54.11S800
G1 X1.19S0
G1 X1.75S800
G1 X1.26S0
G1 X3.57S800
G1 X1.26S0
G1 X3.36S800
G1 X1.26S0
G1 X3.92S800
G1 X1.19S0
G1 X22.68S800
G1 X2.45S0
G1 X9.45S800
G1 X1.33S0
G1 X3.36S800
G1 X1.33S0
G1 X18.69S800
G1 X1.33S0
G1 X1.82S800
G1 X1.54S0
G1 X30.17S800
G1 X1.12S0
G1 X0.07S800
G1 X0.7S0
G1 X2.45S800
G1 X1.89S0
G1 X3.01S800
G1 X1.89S0
G1 X9.31S800
G1 X1.47S0
G1 X1.89S800
G1 X1.68S0
G1 X3.22S800
G1 X1.89S0
G1 X2.66S800
G1 X1.75S0
G1 X7.84S800
G1 X1.68S0
G1 X54.74S800
G0 X3.125
G0 Y0.07
G0 X-3.125
G1 X-54.39
G1 X-1.68S0
G1 X-7.84S800
G1 X-1.75S0
G1 X-2.66S800
G1 X-1.82S0
G1 X-3.29S800
G1 X-1.61S0
G1 X-1.96S800
G1 X-1.47S0
G1 X-9.17S800
G1 X-0.07S0
G1 X-0.07S800
G1 X-1.89S0
G1 X-2.94S800
G1 X-1.96S0
G1 X-2.66S800
G1 X-1.82S0
G1 X-30.03S800
G1 X-1.54S0
G1 X-1.89S800
G1 X-1.33S0
G1 X-18.69S800
G1 X-1.33S0
G1 X-3.36S800
G1 X-1.33S0
G1 X-9.45S800
G1 X-2.45S0
G1 X-22.68S800
G1 X-1.19S0
G1 X-3.92S800
G1 X-1.26S0
G1 X-3.43S800
G1 X-1.19S0
G1 X-3.57S800
G1 X-1.26S0
G1 X-1.68S800
G1 X-1.26S0
G1 X-54.18S800
G1 X-1.33S0
G1 X-2.24S800
G1 X-1.68S0
G1 X-1.96S800
G1 X-1.12S0
G1 X-1.82S800
G1 X-1.4S0
G1 X-2.17S800
G1 X-1.33S0
G1 X-2.73S800
G1 X-1.33S0
G1 X-5.81S800
G1 X-1.26S0
G1 X-1.19S800
G1 X-1.19S0
G1 X-2.31S800
G0 X-3.125
G0 Y0.07
G0 X3.125
G1 X2.45
G1 X1.19S0
G1 X1.19S800
G1 X1.33S0
G1 X5.74S800
G1 X1.4S0
G1 X2.73S800
G1 X1.33S0
G1 X2.17S800
G1 X1.33S0
G1 X1.89S800
G1 X1.12S0
G1 X1.89S800
G1 X1.68S0
G1 X2.24S800
G1 X1.4S0
G1 X54.11S800
G1 X1.26S0
G1 X1.68S800
G1 X1.26S0
G1 X3.57S800
G1 X1.26S0
G1 X3.36S800
G1 X1.26S0
G1 X3.92S800
G1 X1.19S0
G1 X22.75S800
G1 X2.45S0
G1 X9.38S800
G1 X1.33S0
G1 X3.36S800
G1 X1.4S0
G1 X18.62S800
G1 X1.33S0
G1 X1.96S800
G1 X1.47S0
G1 X30.03S800
G1 X1.82S0
G1 X2.8S800
G1 X1.89S0
G1 X3.01S800
G1 X1.96S0
G1 X9.1S800
G1 X1.54S0
G1 X1.96S800
G1 X1.68S0
G1 X3.29S800
G1 X1.82S0
G1 X2.59S800
G1 X1.82S0
G1 X7.77S800
G1 X1.75S0
G1 X54.11S800
G0 X3.125
G0 Y0.07
G0 X-3.125
G1 X-53.69
G1 X-1.82S0
G1 X-7.7S800
G1 X-1.82S0
G1 X-2.52S800
G1 X-1.89S0
G1 X-3.36S800
G1 X-1.68S0
G1 X-1.96S800
G1 X-1.47S0
G1 X-9.03S800
G1 X-1.96S0
G1 X-3.01S800
G1 X-1.96S0
G1 X-3.08S800
G1 X-1.68S0
G1 X-29.96S800
G1 X-1.47S0
G1 X-1.96S800
G1 X-1.4S0
G1 X-18.62S800
G1 X-1.33S0
G1 X-3.43S800
G1 X-1.33S0
G1 X-9.38S800
G1 X-2.38S0
G1 X-22.82S800
G1 X-1.19S0
G1 X-3.92S800
G1 X-1.26S0
G1 X-3.36S800
G1 X-1.26S0
G1 X-3.57S800
G1 X-1.26S0
G1 X-1.68S800
G1 X-1.26S0
G1 X-54.04S800
G1 X-1.4S0
G1 X-2.24S800
G1 X-1.75S0
G1 X-1.96S800
G1 X-1.05S0
G1 X-1.82S800
G1 X-1.4S0
G1 X-2.1S800
G1 X-1.4S0
G1 X-2.73S800
G1 X-1.33S0
G1 X-5.81S800
G1 X-1.33S0
G1 X-1.12S800
G1 X-1.26S0
G1 X-2.73S800
G0 X-3.125
G0 Y0.07
G0 X3.125
G1 X3.01
G1 X1.12S0
G1 X0.07S800
G1 X0.07S0
G1 X1.12S800
G1 X1.26S0
G1 X5.88S800
G1 X1.33S0
G1 X2.73S800
G1 X1.33S0
G1 X2.1S800
G1 X1.47S0
G1 X1.75S800
G1 X0.91S0
G1 X2.17S800
G1 X1.82S0
G1 X2.17S800
G1 X1.4S0
G1 X53.97S800
G1 X1.33S0
G1 X1.68S800
G1 X1.26S0
G1 X3.57S800
G1 X1.26S0
G1 X3.29S800
G1 X1.26S0
G1 X3.99S800
G1 X1.12S0
G1 X22.89S800
G1 X2.38S0
G1 X9.38S800
G1 X1.33S0
G1 X3.43S800
G1 X1.33S0
G1 X18.62S800
G1 X1.33S0
G1 X2.1S800
G1 X1.4S0
G1 X29.89S800
G1 X1.61S0
G1 X3.29S800
G1 X1.89S0
G1 X0.07S800
G1 X0.07S0
G1 X3.01S800
G1 X1.82S0
G1 X0.07S800
G1 X0.07S0
G1 X8.89S800
G1 X1.54S0
G1 X2.03S800
G1 X1.54S0
G1 X0.07S800
G1 X0.07S0
G1 X3.29S800
G1 X1.82S0
G1 X0.07S800
G1 X0.07S0
G1 X2.45S800
G1 X1.75S0
G1 X0.07S800
G1 X0.07S0
G1 X7.7S800
G1 X1.61S0
G1 X0.07S800
G1 X0.07S0
G1 X53.34S800
G0 X3.125
G0 Y0.07
G0 X-3.125
G1 X-53.13
G1 X-1.75S0
G1 X-7.7S800
G1 X-1.82S0
G1 X-2.45S800
G1 X-1.96S0
G1 X-3.36S800
G1 X-1.68S0
G1 X-1.96S800
G1 X-1.61S0
G1 X-8.82S800
G1 X-1.96S0
G1 X-3.01S800
G1 X-1.96S0
G1 X-3.5S800
G1 X-1.61S0
G1 X-29.75S800
G1 X-1.54S0
G1 X-2.03S800
G1 X-1.33S0
G1 X-18.62S800
G1 X-1.4S0
G1 X-3.36S800
G1 X-1.33S0
G1 X-9.38S800
G1 X-2.38S0
G1 X-22.89S800
G1 X-1.19S0
G1 X-3.92S800
G1 X-1.26S0
G1 X-3.36S800
G1 X-1.26S0
G1 X-3.5S800
G1 X-1.33S0
G1 X-1.68S800
G1 X-1.26S0
G1 X-53.97S800
G1 X-1.4S0
G1 X-2.24S800
G1 X-1.75S0
G1 X-2.17S800
G1 X-0.98S0
G1 X-1.68S800
G1 X-1.4S0
G1 X-2.17S800
G1 X-1.33S0
G1 X-2.73S800
G1 X-1.4S0
G1 X-5.81S800
G1 X-1.26S0
G1 X-1.19S800
G1 X-1.26S0
G1 X-3.15S800
G0 X-3.125
G0 Y0.07
G0 X3.125
G1 X3.43
G1 X1.26S0
G1 X1.19S800
G1 X1.26S0
G1 X5.81S800
G1 X1.4S0
G1 X2.73S800
G1 X1.4S0
G1 X2.1S800
G1 X1.4S0
G1 X1.61S800
G1 X0.91S0
G1 X2.24S800
G1 X1.89S0
G1 X2.24S800
G1 X1.4S0
G1 X53.9S800
G1 X1.26S0
G1 X1.68S800
G1 X1.33S0
G1 X3.5S800
G1 X1.26S0
G1 X3.36S800
G1 X1.26S0
G1 X3.92S800
G1 X1.12S0
G1 X23.03S800
G1 X2.31S0
G1 X9.38S800
G1 X1.33S0
G1 X3.43S800
G1 X1.33S0
G1 X18.62S800
G1 X1.4S0
G1 X2.03S800
G1 X1.54S0
G1 X29.75S800
G1 X1.4S0
G1 X3.78S800
G1 X1.96S0
G1 X3.01S800
G1 X1.96S0
G1 X8.75S800
G1 X1.61S0
G1 X1.96S800
G1 X1.68S0
G1 X3.43S800
G1 X1.96S0
G1 X2.45S800
G1 X1.82S0
G1 X7.7S800
G1 X1.75S0
G1 X52.71S800
G0 X3.125
G0 Y0.07
G0 X-3.125
G1 X-52.29
G1 X-0.07S0
G1 X-0.07S800
G1 X-1.75S0
G1 X-7.56S800
G1 X-0.07S0
G1 X-0.07S800
G1 X-1.75S0
G1 X-2.31S800
G1 X-0.14S0
G1 X-0.07S800
G1 X-1.82S0
G1 X-0.07S800
G1 X-0.07S0
G1 X-3.29S800
G1 X-0.07S0
G1 X-0.07S800
G1 X-1.61S0
G1 X-1.89S800
G1 X-0.07S0
G1 X-0.07S800
G1 X-1.47S0
G1 X-0.07S800
G1 X-0.07S0
G1 X-8.61S800
G1 X-0.07S0
G1 X-0.07S800
G1 X-1.89S0
G1 X-3.01S800
G1 X-1.96S0
G1 X-3.99S800
G1 X-1.33S0
G1 X-29.75S800
G1 X-1.47S0
G1 X-2.1S800
G1 X-1.33S0
G1 X-18.55S800
G1 X-0.07S0
G1 X-0.07S800
G1 X-1.33S0
G1 X-3.29S800
G1 X-0.07S0
G1 X-0.07S800
G1 X-1.26S0
G1 X-9.31S800
G1 X-0.07S0
G1 X-0.07S800
G1 X-2.31S0
G1 X-23.03S800
G1 X-1.12S0
G1 X-3.92S800
G1 X-1.19S0
G1 X-3.36S800
G1 X-1.26S0
G1 X-3.57S800
G1 X-1.26S0
G1 X-1.68S800
G1 X-1.26S0
G1 X-53.9S800
G1 X-0.07S0
G1 X-0.07S800
G1 X-1.33S0
G1 X-2.24S800
G1 X-1.89S0
G1 X-2.31S800
G1 X-0.84S0
G1 X-1.54S800
G1 X-1.4S0
G1 X-2.17S800
G1 X-1.33S0
G1 X-2.8S800
G1 X-1.33S0
G1 X-5.74S800
G1 X-0.07S0
G1 X-0.07S800
G1 X-1.26S0
G1 X-1.26S800
G1 X-1.19S0
G1 X-3.64S800
G0 X-3.125
G0 Y0.07
G0 X3.125
G1 X3.85
G1 X1.26S0
G1 X1.19S800
G1 X1.33S0
G1 X5.81S800
G1 X1.4S0
G1 X2.73S800
G1 X1.4S0
G1 X2.1S800
G1 X1.4S0
G1 X1.47S800
G1 X0.84S0
G1 X2.38S800
G1 X1.96S0
G1 X2.17S800
G1 X1.47S0
G1 X53.9S800
G1 X1.19S0
G1 X1.75S800
G1 X1.26S0
G1 X3.5S800
G1 X1.33S0
G1 X3.29S800
G1 X1.26S0
G1 X3.92S800
G1 X1.12S0
G1 X23.17S800
G1 X2.24S0
G1 X9.31S800
G1 X1.4S0
G1 X3.36S800
G1 X1.4S0
G1 X18.62S800
G1 X1.4S0
G1 X2.03S800
G1 X1.54S0
G1 X29.61S800
G1 X1.33S0
G1 X4.2S800
G1 X1.96S0
G1 X3.01S800
G1 X1.96S0
G1 X8.61S800
G1 X1.61S0
G1 X2.03S800
G1 X1.68S0
G1 X3.5S800
G1 X1.96S0
G1 X2.31S800
G1 X1.89S0
G1 X7.63S800
G1 X1.82S0
G1 X52.08S800
G0 X3.125
G0 Y0.07
G0 X-3.125
G1 X-51.73
G1 X-1.75S0
G1 X-7.63S800
G1 X-1.89S0
G1 X-2.24S800
G1 X-2.03S0
G1 X-3.57S800
G1 X-1.68S0
G1 X-1.96S800
G1 X-1.61S0
G1 X-8.61S800
G1 X-1.96S0
G1 X-3.01S800
G1 X-1.96S0
G1 X-4.41S800
G1 X-1.26S0
G1 X-29.54S800
G1 X-1.47S0
G1 X-2.17S800
G1 X-1.33S0
G1 X-18.69S800
G1 X-1.33S0
G1 X-3.43S800
G1 X-1.33S0
G1 X-9.38S800
G1 X-2.24S0
G1 X-23.17S800
G1 X-1.12S0
G1 X-3.92S800
G1 X-1.26S0
G1 X-3.29S800
G1 X-1.33S0
G1 X-3.5S800
G1 X-1.26S0
G1 X-1.75S800
G1 X-1.19S0
G1 X-53.83S800
G1 X-1.47S0
G1 X-2.17S800
G1 X-2.03S0
G1 X-2.52S800
G1 X-0.77S0
G1 X-1.33S800
G1 X-1.47S0
G1 X-2.1S800
G1 X-1.4S0
G1 X-2.73S800
G1 X-1.4S0
G1 X-5.81S800
G1 X-1.33S0
G1 X-1.19S800
G1 X-1.26S0
G1 X-4.13S800
G0 X-3.125
G0 Y0.07
G0 X3.125
G1 X4.41
G1 X1.19S0
G1 X1.19S800
G1 X1.26S0
G1 X0.07S800
G1 X0.07S0
G1 X5.81S800
G1 X1.26S0
G1 X0.07S800
G1 X0.07S0
G1 X2.66S800
G1 X0.07S0
G1 X0.07S800
G1 X1.26S0
G1 X2.24S800
G1 X1.26S0
G1 X0.07S800
G1 X0.07S0
G1 X1.19S800
G1 X0.7S0
G1 X2.66S800
G1 X1.96S0
G1 X0.07S800
G1 X0.07S0
G1 X2.17S800
G1 X1.33S0
G1 X0.07S800
G1 X0.07S0
G1 X53.76S800
G1 X1.19S0
G1 X1.75S800
G1 X1.26S0
G1 X3.57S800
G1 X1.26S0
G1 X3.29S800
G1 X1.26S0
G1 X0.07S800
G1 X0.07S0
G1 X3.71S800
G1 X1.19S0
G1 X23.24S800
G1 X0.07S0
G1 X0.07S800
G1 X2.1S0
G1 X9.24S800
G1 X0.07S0
G1 X0.07S800
G1 X1.26S0
G1 X3.43S800
G1 X1.33S0
G1 X18.62S800
G1 X1.4S0
G1 X0.07S800
G1 X0.07S0
G1 X1.96S800
G1 X0.07S0
G1 X0.07S800
G1 X1.4S0
G1 X0.07S800
G1 X0.07S0
G1 X29.33S800
G1 X0.07S0
G1 X0.07S800
G1 X1.12S0
G1 X4.62S800
G1 X1.89S0
G1 X0.07S800
G1 X0.07S0
G1 X2.94S800
G1 X0.07S0
G1 X0.07S800
G1 X1.68S0
G1 X0.07S800
G1 X0.07S0
G1 X8.4S800
G1 X0.07S0
G1 X0.07S800
G1 X1.54S0
G1 X0.07S800
G1 X0.07S0
G1 X1.89S800
G1 X0.07S0
G1 X0.07S800
G1 X1.54S0
G1 X3.64S800
G1 X0.07S0
G1 X0.07S800
G1 X1.75S0
G1 X2.38S800
G1 X1.75S0
G1 X0.07S800
G1 X0.07S0
G1 X7.56S800
G1 X0.07S0
G1 X0.07S800
G1 X1.61S0
G1 X0.07S800
G1 X0.07S0
G1 X51.31S800
G0 X3.125
G0 Y0.07
G0 X-3.125
G1 X-51.1
G1 X-1.75S0
G1 X-7.63S800
G1 X-1.89S0
G1 X-2.38S800
G1 X-1.82S0
G1 X-3.64S800
G1 X-1.68S0
G1 X-2.03S800
G1 X-1.61S0
G1 X-8.47S800
G1 X-1.96S0
G1 X-3.01S800
G1 X-1.96S0
G1 X-4.83S800
G1 X-1.12S0
G1 X-29.4S800
G1 X-1.54S0
G1 X-2.17S800
G1 X-1.4S0
G1 X-18.62S800
G1 X-1.33S0
G1 X-3.43S800
G1 X-1.4S0
G1 X-9.31S800
G1 X-2.17S0
G1 X-23.24S800
G1 X-1.26S0
G1 X-3.78S800
G1 X-1.26S0
G1 X-3.29S800
G1 X-1.33S0
G1 X-3.5S800
G1 X-1.33S0
G1 X-1.75S800
G1 X-1.19S0
G1 X-53.76S800
G1 X-1.4S0
G1 X-2.31S800
G1 X-2.03S0
G1 X-2.73S800
G1 X-0.7S0
G1 X-1.19S800
G1 X-1.33S0
G1 X-2.17S800
G1 X-1.4S0
G1 X-2.8S800
G1 X-1.33S0
G1 X-5.88S800
G1 X-1.33S0
G1 X-1.19S800
G1 X-1.26S0
G1 X-4.55S800
G0 X-3.125
G0 Y0.07
G0 X3.125
G1 X4.83
G1 X1.26S0
G1 X1.19S800
G1 X1.4S0
G1 X5.81S800
G1 X1.4S0
G1 X2.73S800
G1 X1.4S0
G1 X2.17S800
G1 X1.4S0
G1 X0.98S800
G1 X0.7S0
G1 X2.87S800
G1 X2.1S0
G1 X2.24S800
G1 X1.47S0
G1 X53.69S800
G1 X1.26S0
G1 X1.68S800
G1 X1.33S0
G1 X3.5S800
G1 X1.33S0
G1 X3.29S800
G1 X1.26S0
G1 X3.78S800
G1 X1.19S0
G1 X23.45S800
G1 X2.1S0
G1 X9.24S800
G1 X1.4S0
G1 X3.43S800
G1 X1.33S0
G1 X18.62S800
G1 X1.4S0
G1 X2.24S800
G1 X1.54S0
G1 X29.26S800
G1 X1.05S0
G1 X5.11S800
G1 X1.96S0
G1 X3.01S800
G1 X1.96S0
G1 X8.4S800
G1 X1.68S0
G1 X2.03S800
G1 X1.61S0
G1 X3.71S800
G1 X1.68S0
G1 X2.52S800
G1 X1.89S0
G1 X7.56S800
G1 X1.82S0
G1 X50.68S800
G0 X3.125
G0 Y0.07
G0 X-3.125
G1 X-50.4
G1 X-1.68S0
G1 X-0.07S800
G1 X-0.07S0
G1 X-7.49S800
G1 X-0.07S0
G1 X-0.07S800
G1 X-1.68S0
G1 X-0.07S800
G1 X-0.07S0
G1 X-2.66S800
G1 X-1.47S0
G1 X-3.78S800
G1 X-1.54S0
G1 X-0.07S800
G1 X-0.07S0
G1 X-1.89S800
G1 X-0.07S0
G1 X-0.07S800
G1 X-1.68S0
G1 X-8.26S800
G1 X-0.07S0
G1 X-0.07S800
G1 X-1.75S0
G1 X-0.07S800
G1 X-0.07S0
G1 X-2.87S800
G1 X-0.07S0
G1 X-0.07S800
G1 X-1.82S0
G1 X-0.07S800
G1 X-0.07S0
G1 X-5.39S800
G1 X-0.84S0
G1 X-29.19S800
G1 X-0.07S0
G1 X-0.07S800
G1 X-1.54S0
G1 X-2.17S800
G1 X-1.4S0
G1 X-18.48S800
G1 X-0.07S0
G1 X-0.07S800
G1 X-1.33S0
G1 X-3.29S800
G1 X-0.07S0
G1 X-0.07S800
G1 X-1.33S0
G1 X-9.31S800
G1 X-1.96S0
G1 X-0.07S800
G1 X-0.07S0
G1 X-23.38S800
G1 X-0.07S0
G1 X-0.07S800
G1 X-1.19S0
G1 X-3.78S800
G1 X-1.26S0
G1 X-3.29S800
G1 X-1.26S0
G1 X-3.5S800
G1 X-1.26S0
G1 X-1.82S800
G1 X-1.26S0
G1 X-53.62S800
G1 X-1.33S0
G1 X-0.07S800
G1 X-0.07S0
G1 X-2.24S800
G1 X-2.1S0
G1 X-2.94S800
G1 X-0.7S0
G1 X-0.91S800
G1 X-1.33S0
G1 X-0.07S800
G1 X-0.07S0
G1 X-2.1S800
G1 X-1.4S0
G1 X-2.8S800
G1 X-1.33S0
G1 X-5.74S800
G1 X-0.07S0
G1 X-0.07S800
G1 X-1.26S0
G1 X-1.19S800
G1 X-0.07S0
G1 X-0.07S800
G1 X-1.12S0
G1 X-0.07S800
G1 X-0.07S0
G1 X-4.97S800
G0 X-3.125
G0 Y0.07
G0 X3.125
G1 X5.25
G1 X1.26S0
G1 X1.26S800
G1 X1.33S0
G1 X5.88S800
G1 X1.4S0
G1 X2.73S800
G1 X1.4S0
G1 X2.1S800
G1 X1.54S0
G1 X0.63S800
G1 X0.7S0
G1 X3.08S800
G1 X2.24S0
G1 X2.24S800
G1 X1.4S0
G1 X53.62S800
G1 X1.26S0
G1 X1.75S800
G1 X1.33S0
G1 X3.5S800
G1 X1.26S0
G1 X3.29S800
G1 X1.26S0
G1 X3.78S800
G1 X1.19S0
G1 X23.59S800
G1 X2.03S0
G1 X9.31S800
G1 X1.33S0
G1 X3.43S800
G1 X1.33S0
G1 X18.62S800
G1 X1.4S0
G1 X2.24S800
G1 X1.54S0
G1 X29.19S800
G1 X0.56S0
G1 X5.88S800
G1 X1.96S0
G1 X3.01S800
G1 X1.89S0
G1 X8.33S800
G1 X1.75S0
G1 X1.96S800
G1 X1.68S0
G1 X3.78S800
G1 X1.4S0
G1 X2.8S800
G1 X1.82S0
G1 X7.56S800
G1 X1.82S0
G1 X50.05S800
G0 X3.125
G0 Y0.07
G0 X-3.125
G1 X-49.63
G1 X-1.82S0
G1 X-7.49S800
G1 X-1.96S0
G1 X-2.87S800
G1 X-1.26S0
G1 X-3.85S800
G1 X-1.68S0
G1 X-1.96S800
G1 X-1.68S0
G1 X-8.26S800
G1 X-1.96S0
G1 X-2.94S800
G1 X-2.03S0
G1 X-6.3S800
G1 X-0.28S0
G1 X-29.12S800
G1 X-1.54S0
G1 X-2.31S800
G1 X-1.33S0
G1 X-18.62S800
G1 X-1.4S0
G1 X-3.36S800
G1 X-1.4S0
G1 X-9.31S800
G1 X-1.96S0
G1 X-23.66S800
G1 X-1.19S0
G1 X-3.78S800
G1 X-1.26S0
G1 X-3.22S800
G1 X-1.33S0
G1 X-3.5S800
G1 X-1.33S0
G1 X-1.75S800
G1 X-1.26S0
G1 X-53.62S800
G1 X-1.4S0
G1 X-2.24S800
G1 X-2.24S0
G1 X-3.22S800
G1 X-0.7S0
G1 X-0.49S800
G1 X-1.47S0
G1 X-2.17S800
G1 X-1.4S0
G1 X-2.73S800
G1 X-1.4S0
G1 X-5.88S800
G1 X-1.33S0
G1 X-1.19S800
G1 X-1.33S0
G1 X-5.53S800
G0 X-3.125
G0 Y0.07
G0 X3.125
G1 X5.74
G1 X1.26S0
G1 X1.26S800
G1 X1.33S0
G1 X5.88S800
G1 X1.4S0
G1 X2.73S800
G1 X1.33S0
G1 X0.07S800
G1 X0.07S0
G1 X2.1S800
G1 X1.47S0
G1 X0.35S800
G1 X0.7S0
G1 X3.29S800
G1 X2.31S0
G1 X2.17S800
G1 X0.07S0
G1 X0.07S800
G1 X1.33S0
G1 X53.55S800
G1 X1.26S0
G1 X1.75S800
G1 X1.33S0
G1 X3.5S800
G1 X1.33S0
G1 X0.07S800
G1 X0.07S0
G1 X3.08S800
G1 X1.26S0
G1 X3.78S800
G1 X0.07S0
G1 X0.07S800
G1 X1.12S0
G1 X23.66S800
G1 X1.96S0
G1 X9.31S800
G1 X1.33S0
G1 X0.07S800
G1 X0.07S0
G1 X3.22S800
G1 X1.4S0
G1 X18.62S800
G1 X0.07S0
G1 X0.07S800
G1 X1.26S0
G1 X2.31S800
G1 X0.07S0
G1 X0.07S800
G1 X1.33S0
G1 X29.12S800
G1 X0.07S0
G1 X6.65S800
G1 X0.07S0
G1 X0.07S800
G1 X1.82S0
G1 X0.14S800
G1 X0.07S0
G1 X2.73S800
G1 X0.07S0
G1 X0.07S800
G1 X1.82S0
G1 X0.14S800
G1 X0.07S0
G1 X8.05S800
G1 X0.07S0
G1 X0.07S800
G1 X1.54S0
G1 X0.07S800
G1 X0.07S0
G1 X1.82S800
G1 X0.14S0
G1 X0.07S800
G1 X1.47S0
G1 X0.14S800
G1 X0.07S0
G1 X3.64S800
G1 X1.19S0
G1 X0.07S800
G1 X0.07S0
G1 X2.87S800
G1 X1.89S0
G1 X7.49S800
G1 X0.07S0
G1 X0.07S800
G1 X1.75S0
G1 X49.35S800
G0 X3.125
G0 Y0.07
G0 X-3.125
G1 X-48.93
G1 X-1.89S0
G1 X-7.49S800
G1 X-1.89S0
G1 X-3.15S800
G1 X-1.26S0
G1 X-3.64S800
G1 X-1.68S0
G1 X-1.96S800
G1 X-1.75S0
G1 X-8.19S800
G1 X-1.89S0
G1 X-2.94S800
G1 X-2.03S0
G1 X-35.84S800
G1 X-1.54S0
G1 X-2.31S800
G1 X-1.4S0
G1 X-18.62S800
G1 X-1.4S0
G1 X-3.36S800
G1 X-1.4S0
G1 X-9.31S800
G1 X-1.89S0
G1 X-23.8S800
G1 X-1.19S0
G1 X-3.78S800
G1 X-1.26S0
G1 X-3.22S800
G1 X-1.33S0
G1 X-3.5S800
G1 X-1.33S0
G1 X-1.75S800
G1 X-1.26S0
G1 X-53.48S800
G1 X-1.47S0
G1 X-2.17S800
G1 X-2.38S0
G1 X-3.5S800
G1 X-0.63S0
G1 X-0.21S800
G1 X-1.4S0
G1 X-2.31S800
G1 X-1.33S0
G1 X-2.73S800
G1 X-1.4S0
G1 X-5.88S800
G1 X-1.33S0
G1 X-1.26S800
G1 X-1.26S0
G1 X-6.02S800
G0 X-3.125
G0 Y0.07
G0 X3.125
G1 X6.3
G1 X1.26S0
G1 X1.26S800
G1 X1.33S0
G1 X5.88S800
G1 X1.4S0
G1 X2.73S800
G1 X1.4S0
G1 X2.24S800
G1 X2.1S0
G1 X3.64S800
G1 X2.38S0
G1 X2.24S800
G1 X1.4S0
G1 X53.48S800
G1 X1.26S0
G1 X1.75S800
G1 X1.33S0
G1 X3.5S800
G1 X1.33S0
G1 X3.22S800
G1 X1.26S0
G1 X3.78S800
G1 X1.19S0
G1 X23.87S800
G1 X1.89S0
G1 X9.24S800
G1 X1.4S0
G1 X3.36S800
G1 X1.4S0
G1 X18.62S800
G1 X1.4S0
G1 X2.38S800
G1 X1.47S0
G1 X36.05S800
G1 X1.96S0
G1 X2.94S800
G1 X1.96S0
G1 X8.12S800
G1 X1.75S0
G1 X1.89S800
G1 X1.75S0
G1 X3.5S800
G1 X1.26S0
G1 X3.29S800
G1 X1.89S0
G1 X7.49S800
G1 X1.82S0
G1 X48.58S800
G0 X3.125
G0 Y0.07
G0 X-3.125
G1 X-48.3
G1 X-1.89S0
G1 X-7.42S800
G1 X-1.75S0
G1 X-0.07S800
G1 X-0.14S0
G1 X-3.29S800
G1 X-1.26S0
G1 X-3.36S800
G1 X-0.07S0
G1 X-0.14S800
G1 X-1.47S0
G1 X-0.07S800
G1 X-0.14S0
G1 X-1.82S800
G1 X-1.61S0
G1 X-0.07S800
G1 X-0.14S0
G1 X-8.12S800
G1 X-1.89S0
G1 X-3.01S800
G1 X-1.96S0
G1 X-36.05S800
G1 X-1.54S0
G1 X-2.38S800
G1 X-1.4S0
G1 X-18.55S800
G1 X-1.47S0
G1 X-3.36S800
G1 X-1.4S0
G1 X-9.17S800
G1 X-1.68S0
G1 X-0.07S800
G1 X-0.14S0
G1 X-23.94S800
G1 X-1.19S0
G1 X-3.78S800
G1 X-1.26S0
G1 X-3.15S800
G1 X-1.33S0
G1 X-3.5S800
G1 X-1.33S0
G1 X-1.82S800
G1 X-1.19S0
G1 X-53.48S800
G1 X-1.47S0
G1 X-2.17S800
G1 X-2.45S0
G1 X-3.71S800
G1 X-2.03S0
G1 X-2.03S800
G1 X-0.07S0
G1 X-0.07S800
G1 X-1.4S0
G1 X-2.8S800
G1 X-1.33S0
G1 X-5.88S800
G1 X-1.33S0
G1 X-1.33S800
G1 X-1.26S0
G1 X-6.44S800
G0 X-3.125
G0 Y0.07
G0 X3.125
G1 X6.72
G1 X1.33S0
G1 X1.26S800
G1 X1.33S0
G1 X5.88S800
G1 X1.4S0
G1 X2.73S800
G1 X1.47S0
G1 X2.17S800
G1 X1.75S0
G1 X3.92S800
G1 X2.52S0
G1 X2.17S800
G1 X1.47S0
G1 X53.41S800
G1 X1.19S0
G1 X1.82S800
G1 X1.33S0
G1 X3.5S800
G1 X1.33S0
G1 X3.15S800
G1 X1.26S0
G1 X3.78S800
G1 X1.19S0
G1 X24.01S800
G1 X1.82S0
G1 X9.24S800
G1 X1.4S0
G1 X3.36S800
G1 X1.47S0
G1 X18.55S800
G1 X1.4S0
G1 X2.38S800
G1 X1.54S0
G1 X36.12S800
G1 X2.03S0
G1 X2.94S800
G1 X1.89S0
G1 X8.12S800
G1 X1.75S0
G1 X1.89S800
G1 X1.68S0
G1 X3.43S800
G1 X1.26S0
G1 X3.43S800
G1 X1.96S0
G1 X7.42S800
G1 X1.89S0
G1 X47.88S800
G0 X3.125
G0 Y0.07
G0 X-3.125
G1 X-47.53
G1 X-1.82S0
G1 X-7.35S800
G1 X-2.03S0
G1 X-3.57S800
G1 X-1.33S0
G1 X-3.29S800
G1 X-1.68S0
G1 X-1.82S800
G1 X-1.82S0
G1 X-8.05S800
G1 X-1.89S0
G1 X-2.94S800
G1 X-1.96S0
G1 X-36.33S800
G1 X-1.47S0
G1 X-2.38S800
G1 X-1.47S0
G1 X-18.55S800
G1 X-1.4S0
G1 X-3.43S800
G1 X-1.4S0
G1 X-9.24S800
G1 X-1.68S0
G1 X-24.15S800
G1 X-1.19S0
G1 X-3.71S800
G1 X-1.33S0
G1 X-3.15S800
G1 X-1.33S0
G1 X-3.5S800
G1 X-1.33S0
G1 X-1.82S800
G1 X-1.26S0
G1 X-53.34S800
G1 X-1.4S0
G1 X-2.24S800
G1 X-2.59S0
G1 X-4.06S800
G1 X-1.47S0
G1 X-2.24S800
G1 X-1.4S0
G1 X-2.8S800
G1 X-1.4S0
G1 X-5.88S800
G1 X-1.33S0
G1 X-1.26S800
G1 X-1.33S0
G1 X-7S800
G0 X-3.125
G0 Y0.07
G0 X3.125
G1 X7.21
G1 X1.26S0
G1 X1.26S800
G1 X1.33S0
G1 X5.95S800
G1 X1.33S0
G1 X2.8S800
G1 X1.4S0
G1 X2.24S800
G1 X1.54S0
G1 X4.06S800
G1 X2.59S0
G1 X2.24S800
G1 X1.4S0
G1 X53.34S800
G1 X1.26S0
G1 X1.82S800
G1 X1.26S0
G1 X3.57S800
G1 X1.33S0
G1 X3.08S800
G1 X1.33S0
G1 X3.71S800
G1 X1.19S0
G1 X24.15S800
G1 X1.75S0
G1 X9.24S800
G1 X1.33S0
G1 X3.43S800
G1 X1.47S0
G1 X18.55S800
G1 X1.4S0
G1 X2.45S800
G1 X1.47S0
G1 X36.33S800
G1 X2.03S0
G1 X2.87S800
G1 X1.96S0
G1 X8.05S800
G1 X1.75S0
G1 X1.89S800
G1 X1.61S0
G1 X3.29S800
G1 X1.26S0
G1 X3.71S800
G1 X1.96S0
G1 X7.35S800
G1 X1.89S0
G1 X47.25S800
G0 X3.125
G0 Y0.07
G0 X-3.125
G1 X-46.83
G1 X-1.89S0
G1 X-7.28S800
G1 X-2.03S0
G1 X-3.78S800
G1 X-1.4S0
G1 X-3.08S800
G1 X-1.68S0
G1 X-1.75S800
G1 X-1.82S0
G1 X-8.05S800
G1 X-1.96S0
G1 X-2.87S800
G1 X-1.96S0
G1 X-36.47S800
G1 X-1.47S0
G1 X-2.45S800
G1 X-1.47S0
G1 X-18.55S800
G1 X-1.47S0
G1 X-3.36S800
G1 X-1.4S0
G1 X-9.24S800
G1 X-1.61S0
G1 X-24.29S800
G1 X-1.19S0
G1 X-3.71S800
G1 X-1.26S0
G1 X-3.15S800
G1 X-1.33S0
G1 X-3.57S800
G1 X-1.26S0
G1 X-1.82S800
G1 X-1.26S0
G1 X-53.27S800
G1 X-1.47S0
G1 X-2.17S800
G1 X-2.66S0
G1 X-4.06S800
G1 X-1.47S0
G1 X-2.24S800
G1 X-1.47S0
G1 X-2.73S800
G1 X-1.4S0
G1 X-5.88S800
G1 X-1.33S0
G1 X-1.26S800
G1 X-1.33S0
G1 X-7.49S800
G0 X-3.125
G0 Y0.07
G0 X3.125
G1 X7.77
G1 X1.33S0
G1 X1.26S800
G1 X1.26S0
G1 X5.95S800
G1 X1.4S0
G1 X2.73S800
G1 X1.47S0
G1 X2.31S800
G1 X1.4S0
G1 X4.06S800
G1 X2.66S0
G1 X2.24S800
G1 X1.4S0
G1 X53.27S800
G1 X1.19S0
G1 X1.89S800
G1 X1.26S0
G1 X3.57S800
G1 X1.33S0
G1 X3.08S800
G1 X1.33S0
G1 X3.64S800
G1 X1.26S0
G1 X24.36S800
G1 X1.61S0
G1 X9.17S800
G1 X1.4S0
G1 X3.43S800
G1 X1.47S0
G1 X18.55S800
G1 X1.4S0
G1 X2.45S800
G1 X1.54S0
G1 X36.54S800
G1 X1.96S0
G1 X2.94S800
G1 X1.89S0
G1 X7.98S800
G1 X1.82S0
G1 X1.75S800
G1 X1.68S0
G1 X3.01S800
G1 X1.4S0
G1 X3.99S800
G1 X1.89S0
G1 X7.35S800
G1 X1.89S0
G1 X46.41S800
G0 X3.125
G0 Y0.07
G0 X-3.125
G1 X-46.13
G1 X-1.96S0
G1 X-7.28S800
G1 X-1.96S0
G1 X-4.06S800
G1 X-1.33S0
G1 X-3.01S800
G1 X-1.61S0
G1 X-1.75S800
G1 X-1.82S0
G1 X-7.98S800
G1 X-1.96S0
G1 X-2.87S800
G1 X-2.03S0
G1 X-36.54S800
G1 X-1.54S0
G1 X-2.45S800
G1 X-1.47S0
G1 X-18.55S800
G1 X-1.4S0
G1 X-3.43S800
G1 X-1.4S0
G1 X-9.24S800
G1 X-1.54S0
G1 X-24.43S800
G1 X-1.19S0
G1 X-3.71S800
G1 X-1.26S0
G1 X-3.08S800
G1 X-1.33S0
G1 X-3.57S800
G1 X-1.33S0
G1 X-1.82S800
G1 X-1.26S0
G1 X-53.2S800
G1 X-1.4S0
G1 X-2.24S800
G1 X-2.73S0
G1 X-4.06S800
G1 X-1.4S0
G1 X-2.24S800
G1 X-1.47S0
G1 X-2.73S800
G1 X-1.4S0
G1 X-5.95S800
G1 X-1.33S0
G1 X-1.26S800
G1 X-1.33S0
G1 X-7.91S800
G0 X-3.125
G0 Y0.07
G0 X3.125
G1 X8.26
G1 X1.26S0
G1 X1.33S800
G1 X1.33S0
G1 X5.88S800
G1 X1.4S0
G1 X2.8S800
G1 X1.4S0
G1 X2.31S800
G1 X1.33S0
G1 X4.06S800
G1 X2.8S0
G1 X2.17S800
G1 X1.47S0
G1 X53.13S800
G1 X1.26S0
G1 X1.82S800
G1 X1.33S0
G1 X3.57S800
G1 X1.33S0
G1 X3.08S800
G1 X1.26S0
G1 X3.71S800
G1 X1.19S0
G1 X24.5S800
G1 X1.54S0
G1 X9.17S800
G1 X1.4S0
G1 X3.5S800
G1 X1.4S0
G1 X18.55S800
G1 X1.47S0
G1 X2.45S800
G1 X1.47S0
G1 X36.75S800
G1 X2.03S0
G1 X2.87S800
G1 X1.89S0
G1 X7.98S800
G1 X1.82S0
G1 X1.68S800
G1 X1.68S0
G1 X2.87S800
G1 X1.4S0
G1 X4.2S800
G1 X1.96S0
G1 X7.21S800
G1 X2.03S0
G1 X45.64S800
G0 X3.125
G0 Y0.07
G0 X-3.125
G1 X-45.22
G1 X-0.07S0
G1 X-0.07S800
G1 X-1.89S0
G1 X-7.14S800
G1 X-0.07S0
G1 X-0.07S800
G1 X-1.89S0
G1 X-4.41S800
G1 X-1.33S0
G1 X-2.87S800
G1 X-1.68S0
G1 X-1.54S800
G1 X-1.89S0
G1 X-7.98S800
G1 X-1.89S0
G1 X-2.73S800
G1 X-0.07S0
G1 X-0.07S800
G1 X-1.96S0
G1 X-36.89S800
G1 X-1.47S0
G1 X-2.45S800
G1 X-1.4S0
G1 X-18.69S800
G1 X-1.33S0
G1 X-3.5S800
G1 X-1.33S0
G1 X-9.52S800
G1 X-1.19S0
G1 X-24.64S800
G1 X-1.12S0
G1 X-3.71S800
G1 X-1.26S0
G1 X-3.08S800
G1 X-1.33S0
G1 X-3.64S800
G1 X-1.26S0
G1 X-1.89S800
G1 X-1.19S0
G1 X-53.13S800
G1 X-1.4S0
G1 X-2.17S800
G1 X-0.07S0
G1 X-0.07S800
G1 X-1.4S0
G1 X-0.07S800
G1 X-1.26S0
G1 X-4.06S800
G1 X-1.33S0
G1 X-2.24S800
G1 X-1.4S0
G1 X-2.8S800
G1 X-0.07S0
G1 X-0.07S800
G1 X-1.33S0
G1 X-5.95S800
G1 X-1.26S0
G1 X-1.33S800
G1 X-1.26S0
G1 X-8.54S800
G0 X-3.125
G0 Y0.07
G0 X3.125
G1 X8.68
G1 X1.33S0
G1 X1.26S800
G1 X1.33S0
G1 X5.95S800
G1 X1.4S0
G1 X2.8S800
G1 X1.4S0
G1 X2.31S800
G1 X1.33S0
G1 X3.99S800
G1 X1.26S0
G1 X0.07S800
G1 X1.54S0
G1 X2.24S800
G1 X1.4S0
G1 X53.06S800
G1 X1.33S0
G1 X1.82S800
G1 X1.26S0
G1 X3.64S800
G1 X1.26S0
G1 X3.08S800
G1 X1.33S0
G1 X3.64S800
G1 X1.19S0
G1 X24.64S800
G1 X0.98S0
G1 X9.66S800
G1 X1.4S0
G1 X3.43S800
G1 X1.47S0
G1 X18.55S800
G1 X1.47S0
G1 X2.52S800
G1 X1.47S0
G1 X36.89S800
G1 X2.03S0
G1 X2.8S800
G1 X1.96S0
G1 X7.91S800
G1 X1.89S0
G1 X1.54S800
G1 X1.75S0
G1 X2.66S800
G1 X1.4S0
G1 X4.41S800
G1 X2.03S0
G1 X7.21S800
G1 X1.96S0
G1 X45.01S800
G0 X3.125
G0 Y0.07
G0 X-3.125
G1 X-44.59
G1 X-1.89S0
G1 X-7.21S800
G1 X-2.03S0
G1 X-4.55S800
G1 X-1.4S0
G1 X-2.66S800
G1 X-1.68S0
G1 X-1.47S800
G1 X-1.96S0
G1 X-7.91S800
G1 X-1.96S0
G1 X-2.8S800
G1 X-2.03S0
G1 X-36.96S800
G1 X-1.54S0
G1 X-2.52S800
G1 X-1.4S0
G1 X-18.55S800
G1 X-1.47S0
G1 X-3.43S800
G1 X-1.47S0
G1 X-10.01S800
G1 X-0.56S0
G1 X-24.71S800
G1 X-1.19S0
G1 X-3.64S800
G1 X-1.33S0
G1 X-3.01S800
G1 X-1.33S0
G1 X-3.64S800
G1 X-1.26S0
G1 X-1.82S800
G1 X-1.26S0
G1 X-53.06S800
G1 X-1.47S0
G1 X-2.17S800
G1 X-1.54S0
G1 X-0.14S800
G1 X-1.26S0
G1 X-3.99S800
G1 X-1.33S0
G1 X-2.24S800
G1 X-1.47S0
G1 X-2.73S800
G1 X-1.47S0
G1 X-5.95S800
G1 X-1.33S0
G1 X-1.26S800
G1 X-1.26S0
G1 X-9.03S800
G0 X-3.125
G0 Y0.07
G0 X3.125
G1 X9.24
G1 X1.26S0
G1 X1.33S800
G1 X1.33S0
G1 X5.95S800
G1 X1.4S0
G1 X0.07S800
G1 X0.07S0
G1 X2.73S800
G1 X1.4S0
G1 X2.24S800
G1 X1.19S0
G1 X0.07S800
G1 X0.07S0
G1 X3.99S800
G1 X1.19S0
G1 X0.14S800
G1 X0.07S0
G1 X0.07S800
G1 X1.47S0
G1 X2.17S800
G1 X1.4S0
G1 X53.06S800
G1 X1.26S0
G1 X1.89S800
G1 X1.26S0
G1 X3.64S800
G1 X1.26S0
G1 X3.08S800
G1 X1.26S0
G1 X3.64S800
G1 X1.19S0
G1 X24.85S800
G1 X0.21S0
G1 X10.29S800
G1 X1.4S0
G1 X3.57S800
G1 X1.26S0
G1 X0.07S800
G1 X0.07S0
G1 X18.55S800
G1 X1.4S0
G1 X2.59S800
G1 X1.4S0
G1 X0.07S800
G1 X0.07S0
G1 X37.03S800
G1 X1.96S0
G1 X0.07S800
G1 X0.07S0
G1 X2.73S800
G1 X1.82S0
G1 X0.07S800
G1 X0.07S0
G1 X7.84S800
G1 X1.82S0
G1 X0.07S800
G1 X0.07S0
G1 X1.4S800
G1 X0.07S0
G1 X0.07S800
G1 X1.54S0
G1 X0.07S800
G1 X0.07S0
G1 X2.52S800
G1 X1.33S0
G1 X4.69S800
G1 X1.96S0
G1 X0.07S800
G1 X0.07S0
G1 X7.07S800
G1 X0.07S0
G1 X0.07S800
G1 X1.82S0
G1 X0.07S800
G1 X0.07S0
G1 X44.1S800
G0 X3.125
G0 Y0.07
G0 X-3.125
G1 X-43.89
G1 X-1.96S0
G1 X-7.14S800
G1 X-2.03S0
G1 X-4.76S800
G1 X-1.4S0
G1 X-2.52S800
G1 X-1.75S0
G1 X-1.33S800
G1 X-1.96S0
G1 X-7.98S800
G1 X-1.89S0
G1 X-2.73S800
G1 X-2.03S0
G1 X-37.17S800
G1 X-1.54S0
G1 X-2.52S800
G1 X-1.47S0
G1 X-18.55S800
G1 X-1.47S0
G1 X-3.43S800
G1 X-1.47S0
G1 X-35.35S800
G1 X-1.19S0
G1 X-3.64S800
G1 X-1.26S0
G1 X-3.01S800
G1 X-1.33S0
G1 X-3.64S800
G1 X-1.33S0
G1 X-1.82S800
G1 X-1.26S0
G1 X-52.99S800
G1 X-1.47S0
G1 X-2.17S800
G1 X-1.54S0
G1 X-0.21S800
G1 X-1.26S0
G1 X-3.99S800
G1 X-1.33S0
G1 X-2.17S800
G1 X-1.4S0
G1 X-2.8S800
G1 X-1.47S0
G1 X-5.95S800
G1 X-1.33S0
G1 X-1.26S800
G1 X-1.33S0
G1 X-9.45S800
G0 X-3.125
G0 Y0.07
G0 X3.125
G1 X9.73
G1 X1.33S0
G1 X1.26S800
G1 X1.33S0
G1 X6.02S800
G1 X1.47S0
G1 X2.73S800
G1 X1.4S0
G1 X2.17S800
G1 X1.33S0
G1 X3.99S800
G1 X1.26S0
G1 X0.28S800
G1 X1.54S0
G1 X2.17S800
G1 X1.4S0
G1 X52.99S800
G1 X1.33S0
G1 X1.82S800
G1 X1.26S0
G1 X3.64S800
G1 X1.33S0
G1 X2.94S800
G1 X1.33S0
G1 X3.64S800
G1 X1.19S0
G1 X35.42S800
G1 X1.4S0
G1 X3.43S800
G1 X1.47S0
G1 X18.62S800
G1 X1.47S0
G1 X2.52S800
G1 X1.47S0
G1 X37.31S800
G1 X2.03S0
G1 X2.73S800
G1 X1.96S0
G1 X7.91S800
G1 X1.96S0
G1 X1.33S800
G1 X1.68S0
G1 X2.45S800
G1 X1.4S0
G1 X4.97S800
G1 X2.03S0
G1 X7.14S800
G1 X1.96S0
G1 X43.4S800
G0 X3.125
G0 Y0.07
G0 X-3.125
G1 X-42.98
G1 X-0.07S0
G1 X-0.07S800
G1 X-1.82S0
G1 X-0.07S800
G1 X-0.07S0
G1 X-7S800
G1 X-0.07S0
G1 X-0.07S800
G1 X-1.89S0
G1 X-0.07S800
G1 X-0.07S0
G1 X-4.97S800
G1 X-1.33S0
G1 X-0.07S800
G1 X-0.07S0
G1 X-2.24S800
G1 X-0.07S0
G1 X-0.07S800
G1 X-1.68S0
G1 X-1.19S800
G1 X-0.07S0
G1 X-0.07S800
G1 X-1.89S0
G1 X-7.84S800
G1 X-0.07S0
G1 X-0.07S800
G1 X-1.75S0
G1 X-0.07S800
G1 X-0.07S0
G1 X-2.66S800
G1 X-0.07S0
G1 X-0.07S800
G1 X-1.82S0
G1 X-0.07S800
G1 X-0.07S0
G1 X-37.31S800
G1 X-0.07S0
G1 X-0.07S800
G1 X-1.4S0
G1 X-0.07S800
G1 X-0.07S0
G1 X-2.31S800
G1 X-0.07S0
G1 X-0.07S800
G1 X-1.47S0
G1 X-18.48S800
G1 X-0.07S0
G1 X-0.07S800
G1 X-1.4S0
G1 X-3.43S800
G1 X-1.47S0
G1 X-35.35S800
G1 X-0.07S0
G1 X-0.07S800
G1 X-1.05S0
G1 X-0.07S800
G1 X-0.07S0
G1 X-3.5S800
G1 X-1.33S0
G1 X-3.01S800
G1 X-1.33S0
G1 X-3.57S800
G1 X-0.07S0
G1 X-0.07S800
G1 X-1.12S0
G1 X-0.07S800
G1 X-0.07S0
G1 X-1.68S800
G1 X-0.07S0
G1 X-0.07S800
G1 X-1.26S0
G1 X-52.92S800
G1 X-1.33S0
G1 X-0.07S800
G1 X-0.07S0
G1 X-2.1S800
G1 X-1.54S0
G1 X-0.28S800
G1 X-0.07S0
G1 X-0.07S800
G1 X-1.19S0
G1 X-3.92S800
G1 X-0.07S0
G1 X-0.07S800
G1 X-1.19S0
G1 X-2.17S800
G1 X-1.4S0
G1 X-2.66S800
G1 X-0.07S0
G1 X-0.07S800
G1 X-1.4S0
G1 X-5.95S800
G1 X-0.07S0
G1 X-0.07S800
G1 X-1.33S0
G1 X-1.26S800
G1 X-1.33S0
G1 X-9.94S800
G0 X-3.125
G0 Y0.07
G0 X3.125
G1 X10.22
G1 X1.33S0
G1 X1.26S800
G1 X1.33S0
G1 X6.02S800
G1 X1.47S0
G1 X2.73S800
G1 X1.47S0
G1 X2.1S800
G1 X1.26S0
G1 X3.99S800
G1 X1.26S0
G1 X0.42S800
G1 X1.47S0
G1 X2.17S800
G1 X1.47S0
G1 X52.92S800
G1 X1.26S0
G1 X1.82S800
G1 X1.26S0
G1 X3.64S800
G1 X1.4S0
G1 X2.94S800
G1 X1.33S0
G1 X3.57S800
G1 X1.19S0
G1 X35.49S800
G1 X1.4S0
G1 X3.5S800
G1 X1.4S0
G1 X18.55S800
G1 X1.54S0
G1 X2.52S800
G1 X1.54S0
G1 X37.45S800
G1 X2.03S0
G1 X2.73S800
G1 X1.89S0
G1 X7.98S800
G1 X2.03S0
G1 X1.19S800
G1 X1.75S0
G1 X2.24S800
G1 X1.47S0
G1 X5.11S800
G1 X2.1S0
G1 X7.07S800
G1 X1.96S0
G1 X42.7S800
G0 X3.125
G0 Y0.07
G0 X-3.125
G1 X-42.21
G1 X-2.03S0
G1 X-7S800
G1 X-2.1S0
G1 X-5.25S800
G1 X-1.54S0
G1 X-2.17S800
G1 X-1.75S0
G1 X-1.05S800
G1 X-2.03S0
G1 X-7.98S800
G1 X-1.96S0
G1 X-2.66S800
G1 X-2.03S0
G1 X-37.59S800
G1 X-1.54S0
G1 X-2.52S800
G1 X-1.54S0
G1 X-18.55S800
G1 X-1.4S0
G1 X-3.5S800
G1 X-1.47S0
G1 X-35.49S800
G1 X-1.19S0
G1 X-3.57S800
G1 X-1.33S0
G1 X-2.94S800
G1 X-1.33S0
G1 X-3.71S800
G1 X-1.26S0
G1 X-1.82S800
G1 X-1.26S0
G1 X-52.85S800
G1 X-1.47S0
G1 X-2.17S800
G1 X-1.54S0
G1 X-0.42S800
G1 X-1.26S0
G1 X-3.99S800
G1 X-1.26S0
G1 X-2.1S800
G1 X-1.4S0
G1 X-2.73S800
G1 X-1.47S0
G1 X-6.09S800
G1 X-1.33S0
G1 X-1.26S800
G1 X-1.33S0
G1 X-10.5S800
G0 X-3.125
G0 Y0.07
G0 X3.125
G1 X10.64
G1 X0.07S0
G1 X0.07S800
G1 X1.19S0
G1 X0.07S800
G1 X0.07S0
G1 X1.12S800
G1 X0.07S0
G1 X0.07S800
G1 X1.26S0
G1 X0.07S800
G1 X0.07S0
G1 X5.95S800
G1 X0.07S0
G1 X0.07S800
G1 X1.33S0
G1 X2.73S800
G1 X1.4S0
G1 X0.07S800
G1 X0.07S0
G1 X1.96S800
G1 X1.26S0
G1 X0.07S800
G1 X0.07S0
G1 X3.85S800
G1 X1.19S0
G1 X0.07S800
G1 X0.07S0
G1 X0.35S800
G1 X0.07S0
G1 X0.07S800
G1 X1.47S0
G1 X2.1S800
G1 X0.07S0
G1 X0.07S800
G1 X1.33S0
G1 X0.07S800
G1 X0.07S0
G1 X52.64S800
G1 X1.26S0
G1 X0.07S800
G1 X0.07S0
G1 X1.75S800
G1 X1.26S0
G1 X0.07S800
G1 X0.07S0
G1 X3.57S800
G1 X1.33S0
G1 X0.07S800
G1 X0.07S0
G1 X2.8S800
G1 X1.26S0
G1 X0.07S800
G1 X0.07S0
G1 X3.43S800
G1 X1.19S0
G1 X0.07S800
G1 X0.07S0
G1 X35.42S800
G1 X0.07S0
G1 X0.07S800
G1 X1.33S0
G1 X0.07S800
G1 X0.07S0
G1 X3.29S800
G1 X0.07S0
G1 X0.07S800
G1 X1.26S0
G1 X0.07S800
G1 X0.07S0
G1 X18.48S800
G1 X0.07S0
G1 X0.07S800
G1 X1.4S0
G1 X0.07S800
G1 X0.07S0
G1 X2.45S800
G1 X1.47S0
G1 X37.73S800
G1 X1.96S0
G1 X2.66S800
G1 X0.07S0
G1 X0.07S800
G1 X1.75S0
G1 X7.98S800
G1 X0.07S0
G1 X0.07S800
G1 X1.96S0
G1 X0.07S800
G1 X0.07S0
G1 X0.91S800
G1 X0.07S0
G1 X0.07S800
G1 X1.54S0
G1 X0.14S800
G1 X0.07S0
G1 X2.03S800
G1 X1.47S0
G1 X0.07S800
G1 X0.07S0
G1 X5.11S800
G1 X0.07S0
G1 X0.07S800
G1 X2.03S0
G1 X0.14S800
G1 X0.07S0
G1 X6.79S800
G1 X0.07S0
G1 X0.07S800
G1 X1.89S0
G1 X0.07S800
G1 X0.07S0
G1 X41.79S800
G0 X3.125
G0 Y0.07
G0 X-3.125
G1 X-41.51
G1 X-2.1S0
G1 X-6.86S800
G1 X-2.17S0
G1 X-5.46S800
G1 X-1.47S0
G1 X-2.17S800
G1 X-1.68S0
G1 X-0.91S800
G1 X-2.1S0
G1 X-8.05S800
G1 X-1.89S0
G1 X-2.66S800
G1 X-2.03S0
G1 X-37.8S800
G1 X-1.47S0
G1 X-2.59S800
G1 X-1.47S0
G1 X-18.62S800
G1 X-1.47S0
G1 X-3.43S800
G1 X-1.4S0
G1 X-35.63S800
G1 X-1.26S0
G1 X-3.5S800
G1 X-1.33S0
G1 X-2.87S800
G1 X-1.33S0
G1 X-3.71S800
G1 X-1.26S0
G1 X-1.82S800
G1 X-1.33S0
G1 X-52.78S800
G1 X-1.47S0
G1 X-2.1S800
G1 X-1.54S0
G1 X-0.56S800
G1 X-1.26S0
G1 X-3.92S800
G1 X-1.33S0
G1 X-2.03S800
G1 X-1.4S0
G1 X-2.66S800
G1 X-1.54S0
G1 X-6.09S800
G1 X-1.4S0
G1 X-1.26S800
G1 X-1.33S0
G1 X-10.92S800
G0 X-3.125
G0 Y0.07
G0 X3.125
G1 X11.27
G1 X1.33S0
G1 X1.26S800
G1 X1.4S0
G1 X6.09S800
G1 X1.47S0
G1 X2.66S800
G1 X1.47S0
G1 X1.96S800
G1 X1.33S0
G1 X3.92S800
G1 X1.33S0
G1 X0.49S800
G1 X1.54S0
G1 X2.17S800
G1 X1.47S0
G1 X52.71S800
G1 X1.33S0
G1 X1.82S800
G1 X1.26S0
G1 X3.71S800
G1 X1.33S0
G1 X2.94S800
G1 X1.26S0
G1 X3.57S800
G1 X1.19S0
G1 X35.63S800
G1 X1.4S0
G1 X3.5S800
G1 X1.47S0
G1 X18.62S800
G1 X1.47S0
G1 X2.52S800
G1 X1.54S0
G1 X37.87S800
G1 X2.1S0
G1 X2.52S800
G1 X1.96S0
G1 X8.12S800
G1 X2.1S0
G1 X0.84S800
G1 X1.68S0
G1 X2.03S800
G1 X1.54S0
G1 X5.6S800
G1 X2.17S0
G1 X6.93S800
G1 X2.03S0
G1 X41.02S800
G0 X3.125
G0 Y0.07
G0 X-3.125
G1 X-40.53
G1 X-0.07S0
G1 X-0.14S800
G1 X-1.89S0
G1 X-0.07S800
G1 X-0.14S0
G1 X-6.65S800
G1 X-0.07S0
G1 X-0.14S800
G1 X-1.96S0
G1 X-0.07S800
G1 X-0.14S0
G1 X-5.6S800
G1 X-1.47S0
G1 X-0.07S800
G1 X-0.07S0
G1 X-1.96S800
G1 X-1.61S0
G1 X-0.07S800
G1 X-0.07S0
G1 X-0.63S800
G1 X-0.07S0
G1 X-0.07S800
G1 X-2.1S0
G1 X-7.98S800
G1 X-0.07S0
G1 X-0.14S800
G1 X-1.82S0
G1 X-2.45S800
G1 X-0.07S0
G1 X-0.14S800
G1 X-1.82S0
G1 X-0.07S800
G1 X-0.14S0
G1 X-37.94S800
G1 X-1.47S0
G1 X-2.45S800
G1 X-0.07S0
G1 X-0.07S800
G1 X-1.47S0
G1 X-18.69S800
G1 X-1.26S0
G1 X-0.07S800
G1 X-0.07S0
G1 X-3.36S800
G1 X-0.07S0
G1 X-0.07S800
G1 X-1.4S0
G1 X-35.7S800
G1 X-1.19S0
G1 X-3.5S800
G1 X-1.19S0
G1 X-0.07S800
G1 X-0.07S0
G1 X-2.8S800
G1 X-1.4S0
G1 X-3.71S800
G1 X-1.19S0
G1 X-0.07S800
G1 X-0.07S0
G1 X-1.82S800
G1 X-1.12S0
G1 X-0.07S800
G1 X-0.07S0
G1 X-52.5S800
G1 X-0.07S0
G1 X-0.14S800
G1 X-1.47S0
G1 X-2.17S800
G1 X-1.4S0
G1 X-0.07S800
G1 X-0.07S0
G1 X-0.42S800
G1 X-0.07S0
G1 X-0.07S800
G1 X-1.26S0
G1 X-3.92S800
G1 X-1.33S0
G1 X-1.96S800
G1 X-1.33S0
G1 X-0.07S800
G1 X-0.07S0
G1 X-2.66S800
G1 X-1.47S0
G1 X-6.09S800
G1 X-1.33S0
G1 X-0.07S800
G1 X-0.07S0
G1 X-1.26S800
G1 X-1.19S0
G1 X-0.07S800
G1 X-0.07S0
G1 X-11.41S800
G0 X-3.125
G0 Y0.07
G0 X3.125
G1 X11.69
G1 X1.33S0
G1 X1.33S800
G1 X1.4S0
G1 X6.16S800
G1 X1.4S0
G1 X2.66S800
G1 X1.47S0
G1 X1.96S800
G1 X1.33S0
G1 X3.92S800
G1 X1.26S0
G1 X0.63S800
G1 X1.54S0
G1 X2.1S800
G1 X1.54S0
G1 X52.64S800
G1 X1.26S0
G1 X1.82S800
G1 X1.33S0
G1 X3.71S800
G1 X1.4S0
G1 X2.8S800
G1 X1.33S0
G1 X3.5S800
G1 X1.19S0
G1 X35.7S800
G1 X1.47S0
G1 X3.43S800
G1 X1.4S0
G1 X18.69S800
G1 X1.54S0
G1 X2.52S800
G1 X1.47S0
G1 X38.08S800
G1 X2.1S0
G1 X2.52S800
G1 X1.89S0
G1 X8.19S800
G1 X2.17S0
G1 X0.7S800
G1 X1.68S0
G1 X1.96S800
G1 X1.61S0
G1 X5.74S800
G1 X2.17S0
G1 X6.86S800
G1 X2.1S0
G1 X40.25S800
G0 X3.125
G0 Y0.07
G0 X-3.125
G1 X-39.83
G1 X-2.1S0
G1 X-6.79S800
G1 X-2.17S0
G1 X-5.88S800
G1 X-1.61S0
G1 X-1.89S800
G1 X-1.75S0
G1 X-0.49S800
G1 X-2.24S0
G1 X-8.26S800
G1 X-1.89S0
G1 X-2.52S800
G1 X-2.03S0
G1 X-38.15S800
G1 X-1.54S0
G1 X-2.52S800
G1 X-1.54S0
G1 X-18.69S800
G1 X-1.47S0
G1 X-3.43S800
G1 X-1.4S0
G1 X-35.77S800
G1 X-1.26S0
G1 X-3.43S800
G1 X-1.33S0
G1 X-2.8S800
G1 X-1.33S0
G1 X-3.78S800
G1 X-1.33S0
G1 X-1.82S800
G1 X-1.26S0
G1 X-52.57S800
G1 X-1.47S0
G1 X-2.24S800
G1 X-1.54S0
G1 X-0.63S800
G1 X-1.26S0
G1 X-3.92S800
G1 X-1.33S0
G1 X-1.96S800
G1 X-1.4S0
G1 X-2.66S800
G1 X-1.47S0
G1 X-6.16S800
G1 X-1.4S0
G1 X-1.26S800
G1 X-1.33S0
G1 X-12.04S800
G0 X-3.125
G0 Y0.07
G0 X3.125
G1 X12.18
G1 X1.33S0
G1 X1.33S800
G1 X1.4S0
G1 X6.16S800
G1 X1.4S0
G1 X2.73S800
G1 X1.4S0
G1 X1.89S800
G1 X1.4S0
G1 X3.85S800
G1 X1.33S0
G1 X0.63S800
G1 X0.07S0
G1 X0.07S800
G1 X1.4S0
G1 X2.24S800
G1 X1.47S0
G1 X52.5S800
G1 X0.07S0
G1 X0.07S800
G1 X1.19S0
G1 X1.82S800
G1 X0.07S0
G1 X0.07S800
G1 X1.12S0
G1 X3.78S800
G1 X1.4S0
G1 X2.8S800
G1 X1.26S0
G1 X3.5S800
G1 X1.19S0
G1 X35.77S800
G1 X0.07S0
G1 X0.07S800
G1 X1.33S0
G1 X3.43S800
G1 X0.07S0
G1 X0.07S800
G1 X1.33S0
G1 X18.69S800
G1 X1.47S0
G1 X2.59S800
G1 X1.47S0
G1 X38.29S800
G1 X2.03S0
G1 X0.14S800
G1 X0.07S0
G1 X2.24S800
G1 X0.14S0
G1 X0.07S800
G1 X1.75S0
G1 X8.26S800
G1 X0.07S0
G1 X0.07S800
G1 X2.1S0
G1 X0.14S800
G1 X0.07S0
G1 X0.21S800
G1 X0.14S0
G1 X0.07S800
G1 X1.54S0
G1 X1.89S800
G1 X1.61S0
G1 X5.95S800
G1 X0.14S0
G1 X0.07S800
G1 X1.96S0
G1 X0.14S800
G1 X0.07S0
G1 X6.58S800
G1 X0.07S0
G1 X0.07S800
G1 X1.96S0
G1 X0.14S800
G1 X0.07S0
G1 X39.34S800
G0 X3.125
G0 Y0.07
G0 X-3.125
G1 X-39.06
G1 X-2.1S0
G1 X-6.72S800
G1 X-2.24S0
G1 X-6.09S800
G1 X-1.61S0
G1 X-1.82S800
G1 X-1.75S0
G1 X-0.28S800
G1 X-2.31S0
G1 X-8.33S800
G1 X-1.89S0
G1 X-2.45S800
G1 X-2.1S0
G1 X-38.36S800
G1 X-1.54S0
G1 X-2.52S800
G1 X-1.54S0
G1 X-18.69S800
G1 X-1.4S0
G1 X-3.5S800
G1 X-1.4S0
G1 X-35.84S800
G1 X-1.26S0
G1 X-3.43S800
G1 X-1.26S0
G1 X-2.8S800
G1 X-1.4S0
G1 X-3.71S800
G1 X-1.33S0
G1 X-1.82S800
G1 X-1.26S0
G1 X-52.57S800
G1 X-1.47S0
G1 X-2.17S800
G1 X-1.54S0
G1 X-0.77S800
G1 X-1.26S0
G1 X-3.85S800
G1 X-1.33S0
G1 X-1.96S800
G1 X-1.4S0
G1 X-2.66S800
G1 X-1.47S0
G1 X-6.16S800
G1 X-1.4S0
G1 X-1.33S800
G1 X-1.33S0
G1 X-12.46S800
G0 X-3.125
G0 Y0.07
G0 X3.125
G1 X12.74
G1 X1.33S0
G1 X1.33S800
G1 X1.47S0
G1 X6.16S800
G1 X1.47S0
G1 X2.59S800
G1 X1.47S0
G1 X1.89S800
G1 X1.33S0
G1 X3.85S800
G1 X1.26S0
G1 X0.84S800
G1 X1.54S0
G1 X2.17S800
G1 X1.54S0
G1 X52.43S800
G1 X1.26S0
G1 X1.82S800
G1 X1.26S0
G1 X3.78S800
G1 X1.4S0
G1 X2.8S800
G1 X1.33S0
G1 X3.36S800
G1 X1.26S0
G1 X35.84S800
G1 X1.47S0
G1 X3.43S800
G1 X1.47S0
G1 X18.69S800
G1 X1.54S0
G1 X2.52S800
G1 X1.54S0
G1 X38.5S800
G1 X2.03S0
G1 X2.45S800
G1 X1.89S0
G1 X8.47S800
G1 X2.31S0
G1 X0.14S800
G1 X1.68S0
G1 X1.82S800
G1 X1.68S0
G1 X6.16S800
G1 X2.24S0
G1 X6.65S800
G1 X2.17S0
G1 X38.57S800
G0 X3.125
G0 Y0.07
G0 X-3.125
G1 X-38.29
G1 X-2.03S0
G1 X-0.07S800
G1 X-0.07S0
G1 X-6.65S800
G1 X-2.24S0
G1 X-6.23S800
G1 X-1.75S0
G1 X-1.75S800
G1 X-4.06S0
G1 X-8.54S800
G1 X-1.89S0
G1 X-2.38S800
G1 X-2.03S0
G1 X-38.64S800
G1 X-1.47S0
G1 X-2.52S800
G1 X-1.54S0
G1 X-18.69S800
G1 X-1.47S0
G1 X-3.43S800
G1 X-1.47S0
G1 X-35.91S800
G1 X-1.19S0
G1 X-3.36S800
G1 X-1.4S0
G1 X-2.73S800
G1 X-1.4S0
G1 X-3.78S800
G1 X-1.33S0
G1 X-1.82S800
G1 X-1.26S0
G1 X-52.43S800
G1 X-1.47S0
G1 X-2.17S800
G1 X-1.54S0
G1 X-0.84S800
G1 X-1.33S0
G1 X-3.78S800
G1 X-1.4S0
G1 X-1.82S800
G1 X-1.47S0
G1 X-2.59S800
G1 X-1.54S0
G1 X-6.16S800
G1 X-1.26S0
G1 X-0.07S800
G1 X-0.07S0
G1 X-1.33S800
G1 X-1.33S0
G1 X-12.95S800
G0 X-3.125
G0 Y0.07
G0 X3.125
G1 X13.23
G1 X1.33S0
G1 X1.4S800
G1 X1.4S0
G1 X6.16S800
G1 X1.47S0
G1 X2.66S800
G1 X1.4S0
G1 X1.82S800
G1 X1.4S0
G1 X3.78S800
G1 X1.33S0
G1 X0.91S800
G1 X1.47S0
G1 X2.24S800
G1 X1.47S0
G1 X52.36S800
G1 X1.33S0
G1 X1.82S800
G1 X1.26S0
G1 X3.85S800
G1 X1.33S0
G1 X2.73S800
G1 X1.54S0
G1 X3.08S800
G1 X1.33S0
G1 X35.91S800
G1 X1.47S0
G1 X3.43S800
G1 X1.54S0
G1 X18.69S800
G1 X1.54S0
G1 X2.52S800
G1 X1.47S0
G1 X38.71S800
G1 X2.1S0
G1 X2.31S800
G1 X1.89S0
G1 X8.61S800
G1 X3.99S0
G1 X1.75S800
G1 X1.75S0
G1 X6.3S800
G1 X2.24S0
G1 X6.65S800
G1 X2.17S0
G1 X37.8S800
G0 X3.125
G0 Y0.07
G0 X-3.125
G1 X-37.31
G1 X-2.17S0
G1 X-6.58S800
G1 X-2.31S0
G1 X-6.44S800
G1 X-1.75S0
G1 X-1.68S800
G1 X-3.85S0
G1 X-8.75S800
G1 X-1.89S0
G1 X-2.24S800
G1 X-0.07S0
G1 X-0.07S800
G1 X-1.96S0
G1 X-38.85S800
G1 X-1.47S0
G1 X-2.52S800
G1 X-1.54S0
G1 X-18.69S800
G1 X-1.54S0
G1 X-3.43S800
G1 X-1.47S0
G1 X-35.98S800
G1 X-1.89S0
G1 X-0.07S800
G1 X-0.14S0
G1 X-2.03S800
G1 X-1.82S0
G1 X-2.66S800
G1 X-1.4S0
G1 X-3.85S800
G1 X-1.26S0
G1 X-1.82S800
G1 X-1.33S0
G1 X-52.29S800
G1 X-1.47S0
G1 X-2.24S800
G1 X-1.54S0
G1 X-0.98S800
G1 X-1.26S0
G1 X-3.78S800
G1 X-1.4S0
G1 X-1.75S800
G1 X-1.47S0
G1 X-2.59S800
G1 X-1.47S0
G1 X-6.3S800
G1 X-1.33S0
G1 X-1.4S800
G1 X-1.33S0
G1 X-13.51S800
G0 X-3.125
G0 Y0.07
G0 X3.125
G1 X13.72
G1 X1.33S0
G1 X1.33S800
G1 X1.4S0
G1 X6.23S800
G1 X1.54S0
G1 X2.52S800
G1 X1.54S0
G1 X1.75S800
G1 X1.33S0
G1 X3.78S800
G1 X1.33S0
G1 X0.98S800
G1 X1.54S0
G1 X2.17S800
G1 X1.47S0
G1 X52.36S800
G1 X1.26S0
G1 X1.82S800
G1 X1.33S0
G1 X3.85S800
G1 X1.33S0
G1 X2.73S800
G1 X2.24S0
G1 X0.91S800
G1 X2.73S0
G1 X36.05S800
G1 X1.47S0
G1 X3.43S800
G1 X1.47S0
G1 X18.69S800
G1 X1.61S0
G1 X2.45S800
G1 X1.54S0
G1 X38.92S800
G1 X2.03S0
G1 X2.31S800
G1 X1.89S0
G1 X8.75S800
G1 X3.78S0
G1 X1.68S800
G1 X1.82S0
G1 X6.44S800
G1 X2.31S0
G1 X6.58S800
G1 X2.17S0
G1 X37.03S800
G0 X3.125
G0 Y0.07
G0 X-3.125
G1 X-36.54
G1 X-2.17S0
G1 X-6.51S800
G1 X-2.31S0
G1 X-6.58S800
G1 X-1.82S0
G1 X-1.68S800
G1 X-3.64S0
G1 X-8.89S800
G1 X-1.89S0
G1 X-2.24S800
G1 X-2.1S0
G1 X-38.99S800
G1 X-1.54S0
G1 X-2.45S800
G1 X-1.54S0
G1 X-18.76S800
G1 X-1.54S0
G1 X-3.43S800
G1 X-1.47S0
G1 X-36.05S800
G1 X-1.26S0
G1 X-0.07S800
G1 X-4.55S0
G1 X-2.66S800
G1 X-1.4S0
G1 X-3.85S800
G1 X-1.33S0
G1 X-1.75S800
G1 X-1.33S0
G1 X-52.22S800
G1 X-1.54S0
G1 X-2.17S800
G1 X-1.54S0
G1 X-1.05S800
G1 X-1.33S0
G1 X-3.71S800
G1 X-1.4S0
G1 X-1.75S800
G1 X-1.47S0
G1 X-2.59S800
G1 X-1.47S0
G1 X-6.23S800
G1 X-1.4S0
G1 X-1.4S800
G1 X-1.33S0
G1 X-14S800
G0 X-3.125
G0 Y0.07
G0 X3.125
G1 X14.28
G1 X1.26S0
G1 X1.47S800
G1 X1.4S0
G1 X6.3S800
G1 X1.47S0
G1 X2.59S800
G1 X1.47S0
G1 X1.68S800
G1 X1.4S0
G1 X3.71S800
G1 X1.33S0
G1 X1.12S800
G1 X1.54S0
G1 X2.17S800
G1 X1.47S0
G1 X52.22S800
G1 X1.33S0
G1 X1.75S800
G1 X1.26S0
G1 X3.92S800
G1 X1.33S0
G1 X2.73S800
G1 X3.92S0
G1 X0.7S800
G1 X1.26S0
G1 X36.12S800
G1 X1.47S0
G1 X3.43S800
G1 X1.47S0
G1 X18.76S800
G1 X1.54S0
G1 X2.52S800
G1 X1.47S0
G1 X39.13S800
G1 X2.17S0
G1 X2.17S800
G1 X1.89S0
G1 X8.89S800
G1 X0.07S0
G1 X0.07S800
G1 X3.36S0
G1 X1.82S800
G1 X1.82S0
G1 X6.65S800
G1 X2.24S0
G1 X0.07S800
G1 X0.07S0
G1 X6.37S800
G1 X2.17S0
G1 X0.07S800
G1 X0.07S0
G1 X35.98S800
G0 X3.125
G0 Y0.07
G0 X-3.125
G1 X-35.7
G1 X-2.24S0
G1 X-6.44S800
G1 X-2.38S0
G1 X-6.65S800
G1 X-1.89S0
G1 X-1.75S800
G1 X-3.36S0
G1 X-9.1S800
G1 X-1.82S0
G1 X-2.17S800
G1 X-2.17S0
G1 X-39.2S800
G1 X-1.54S0
G1 X-2.38S800
G1 X-1.54S0
G1 X-18.76S800
G1 X-1.54S0
G1 X-3.43S800
G1 X-1.47S0
G1 X-36.19S800
G1 X-1.26S0
G1 X-0.98S800
G1 X-3.64S0
G1 X-2.59S800
G1 X-1.4S0
G1 X-3.92S800
G1 X-1.26S0
G1 X-1.82S800
G1 X-1.33S0
G1 X-52.15S800
G1 X-1.47S0
G1 X-2.24S800
G1 X-1.47S0
G1 X-1.19S800
G1 X-1.26S0
G1 X-3.71S800
G1 X-1.4S0
G1 X-1.68S800
G1 X-1.47S0
G1 X-2.59S800
G1 X-1.47S0
G1 X-6.3S800
G1 X-1.4S0
G1 X-1.47S800
G1 X-1.26S0
G1 X-14.49S800
G0 X-3.125
G0 Y0.07
G0 X3.125
G1 X14.77
G1 X1.33S0
G1 X1.4S800
G1 X1.47S0
G1 X6.23S800
G1 X1.47S0
G1 X2.59S800
G1 X1.54S0
G1 X1.61S800
G1 X1.4S0
G1 X3.71S800
G1 X1.26S0
G1 X1.19S800
G1 X1.54S0
G1 X2.24S800
G1 X1.47S0
G1 X52.15S800
G1 X1.33S0
G1 X1.75S800
G1 X1.26S0
G1 X3.92S800
G1 X1.47S0
G1 X2.45S800
G1 X2.94S0
G1 X1.82S800
G1 X1.19S0
G1 X36.19S800
G1 X1.54S0
G1 X3.43S800
G1 X1.47S0
G1 X18.76S800
G1 X1.61S0
G1 X2.45S800
G1 X1.47S0
G1 X39.41S800
G1 X2.03S0
G1 X2.17S800
G1 X1.89S0
G1 X9.24S800
G1 X3.15S0
G1 X1.68S800
G1 X1.89S0
G1 X6.86S800
G1 X2.38S0
G1 X6.37S800
G1 X2.31S0
G1 X35.14S800
G0 X3.125
G0 Y0.07
G0 X-3.125
G1 X-34.65
G1 X-0.14S0
G1 X-0.07S800
G1 X-2.17S0
G1 X-6.23S800
G1 X-0.07S0
G1 X-0.07S800
G1 X-2.24S0
G1 X-0.07S800
G1 X-0.07S0
G1 X-6.72S800
G1 X-0.07S0
G1 X-0.07S800
G1 X-1.96S0
G1 X-1.75S800
G1 X-2.87S0
G1 X-0.07S800
G1 X-0.07S0
G1 X-9.24S800
G1 X-0.07S0
G1 X-0.07S800
G1 X-1.89S0
G1 X-1.96S800
G1 X-0.07S0
G1 X-0.07S800
G1 X-2.03S0
G1 X-39.48S800
G1 X-1.47S0
G1 X-2.38S800
G1 X-1.61S0
G1 X-18.69S800
G1 X-0.07S0
G1 X-0.07S800
G1 X-1.4S0
G1 X-3.57S800
G1 X-1.4S0
G1 X-36.33S800
G1 X-1.12S0
G1 X-2.66S800
G1 X-0.07S0
G1 X-0.07S800
G1 X-0.07S0
G1 X-0.07S800
G1 X-0.14S0
G1 X-0.07S800
G1 X-0.14S0
G1 X-0.07S800
G1 X-0.14S0
G1 X-0.07S800
G1 X-1.19S0
G1 X-2.52S800
G1 X-1.33S0
G1 X-3.99S800
G1 X-1.26S0
G1 X-1.82S800
G1 X-1.33S0
G1 X-52.15S800
G1 X-1.4S0
G1 X-2.24S800
G1 X-1.47S0
G1 X-1.19S800
G1 X-0.07S0
G1 X-0.07S800
G1 X-1.26S0
G1 X-3.71S800
G1 X-1.33S0
G1 X-1.54S800
G1 X-0.07S0
G1 X-0.07S800
G1 X-1.4S0
G1 X-2.73S800
G1 X-1.33S0
G1 X-6.37S800
G1 X-1.4S0
G1 X-1.4S800
G1 X-1.33S0
G1 X-15.05S800
G0 X-3.125
G0 Y0.07
G0 X3.125
G1 X15.26
G1 X1.26S0
G1 X1.47S800
G1 X1.4S0
G1 X6.37S800
G1 X1.4S0
G1 X2.66S800
G1 X1.47S0
G1 X1.61S800
G1 X1.4S0
G1 X3.64S800
G1 X1.33S0
G1 X1.26S800
G1 X1.54S0
G1 X2.17S800
G1 X1.54S0
G1 X52.01S800
G1 X1.33S0
G1 X1.75S800
G1 X1.33S0
G1 X3.99S800
G1 X1.33S0
G1 X2.52S800
G1 X1.12S0
G1 X3.57S800
G1 X1.19S0
G1 X36.33S800
G1 X1.47S0
G1 X3.43S800
G1 X1.54S0
G1 X18.76S800
G1 X1.61S0
G1 X2.38S800
G1 X1.54S0
G1 X39.55S800
G1 X2.1S0
G1 X2.03S800
G1 X1.89S0
G1 X9.45S800
G1 X2.94S0
G1 X1.68S800
G1 X2.03S0
G1 X6.86S800
G1 X2.52S0
G1 X6.23S800
G1 X2.31S0
G1 X34.37S800
G0 X3.125
G0 Y0.07
G0 X-3.125
G1 X-33.81
G1 X-2.31S0
G1 X-6.3S800
G1 X-2.45S0
G1 X-6.93S800
G1 X-2.03S0
G1 X-1.75S800
G1 X-2.73S0
G1 X-9.66S800
G1 X-1.89S0
G1 X-2.03S800
G1 X-2.03S0
G1 X-39.69S800
G1 X-1.54S0
G1 X-2.38S800
G1 X-1.61S0
G1 X-18.76S800
G1 X-1.54S0
G1 X-3.43S800
G1 X-1.54S0
G1 X-36.33S800
G1 X-1.19S0
G1 X-3.64S800
G1 X-1.12S0
G1 X-2.38S800
G1 X-1.4S0
G1 X-3.99S800
G1 X-1.26S0
G1 X-1.75S800
G1 X-1.4S0
G1 X-52.01S800
G1 X-1.47S0
G1 X-2.17S800
G1 X-1.54S0
G1 X-1.33S800
G1 X-1.33S0
G1 X-3.64S800
G1 X-1.33S0
G1 X-1.61S800
G1 X-1.54S0
G1 X-2.59S800
G1 X-1.47S0
G1 X-6.3S800
G1 X-1.4S0
G1 X-1.54S800
G1 X-1.26S0
G1 X-15.54S800
G0 X-3.125
G0 Y0.07
G0 X3.125
G1 X15.75
G1 X1.33S0
G1 X1.47S800
G1 X1.33S0
G1 X0.07S800
G1 X0.07S0
G1 X6.3S800
G1 X1.4S0
G1 X2.73S800
G1 X1.4S0
G1 X0.07S800
G1 X0.07S0
G1 X1.47S800
G1 X1.33S0
G1 X0.07S800
G1 X0.07S0
G1 X3.57S800
G1 X1.26S0
G1 X1.4S800
G1 X1.47S0
G1 X2.31S800
G1 X1.4S0
G1 X52.01S800
G1 X1.33S0
G1 X1.68S800
G1 X0.07S0
G1 X0.07S800
G1 X1.19S0
G1 X4.06S800
G1 X1.4S0
G1 X2.31S800
G1 X1.12S0
G1 X3.64S800
G1 X1.19S0
G1 X36.47S800
G1 X1.33S0
G1 X0.07S800
G1 X0.07S0
G1 X3.5S800
G1 X1.4S0
G1 X0.07S800
G1 X0.07S0
G1 X18.69S800
G1 X1.68S0
G1 X2.24S800
G1 X0.07S0
G1 X0.07S800
G1 X1.33S0
G1 X0.07S800
G1 X0.07S0
G1 X39.83S800
G1 X1.96S0
G1 X2.03S800
G1 X1.75S0
G1 X9.87S800
G1 X0.07S0
G1 X0.14S800
G1 X2.24S0
G1 X1.96S800
G1 X1.96S0
G1 X0.07S800
G1 X0.14S0
G1 X6.86S800
G1 X0.07S0
G1 X0.07S800
G1 X2.03S0
G1 X6.51S800
G1 X0.07S0
G1 X0.07S800
G1 X2.1S0
G1 X0.07S800
G1 X0.07S0
G1 X0.07S800
G1 X0.07S0
G1 X33.25S800
G0 X3.125
G0 Y0.07
G0 X-3.125
G1 X-32.97
G1 X-2.38S0
G1 X-6.72S800
G1 X-1.89S0
G1 X-7.07S800
G1 X-2.1S0
G1 X-2.24S800
G1 X-1.96S0
G1 X-10.43S800
G1 X-1.47S0
G1 X-2.1S800
G1 X-1.89S0
G1 X-39.9S800
G1 X-1.54S0
G1 X-2.17S800
G1 X-1.75S0
G1 X-18.83S800
G1 X-1.47S0
G1 X-3.5S800
G1 X-1.47S0
G1 X-36.4S800
G1 X-1.26S0
G1 X-3.64S800
G1 X-1.12S0
G1 X-2.24S800
G1 X-1.47S0
G1 X-3.99S800
G1 X-1.33S0
G1 X-1.75S800
G1 X-1.33S0
G1 X-51.94S800
G1 X-1.47S0
G1 X-2.24S800
G1 X-1.54S0
G1 X-1.4S800
G1 X-1.26S0
G1 X-3.64S800
G1 X-1.4S0
G1 X-1.54S800
G1 X-1.47S0
G1 X-2.66S800
G1 X-1.47S0
G1 X-6.3S800
G1 X-1.4S0
G1 X-1.54S800
G1 X-1.33S0
G1 X-15.96S800
G0 X-3.125
G0 Y0.07
G0 X3.125
G1 X16.31
G1 X1.33S0
G1 X1.47S800
G1 X1.4S0
G1 X6.37S800
G1 X1.47S0
G1 X2.66S800
G1 X1.47S0
G1 X1.47S800
G1 X1.4S0
G1 X3.64S800
G1 X1.33S0
G1 X1.47S800
G1 X1.54S0
G1 X2.1S800
G1 X1.54S0
G1 X51.87S800
G1 X1.4S0
G1 X1.68S800
G1 X1.33S0
G1 X4.06S800
G1 X1.4S0
G1 X2.17S800
G1 X1.12S0
G1 X3.71S800
G1 X1.26S0
G1 X36.47S800
G1 X1.47S0
G1 X3.5S800
G1 X1.47S0
G1 X18.83S800
G1 X1.89S0
G1 X2.1S800
G1 X1.47S0
G1 X40.04S800
G1 X2.03S0
G1 X1.4S800
G1 X1.54S0
G1 X11.06S800
G1 X1.33S0
G1 X2.66S800
G1 X2.17S0
G1 X7.14S800
G1 X1.54S0
G1 X7.07S800
G1 X2.31S0
G1 X32.48S800
G0 X3.125
G0 Y0.07
G0 X-3.125
G1 X-31.99
G1 X-0.07S0
G1 X-0.07S800
G1 X-2.17S0
G1 X-0.07S800
G1 X-0.07S0
G1 X-7.14S800
G1 X-0.07S0
G1 X-0.07S800
G1 X-1.19S0
G1 X-0.07S800
G1 X-0.07S0
G1 X-7.07S800
G1 X-0.07S0
G1 X-0.07S800
G1 X-1.96S0
G1 X-0.07S800
G1 X-0.07S0
G1 X-3.01S800
G1 X-0.77S0
G1 X-0.07S800
G1 X-0.07S0
G1 X-11.55S800
G1 X-4.41S0
G1 X-0.14S800
G1 X-0.07S0
G1 X-39.97S800
G1 X-0.07S0
G1 X-0.07S800
G1 X-1.4S0
G1 X-0.07S800
G1 X-0.07S0
G1 X-1.89S800
G1 X-0.07S0
G1 X-0.07S800
G1 X-1.75S0
G1 X-18.97S800
G1 X-1.4S0
G1 X-3.5S800
G1 X-0.07S0
G1 X-0.07S800
G1 X-1.33S0
G1 X-0.07S800
G1 X-0.07S0
G1 X-36.33S800
G1 X-0.07S0
G1 X-0.07S800
G1 X-1.12S0
G1 X-0.07S800
G1 X-0.07S0
G1 X-3.64S800
G1 X-1.05S0
G1 X-0.07S800
G1 X-0.07S0
G1 X-2.1S800
G1 X-1.33S0
G1 X-0.07S800
G1 X-0.07S0
G1 X-3.92S800
G1 X-0.07S0
G1 X-0.07S800
G1 X-1.12S0
G1 X-0.07S800
G1 X-0.07S0
G1 X-1.61S800
G1 X-0.07S0
G1 X-0.07S800
G1 X-1.26S0
G1 X-51.8S800
G1 X-0.07S0
G1 X-0.07S800
G1 X-1.4S0
G1 X-0.07S800
G1 X-0.07S0
G1 X-2.03S800
G1 X-0.07S0
G1 X-0.07S800
G1 X-1.4S0
G1 X-0.07S800
G1 X-0.07S0
G1 X-1.47S800
G1 X-1.26S0
G1 X-3.57S800
G1 X-1.4S0
G1 X-1.4S800
G1 X-0.07S0
G1 X-0.07S800
G1 X-1.4S0
G1 X-2.59S800
G1 X-0.07S0
G1 X-0.07S800
G1 X-1.47S0
G1 X-6.37S800
G1 X-1.26S0
G1 X-0.07S800
G1 X-0.07S0
G1 X-1.47S800
G1 X-1.33S0
G1 X-16.52S800
G0 X-3.125
G0 Y0.07
G0 X3.125
G1 X16.73
G1 X1.4S0
G1 X1.47S800
G1 X1.4S0
G1 X6.37S800
G1 X1.47S0
G1 X2.73S800
G1 X1.47S0
G1 X1.4S800
G1 X1.47S0
G1 X3.5S800
G1 X1.33S0
G1 X1.54S800
G1 X1.54S0
G1 X2.17S800
G1 X1.54S0
G1 X51.8S800
G1 X1.33S0
G1 X1.75S800
G1 X1.26S0
G1 X4.13S800
G1 X1.4S0
G1 X2.1S800
G1 X1.05S0
G1 X3.78S800
G1 X1.26S0
G1 X36.54S800
G1 X1.47S0
G1 X3.5S800
G1 X1.54S0
G1 X18.83S800
G1 X2.03S0
G1 X1.89S800
G1 X1.54S0
G1 X40.18S800
G1 X3.99S0
G1 X12.32S800
G1 X0.28S0
G1 X3.5S800
G1 X2.24S0
G1 X7.14S800
G1 X1.12S0
G1 X7.49S800
G1 X2.38S0
G1 X31.57S800
G0 X3.125
G0 Y0.07
G0 X-3.125
G1 X-30.94
G1 X-2.52S0
G1 X-7.77S800
G1 X-1.12S0
G1 X-6.79S800
G1 X-2.31S0
G1 X-16.94S800
G1 X-3.29S0
G1 X-40.25S800
G1 X-1.47S0
G1 X-1.82S800
G1 X-1.96S0
G1 X-18.97S800
G1 X-1.54S0
G1 X-3.5S800
G1 X-1.47S0
G1 X-36.61S800
G1 X-1.26S0
G1 X-3.78S800
G1 X-1.12S0
G1 X-1.96S800
G1 X-1.4S0
G1 X-4.2S800
G1 X-1.26S0
G1 X-1.68S800
G1 X-1.4S0
G1 X-51.8S800
G1 X-1.47S0
G1 X-2.17S800
G1 X-1.54S0
G1 X-1.61S800
G1 X-1.33S0
G1 X-3.5S800
G1 X-1.4S0
G1 X-1.47S800
G1 X-1.47S0
G1 X-2.66S800
G1 X-1.47S0
G1 X-6.44S800
G1 X-1.33S0
G1 X-1.54S800
G1 X-1.4S0
G1 X-17.01S800
G0 X-3.125
G0 Y0.07
G0 X3.125
G1 X17.22
G1 X0.07S0
G1 X0.07S800
G1 X1.26S0
G1 X1.47S800
G1 X0.07S0
G1 X0.07S800
G1 X1.26S0
G1 X0.07S800
G1 X0.07S0
G1 X6.3S800
G1 X1.47S0
G1 X2.66S800
G1 X0.07S0
G1 X0.07S800
G1 X1.33S0
G1 X0.07S800
G1 X0.07S0
G1 X1.33S800
G1 X1.4S0
G1 X3.5S800
G1 X1.33S0
G1 X1.61S800
G1 X1.47S0
G1 X0.14S800
G1 X0.07S0
G1 X2.03S800
G1 X1.54S0
G1 X51.73S800
G1 X1.33S0
G1 X1.68S800
G1 X0.07S0
G1 X0.07S800
G1 X1.19S0
G1 X4.13S800
G1 X0.07S0
G1 X0.07S800
G1 X1.33S0
G1 X1.89S800
G1 X0.07S0
G1 X0.07S800
G1 X0.91S0
G1 X3.85S800
G1 X0.07S0
G1 X0.07S800
G1 X1.19S0
G1 X36.54S800
G1 X0.07S0
G1 X0.07S800
G1 X1.33S0
G1 X0.07S800
G1 X0.07S0
G1 X3.43S800
G1 X0.07S0
G1 X0.07S800
G1 X1.33S0
G1 X19.04S800
G1 X0.14S0
G1 X0.07S800
G1 X1.89S0
G1 X0.07S800
G1 X0.07S0
G1 X1.47S800
G1 X0.07S0
G1 X0.07S800
G1 X1.4S0
G1 X40.32S800
G1 X2.59S0
G1 X0.07S800
G1 X0.07S0
G1 X17.5S800
G1 X0.07S0
G1 X0.07S800
G1 X2.17S0
G1 X0.14S800
G1 X0.07S0
G1 X6.44S800
G1 X1.12S0
G1 X7.98S800
G1 X0.07S0
G1 X0.07S800
G1 X2.31S0
G1 X0.14S800
G1 X0.07S0
G1 X30.45S800
G0 X3.125
G0 Y0.07
G0 X-3.125
G1 X-30.1
G1 X-2.52S0
G1 X-8.19S800
G1 X-1.19S0
G1 X-6.23S800
G1 X-2.45S0
G1 X-18.41S800
G1 X-1.89S0
G1 X-40.39S800
G1 X-1.54S0
G1 X-1.47S800
G1 X-2.1S0
G1 X-19.18S800
G1 X-1.54S0
G1 X-3.5S800
G1 X-1.47S0
G1 X-36.61S800
G1 X-1.26S0
G1 X-3.92S800
G1 X-1.12S0
G1 X-1.82S800
G1 X-1.4S0
G1 X-4.2S800
G1 X-1.26S0
G1 X-1.75S800
G1 X-1.33S0
G1 X-51.73S800
G1 X-1.47S0
G1 X-2.17S800
G1 X-1.54S0
G1 X-1.68S800
G1 X-1.33S0
G1 X-3.5S800
G1 X-1.4S0
G1 X-1.4S800
G1 X-1.47S0
G1 X-2.73S800
G1 X-1.47S0
G1 X-6.37S800
G1 X-1.47S0
G1 X-1.4S800
G1 X-1.4S0
G1 X-17.57S800
G0 X-3.125
G0 Y0.07
G0 X3.125
G1 X17.85
G1 X1.4S0
G1 X1.47S800
G1 X1.4S0
G1 X6.44S800
G1 X1.47S0
G1 X2.66S800
G1 X1.47S0
G1 X1.4S800
G1 X1.47S0
G1 X3.43S800
G1 X1.33S0
G1 X1.75S800
G1 X1.47S0
G1 X2.17S800
G1 X1.54S0
G1 X51.66S800
G1 X1.33S0
G1 X1.75S800
G1 X1.26S0
G1 X4.2S800
G1 X1.47S0
G1 X1.75S800
G1 X1.05S0
G1 X3.99S800
G1 X1.26S0
G1 X36.68S800
G1 X1.47S0
G1 X3.5S800
G1 X1.54S0
G1 X19.25S800
G1 X2.24S0
G1 X1.26S800
G1 X1.54S0
G1 X60.83S800
G1 X2.59S0
G1 X5.88S800
G1 X1.12S0
G1 X8.54S800
G1 X2.52S0
G1 X29.54S800
G0 X3.125
G0 Y0.07
G0 X-3.125
G1 X-29.19
G1 X-2.31S0
G1 X-0.07S800
G1 X-0.14S0
G1 X-8.75S800
G1 X-1.12S0
G1 X-5.46S800
G1 X-0.07S0
G1 X-0.21S800
G1 X-2.38S0
G1 X-0.07S800
G1 X-0.14S0
G1 X-60.9S800
G1 X-1.4S0
G1 X-0.07S800
G1 X-0.07S0
G1 X-1.05S800
G1 X-0.07S0
G1 X-0.07S800
G1 X-2.17S0
G1 X-0.07S800
G1 X-0.07S0
G1 X-19.25S800
G1 X-1.54S0
G1 X-3.5S800
G1 X-1.54S0
G1 X-36.68S800
G1 X-1.26S0
G1 X-3.99S800
G1 X-1.05S0
G1 X-1.68S800
G1 X-1.47S0
G1 X-4.27S800
G1 X-1.26S0
G1 X-1.68S800
G1 X-1.33S0
G1 X-51.66S800
G1 X-1.47S0
G1 X-2.17S800
G1 X-1.61S0
G1 X-1.75S800
G1 X-1.33S0
G1 X-3.36S800
G1 X-1.33S0
G1 X-0.07S800
G1 X-0.07S0
G1 X-1.33S800
G1 X-1.4S0
G1 X-0.07S800
G1 X-0.07S0
G1 X-2.66S800
G1 X-1.47S0
G1 X-6.44S800
G1 X-1.4S0
G1 X-1.47S800
G1 X-1.4S0
G1 X-18.06S800
G0 X-3.125
G0 Y0.07
G0 X3.125
G1 X18.34
G1 X1.4S0
G1 X1.47S800
G1 X1.4S0
G1 X6.44S800
G1 X1.54S0
G1 X2.66S800
G1 X1.47S0
G1 X1.33S800
G1 X1.47S0
G1 X3.36S800
G1 X1.33S0
G1 X1.82S800
G1 X1.54S0
G1 X2.17S800
G1 X1.61S0
G1 X51.52S800
G1 X1.33S0
G1 X1.68S800
G1 X1.33S0
G1 X4.27S800
G1 X1.4S0
G1 X1.61S800
G1 X1.05S0
G1 X4.06S800
G1 X1.33S0
G1 X36.68S800
G1 X1.54S0
G1 X3.5S800
G1 X1.47S0
G1 X19.46S800
G1 X2.38S0
G1 X0.98S800
G1 X1.47S0
G1 X61.18S800
G1 X2.73S0
G1 X5.32S800
G1 X1.12S0
G1 X9.03S800
G1 X2.52S0
G1 X28.63S800
G0 X3.125
G0 Y0.07
G0 X-3.125
G1 X-28.42
G1 X-2.17S0
G1 X-9.38S800
G1 X-1.12S0
G1 X-4.83S800
G1 X-2.87S0
G1 X-61.39S800
G1 X-1.54S0
G1 X-0.63S800
G1 X-2.45S0
G1 X-19.67S800
G1 X-1.47S0
G1 X-3.5S800
G1 X-1.54S0
G1 X-36.75S800
G1 X-1.33S0
G1 X-4.13S800
G1 X-1.05S0
G1 X-1.47S800
G1 X-1.47S0
G1 X-4.27S800
G1 X-1.33S0
G1 X-1.68S800
G1 X-1.33S0
G1 X-51.52S800
G1 X-1.54S0
G1 X-2.1S800
G1 X-1.61S0
G1 X-1.89S800
G1 X-1.33S0
G1 X-3.36S800
G1 X-1.4S0
G1 X-1.33S800
G1 X-1.54S0
G1 X-2.66S800
G1 X-1.47S0
G1 X-6.51S800
G1 X-1.4S0
G1 X-1.47S800
G1 X-1.4S0
G1 X-18.62S800
G0 X-3.125
G0 Y0.07
G0 X3.125
G1 X18.83
G1 X1.4S0
G1 X1.47S800
G1 X1.4S0
G1 X6.51S800
G1 X1.47S0
G1 X2.66S800
G1 X0.07S0
G1 X0.07S800
G1 X1.4S0
G1 X1.33S800
G1 X1.4S0
G1 X3.36S800
G1 X1.33S0
G1 X1.89S800
G1 X0.07S0
G1 X0.07S800
G1 X1.4S0
G1 X2.17S800
G1 X1.61S0
G1 X51.45S800
G1 X1.33S0
G1 X1.68S800
G1 X1.26S0
G1 X4.34S800
G1 X1.47S0
G1 X1.4S800
G1 X1.05S0
G1 X4.2S800
G1 X1.26S0
G1 X36.75S800
G1 X0.14S0
G1 X0.07S800
G1 X1.4S0
G1 X3.43S800
G1 X1.54S0
G1 X19.74S800
G1 X2.45S0
G1 X0.14S800
G1 X0.07S0
G1 X0.35S800
G1 X1.54S0
G1 X61.53S800
G1 X0.14S0
G1 X0.07S800
