; LightBurn Pro 2.0.05
; GRBL device profile, absolute coords
; Bounds: X0 Y2.24 to X303.19 Y211.75
G00 G17 G40 G21 G54
G90
M4
; Image @ 7500 мм/мин, 80% power
M8
G0 X5Y52.239
; Layer C00
G91
G0 X3.125
G1 X296.94F7500S800
G0 X3.125
G0 Y0.07
G0 X-3.125
G1 X-296.94
G0 X-3.125
G0 Y0.07
G0 X3.125
G1 X296.94
G0 X3.125
G0 Y0.07
G0 X-3.125
G1 X-296.94
G0 X-3.125
G0 Y0.07
G0 X3.125
G1 X296.94
G0 X3.125
G0 Y0.07
G0 X-3.125
G1 X-296.94
G0 X-3.125
G0 Y0.07
G0 X3.125
G1 X296.94
G0 X3.125
G0 Y0.07
G0 X-3.125
G1 X-296.94
G0 X-3.125
G0 Y0.07
G0 X3.125
G1 X296.94
G0 X3.125
G0 Y0.07
G0 X-3.125
G1 X-296.94
G0 X-3.125
G0 Y0.07
G0 X3.125
G1 X296.94
G0 X3.125
G0 Y0.07
G0 X-3.125
G1 X-296.94
G0 X-3.125
G0 Y0.07
G0 X3.125
G1 X296.94
G0 X3.125
G0 Y0.07
G0 X-3.125
G1 X-296.94
G0 X-3.125
G0 Y0.07
G0 X3.125
G1 X296.94
G0 X3.125
G0 Y0.07
G0 X-3.125
G1 X-296.94
G0 X-3.125
G0 Y0.07
G0 X3.125
G1 X296.94
G0 X3.125
G0 Y0.07
G0 X-3.125
G1 X-296.94
G0 X-3.125
G0 Y0.07
G0 X3.125
G1 X296.94
G0 X3.125
G0 Y0.07
G0 X-3.125
G1 X-296.94
G0 X-3.125
G0 Y0.07
G0 X3.125
G1 X296.94
G0 X3.125
G0 Y0.07
G0 X-3.125
G1 X-296.94
G0 X-3.125
G0 Y0.07
G0 X3.125
G1 X296.94
G0 X3.125
G0 Y0.07
G0 X-3.125
G1 X-296.94
G0 X-3.125
G0 Y0.07
G0 X3.125
G1 X296.94
G0 X3.125
G0 Y0.07
G0 X-3.125
G1 X-296.94
G0 X-3.125
G0 Y0.07
G0 X3.125
G1 X296.94
G0 X3.125
G0 Y0.07
G0 X-3.125
G1 X-296.94
G0 X-3.125
G0 Y0.07
G0 X3.125
G1 X296.94
G0 X3.125
G0 Y0.07
G0 X-3.125
G1 X-296.94
G0 X-3.125
G0 Y0.07
G0 X3.125
G1 X296.94
G0 X3.125
G0 Y0.07
G0 X-3.125
G1 X-296.94
G0 X-3.125
G0 Y0.07
G0 X3.125
G1 X296.94
G0 X3.125
G0 Y0.07
G0 X-3.125
G1 X-296.94
G0 X-3.125
G0 Y0.07
G0 X3.125
G1 X296.94
G0 X3.125
G0 Y0.07
G0 X-3.125
G1 X-296.94
G0 X-3.125
G0 Y0.07
G0 X3.125
G1 X296.94
G0 X3.125
G0 Y0.07
G0 X-3.125
G1 X-296.94
G0 X-3.125
G0 Y0.07
G0 X3.125
G1 X296.94
G0 X3.125
G0 Y0.07
G0 X-3.125
G1 X-296.94
G0 X-3.125
G0 Y0.07
G0 X3.125
G1 X296.94
G0 X3.125
G0 Y0.07
G0 X-3.125
G1 X-296.94
G0 X-3.125
G0 Y0.07
G0 X3.125
G1 X296.94
G0 X3.125
G0 Y0.07
G0 X-3.125
G1 X-296.94
G0 X-3.125
G0 Y0.07
G0 X3.125
G1 X296.94
G0 X3.125
G0 Y0.07
G0 X-3.125
G1 X-296.94
G0 X-3.125
G0 Y0.07
G0 X3.125
G1 X296.94
G0 X3.125
G0 Y0.07
G0 X-3.125
G1 X-296.94
G0 X-3.125
G0 Y0.07
G0 X3.125
G1 X296.94
G0 X3.125
G0 Y0.07
G0 X-3.125
G1 X-296.94
G0 X-3.125
G0 Y0.07
G0 X3.125
G1 X296.94
G0 X3.125
G0 Y0.07
G0 X-3.125
G1 X-296.94
G0 X-3.125
G0 Y0.07
G0 X3.125
G1 X296.94
G0 X3.125
G0 Y0.07
G0 X-3.125
G1 X-296.94
G0 X-3.125
G0 Y0.07
G0 X3.125
G1 X296.94
G0 X3.125
G0 Y0.07
G0 X-3.125
G1 X-296.94
G0 X-3.125
G0 Y0.07
G0 X3.125
G1 X296.94
G0 X3.125
G0 Y0.07
G0 X-3.125
G1 X-296.94
G0 X-3.125
G0 Y0.07
G0 X3.125
G1 X296.94
G0 X3.125
G0 Y0.07
G0 X-3.125
G1 X-296.94
G0 X-3.125
G0 Y0.07
G0 X3.125
G1 X296.94
G0 X3.125
G0 Y0.07
G0 X-3.125
G1 X-296.94
G0 X-3.125
G0 Y0.07
G0 X3.125
G1 X296.94
G0 X3.125
G0 Y0.07
G0 X-3.125
G1 X-296.94
G0 X-3.125
G0 Y0.07
G0 X3.125
G1 X296.94
G0 X3.125
G0 Y0.07
G0 X-3.125
G1 X-296.94
G0 X-3.125
G0 Y0.07
G0 X3.125
G1 X296.94
G0 X3.125
G0 Y0.07
G0 X-3.125
G1 X-296.94
G0 X-3.125
G0 Y0.07
G0 X3.125
G1 X296.94
G0 X3.125
G0 Y0.07
G0 X-3.125
G1 X-296.94
G0 X-3.125
G0 Y0.07
G0 X3.125
G1 X296.94
G0 X3.125
G0 Y0.07
G0 X-3.125
G1 X-296.94
G0 X-3.125
G0 Y0.07
G0 X3.125
G1 X296.94
G0 X3.125
G0 Y0.07
G0 X-3.125
G1 X-296.94
G0 X-3.125
G0 Y0.07
G0 X3.125
G1 X296.94
G0 X3.125
G0 Y0.07
G0 X-3.125
G1 X-296.94
G0 X-3.125
G0 Y0.07
G0 X3.125
G1 X296.94
G0 X3.125
G0 Y0.07
G0 X-3.125
G1 X-296.94
G0 X-3.125
G0 Y0.07
G0 X3.125
G1 X296.94
G0 X3.125
G0 Y0.07
G0 X-3.125
G1 X-296.94
G0 X-3.125
G0 Y0.07
G0 X3.125
G1 X296.94
G0 X3.125
G0 Y0.07
G0 X-3.125
G1 X-296.94
G0 X-3.125
G0 Y0.07
G0 X3.125
G1 X296.94
G0 X3.125
G0 Y0.07
G0 X-3.125
G1 X-296.94
G0 X-3.125
G0 Y0.07
G0 X3.125
G1 X296.94
G0 X3.125
G0 Y0.07
G0 X-3.125
G1 X-296.94
G0 X-3.125
G0 Y0.07
G0 X3.125
G1 X296.94
G0 X3.125
G0 Y0.07
G0 X-3.125
G1 X-296.94
G0 X-3.125
G0 Y0.07
G0 X3.125
G1 X296.94
G0 X3.125
G0 Y0.07
G0 X-3.125
G1 X-296.94
G0 X-3.125
G0 Y0.07
G0 X3.125
G1 X296.94
G0 X3.125
G0 Y0.07
G0 X-3.125
G1 X-296.94
G0 X-3.125
G0 Y0.07
G0 X3.125
G1 X296.94
G0 X3.125
G0 Y0.07
G0 X-3.125
G1 X-296.94
G0 X-3.125
G0 Y0.07
G0 X3.125
G1 X296.94
G0 X3.125
G0 Y0.07
G0 X-3.125
G1 X-296.94
G0 X-3.125
G0 Y0.07
G0 X3.125
G1 X296.94
G0 X3.125
G0 Y0.07
G0 X-3.125
G1 X-296.94
G0 X-3.125
G0 Y0.07
G0 X3.125
G1 X296.94
G0 X3.125
G0 Y0.07
G0 X-3.125
G1 X-296.94
G0 X-3.125
G0 Y0.07
G0 X3.125
G1 X296.94
G0 X3.125
G0 Y0.07
G0 X-3.125
G1 X-296.94
G0 X-3.125
G0 Y0.07
G0 X3.125
G1 X296.94
G0 X3.125
G0 Y0.07
G0 X-3.125
G1 X-296.94
G0 X-3.125
G0 Y0.07
G0 X3.125
G1 X296.94
G0 X3.125
G0 Y0.07
G0 X-3.125
G1 X-296.94
G0 X-3.125
G0 Y0.07
G0 X3.125
G1 X296.94
G0 X3.125
G0 Y0.07
G0 X-3.125
G1 X-296.94
G0 X-3.125
G0 Y0.07
G0 X3.125
G1 X296.94
G0 X3.125
G0 Y0.07
G0 X-3.125
G1 X-296.94
G0 X-3.125
G0 Y0.07
G0 X3.125
G1 X296.94
G0 X3.125
G0 Y0.07
G0 X-3.125
G1 X-296.94
G0 X-3.125
G0 Y0.07
G0 X3.125
G1 X296.94
G0 X3.125
G0 Y0.07
G0 X-3.125
G1 X-296.94
G0 X-3.125
G0 Y0.07
G0 X3.125
G1 X296.94
G0 X3.125
G0 Y0.07
G0 X-3.125
G1 X-296.94
G0 X-3.125
G0 Y0.07
G0 X3.125
G1 X296.94
G0 X3.125
G0 Y0.07
G0 X-3.125
G1 X-296.94
G0 X-3.125
G0 Y0.07
G0 X3.125
G1 X296.94
G0 X3.125
G0 Y0.07
G0 X-3.125
G1 X-296.94
G0 X-3.125
G0 Y0.07
G0 X3.125
G1 X296.94
G0 X3.125
G0 Y0.07
G0 X-3.125
G1 X-296.94
G0 X-3.125
G0 Y0.07
G0 X3.125
G1 X296.94
G0 X3.125
G0 Y0.07
G0 X-3.125
G1 X-296.94
G0 X-3.125
G0 Y0.07
G0 X3.125
G1 X296.94
G0 X3.125
G0 Y0.07
G0 X-3.125
G1 X-296.94
G0 X-3.125
G0 Y0.07
G0 X3.125
G1 X296.94
G0 X3.125
G0 Y0.07
G0 X-3.125
G1 X-296.94
G0 X-3.125
G0 Y0.07
G0 X3.125
G1 X296.94
G0 X3.125
G0 Y0.07
G0 X-3.125
G1 X-296.94
G0 X-3.125
G0 Y0.07
G0 X3.125
G1 X296.94
G0 X3.125
G0 Y0.07
G0 X-3.125
G1 X-296.94
G0 X-3.125
G0 Y0.07
G0 X3.125
G1 X296.94
G0 X3.125
G0 Y0.07
G0 X-3.125
G1 X-296.94
G0 X-3.125
G0 Y0.07
G0 X3.125
G1 X296.94
G0 X3.125
G0 Y0.07
G0 X-3.125
G1 X-296.94
G0 X-3.125
G0 Y0.07
G0 X3.125
G1 X296.94
G0 X3.125
G0 Y0.07
G0 X-3.125
G1 X-296.94
G0 X-3.125
G0 Y0.07
G0 X3.125
G1 X296.94
G0 X3.125
G0 Y0.07
G0 X-3.125
G1 X-296.94
G0 X-3.125
G0 Y0.07
G0 X3.125
G1 X296.94
G0 X3.125
G0 Y0.07
G0 X-3.125
G1 X-296.94
G0 X-3.125
G0 Y0.07
G0 X3.125
G1 X296.94
G0 X3.125
G0 Y0.07
G0 X-3.125
G1 X-296.94
G0 X-3.125
G0 Y0.07
G0 X3.125
G1 X296.94
G0 X3.125
G0 Y0.07
G0 X-3.125
G1 X-296.94
G0 X-3.125
G0 Y0.07
G0 X3.125
G1 X296.94
G0 X3.125
G0 Y0.07
G0 X-3.125
G1 X-296.94
G0 X-3.125
G0 Y0.07
G0 X3.125
G1 X296.94
G0 X3.125
G0 Y0.07
G0 X-3.125
G1 X-296.94
G0 X-3.125
G0 Y0.07
G0 X3.125
G1 X296.94
G0 X3.125
G0 Y0.07
G0 X-3.125
G1 X-296.94
G0 X-3.125
G0 Y0.07
G0 X3.125
G1 X296.94
G0 X3.125
G0 Y0.07
G0 X-3.125
G1 X-296.94
G0 X-3.125
G0 Y0.07
G0 X3.125
G1 X296.94
G0 X3.125
G0 Y0.07
G0 X-3.125
G1 X-296.94
G0 X-3.125
G0 Y0.07
G0 X3.125
G1 X296.94
G0 X3.125
G0 Y0.07
G0 X-3.125
G1 X-296.94
G0 X-3.125
G0 Y0.07
G0 X3.125
G1 X296.94
G0 X3.125
G0 Y0.07
G0 X-3.125
G1 X-296.94
G0 X-3.125
G0 Y0.07
G0 X3.125
G1 X296.94
G0 X3.125
G0 Y0.07
G0 X-3.125
G1 X-296.94
G0 X-3.125
G0 Y0.07
G0 X3.125
G1 X296.94
G0 X3.125
G0 Y0.07
G0 X-3.125
G1 X-296.94
G0 X-3.125
G0 Y0.07
G0 X3.125
G1 X296.94
G0 X3.125
G0 Y0.07
G0 X-3.125
G1 X-296.94
G0 X-3.125
G0 Y0.07
G0 X3.125
G1 X296.94
G0 X3.125
G0 Y0.07
G0 X-3.125
G1 X-296.94
G0 X-3.125
G0 Y0.07
G0 X3.125
G1 X296.94
G0 X3.125
G0 Y0.07
G0 X-3.125
G1 X-296.94
G0 X-3.125
G0 Y0.07
G0 X3.125
G1 X296.94
G0 X3.125
G0 Y0.07
G0 X-3.125
G1 X-296.94
G0 X-3.125
G0 Y0.07
G0 X3.125
G1 X296.94
G0 X3.125
G0 Y0.07
G0 X-3.125
G1 X-296.94
G0 X-3.125
G0 Y0.07
G0 X3.125
G1 X296.94
G0 X3.125
G0 Y0.07
G0 X-3.125
G1 X-296.94
G0 X-3.125
G0 Y0.07
G0 X3.125
G1 X296.94
G0 X3.125
G0 Y0.07
G0 X-3.125
G1 X-296.94
G0 X-3.125
G0 Y0.07
G0 X3.125
G1 X296.94
G0 X3.125
G0 Y0.07
G0 X-3.125
G1 X-296.94
G0 X-3.125
G0 Y0.07
G0 X3.125
G1 X296.94
G0 X3.125
G0 Y0.07
G0 X-3.125
G1 X-296.94
G0 X-3.125
G0 Y0.07
G0 X3.125
G1 X296.94
G0 X3.125
G0 Y0.07
G0 X-3.125
G1 X-296.94
G0 X-3.125
G0 Y0.07
G0 X3.125
G1 X296.94
G0 X3.125
G0 Y0.07
G0 X-3.125
G1 X-296.94
G0 X-3.125
G0 Y0.07
G0 X3.125
G1 X296.94
G0 X3.125
G0 Y0.07
G0 X-3.125
G1 X-296.94
G0 X-3.125
G0 Y0.07
G0 X3.125
G1 X296.94
G0 X3.125
G0 Y0.07
G0 X-3.125
G1 X-296.94
G0 X-3.125
G0 Y0.07
G0 X3.125
G1 X296.94
G0 X3.125
G0 Y0.07
G0 X-3.125
G1 X-296.94
G0 X-3.125
G0 Y0.07
G0 X3.125
G1 X296.94
G0 X3.125
G0 Y0.07
G0 X-3.125
G1 X-296.94
G0 X-3.125
G0 Y0.07
G0 X3.125
G1 X296.94
G0 X3.125
G0 Y0.07
G0 X-3.125
G1 X-296.94
G0 X-3.125
G0 Y0.07
G0 X3.125
G1 X296.94
G0 X3.125
G0 Y0.07
G0 X-3.125
G1 X-296.94
G0 X-3.125
G0 Y0.07
G0 X3.125
G1 X296.94
G0 X3.125
G0 Y0.07
G0 X-3.125
G1 X-296.94
G0 X-3.125
G0 Y0.07
G0 X3.125
G1 X296.94
G0 X3.125
G0 Y0.07
G0 X-3.125
G1 X-296.94
G0 X-3.125
G0 Y0.07
G0 X3.125
G1 X296.94
G0 X3.125
G0 Y0.07
G0 X-3.125
G1 X-296.94
G0 X-3.125
G0 Y0.07
G0 X3.125
G1 X296.94
G0 X3.125
G0 Y0.07
G0 X-3.125
G1 X-296.94
G0 X-3.125
G0 Y0.07
G0 X3.125
G1 X296.94
G0 X3.125
G0 Y0.07
G0 X-3.125
G1 X-296.94
G0 X-3.125
G0 Y0.07
G0 X3.125
G1 X296.94
G0 X3.125
G0 Y0.07
G0 X-3.125
G1 X-296.94
G0 X-3.125
G0 Y0.07
G0 X3.125
G1 X296.94
G0 X3.125
G0 Y0.07
G0 X-3.125
G1 X-296.94
G0 X-3.125
G0 Y0.07
G0 X3.125
G1 X296.94
G0 X3.125
G0 Y0.07
G0 X-3.125
G1 X-296.94
G0 X-3.125
G0 Y0.07
G0 X3.125
G1 X296.94
G0 X3.125
G0 Y0.07
G0 X-3.125
G1 X-296.94
G0 X-3.125
G0 Y0.07
G0 X3.125
G1 X296.94
G0 X3.125
G0 Y0.07
G0 X-3.125
G1 X-296.94
G0 X-3.125
G0 Y0.07
G0 X3.125
G1 X296.94
G0 X3.125
G0 Y0.07
G0 X-3.125
G1 X-296.94
G0 X-3.125
G0 Y0.07
G0 X3.125
G1 X296.94
G0 X3.125
G0 Y0.07
G0 X-3.125
G1 X-296.94
G0 X-3.125
G0 Y0.07
G0 X3.125
G1 X296.94
G0 X3.125
G0 Y0.07
G0 X-3.125
G1 X-296.94
G0 X-3.125
G0 Y0.07
G0 X3.125
G1 X296.94
G0 X3.125
G0 Y0.07
G0 X-3.125
G1 X-296.94
G0 X-3.125
G0 Y0.07
G0 X3.125
G1 X296.94
G0 X3.125
G0 Y0.07
G0 X-3.125
G1 X-296.94
G0 X-3.125
G0 Y0.07
G0 X3.125
G1 X296.94
G0 X3.125
G0 Y0.07
G0 X-3.125
G1 X-296.94
G0 X-3.125
G0 Y0.07
G0 X3.125
G1 X296.94
G0 X3.125
G0 Y0.07
G0 X-3.125
G1 X-296.94
G0 X-3.125
G0 Y0.07
G0 X3.125
G1 X296.94
G0 X3.125
G0 Y0.07
G0 X-3.125
G1 X-296.94
G0 X-3.125
G0 Y0.07
G0 X3.125
G1 X296.94
G0 X3.125
G0 Y0.07
G0 X-3.125
G1 X-296.94
G0 X-3.125
G0 Y0.07
G0 X3.125
G1 X296.94
G0 X3.125
G0 Y0.07
G0 X-3.125
G1 X-296.94
G0 X-3.125
G0 Y0.07
G0 X3.125
G1 X296.94
G0 X3.125
G0 Y0.07
G0 X-3.125
G1 X-296.94
G0 X-3.125
G0 Y0.07
G0 X3.125
G1 X296.94
G0 X3.125
G0 Y0.07
G0 X-3.125
G1 X-296.94
G0 X-3.125
G0 Y0.07
G0 X3.125
G1 X296.94
G0 X3.125
G0 Y0.07
G0 X-3.125
G1 X-296.94
G0 X-3.125
G0 Y0.07
G0 X3.125
G1 X296.94
G0 X3.125
G0 Y0.07
G0 X-3.125
G1 X-296.94
G0 X-3.125
G0 Y0.07
G0 X3.125
G1 X296.94
G0 X3.125
G0 Y0.07
G0 X-3.125
G1 X-296.94
G0 X-3.125
G0 Y0.07
G0 X3.125
G1 X296.94
G0 X3.125
G0 Y0.07
G0 X-3.125
G1 X-296.94
G0 X-3.125
G0 Y0.07
G0 X3.125
G1 X296.94
G0 X3.125
G0 Y0.07
G0 X-3.125
G1 X-296.94
G0 X-3.125
G0 Y0.07
G0 X3.125
G1 X296.94
G0 X3.125
G0 Y0.07
G0 X-3.125
G1 X-296.94
G0 X-3.125
G0 Y0.07
G0 X3.125
G1 X296.94
G0 X3.125
G0 Y0.07
G0 X-3.125
G1 X-296.94
G0 X-3.125
G0 Y0.07
G0 X3.125
G1 X296.94
G0 X3.125
G0 Y0.07
G0 X-3.125
G1 X-296.94
G0 X-3.125
G0 Y0.07
G0 X3.125
G1 X296.94
G0 X3.125
G0 Y0.07
G0 X-3.125
G1 X-296.94
G0 X-3.125
G0 Y0.07
G0 X3.125
G1 X296.94
G0 X3.125
G0 Y0.07
G0 X-3.125
G1 X-296.94
G0 X-3.125
G0 Y0.07
G0 X3.125
G1 X296.94
G0 X3.125
G0 Y0.07
G0 X-3.125
G1 X-296.94
G0 X-3.125
G0 Y0.07
G0 X3.125
G1 X296.94
G0 X3.125
G0 Y0.07
G0 X-3.125
G1 X-296.94
G0 X-3.125
G0 Y0.07
G0 X3.125
G1 X296.94
G0 X3.125
G0 Y0.07
G0 X-3.125
G1 X-296.94
G0 X-3.125
G0 Y0.07
G0 X3.125
G1 X296.94
G0 X3.125
G0 Y0.07
G0 X-3.125
G1 X-296.94
G0 X-3.125
G0 Y0.07
G0 X3.125
G1 X296.94
G0 X3.125
G0 Y0.07
G0 X-3.125
G1 X-296.94
G0 X-3.125
G0 Y0.07
G0 X3.125
G1 X296.94
G0 X3.125
G0 Y0.07
G0 X-3.125
G1 X-296.94
G0 X-3.125
G0 Y0.07
G0 X3.125
G1 X296.94
G0 X3.125
G0 Y0.07
G0 X-3.125
G1 X-296.94
G0 X-3.125
G0 Y0.07
G0 X3.125
G1 X296.94
G0 X3.125
G0 Y0.07
G0 X-3.125
G1 X-296.94
G0 X-3.125
G0 Y0.07
G0 X3.125
G1 X296.94
G0 X3.125
G0 Y0.07
G0 X-3.125
G1 X-296.94
G0 X-3.125
G0 Y0.07
G0 X3.125
G1 X296.94
G0 X3.125
G0 Y0.07
G0 X-3.125
G1 X-296.94
G0 X-3.125
G0 Y0.07
G0 X3.125
G1 X296.94
G0 X3.125
G0 Y0.07
G0 X-3.125
G1 X-296.94
G0 X-3.125
G0 Y0.07
G0 X3.125
G1 X296.94
G0 X3.125
G0 Y0.07
G0 X-3.125
G1 X-296.94
G0 X-3.125
G0 Y0.07
G0 X3.125
G1 X296.94
G0 X3.125
G0 Y0.07
G0 X-3.125
G1 X-296.94
G0 X-3.125
G0 Y0.07
G0 X3.125
G1 X296.94
G0 X3.125
G0 Y0.07
G0 X-3.125
G1 X-296.94
G0 X-3.125
G0 Y0.07
G0 X3.125
G1 X296.94
G0 X3.125
G0 Y0.07
G0 X-3.125
G1 X-296.94
G0 X-3.125
G0 Y0.07
G0 X3.125
G1 X296.94
G0 X3.125
G0 Y0.07
G0 X-3.125
G1 X-296.94
G0 X-3.125
G0 Y0.07
G0 X3.125
G1 X296.94
G0 X3.125
G0 Y0.07
G0 X-3.125
G1 X-296.94
G0 X-3.125
G0 Y0.07
G0 X3.125
G1 X296.94
G0 X3.125
G0 Y0.07
G0 X-3.125
G1 X-296.94
G0 X-3.125
G0 Y0.07
G0 X3.125
G1 X296.94
G0 X3.125
G0 Y0.07
G0 X-3.125
G1 X-296.94
G0 X-3.125
G0 Y0.07
G0 X3.125
G1 X296.94
G0 X3.125
G0 Y0.07
G0 X-3.125
G1 X-296.94
G0 X-3.125
G0 Y0.07
G0 X3.125
G1 X296.94
G0 X3.125
G0 Y0.07
G0 X-3.125
G1 X-296.94
G0 X-3.125
G0 Y0.07
G0 X3.125
G1 X296.94
G0 X3.125
G0 Y0.07
G0 X-3.125
G1 X-296.94
G0 X-3.125
G0 Y0.07
G0 X3.125
G1 X296.94
G0 X3.125
G0 Y0.07
G0 X-3.125
G1 X-296.94
G0 X-3.125
G0 Y0.07
G0 X3.125
G1 X296.94
G0 X3.125
G0 Y0.07
G0 X-3.125
G1 X-296.94
G0 X-3.125
G0 Y0.07
G0 X3.125
G1 X296.94
G0 X3.125
G0 Y0.07
G0 X-3.125
G1 X-296.94
G0 X-3.125
G0 Y0.07
G0 X3.125
G1 X296.94
G0 X3.125
G0 Y0.07
G0 X-3.125
G1 X-296.94
G0 X-3.125
G0 Y0.07
G0 X3.125
G1 X296.94
G0 X3.125
G0 Y0.07
G0 X-3.125
G1 X-296.94
G0 X-3.125
G0 Y0.07
G0 X3.125
G1 X296.94
G0 X3.125
G0 Y0.07
G0 X-3.125
G1 X-296.94
G0 X-3.125
G0 Y0.07
G0 X3.125
G1 X296.94
G0 X3.125
G0 Y0.07
G0 X-3.125
G1 X-296.94
G0 X-3.125
G0 Y0.07
G0 X3.125
G1 X296.94
G0 X3.125
G0 Y0.07
G0 X-3.125
G1 X-296.94
G0 X-3.125
G0 Y0.07
G0 X3.125
G1 X296.94
G0 X3.125
G0 Y0.07
G0 X-3.125
G1 X-296.94
G0 X-3.125
G0 Y0.07
G0 X3.125
G1 X296.94
G0 X3.125
G0 Y0.07
G0 X-3.125
G1 X-296.94
G0 X-3.125
G0 Y0.07
G0 X3.125
G1 X296.94
G0 X3.125
G0 Y0.07
G0 X-3.125
G1 X-296.94
G0 X-3.125
G0 Y0.07
G0 X3.125
G1 X296.94
G0 X3.125
G0 Y0.07
G0 X-3.125
G1 X-296.94
G0 X-3.125
G0 Y0.07
G0 X3.125
G1 X296.94
G0 X3.125
G0 Y0.07
G0 X-3.125
G1 X-296.94
G0 X-3.125
G0 Y0.07
G0 X3.125
G1 X296.94
G0 X3.125
G0 Y0.07
G0 X-3.125
G1 X-296.94
G0 X-3.125
G0 Y0.07
G0 X3.125
G1 X296.94
G0 X3.125
G0 Y0.07
G0 X-3.125
G1 X-296.94
G0 X-3.125
G0 Y0.07
G0 X3.125
G1 X296.94
G0 X3.125
G0 Y0.07
G0 X-3.125
G1 X-296.94
G0 X-3.125
G0 Y0.07
G0 X3.125
G1 X296.94
G0 X3.125
G0 Y0.07
G0 X-3.125
G1 X-296.94
G0 X-3.125
G0 Y0.07
G0 X3.125
G1 X296.94
G0 X3.125
G0 Y0.07
G0 X-3.125
G1 X-296.94
G0 X-3.125
G0 Y0.07
G0 X3.125
G1 X296.94
G0 X3.125
G0 Y0.07
G0 X-3.125
G1 X-296.94
G0 X-3.125
G0 Y0.07
G0 X3.125
G1 X296.94
G0 X3.125
G0 Y0.07
G0 X-3.125
G1 X-296.94
G0 X-3.125
G0 Y0.07
G0 X3.125
G1 X296.94
G0 X3.125
G0 Y0.07
G0 X-3.125
G1 X-296.94
G0 X-3.125
G0 Y0.07
G0 X3.125
G1 X296.94
G0 X3.125
G0 Y0.07
G0 X-3.125
G1 X-296.94
G0 X-3.125
G0 Y0.07
G0 X3.125
G1 X296.94
G0 X3.125
G0 Y0.07
G0 X-3.125
G1 X-296.38
G0 X-3.125
G0 X0.98Y0.07
G0 X3.125
G1 X295.4
G0 X3.125
G0 Y0.07
G0 X-3.125
G1 X-294.49
G1 X-0.07S0
G1 X-0.14S800
G1 X-0.07S0
G1 X-0.14S800
G0 X-3.125
G0 X1.05Y0.07
G0 X3.125
G1 X293.86
G0 X3.125
G0 Y0.07
G0 X-3.125
G1 X-292.88
G0 X-3.125
G0 X-4.06Y0.07
G0 X3.125
G1 X0.21
G1 X0.14S0
G1 X0.07S800
G1 X0.14S0
G1 X0.07S800
G1 X3.99S0
G1 X292.32S800
G0 X3.125
G0 Y0.07
G0 X-3.125
G1 X-291.2
G1 X-4.48S0
G1 X-1.26S800
G0 X-3.125
G0 Y0.07
G0 X3.125
G1 X2.24
G1 X4.34S0
G1 X0.07S800
G1 X0.21S0
G1 X290.08S800
G0 X3.125
G0 Y0.07
G0 X-3.125
G1 X-289.45
G1 X-4.69S0
G1 X-2.8S800
G0 X-3.125
G0 Y0.07
G0 X3.125
G1 X3.78
G1 X4.9S0
G1 X288.26S800
G0 X3.125
G0 Y0.07
G0 X-3.125
G1 X-287.21
G1 X-0.14S0
G1 X-0.07S800
G1 X-0.14S0
G1 X-0.07S800
G1 X-4.62S0
G1 X-4.69S800
G0 X-3.125
G0 X0.49Y0.07
G0 X3.125
G1 X4.9
G1 X5.04S0
G1 X286.51S800
G0 X3.125
G0 Y0.07
G0 X-3.125
G1 X-285.32
G1 X-5.04S0
G1 X-4.76S800
G0 X-3.125
G0 X0.91Y0.07
G0 X3.125
G1 X0.07
G1 X0.07S0
G1 X0.07S800
G1 X0.07S0
G1 X4.41S800
G1 X0.07S0
G1 X0.14S800
G1 X4.62S0
G1 X0.07S800
G1 X0.14S0
G1 X0.07S800
G1 X0.14S0
G1 X284.27S800
G0 X3.125
G0 Y0.07
G0 X-3.125
G1 X-283.57
G1 X-5.04S0
G1 X-4.55S800
G0 X-3.125
G0 X1.33Y0.07
G0 X3.125
G1 X4.41
G1 X5.04S0
G1 X282.38S800
G0 X3.125
G0 Y0.07
G0 X-3.125
G1 X-281.33
G1 X-0.07S0
G1 X-0.07S800
G1 X-0.07S0
G1 X-0.07S800
G1 X-0.07S0
G1 X-0.07S800
G1 X-4.55S0
G1 X-0.07S800
G1 X-0.07S0
G1 X-0.07S800
G1 X-0.07S0
G1 X-0.14S800
G1 X-0.07S0
G1 X-3.78S800
G1 X-0.07S0
G1 X-0.07S800
G1 X-0.07S0
G1 X-0.07S800
G1 X-0.07S0
G1 X-0.21S800
G1 X-5.04S0
G1 X-0.07S800
G1 X-0.07S0
G1 X-0.14S800
G1 X-0.07S0
G1 X-0.14S800
G1 X-0.07S0
G1 X-0.21S800
G0 X-3.125
G0 Y0.07
G0 X3.125
G1 X1.4
G1 X5.67S0
G1 X4.2S800
G1 X5.04S0
G1 X280.63S800
G0 X3.125
G0 Y0.07
G0 X-3.125
G1 X-279.3
G1 X-5.25S0
G1 X-3.99S800
G1 X-5.67S0
G1 X-2.73S800
G0 X-3.125
G0 Y0.07
G0 X3.125
G1 X3.57
G1 X0.07S0
G1 X0.14S800
G1 X0.07S0
G1 X0.07S800
G1 X5.18S0
G1 X0.07S800
G1 X0.07S0
G1 X0.07S800
G1 X0.07S0
G1 X0.07S800
G1 X0.07S0
G1 X0.07S800
G1 X0.07S0
G1 X3.43S800
G1 X0.07S0
G1 X0.14S800
G1 X0.07S0
G1 X0.07S800
G1 X0.07S0
G1 X0.07S800
G1 X4.83S0
G1 X0.07S800
G1 X0.07S0
G1 X0.14S800
G1 X0.07S0
G1 X0.07S800
G1 X0.07S0
G1 X0.14S800
G1 X0.07S0
G1 X277.83S800
G0 X3.125
G0 Y0.07
G0 X-3.125
G1 X-277.13
G1 X-5.6S0
G1 X-3.78S800
G1 X-5.74S0
G1 X-4.69S800
G0 X-3.125
G0 Y0.07
G0 X3.125
G1 X6.02
G1 X5.67S0
G1 X3.71S800
G1 X5.81S0
G1 X275.73S800
G0 X3.125
G0 Y0.07
G0 X-3.125
G1 X-274.33
G1 X-0.07S0
G1 X-0.14S800
G1 X-0.07S0
G1 X-0.14S800
G1 X-0.07S0
G1 X-0.14S800
G1 X-5.46S0
G1 X-0.07S800
G1 X-0.14S0
G1 X-0.07S800
G1 X-0.07S0
G1 X-0.07S800
G1 X-0.07S0
G1 X-3.01S800
G1 X-0.07S0
G1 X-0.14S800
G1 X-0.07S0
G1 X-0.14S800
G1 X-0.07S0
G1 X-0.14S800
G1 X-5.11S0
G1 X-0.07S800
G1 X-0.14S0
G1 X-0.07S800
G1 X-0.07S0
G1 X-0.07S800
G1 X-0.07S0
G1 X-6.79S800
G0 X-3.125
G0 Y0.07
G0 X3.125
G1 X8.05
G1 X5.6S0
G1 X3.64S800
G1 X6.09S0
G1 X273.56S800
G0 X3.125
G0 Y0.07
G0 X-3.125
G1 X-272.16
G1 X-6.09S0
G1 X-3.71S800
G1 X-0.21S0
G1 X-0.07S800
G1 X-0.14S0
G1 X-0.07S800
G1 X-5.18S0
G1 X-9.31S800
G0 X-3.125
G0 Y0.07
G0 X3.125
G1 X10.01
G1 X0.14S0
G1 X0.07S800
G1 X0.14S0
G1 X0.07S800
G1 X5.25S0
G1 X0.07S800
G1 X0.07S0
G1 X0.14S800
G1 X0.07S0
G1 X0.14S800
G1 X0.07S0
G1 X3.22S800
G1 X0.07S0
G1 X0.07S800
G1 X0.07S0
G1 X0.07S800
G1 X0.14S0
G1 X0.07S800
G1 X5.6S0
G1 X0.21S800
G1 X0.07S0
G1 X0.21S800
G1 X0.07S0
G1 X270.83S800
G0 X3.125
G0 Y0.07
G0 X-3.125
G1 X-270.06
G1 X-6.02S0
G1 X-3.92S800
G1 X-5.6S0
G1 X-11.34S800
G0 X-3.125
G0 X0.49Y0.07
G0 X3.125
G1 X12.11
G1 X5.11S0
G1 X0.07S800
G1 X0.49S0
G1 X3.99S800
G1 X6.16S0
G1 X268.52S800
G0 X3.125
G0 Y0.07
G0 X-3.125
G1 X-268.24
G1 X-5.04S0
G1 X-0.07S800
G1 X-0.14S0
G1 X-0.07S800
G1 X-0.07S0
G1 X-0.07S800
G1 X-0.14S0
G1 X-0.07S800
G1 X-0.07S0
G1 X-3.5S800
G1 X-0.07S0
G1 X-0.21S800
G1 X-0.07S0
G1 X-0.14S800
G1 X-5.67S0
G1 X-10.85S800
G1 X-0.07S0
G1 X-0.84S800
G0 X-3.125
G0 X2.03Y0.07
G0 X3.125
G1 X11.06
G1 X5.6S0
G1 X4.2S800
G1 X4.27S0
G1 X268.24S800
G0 X3.125
G0 Y0.07
G0 X-3.125
G1 X-268.03
G1 X-3.08S0
G1 X-4.27S800
G1 X-0.14S0
G1 X-0.07S800
G1 X-0.07S0
G1 X-0.07S800
G1 X-0.07S0
G1 X-0.07S800
G1 X-0.07S0
G1 X-0.07S800
G1 X-5.04S0
G1 X-10.36S800
G1 X-0.28S0
G1 X-0.07S800
G0 X-3.125
G0 X1.33Y0.07
G0 X3.125
G1 X0.91
G1 X0.07S0
G1 X9.1S800
G1 X5.67S0
G1 X0.07S800
G1 X0.07S0
G1 X0.14S800
G1 X0.07S0
G1 X3.92S800
G1 X0.14S0
G1 X0.07S800
G1 X2.24S0
G1 X267.96S800
G0 X3.125
G0 Y0.07
G0 X-3.125
G1 X-267.89
G1 X-1.4S0
G1 X-4.06S800
G1 X-5.67S0
G1 X-9.38S800
G0 X-3.125
G0 X-8.54Y0.07
G0 X3.125
G1 X1.68
G1 X0.07S0
G1 X0.14S800
G1 X8.26S0
G1 X0.07S800
G1 X0.14S0
G1 X0.07S800
G1 X0.14S0
G1 X0.07S800
G1 X0.21S0
G1 X7.84S800
G1 X0.07S0
G1 X0.14S800
G1 X0.07S0
G1 X0.14S800
G1 X0.07S0
G1 X0.07S800
G1 X5.04S0
G1 X0.07S800
G1 X0.07S0
G1 X0.07S800
G1 X0.07S0
G1 X0.07S800
G1 X0.07S0
G1 X2.66S800
G1 X0.91S0
G1 X0.21S800
G1 X0.63S0
G1 X267.82S800
G0 X3.125
G0 Y0.07
G0 X-3.125
G1 X-267.75
G1 X-0.56S0
G1 X-0.42S800
G1 X-1.12S0
G1 X-1.05S800
G1 X-0.07S0
G1 X-0.14S800
G1 X-0.07S0
G1 X-0.07S800
G1 X-0.07S0
G1 X-0.07S800
G1 X-5.67S0
G1 X-7.35S800
G1 X-0.07S0
G1 X-0.49S800
G1 X-9.03S0
G1 X-2.94S800
G0 X-3.125
G0 Y0.07
G0 X3.125
G1 X4.97
G1 X9.24S0
G1 X7S800
G1 X6.86S0
G1 X0.7S800
G1 X0.49S0
G1 X267.68S800
G0 X3.125
G0 Y0.07
G0 X-3.125
G1 X-267.68
G1 X-0.42S0
G1 X-0.98S800
G1 X-5.32S0
G1 X-0.07S800
G1 X-0.07S0
G1 X-0.14S800
G1 X-0.07S0
G1 X-0.14S800
G1 X-0.07S0
G1 X-5.46S800
G1 X-0.07S0
G1 X-0.07S800
G1 X-9.52S0
G1 X-0.07S800
G1 X-0.14S0
G1 X-0.07S800
G1 X-0.07S0
G1 X-0.14S800
G1 X-0.07S0
G1 X-0.14S800
G1 X-0.07S0
G1 X-6.09S800
G0 X-3.125
G0 Y0.07
G0 X3.125
G1 X7.91
G1 X9.8S0
G1 X5.46S800
G1 X4.55S0
G1 X1.19S800
G1 X0.42S0
G1 X267.61S800
G0 X3.125
G0 Y0.07
G0 X-3.125
G1 X-267.61
G1 X-0.35S0
G1 X-1.54S800
G1 X-2.94S0
G1 X-4.41S800
G1 X-9.87S0
G1 X-10.22S800
G0 X-3.125
G0 Y0.07
G0 X3.125
G1 X12.04
G1 X0.07S0
G1 X0.07S800
G1 X0.07S0
G1 X0.07S800
G1 X0.07S0
G1 X0.07S800
G1 X9.1S0
G1 X0.07S800
G1 X0.07S0
G1 X0.07S800
G1 X0.21S0
G1 X0.07S800
G1 X0.7S0
G1 X2.59S800
G1 X0.07S0
G1 X0.14S800
G1 X0.07S0
G1 X0.14S800
G1 X1.26S0
G1 X1.96S800
G1 X0.35S0
G1 X267.61S800
G0 X3.125
G0 Y0.07
G0 X-3.125
G1 X-267.54
G1 X-0.42S0
G1 X-4.83S800
G1 X-10.08S0
G1 X-0.07S800
G1 X-0.14S0
G1 X-0.07S800
G1 X-0.14S0
G1 X-13.65S800
G0 X-3.125
G0 Y0.07
G0 X3.125
G1 X15.89
G1 X10.85S0
G1 X2.24S800
G1 X0.35S0
G1 X267.61S800
G0 X3.125
G0 Y0.07
G0 X-3.125
G1 X-267.54
G1 X-0.49S0
G1 X-0.07S800
G1 X-0.07S0
G1 X-0.07S800
G1 X-0.07S0
G1 X-0.07S800
G1 X-0.07S0
G1 X-0.07S800
G1 X-0.07S0
G1 X-0.07S800
G1 X-0.07S0
G1 X-0.07S800
G1 X-10.01S0
G1 X-0.07S800
G1 X-0.07S0
G1 X-0.14S800
G1 X-0.07S0
G1 X-17.78S800
G0 X-3.125
G0 Y0.07
G0 X3.125
G1 X19.39
G1 X1.05S0
G1 X0.07S800
G1 X8.96S0
G1 X267.47S800
G0 X3.125
G0 Y0.07
G0 X-3.125
G1 X-267.47
G1 X-7.42S0
G1 X-22.05S800
G0 X-3.125
G0 Y0.07
G0 X3.125
G1 X21.56
G1 X0.07S0
G1 X0.07S800
G1 X0.14S0
G1 X0.07S800
G1 X0.07S0
G1 X0.14S800
G1 X0.07S0
G1 X0.56S800
G1 X0.07S0
G1 X0.07S800
G1 X0.07S0
G1 X0.07S800
G1 X6.44S0
G1 X267.47S800
G0 X3.125
G0 Y0.07
G0 X-3.125
G1 X-267.47
G1 X-9.73S0
G1 X-19.74S800
G0 X-3.125
G0 Y0.07
G0 X3.125
G1 X15.68
G1 X13.79S0
G1 X267.47S800
G0 X3.125
G0 Y0.07
G0 X-3.125
G1 X-268.66
G1 X-0.07S0
G1 X-0.07S800
G1 X-0.07S0
G1 X-0.07S800
G1 X-0.07S0
G1 X-0.07S800
G1 X-0.07S0
G1 X-0.07S800
G1 X-0.07S0
G1 X-0.07S800
G1 X-0.14S0
G1 X-0.07S800
G1 X-0.14S0
G1 X-0.07S800
G1 X-0.14S0
G1 X-0.07S800
G1 X-13.72S0
G1 X-0.07S800
G1 X-0.14S0
G1 X-0.07S800
G1 X-0.14S0
G1 X-0.07S800
G1 X-0.14S0
G1 X-0.07S800
G1 X-0.07S0
G1 X-0.07S800
G1 X-0.07S0
G1 X-0.07S800
G1 X-0.14S0
G1 X-0.07S800
G1 X-0.14S0
G1 X-0.07S800
G1 X-0.14S0
G1 X-0.07S800
G1 X-0.14S0
G1 X-0.07S800
G1 X-0.07S0
G1 X-0.14S800
G1 X-0.07S0
G1 X-0.21S800
G1 X-0.07S0
G1 X-0.21S800
G1 X-0.07S0
G1 X-10.57S800
G0 X-3.125
G0 Y0.07
G0 X3.125
G1 X6.72
G1 X18.83S0
G1 X271.39S800
G0 X3.125
G0 Y0.07
G0 X-3.125
G1 X-274.54
G0 X-3.125
G0 X-2.8Y0.07
G0 X3.125
G1 X0.07
G1 X0.14S0
G1 X0.07S800
G1 X0.07S0
G1 X0.14S800
G1 X0.07S0
G1 X0.21S800
G1 X0.07S0
G1 X0.14S800
G1 X0.07S0
G1 X276.29S800
G0 X3.125
G0 Y0.07
G0 X-3.125
G1 X-280.07
G1 X-0.28S0
G1 X-0.07S800
G0 X-3.125
G0 X-4.41Y0.07
G0 X3.125
G1 X284.83
G0 X3.125
G0 Y0.07
G0 X-3.125
G1 X-287.84
G1 X-0.07S0
G1 X-0.14S800
G1 X-0.07S0
G1 X-0.14S800
G1 X-0.07S0
G1 X-0.07S800
G1 X-0.07S0
G1 X-0.07S800
G1 X-0.07S0
G1 X-0.07S800
G1 X-0.14S0
G1 X-0.07S800
G1 X-0.84S0
G1 X-0.07S800
G1 X-0.28S0
G1 X-0.07S800
G1 X-0.84S0
G1 X-0.07S800
G1 X-0.14S0
G1 X-0.07S800
G1 X-0.14S0
G1 X-0.07S800
G1 X-0.14S0
G1 X-0.07S800
G1 X-0.21S0
G1 X-0.07S800
G0 X-3.125
G0 X-4.97Y0.07
G0 X3.125
G1 X296.94
G0 X3.125
G0 Y0.07
G0 X-3.125
G1 X-296.94
G0 X-3.125
G0 Y0.07
G0 X3.125
G1 X296.94
G0 X3.125
G0 Y0.07
G0 X-3.125
G1 X-296.94
G0 X-3.125
G0 Y0.07
G0 X3.125
G1 X296.94
G0 X3.125
G0 Y0.07
G0 X-3.125
G1 X-296.94
G0 X-3.125
G0 Y0.07
G0 X3.125
G1 X296.94
G0 X3.125
G0 Y0.07
G0 X-3.125
G1 X-296.94
G0 X-3.125
G0 Y0.07
G0 X3.125
G1 X296.94
G0 X3.125
G0 Y0.07
G0 X-3.125
G1 X-296.94
G0 X-3.125
G0 Y0.07
G0 X3.125
G1 X296.94
G0 X3.125
G0 Y0.07
G0 X-3.125
G1 X-296.94
G0 X-3.125
G0 Y0.07
G0 X3.125
G1 X296.94
G0 X3.125
G0 Y0.07
G0 X-3.125
G1 X-296.94
G0 X-3.125
G0 Y0.07
G0 X3.125
G1 X296.94
G0 X3.125
G0 Y0.07
G0 X-3.125
G1 X-296.94
G0 X-3.125
G0 Y0.07
G0 X3.125
G1 X296.94
G0 X3.125
G0 Y0.07
G0 X-3.125
G1 X-296.94
G0 X-3.125
G0 Y0.07
G0 X3.125
G1 X296.94
G0 X3.125
G0 Y0.07
G0 X-3.125
G1 X-296.94
G0 X-3.125
G0 Y0.07
G0 X3.125
G1 X296.94
G0 X3.125
G0 Y0.07
G0 X-3.125
G1 X-296.94
G0 X-3.125
G0 Y0.07
G0 X3.125
G1 X296.94
G0 X3.125
G0 Y0.07
G0 X-3.125
G1 X-296.94
G0 X-3.125
G0 Y0.07
G0 X3.125
G1 X296.94
G0 X3.125
G0 Y0.07
G0 X-3.125
G1 X-296.94
G0 X-3.125
G0 Y0.07
G0 X3.125
G1 X296.94
G0 X3.125
G0 Y0.07
G0 X-3.125
G1 X-296.94
G0 X-3.125
G0 Y0.07
G0 X3.125
G1 X296.94
G0 X3.125
G0 Y0.07
G0 X-3.125
G1 X-296.94
G0 X-3.125
G0 Y0.07
G0 X3.125
G1 X296.94
G0 X3.125
G0 Y0.07
G0 X-3.125
G1 X-296.94
G0 X-3.125
G0 Y0.07
G0 X3.125
G1 X296.94
G0 X3.125
G0 Y0.07
G0 X-3.125
G1 X-296.94
G0 X-3.125
G0 Y0.07
G0 X3.125
G1 X296.94
G0 X3.125
G0 Y0.07
G0 X-3.125
G1 X-296.94
G0 X-3.125
G0 Y0.07
G0 X3.125
G1 X296.94
G0 X3.125
G0 Y0.07
G0 X-3.125
G1 X-296.94
G0 X-3.125
G0 Y0.07
G0 X3.125
G1 X296.94
G0 X3.125
G0 Y0.07
G0 X-3.125
G1 X-296.94
G0 X-3.125
G0 Y0.07
G0 X3.125
G1 X296.94
G0 X3.125
G0 Y0.07
G0 X-3.125
G1 X-296.94
G0 X-3.125
G0 Y0.07
G0 X3.125
G1 X296.94
G0 X3.125
G0 Y0.07
G0 X-3.125
G1 X-296.94
G0 X-3.125
G0 Y0.07
G0 X3.125
G1 X296.94
G0 X3.125
G0 Y0.07
G0 X-3.125
G1 X-296.94
G0 X-3.125
G0 Y0.07
G0 X3.125
G1 X296.94
G0 X3.125
G0 Y0.07
G0 X-3.125
G1 X-296.94
G0 X-3.125
G0 Y0.07
G0 X3.125
G1 X296.94
G0 X3.125
G0 Y0.07
G0 X-3.125
G1 X-296.94
G0 X-3.125
G0 Y0.07
G0 X3.125
G1 X296.94
G0 X3.125
G0 Y0.07
G0 X-3.125
G1 X-296.94
G0 X-3.125
G0 Y0.07
G0 X3.125
G1 X296.94
G0 X3.125
G0 Y0.07
G0 X-3.125
G1 X-296.94
G0 X-3.125
G0 Y0.07
G0 X3.125
G1 X296.94
G0 X3.125
G0 Y0.07
G0 X-3.125
G1 X-296.94
G0 X-3.125
G0 Y0.07
G0 X3.125
G1 X296.94
G0 X3.125
G0 Y0.07
G0 X-3.125
G1 X-296.94
G0 X-3.125
G0 Y0.07
G0 X3.125
G1 X296.94
G0 X3.125
G0 Y0.07
G0 X-3.125
G1 X-296.94
G0 X-3.125
G0 Y0.07
G0 X3.125
G1 X296.94
G0 X3.125
G0 Y0.07
G0 X-3.125
G1 X-296.94
G0 X-3.125
G0 Y0.07
G0 X3.125
G1 X296.94
G0 X3.125
G0 Y0.07
G0 X-3.125
G1 X-296.94
G0 X-3.125
G0 Y0.07
G0 X3.125
G1 X296.94
G0 X3.125
G0 Y0.07
G0 X-3.125
G1 X-296.94
G0 X-3.125
G0 Y0.07
G0 X3.125
G1 X296.94
G0 X3.125
G0 Y0.07
G0 X-3.125
G1 X-296.94
G0 X-3.125
G0 Y0.07
G0 X3.125
G1 X296.94
G0 X3.125
G0 Y0.07
G0 X-3.125
G1 X-296.94
G0 X-3.125
G0 Y0.07
G0 X3.125
G1 X296.94
G0 X3.125
G0 Y0.07
G0 X-3.125
G1 X-296.94
G0 X-3.125
G0 Y0.07
G0 X3.125
G1 X296.94
G0 X3.125
G0 Y0.07
G0 X-3.125
G1 X-296.94
G0 X-3.125
G0 Y0.07
G0 X3.125
G1 X296.94
G0 X3.125
G0 Y0.07
G0 X-3.125
G1 X-296.94
G0 X-3.125
G0 Y0.07
G0 X3.125
G1 X296.94
G0 X3.125
G0 Y0.07
G0 X-3.125
G1 X-296.94
G0 X-3.125
G0 Y0.07
G0 X3.125
G1 X296.94
G0 X3.125
G0 Y0.07
G0 X-3.125
G1 X-296.94
G0 X-3.125
G0 Y0.07
G0 X3.125
G1 X296.94
G0 X3.125
G0 Y0.07
G0 X-3.125
G1 X-296.94
G0 X-3.125
G0 Y0.07
G0 X3.125
G1 X296.94
G0 X3.125
G0 Y0.07
G0 X-3.125
G1 X-296.94
G0 X-3.125
G0 Y0.07
G0 X3.125
G1 X296.94
G0 X3.125
G0 Y0.07
G0 X-3.125
G1 X-296.52
G1 X-0.07S0
G1 X-0.07S800
G1 X-0.07S0
G1 X-0.07S800
G0 X-3.125
G0 X0.77Y0.07
G0 X3.125
G1 X296.03
G0 X3.125
G0 Y0.07
G0 X-3.125
G1 X-295.12
G0 X-3.125
G0 X0.49Y0.07
G0 X3.125
G1 X0.14
G1 X0.07S0
G1 X0.14S800
G1 X0.07S0
G1 X294.21S800
G0 X3.125
G0 Y0.07
G0 X-3.125
G1 X-293.65
G0 X-3.125
G0 X-3.29Y0.07
G0 X3.125
G1 X0.21
G1 X4.13S0
G1 X292.6S800
G0 X3.125
G0 Y0.07
G0 X-3.125
G1 X-291.69
G1 X-0.07S0
G1 X-0.14S800
G1 X-0.07S0
G1 X-0.07S800
G1 X-3.85S0
G1 X-0.07S800
G1 X-0.14S0
G1 X-0.07S800
G1 X-0.07S0
G1 X-0.7S800
G0 X-3.125
G0 Y0.07
G0 X3.125
G1 X1.61
G1 X4.41S0
G1 X290.92S800
G0 X3.125
G0 Y0.07
G0 X-3.125
G1 X-289.73
G1 X-4.69S0
G1 X-2.52S800
G0 X-3.125
G0 Y0.07
G0 X3.125
G1 X3.01
G1 X0.07S0
G1 X0.07S800
G1 X0.07S0
G1 X0.07S800
G1 X0.14S0
G1 X0.07S800
G1 X4.34S0
G1 X289.1S800
G0 X3.125
G0 Y0.07
G0 X-3.125
G1 X-287.63
G1 X-5.25S0
G1 X-4.06S800
G0 X-3.125
G0 Y0.07
G0 X3.125
G1 X5.11
G1 X5.04S0
G1 X0.07S800
G1 X0.14S0
G1 X0.07S800
G1 X0.14S0
G1 X0.07S800
G1 X0.14S0
G1 X0.07S800
G1 X0.21S0
G1 X0.07S800
G1 X0.28S0
G1 X0.07S800
G1 X0.07S0
G1 X285.39S800
G0 X3.125
G0 Y0.07
G0 X-3.125
G1 X-280.98
G1 X-0.07S0
G1 X-0.28S800
G1 X-0.07S0
G1 X-0.21S800
G1 X-0.07S0
G1 X-0.21S800
G1 X-0.07S0
G1 X-0.21S800
G1 X-0.07S0
G1 X-0.21S800
G1 X-8.19S0
G1 X-0.07S800
G1 X-0.14S0
G1 X-0.07S800
G1 X-0.14S0
G1 X-0.07S800
G1 X-0.14S0
G1 X-5.67S800
G0 X-3.125
G0 Y0.07
G0 X3.125
G1 X6.93
G1 X11.55S0
G1 X278.46S800
G0 X3.125
G0 Y0.07
G0 X-3.125
G1 X-275.24
G1 X-0.14S0
G1 X-0.07S800
G1 X-0.28S0
G1 X-0.07S800
G1 X-0.28S0
G1 X-0.07S800
G1 X-0.21S0
G1 X-0.07S800
G1 X-0.14S0
G1 X-0.07S800
G1 X-12.25S0
G1 X-8.05S800
G0 X-3.125
G0 Y0.07
G0 X3.125
G1 X8.96
G1 X0.07S0
G1 X0.07S800
G1 X0.07S0
G1 X0.07S800
G1 X0.07S0
G1 X0.07S800
G1 X0.07S0
G1 X0.07S800
G1 X0.07S0
G1 X0.07S800
G1 X13.44S0
G1 X273.84S800
G0 X3.125
G0 Y0.07
G0 X-3.125
G1 X-271.32
G1 X-15.19S0
G1 X-10.43S800
G0 X-3.125
G0 Y0.07
G0 X3.125
G1 X14.42
G1 X0.07S0
G1 X0.14S800
G1 X0.07S0
G1 X0.14S800
G1 X0.07S0
G1 X0.14S800
G1 X0.07S0
G1 X0.14S800
G1 X0.07S0
G1 X0.14S800
G1 X11.34S0
G1 X0.07S800
G1 X0.14S0
G1 X0.07S800
G1 X0.14S0
G1 X0.07S800
G1 X0.14S0
G1 X0.07S800
G1 X0.14S0
G1 X269.29S800
G0 X3.125
G0 Y0.07
G0 X-3.125
G1 X-268.1
G1 X-9.45S0
G1 X-0.07S800
G1 X-0.14S0
G1 X-0.07S800
G1 X-0.14S0
G1 X-0.07S800
G1 X-0.14S0
G1 X-0.07S800
G1 X-0.21S0
G1 X-0.07S800
G1 X-0.14S0
G1 X-0.07S800
G1 X-0.14S0
G1 X-0.07S800
G1 X-0.14S0
G1 X-0.07S800
G1 X-0.14S0
G1 X-17.64S800
G0 X-3.125
G0 Y0.07
G0 X3.125
G1 X20.93
G1 X9.8S0
G1 X266.21S800
G0 X3.125
G0 Y0.07
G0 X-3.125
G1 X-264.39
G1 X-0.07S0
G1 X-0.07S800
G1 X-0.14S0
G1 X-0.07S800
G1 X-0.07S0
G1 X-0.07S800
G1 X-0.07S0
G1 X-0.07S800
G1 X-0.14S0
G1 X-0.07S800
G1 X-8.12S0
G1 X-0.07S800
G1 X-0.14S0
G1 X-0.07S800
G1 X-0.07S0
G1 X-0.14S800
G1 X-0.07S0
G1 X-21.84S800
G1 X-0.14S0
G1 X-0.07S800
G1 X-0.14S0
G1 X-0.07S800
G1 X-0.14S0
G1 X-0.07S800
G1 X-0.14S0
G1 X-0.07S800
G0 X-3.125
G0 X1.89Y0.07
G0 X3.125
G1 X22.75
G1 X8.47S0
G1 X263.48S800
G0 X3.125
G0 Y0.07
G0 X-3.125
G1 X-261.8
G1 X-7.91S0
G1 X-22.89S800
G0 X-3.125
G0 X1.19Y0.07
G0 X3.125
G1 X0.07
G1 X0.14S0
G1 X0.07S800
G1 X0.14S0
G1 X0.07S800
G1 X0.07S0
G1 X0.07S800
G1 X0.07S0
G1 X0.07S800
G1 X0.07S0
G1 X22.05S800
G1 X0.07S0
G1 X0.21S800
G1 X0.07S0
G1 X0.14S800
G1 X0.07S0
G1 X0.07S800
G1 X0.07S0
G1 X0.07S800
G1 X6.3S0
G1 X261.45S800
G0 X3.125
G0 Y0.07
G0 X-3.125
G1 X-261.45
G1 X-5.25S0
G1 X-22.75S800
G0 X-3.125
G0 X-7.49Y0.07
G0 X3.125
G1 X0.63
G1 X0.14S0
G1 X0.07S800
G1 X9.03S0
G1 X22.26S800
G1 X3.43S0
G1 X261.38S800
G0 X3.125
G0 Y0.07
G0 X-3.125
G1 X-261.31
G1 X-1.89S0
G1 X-0.07S800
G1 X-0.07S0
G1 X-0.14S800
G1 X-0.07S0
G1 X-0.14S800
G1 X-0.07S0
G1 X-20.72S800
G1 X-0.07S0
G1 X-0.14S800
G1 X-0.07S0
G1 X-0.14S800
G1 X-0.07S0
G1 X-0.14S800
G1 X-0.07S0
G1 X-0.14S800
G1 X-0.07S0
G1 X-0.14S800
G1 X-0.07S0
G1 X-0.14S800
G1 X-8.61S0
G1 X-0.07S800
G1 X-0.14S0
G1 X-0.07S800
G1 X-0.07S0
G1 X-0.14S800
G1 X-0.07S0
G1 X-0.14S800
G1 X-0.07S0
G1 X-1.82S800
G0 X-3.125
G0 Y0.07
G0 X3.125
G1 X3.78
G1 X10.08S0
G1 X0.21S800
G1 X0.07S0
G1 X20.58S800
G1 X0.91S0
G1 X261.31S800
G0 X3.125
G0 Y0.07
G0 X-3.125
G1 X-261.24
G1 X-0.42S0
G1 X-18.76S800
G1 X-10.64S0
G1 X-5.88S800
G0 X-3.125
G0 Y0.07
G0 X3.125
G1 X7.07
G1 X0.07S0
G1 X0.21S800
G1 X0.07S0
G1 X0.14S800
G1 X0.07S0
G1 X0.07S800
G1 X0.14S0
G1 X0.07S800
G1 X10.08S0
G1 X0.14S800
G1 X0.07S0
G1 X0.21S800
G1 X0.07S0
G1 X0.21S800
G1 X0.07S0
G1 X0.21S800
G1 X0.07S0
G1 X0.21S800
G1 X0.07S0
G1 X0.21S800
G1 X0.07S0
G1 X15.75S800
G1 X0.42S0
G1 X261.17S800
G0 X3.125
G0 Y0.07
G0 X-3.125
G1 X-261.1
G1 X-0.42S0
G1 X-13.79S800
G1 X-12.46S0
G1 X-9.17S800
G0 X-3.125
G0 Y0.07
G0 X3.125
G1 X11.83
G1 X13.51S0
G1 X10.08S800
G1 X0.49S0
G1 X261.03S800
G0 X3.125
G0 Y0.07
G0 X-3.125
G1 X-260.96
G1 X-0.49S0
G1 X-5.18S800
G1 X-0.07S0
G1 X-0.14S800
G1 X-0.07S0
G1 X-0.07S800
G1 X-0.07S0
G1 X-0.07S800
G1 X-0.07S0
G1 X-0.07S800
G1 X-0.07S0
G1 X-0.07S800
G1 X-0.07S0
G1 X-0.07S800
G1 X-0.07S0
G1 X-0.14S800
G1 X-0.07S0
G1 X-0.07S800
G1 X-0.07S0
G1 X-0.07S800
G1 X-0.07S0
G1 X-0.07S800
G1 X-0.07S0
G1 X-0.07S800
G1 X-0.07S0
G1 X-0.07S800
G1 X-0.07S0
G1 X-0.14S800
G1 X-0.07S0
G1 X-0.14S800
G1 X-0.07S0
G1 X-0.14S800
G1 X-0.07S0
G1 X-0.14S800
G1 X-0.07S0
G1 X-0.14S800
G1 X-13.93S0
G1 X-0.07S800
G1 X-0.14S0
G1 X-0.07S800
G1 X-0.07S0
G1 X-13.16S800
G0 X-3.125
G0 Y0.07
G0 X3.125
G1 X15.82
G1 X17.64S0
G1 X2.1S800
G1 X0.56S0
G1 X260.82S800
G0 X3.125
G0 Y0.07
G0 X-3.125
G1 X-260.75
G1 X-17.36S0
G1 X-18.83S800
G0 X-3.125
G0 Y0.07
G0 X3.125
G1 X20.72
G1 X0.07S0
G1 X0.07S800
G1 X0.07S0
G1 X0.07S800
G1 X0.07S0
G1 X0.07S800
G1 X0.07S0
G1 X0.07S800
G1 X0.07S0
G1 X0.07S800
G1 X0.07S0
G1 X0.07S800
G1 X0.14S0
G1 X0.07S800
G1 X0.14S0
G1 X0.07S800
G1 X0.14S0
G1 X0.07S800
G1 X14.14S0
G1 X260.61S800
G0 X3.125
G0 Y0.07
G0 X-3.125
G1 X-260.54
G1 X-12.04S0
G1 X-24.36S800
G0 X-3.125
G0 Y0.07
G0 X3.125
G1 X28.77
G1 X7.7S0
G1 X260.47S800
G0 X3.125
G0 Y0.07
G0 X-3.125
G1 X-260.54
G1 X-3.01S0
G1 X-0.07S800
G1 X-0.21S0
G1 X-0.07S800
G1 X-0.14S0
G1 X-0.07S800
G1 X-0.14S0
G1 X-0.07S800
G1 X-0.14S0
G1 X-0.07S800
G1 X-0.14S0
G1 X-0.07S800
G1 X-0.21S0
G1 X-0.07S800
G1 X-0.14S0
G1 X-31.78S800
G0 X-3.125
G0 Y0.07
G0 X3.125
G1 X296.94
G0 X3.125
G0 Y0.07
G0 X-3.125
G1 X-296.94
G0 X-3.125
G0 Y0.07
G0 X3.125
G1 X296.94
G0 X3.125
G0 Y0.07
G0 X-3.125
G1 X-296.94
G0 X-3.125
G0 Y0.07
G0 X3.125
G1 X296.94
G0 X3.125
G0 Y0.07
G0 X-3.125
G1 X-296.94
G0 X-3.125
G0 Y0.07
G0 X3.125
G1 X296.94
G0 X3.125
G0 Y0.07
G0 X-3.125
G1 X-296.94
G0 X-3.125
G0 Y0.07
G0 X3.125
G1 X296.94
G0 X3.125
G0 Y0.07
G0 X-3.125
G1 X-296.94
G0 X-3.125
G0 Y0.07
G0 X3.125
G1 X296.94
G0 X3.125
G0 Y0.07
G0 X-3.125
G1 X-296.94
G0 X-3.125
G0 Y0.07
G0 X3.125
G1 X296.94
G0 X3.125
G0 Y0.07
G0 X-3.125
G1 X-296.94
G0 X-3.125
G0 Y0.07
G0 X3.125
G1 X296.94
G0 X3.125
G0 Y0.07
G0 X-3.125
G1 X-296.94
G0 X-3.125
G0 Y0.07
G0 X3.125
G1 X296.94
G0 X3.125
G0 Y0.07
G0 X-3.125
G1 X-296.94
G0 X-3.125
G0 Y0.07
G0 X3.125
G1 X296.94
G0 X3.125
G0 Y0.07
G0 X-3.125
G1 X-296.94
G0 X-3.125
G0 Y0.07
G0 X3.125
G1 X296.94
G0 X3.125
G0 Y0.07
G0 X-3.125
G1 X-292.18
G1 X-0.07S0
G1 X-0.07S800
G0 X-3.125
G0 X3.15Y0.07
G0 X3.125
G1 X0.14
G1 X0.07S0
G1 X0.21S800
G1 X0.07S0
G1 X0.21S800
G1 X0.07S0
G1 X0.21S800
G1 X0.07S0
G1 X0.14S800
G1 X0.07S0
G1 X0.14S800
G1 X0.07S0
G1 X0.21S800
G1 X0.07S0
G1 X287.42S800
G0 X3.125
G0 Y0.07
G0 X-3.125
G1 X-284.48
G0 X-3.125
G0 X2.1Y0.07
G0 X3.125
G1 X0.07
G1 X0.14S0
G1 X0.07S800
G1 X1.54S0
G1 X280.56S800
G0 X3.125
G0 Y0.07
G0 X-3.125
G1 X-277.48
G1 X-0.07S0
G1 X-0.14S800
G1 X-0.07S0
G1 X-0.07S800
G1 X-0.07S0
G1 X-0.07S800
G1 X-0.07S0
G1 X-0.07S800
G1 X-0.07S0
G1 X-0.07S800
G1 X-0.07S0
G1 X-0.14S800
G1 X-0.07S0
G1 X-0.14S800
G1 X-0.07S0
G1 X-0.14S800
G0 X-3.125
G0 X-18.06Y0.07
G0 X3.125
G1 X2.17
G1 X18.97S0
G1 X275.8S800
G0 X3.125
G0 Y0.07
G0 X-3.125
G1 X-273
G1 X-0.56S0
G1 X-0.07S800
G1 X-0.21S0
G1 X-0.07S800
G1 X-0.14S0
G1 X-0.07S800
G1 X-0.14S0
G1 X-0.07S800
G1 X-13.72S0
G1 X-0.07S800
G1 X-0.07S0
G1 X-0.14S800
G1 X-0.07S0
G1 X-0.14S800
G1 X-0.07S0
G1 X-0.14S800
G1 X-0.07S0
G1 X-0.14S800
G1 X-0.07S0
G1 X-0.14S800
G1 X-0.07S0
G1 X-2.45S800
G1 X-0.07S0
G1 X-0.07S800
G1 X-0.07S0
G1 X-0.07S800
G1 X-2.31S0
G1 X-2.66S800
G0 X-3.125
G0 Y0.07
G0 X3.125
G1 X3.01
G1 X0.07S0
G1 X0.07S800
G1 X2.52S0
G1 X5.74S800
G1 X13.93S0
G1 X271.6S800
G0 X3.125
G0 Y0.07
G0 X-3.125
G1 X-269.15
G1 X-12.39S0
G1 X-8.89S800
G1 X-3.08S0
G1 X-3.43S800
G0 X-3.125
G0 Y0.07
G0 X3.125
G1 X4.06
G1 X3.5S0
G1 X10.08S800
G1 X0.07S0
G1 X0.21S800
G1 X0.07S0
G1 X0.14S800
G1 X0.07S0
G1 X0.14S800
G1 X0.07S0
G1 X0.07S800
G1 X0.07S0
G1 X0.14S800
G1 X11.2S0
G1 X0.07S800
G1 X0.14S0
G1 X266.84S800
G0 X3.125
G0 Y0.07
G0 X-3.125
G1 X-265.72
G1 X-10.85S0
G1 X-12.18S800
G1 X-3.5S0
G1 X-0.07S800
G1 X-0.14S0
G1 X-4.48S800
G0 X-3.125
G0 Y0.07
G0 X3.125
G1 X5.04
G1 X4.9S0
G1 X13.3S800
G1 X10.08S0
G1 X263.62S800
G0 X3.125
G0 Y0.07
G0 X-3.125
G1 X-261.8
G1 X-0.07S0
G1 X-0.21S800
G1 X-0.07S0
G1 X-0.21S800
G1 X-0.07S0
G1 X-0.14S800
G1 X-8.54S0
G1 X-0.07S800
G1 X-0.07S0
G1 X-0.07S800
G1 X-0.07S0
G1 X-0.14S800
G1 X-0.07S0
G1 X-0.21S800
G1 X-0.07S0
G1 X-0.21S800
G1 X-0.07S0
G1 X-14.63S800
G1 X-4.48S0
G1 X-5.67S800
G0 X-3.125
G0 Y0.07
G0 X3.125
G1 X6.23
G1 X3.92S0
G1 X17.01S800
G1 X9.1S0
G1 X260.68S800
G0 X3.125
G0 Y0.07
G0 X-3.125
G1 X-258.79
G1 X-8.61S0
G1 X-19.39S800
G1 X-2.94S0
G1 X-7.21S800
G0 X-3.125
G0 X0.91Y0.07
G0 X3.125
G1 X0.07
G1 X0.14S0
G1 X0.07S800
G1 X0.14S0
G1 X0.07S800
G1 X0.07S0
G1 X0.07S800
G1 X0.07S0
G1 X0.07S800
G1 X0.07S0
G1 X0.14S800
G1 X0.07S0
G1 X0.21S800
G1 X0.07S0
G1 X0.14S800
G1 X0.07S0
G1 X0.14S800
G1 X0.07S0
G1 X0.14S800
G1 X0.07S0
G1 X0.14S800
G1 X0.07S0
G1 X0.14S800
G1 X0.07S0
G1 X0.28S800
G1 X0.07S0
G1 X0.14S800
G1 X0.07S0
G1 X0.14S800
G1 X0.07S0
G1 X0.07S800
G1 X0.07S0
G1 X0.14S800
G1 X0.07S0
G1 X0.14S800
G1 X0.07S0
G1 X0.14S800
G1 X0.07S0
G1 X0.14S800
G1 X0.07S0
G1 X0.07S800
G1 X0.07S0
G1 X0.07S800
G1 X0.07S0
G1 X0.07S800
G1 X0.14S0
G1 X0.07S800
G1 X0.14S0
G1 X0.07S800
G1 X0.07S0
G1 X0.07S800
G1 X0.07S0
G1 X0.07S800
G1 X0.07S0
G1 X0.07S800
G1 X0.07S0
G1 X0.14S800
G1 X0.07S0
G1 X0.07S800
G1 X0.63S0
G1 X0.07S800
G1 X0.14S0
G1 X0.07S800
G1 X0.07S0
G1 X0.07S800
G1 X2.52S0
G1 X20.58S800
G1 X0.07S0
G1 X0.14S800
G1 X0.07S0
G1 X0.14S800
G1 X0.07S0
G1 X0.14S800
G1 X0.07S0
G1 X0.07S800
G1 X0.07S0
G1 X0.07S800
G1 X7.49S0
G1 X0.07S800
G1 X0.07S0
G1 X0.07S800
G1 X0.07S0
G1 X257.53S800
G0 X3.125
G0 Y0.07
G0 X-3.125
G1 X-257.39
G1 X-6.44S0
G1 X-0.07S800
G1 X-0.28S0
G1 X-22.82S800
G0 X-3.125
G0 X1.89Y0.07
G0 X3.125
G1 X0.07
G1 X0.14S0
G1 X0.07S800
G1 X0.14S0
G1 X0.07S800
G1 X0.14S0
G1 X20.16S800
G1 X0.21S0
G1 X0.07S800
G1 X0.35S0
G1 X0.07S800
G1 X0.14S0
G1 X0.07S800
G1 X0.14S0
G1 X0.07S800
G1 X5.81S0
G1 X257.39S800
G0 X3.125
G0 Y0.07
G0 X-3.125
G1 X-257.39
G1 X-9.38S0
G1 X-0.07S800
G1 X-0.07S0
G1 X-0.42S800
G1 X-0.07S0
G1 X-0.14S800
G1 X-0.07S0
G1 X-0.07S800
G1 X-0.14S0
G1 X-0.07S800
G1 X-0.49S0
G1 X-0.07S800
G1 X-0.14S0
G1 X-0.14S800
G1 X-0.07S0
G1 X-1.05S800
G1 X-0.07S0
G1 X-0.14S800
G1 X-0.07S0
G1 X-8.54S800
G1 X-0.14S0
G1 X-0.07S800
G1 X-0.14S0
G1 X-0.07S800
G1 X-0.14S0
G1 X-0.07S800
G1 X-0.14S0
G1 X-0.07S800
G1 X-0.14S0
G1 X-0.07S800
G1 X-0.07S0
G1 X-0.07S800
G1 X-0.07S0
G1 X-0.14S800
G1 X-0.07S0
G1 X-1.75S800
G1 X-0.07S0
G1 X-0.14S800
G0 X-3.125
G0 X24.71Y0.07
G0 X3.125
G1 X257.39
G0 X3.125
G0 Y0.07
G0 X-3.125
G1 X-258.3
G1 X-32.41S0
G1 X-6.23S800
G0 X-3.125
G0 Y0.07
G0 X3.125
G1 X8.05
G1 X0.14S0
G1 X0.07S800
G1 X1.05S0
G1 X0.07S800
G1 X26.25S0
G1 X0.07S800
G1 X0.07S0
G1 X0.14S800
G1 X0.07S0
G1 X0.07S800
G1 X0.07S0
G1 X0.07S800
G1 X0.07S0
G1 X0.07S800
G1 X0.14S0
G1 X0.07S800
G1 X0.56S0
G1 X259.84S800
G0 X3.125
G0 Y0.07
G0 X-3.125
G1 X-263.27
G1 X-22.26S0
G1 X-11.41S800
G0 X-3.125
G0 Y0.07
G0 X3.125
G1 X15.26
G1 X0.07S0
G1 X0.14S800
G1 X0.07S0
G1 X0.14S800
G1 X0.07S0
G1 X0.14S800
G1 X0.07S0
G1 X0.21S800
G1 X0.07S0
G1 X0.14S800
G1 X12.25S0
G1 X268.31S800
G0 X3.125
G0 Y0.07
G0 X-3.125
G1 X-296.94
G0 X-3.125
G0 Y0.07
G0 X3.125
G1 X296.94
G0 X3.125
G0 Y0.07
G0 X-3.125
G1 X-296.94
G0 X-3.125
G0 Y0.07
G0 X3.125
G1 X296.94
G0 X3.125
G0 Y0.07
G0 X-3.125
G1 X-296.94
G0 X-3.125
G0 Y0.07
G0 X3.125
G1 X296.94
G0 X3.125
G0 Y0.07
G0 X-3.125
G1 X-296.94
G0 X-3.125
G0 Y0.07
G0 X3.125
G1 X296.94
G0 X3.125
G0 Y0.07
G0 X-3.125
G1 X-296.94
G0 X-3.125
G0 Y0.07
G0 X3.125
G1 X296.94
G0 X3.125
G0 Y0.07
G0 X-3.125
G1 X-296.94
G0 X-3.125
G0 Y0.07
G0 X3.125
G1 X296.94
G0 X3.125
G0 Y0.07
G0 X-3.125
G1 X-296.94
G0 X-3.125
G0 Y0.07
G0 X3.125
G1 X296.94
G0 X3.125
G0 Y0.07
G0 X-3.125
G1 X-296.94
G0 X-3.125
G0 Y0.07
G0 X3.125
G1 X296.94
G0 X3.125
G0 Y0.07
G0 X-3.125
G1 X-296.94
G0 X-3.125
G0 Y0.07
G0 X3.125
G1 X296.94
G0 X3.125
G0 Y0.07
G0 X-3.125
G1 X-296.94
G0 X-3.125
G0 Y0.07
G0 X3.125
G1 X296.94
G0 X3.125
G0 Y0.07
G0 X-3.125
G1 X-295.68
G1 X-0.07S0
G1 X-0.07S800
G1 X-0.07S0
G1 X-0.07S800
G1 X-0.07S0
G1 X-0.07S800
G1 X-0.07S0
G1 X-0.07S800
G1 X-0.07S0
G1 X-0.07S800
G1 X-0.07S0
G1 X-0.07S800
G1 X-0.07S0
G1 X-0.07S800
G1 X-0.07S0
G1 X-0.07S800
G0 X-3.125
G0 X2.45Y0.07
G0 X3.125
G1 X294.35
G0 X3.125
G0 Y0.07
G0 X-3.125
G1 X-291.9
G0 X-3.125
G0 X1.26Y0.07
G0 X3.125
G1 X0.07
G1 X0.07S0
G1 X0.07S800
G1 X0.07S0
G1 X0.14S800
G1 X0.07S0
G1 X0.14S800
G1 X0.07S0
G1 X0.14S800
G1 X0.07S0
G1 X0.14S800
G1 X0.07S0
G1 X289.52S800
G0 X3.125
G0 Y0.07
G0 X-3.125
G1 X-288.26
G0 X-3.125
G0 X1.4Y0.07
G0 X3.125
G1 X286.86
G0 X3.125
G0 Y0.07
G0 X-3.125
G1 X-286.86
G0 X-3.125
G0 Y0.07
G0 X3.125
G1 X286.86
G0 X3.125
G0 Y0.07
G0 X-3.125
G1 X-286.86
G0 X-3.125
G0 Y0.07
G0 X3.125
G1 X286.86
G0 X3.125
G0 Y0.07
G0 X-3.125
G1 X-293.16
G1 X-2.94S0
G1 X-0.07S800
G1 X-0.63S0
G1 X-0.14S800
G0 X-3.125
G0 Y0.07
G0 X3.125
G1 X296.94
G0 X3.125
G0 Y0.07
G0 X-3.125
G1 X-296.94
G0 X-3.125
G0 Y0.07
G0 X3.125
G1 X296.94
G0 X3.125
G0 Y0.07
G0 X-3.125
G1 X-296.94
G0 X-3.125
G0 Y0.07
G0 X3.125
G1 X296.94
G0 X3.125
G0 Y0.07
G0 X-3.125
G1 X-296.94
G0 X-3.125
G0 Y0.07
G0 X3.125
G1 X296.94
G0 X3.125
G0 Y0.07
G0 X-3.125
G1 X-296.94
G0 X-3.125
G0 Y0.07
G0 X3.125
G1 X296.94
G0 X3.125
G0 Y0.07
G0 X-3.125
G1 X-296.94
G0 X-3.125
G0 Y0.07
G0 X3.125
G1 X296.94
G0 X3.125
G0 Y0.07
G0 X-3.125
G1 X-296.94
G0 X-3.125
G0 Y0.07
G0 X3.125
G1 X296.94
G0 X3.125
G0 Y0.07
G0 X-3.125
G1 X-296.94
G0 X-3.125
G0 Y0.07
G0 X3.125
G1 X296.94
G0 X3.125
G0 Y0.07
G0 X-3.125
G1 X-296.94
G0 X-3.125
G0 Y0.07
G0 X3.125
G1 X296.94
G0 X3.125
G0 Y0.07
G0 X-3.125
G1 X-296.94
G0 X-3.125
G0 Y0.07
G0 X3.125
G1 X296.94
G0 X3.125
G0 Y0.07
G0 X-3.125
G1 X-296.94
G0 X-3.125
G0 Y0.07
G0 X3.125
G1 X296.94
G0 X3.125
G0 Y0.07
G0 X-3.125
G1 X-296.94
G0 X-3.125
G0 Y0.07
G0 X3.125
G1 X296.94
G0 X3.125
G0 Y0.07
G0 X-3.125
G1 X-296.94
G0 X-3.125
G0 Y0.07
G0 X3.125
G1 X296.94
G0 X3.125
G0 Y0.07
G0 X-3.125
G1 X-296.94
G0 X-3.125
G0 Y0.07
G0 X3.125
G1 X296.94
G0 X3.125
G0 Y0.07
G0 X-3.125
G1 X-296.94
G0 X-3.125
G0 Y0.07
G0 X3.125
G1 X296.94
G0 X3.125
G0 Y0.07
G0 X-3.125
G1 X-296.94
G0 X-3.125
G0 Y0.07
G0 X3.125
G1 X296.94
G0 X3.125
G0 Y0.07
G0 X-3.125
G1 X-296.94
G0 X-3.125
G0 Y0.07
G0 X3.125
G1 X296.94
G0 X3.125
G0 Y0.07
G0 X-3.125
G1 X-296.94
G0 X-3.125
G0 Y0.07
G0 X3.125
G1 X296.94
G0 X3.125
G0 Y0.07
G0 X-3.125
G1 X-296.94
G0 X-3.125
G0 Y0.07
G0 X3.125
G1 X296.94
G0 X3.125
G0 Y0.07
G0 X-3.125
G1 X-296.94
G0 X-3.125
G0 Y0.07
G0 X3.125
G1 X296.94
G0 X3.125
G0 Y0.07
G0 X-3.125
G1 X-296.94
G0 X-3.125
G0 Y0.07
G0 X3.125
G1 X296.94
G0 X3.125
G0 Y0.07
G0 X-3.125
G1 X-296.94
G0 X-3.125
G0 Y0.07
G0 X3.125
G1 X296.94
G0 X3.125
G0 Y0.07
G0 X-3.125
G1 X-296.94
G0 X-3.125
G0 Y0.07
G0 X3.125
G1 X296.94
G0 X3.125
G0 Y0.07
G0 X-3.125
G1 X-296.17
G0 X-3.125
G0 X2.52Y0.07
G0 X3.125
G1 X293.65
G0 X3.125
G0 Y0.07
G0 X-3.125
G1 X-292.04
G1 X-0.07S0
G1 X-0.28S800
G0 X-3.125
G0 X2.52Y0.07
G0 X3.125
G1 X289.87
G0 X3.125
G0 Y0.07
G0 X-3.125
G1 X-287.49
G1 X-0.21S0
G1 X-0.07S800
G1 X-0.21S0
G1 X-0.07S800
G1 X-0.28S0
G1 X-0.07S800
G0 X-3.125
G0 X-8.54Y0.07
G0 X3.125
G1 X0.07
G1 X10.71S0
G1 X286.16S800
G0 X3.125
G0 Y0.07
G0 X-3.125
G1 X-283.64
G1 X-10.71S0
G1 X-2.59S800
G0 X-3.125
G0 Y0.07
G0 X3.125
G1 X4.06
G1 X0.07S0
G1 X0.21S800
G1 X0.07S0
G1 X0.14S800
G1 X0.07S0
G1 X0.14S800
G1 X0.07S0
G1 X0.07S800
G1 X0.07S0
G1 X0.07S800
G1 X9.52S0
G1 X0.21S800
G1 X0.07S0
G1 X0.14S800
G1 X0.07S0
G1 X0.14S800
G1 X0.07S0
G1 X0.14S800
G1 X0.07S0
G1 X0.07S800
G1 X0.07S0
G1 X0.07S800
G1 X0.07S0
G1 X281.19S800
G0 X3.125
G0 Y0.07
G0 X-3.125
G1 X-279.79
G1 X-10.78S0
G1 X-6.37S800
G0 X-3.125
G0 Y0.07
G0 X3.125
G1 X8.89
G1 X11.2S0
G1 X276.85S800
G0 X3.125
G0 Y0.07
G0 X-3.125
G1 X-273.91
G1 X-0.07S0
G1 X-0.14S800
G1 X-0.07S0
G1 X-0.07S800
G1 X-0.07S0
G1 X-0.07S800
G1 X-0.07S0
G1 X-0.07S800
G1 X-0.07S0
G1 X-0.07S800
G1 X-0.07S0
G1 X-0.07S800
G1 X-0.07S0
G1 X-0.07S800
G1 X-0.07S0
G1 X-0.07S800
G1 X-0.07S0
G1 X-0.07S800
G1 X-0.07S0
G1 X-0.07S800
G1 X-10.22S0
G1 X-0.07S800
G1 X-0.14S0
G1 X-0.07S800
G1 X-0.07S0
G1 X-0.07S800
G1 X-0.07S0
G1 X-0.14S800
G1 X-0.07S0
G1 X-10.64S800
G0 X-3.125
G0 Y0.07
G0 X3.125
G1 X12.67
G1 X0.35S0
G1 X0.07S800
G1 X0.28S0
G1 X0.07S800
G1 X0.21S0
G1 X0.07S800
G1 X10.78S0
G1 X272.44S800
G0 X3.125
G0 Y0.07
G0 X-3.125
G1 X-269.5
G1 X-12.32S0
G1 X-12.53S800
G0 X-3.125
G0 X1.68Y0.07
G0 X3.125
G1 X0.07
G1 X0.14S0
G1 X0.07S800
G1 X0.14S0
G1 X0.07S800
G1 X0.14S0
G1 X0.07S800
G1 X0.14S0
G1 X0.07S800
G1 X0.35S0
G1 X10.99S800
G1 X0.07S0
G1 X0.14S800
G1 X0.07S0
G1 X0.14S800
G1 X0.07S0
G1 X0.07S800
G1 X0.07S0
G1 X0.07S800
G1 X0.14S0
G1 X0.07S800
G1 X11.55S0
G1 X0.07S800
G1 X0.07S0
G1 X0.07S800
G1 X0.07S0
G1 X0.07S800
G1 X0.07S0
G1 X0.07S800
G1 X0.14S0
G1 X0.07S800
G1 X0.07S0
G1 X0.07S800
G1 X0.14S0
G1 X0.07S800
G1 X0.07S0
G1 X0.07S800
G1 X0.14S0
G1 X266.63S800
G0 X3.125
G0 Y0.07
G0 X-3.125
G1 X-265.09
G1 X-12.53S0
G1 X-12.32S800
G0 X-3.125
G0 X3.15Y0.07
G0 X3.125
G1 X12.11
G1 X12.53S0
G1 X262.15S800
G0 X3.125
G0 Y0.07
G0 X-3.125
G1 X-259.14
G1 X-0.07S0
G1 X-0.14S800
G1 X-0.07S0
G1 X-0.14S800
G1 X-0.07S0
G1 X-0.14S800
G1 X-0.07S0
G1 X-0.21S800
G1 X-0.07S0
G1 X-0.49S800
G1 X-11.2S0
G1 X-0.07S800
G1 X-0.07S0
G1 X-0.07S800
G1 X-0.07S0
G1 X-0.07S800
G1 X-0.07S0
G1 X-0.07S800
G1 X-0.07S0
G1 X-0.14S800
G1 X-0.07S0
G1 X-10.29S800
G1 X-0.07S0
G1 X-1.26S800
G1 X-0.07S0
G1 X-0.14S800
G1 X-0.07S0
G1 X-0.07S800
G1 X-0.07S0
G1 X-0.07S800
G1 X-11.97S0
G1 X-0.07S800
G1 X-0.07S0
G1 X-0.07S800
G0 X-3.125
G0 X-0.07Y0.07
G0 X3.125
G1 X1.82
G1 X1.05S0
G1 X0.07S800
G1 X13.23S0
G1 X10.5S800
G1 X12.6S0
G1 X257.67S800
G0 X3.125
G0 Y0.07
G0 X-3.125
G1 X-254.73
G1 X-12.6S0
G1 X-8.4S800
G1 X-0.7S0
G1 X-0.07S800
G1 X-0.14S0
G1 X-0.07S800
G1 X-0.14S0
G1 X-0.07S800
G1 X-0.14S0
G1 X-0.07S800
G1 X-0.14S0
G1 X-0.07S800
G1 X-14.91S0
G1 X-4.69S800
G0 X-3.125
G0 Y0.07
G0 X3.125
G1 X6.23
G1 X0.14S0
G1 X0.07S800
G1 X0.07S0
G1 X0.07S800
G1 X0.07S0
G1 X0.14S800
G1 X0.07S0
G1 X0.14S800
G1 X0.07S0
G1 X0.14S800
G1 X0.07S0
G1 X0.14S800
G1 X0.07S0
G1 X0.07S800
G1 X16.87S0
G1 X0.07S800
G1 X0.07S0
G1 X0.14S800
G1 X0.07S0
G1 X0.14S800
G1 X0.07S0
G1 X0.07S800
G1 X0.07S0
G1 X0.14S800
G1 X0.07S0
G1 X0.07S800
G1 X0.07S0
G1 X0.07S800
G1 X0.07S0
G1 X0.07S800
G1 X0.07S0
G1 X0.07S800
G1 X0.07S0
G1 X0.14S800
G1 X0.07S0
G1 X5.04S800
G1 X0.14S0
G1 X0.07S800
G1 X0.07S0
G1 X0.07S800
G1 X0.14S0
G1 X0.07S800
G1 X0.14S0
G1 X0.07S800
G1 X11.76S0
G1 X0.14S800
G1 X0.07S0
G1 X0.14S800
G1 X0.07S0
G1 X0.14S800
G1 X0.07S0
G1 X0.14S800
G1 X0.07S0
G1 X0.14S800
G1 X0.07S0
G1 X0.14S800
G1 X0.07S0
G1 X0.14S800
G1 X0.07S0
G1 X251.79S800
G0 X3.125
G0 Y0.07
G0 X-3.125
G1 X-250.46
G1 X-37.31S0
G1 X-9.17S800
G0 X-3.125
G0 Y0.07
G0 X3.125
G1 X13.02
G1 X33.46S0
G1 X250.46S800
G0 X3.125
G0 Y0.07
G0 X-3.125
G1 X-250.46
G1 X-30.31S0
G1 X-0.07S800
G1 X-0.14S0
G1 X-0.07S800
G1 X-0.14S0
G1 X-0.07S800
G1 X-0.14S0
G1 X-0.07S800
G1 X-0.14S0
G1 X-0.07S800
G1 X-0.14S0
G1 X-15.12S800
G0 X-3.125
G0 Y0.07
G0 X3.125
G1 X19.46
G1 X27.02S0
G1 X250.46S800
G0 X3.125
G0 Y0.07
G0 X-3.125
G1 X-250.46
G1 X-20.65S0
G1 X-1.68S800
G1 X-0.07S0
G1 X-24.08S800
G0 X-3.125
G0 Y0.07
G0 X3.125
G1 X30.73
G1 X0.21S0
G1 X0.07S800
G1 X0.21S0
G1 X0.07S800
G1 X0.14S0
G1 X0.07S800
G1 X0.14S0
G1 X0.07S800
G1 X0.14S0
G1 X0.07S800
G1 X0.07S0
G1 X0.07S800
G1 X0.07S0
G1 X0.14S800
G1 X0.07S0
G1 X0.14S800
G1 X0.07S0
G1 X0.07S800
G1 X0.14S0
G1 X0.07S800
G1 X0.7S0
G1 X0.07S800
G1 X0.14S0
G1 X0.07S800
G1 X0.07S0
G1 X0.07S800
G1 X0.07S0
G1 X0.07S800
G1 X0.07S0
G1 X0.14S800
G1 X0.07S0
G1 X0.14S800
G1 X0.07S0
G1 X0.14S800
G1 X0.07S0
G1 X0.07S800
G1 X0.07S0
G1 X0.07S800
G1 X0.07S0
G1 X0.07S800
G1 X0.07S0
G1 X0.07S800
G1 X0.07S0
G1 X0.07S800
G1 X0.07S0
G1 X0.07S800
G1 X0.07S0
G1 X0.07S800
G1 X0.07S0
G1 X0.14S800
G1 X0.07S0
G1 X0.07S800
G1 X0.07S0
G1 X0.07S800
G1 X0.07S0
G1 X0.07S800
G1 X0.14S0
G1 X0.07S800
G1 X0.98S0
G1 X0.07S800
G1 X0.21S0
G1 X0.07S800
G1 X0.14S0
G1 X0.07S800
G1 X0.14S0
G1 X0.07S800
G1 X0.07S0
G1 X0.07S800
G1 X0.07S0
G1 X0.07S800
G1 X0.07S0
G1 X0.07S800
G1 X0.07S0
G1 X0.07S800
G1 X0.07S0
G1 X0.07S800
G1 X0.07S0
G1 X0.07S800
G1 X0.07S0
G1 X0.07S800
G1 X0.14S0
G1 X0.07S800
G1 X0.14S0
G1 X0.07S800
G1 X0.14S0
G1 X0.07S800
G1 X0.21S0
G1 X0.07S800
G1 X0.21S0
G1 X0.07S800
G1 X0.14S0
G1 X0.07S800
G1 X0.14S0
G1 X0.07S800
G1 X0.07S0
G1 X0.07S800
G1 X0.07S0
G1 X0.14S800
G1 X0.07S0
G1 X0.14S800
G1 X0.07S0
G1 X0.14S800
G1 X0.07S0
G1 X0.14S800
G1 X0.07S0
G1 X0.14S800
G1 X0.07S0
G1 X0.14S800
G1 X0.07S0
G1 X0.07S800
G1 X0.07S0
G1 X0.07S800
G1 X0.14S0
G1 X0.07S800
G1 X0.14S0
G1 X0.07S800
G1 X0.14S0
G1 X0.07S800
G1 X0.14S0
G1 X0.07S800
G1 X0.14S0
G1 X0.07S800
G1 X1.33S0
G1 X0.07S800
G1 X0.14S0
G1 X0.07S800
G1 X0.14S0
G1 X0.07S800
G1 X0.14S0
G1 X0.07S800
G1 X0.14S0
G1 X0.07S800
G1 X0.14S0
G1 X0.07S800
G1 X0.14S0
G1 X0.07S800
G1 X0.14S0
G1 X250.53S800
G0 X3.125
G0 Y0.07
G0 X-3.125
G1 X-296.94
G0 X-3.125
G0 Y0.07
G0 X3.125
G1 X296.94
G0 X3.125
G0 Y0.07
G0 X-3.125
G1 X-296.94
G0 X-3.125
G0 Y0.07
G0 X3.125
G1 X296.94
G0 X3.125
G0 Y0.07
G0 X-3.125
G1 X-296.94
G0 X-3.125
G0 Y0.07
G0 X3.125
G1 X296.94
G0 X3.125
G0 Y0.07
G0 X-3.125
G1 X-296.94
G0 X-3.125
G0 Y0.07
G0 X3.125
G1 X296.94
G0 X3.125
G0 Y0.07
G0 X-3.125
G1 X-296.94
G0 X-3.125
G0 Y0.07
G0 X3.125
G1 X296.94
G0 X3.125
G0 Y0.07
G0 X-3.125
G1 X-296.94
G0 X-3.125
G0 Y0.07
G0 X3.125
G1 X296.94
G0 X3.125
G0 Y0.07
G0 X-3.125
G1 X-296.94
G0 X-3.125
G0 Y0.07
G0 X3.125
G1 X296.94
G0 X3.125
G0 Y0.07
G0 X-3.125
G1 X-296.94
G0 X-3.125
G0 Y0.07
G0 X3.125
G1 X296.94
G0 X3.125
G0 Y0.07
G0 X-3.125
G1 X-296.94
G0 X-3.125
G0 Y0.07
G0 X3.125
G1 X296.94
G0 X3.125
G0 Y0.07
G0 X-3.125
G1 X-296.94
G0 X-3.125
G0 Y0.07
G0 X3.125
G1 X296.94
G0 X3.125
G0 Y0.07
G0 X-3.125
G1 X-296.94
G0 X-3.125
G0 Y0.07
G0 X3.125
G1 X296.94
G0 X3.125
G0 Y0.07
G0 X-3.125
G1 X-296.94
G0 X-3.125
G0 Y0.07
G0 X3.125
G1 X296.94
G0 X3.125
G0 Y0.07
G0 X-3.125
G1 X-296.94
G0 X-3.125
G0 Y0.07
G0 X3.125
G1 X296.94
G0 X3.125
G0 Y0.07
G0 X-3.125
G1 X-296.94
G0 X-3.125
G0 Y0.07
G0 X3.125
G1 X296.94
G0 X3.125
G0 Y0.07
G0 X-3.125
G1 X-247.38
G1 X-2.1S0
G1 X-47.46S800
G0 X-3.125
G0 X3.71Y0.07
G0 X3.125
G1 X36.75
G1 X9.1S0
G1 X247.38S800
G0 X3.125
G0 Y0.07
G0 X-3.125
G1 X-247.38
G1 X-12.74S0
G1 X-0.07S800
G1 X-0.14S0
G1 X-0.07S800
G1 X-0.14S0
G1 X-0.07S800
G1 X-0.14S0
G1 X-0.07S800
G1 X-0.14S0
G1 X-0.07S800
G1 X-0.14S0
G1 X-0.07S800
G1 X-0.14S0
G1 X-0.07S800
G1 X-0.14S0
G1 X-0.07S800
G1 X-0.14S0
G1 X-0.07S800
G1 X-0.14S0
G1 X-0.07S800
G1 X-0.14S0
G1 X-0.07S800
G1 X-0.14S0
G1 X-0.07S800
G1 X-0.07S0
G1 X-0.07S800
G1 X-0.07S0
G1 X-0.07S800
G1 X-0.07S0
G1 X-0.07S800
G1 X-0.07S0
G1 X-0.07S800
G1 X-0.07S0
G1 X-0.07S800
G1 X-0.07S0
G1 X-0.07S800
G1 X-0.07S0
G1 X-0.07S800
G1 X-0.07S0
G1 X-0.07S800
G1 X-0.14S0
G1 X-0.07S800
G1 X-0.14S0
G1 X-0.07S800
G1 X-0.14S0
G1 X-0.07S800
G1 X-0.14S0
G1 X-0.07S800
G1 X-0.14S0
G1 X-0.07S800
G1 X-0.14S0
G1 X-0.07S800
G1 X-0.07S0
G1 X-0.07S800
G1 X-0.14S0
G1 X-0.07S800
G1 X-0.07S0
G1 X-0.07S800
G1 X-0.14S0
G1 X-0.07S800
G1 X-0.14S0
G1 X-0.07S800
G1 X-0.14S0
G1 X-0.07S800
G1 X-0.14S0
G1 X-0.07S800
G1 X-0.14S0
G1 X-0.07S800
G1 X-0.21S0
G1 X-0.07S800
G1 X-0.21S0
G1 X-14.77S800
G1 X-0.21S0
G1 X-0.07S800
G1 X-3.15S0
G1 X-0.07S800
G1 X-0.14S0
G1 X-0.07S800
G1 X-0.14S0
G1 X-0.07S800
G1 X-0.07S0
G1 X-0.07S800
G1 X-0.07S0
G1 X-0.07S800
G1 X-0.07S0
G1 X-0.07S800
G1 X-0.07S0
G1 X-0.14S800
G1 X-0.07S0
G1 X-0.14S800
G1 X-0.07S0
G1 X-0.14S800
G1 X-0.07S0
G1 X-0.14S800
G1 X-0.07S0
G1 X-0.07S800
G1 X-0.07S0
G1 X-0.07S800
G1 X-0.07S0
G1 X-0.07S800
G1 X-0.14S0
G1 X-0.07S800
G1 X-0.14S0
G1 X-0.07S800
G0 X-3.125
G0 X40.32Y0.07
G0 X3.125
G1 X247.38
G0 X3.125
G0 Y0.07
G0 X-3.125
G1 X-247.38
G0 X-3.125
G0 X-1.4Y0.07
G0 X3.125
G1 X0.28
G1 X0.07S0
G1 X0.35S800
G1 X0.07S0
G1 X0.35S800
G1 X0.07S0
G1 X247.59S800
G0 X3.125
G0 Y0.07
G0 X-3.125
G1 X-249.9
G1 X-42.7S0
G1 X-0.07S800
G1 X-0.14S0
G1 X-0.07S800
G1 X-0.14S0
G1 X-0.07S800
G1 X-0.14S0
G1 X-0.07S800
G1 X-0.07S0
G1 X-0.07S800
G1 X-0.07S0
G1 X-0.07S800
G1 X-0.07S0
G1 X-0.07S800
G1 X-0.07S0
G1 X-0.07S800
G1 X-0.14S0
G1 X-0.07S800
G1 X-0.14S0
G1 X-0.07S800
G1 X-0.14S0
G1 X-0.07S800
G1 X-0.14S0
G1 X-2.31S800
G0 X-3.125
G0 Y0.07
G0 X3.125
G1 X11.9
G1 X32.76S0
G1 X252.28S800
G0 X3.125
G0 Y0.07
G0 X-3.125
G1 X-253.47
G1 X-0.07S0
G1 X-0.21S800
G1 X-0.07S0
G1 X-0.14S800
G1 X-0.07S0
G1 X-0.14S800
G1 X-0.07S0
G1 X-0.14S800
G1 X-0.07S0
G1 X-0.14S800
G1 X-11.83S0
G1 X-0.14S800
G1 X-0.07S0
G1 X-0.14S800
G1 X-0.07S0
G1 X-0.07S800
G1 X-0.07S0
G1 X-0.07S800
G1 X-0.07S0
G1 X-0.07S800
G1 X-0.07S0
G1 X-0.07S800
G1 X-0.07S0
G1 X-0.07S800
G1 X-0.07S0
G1 X-0.07S800
G1 X-0.07S0
G1 X-0.07S800
G1 X-0.07S0
G1 X-0.07S800
G1 X-0.07S0
G1 X-0.07S800
G1 X-0.07S0
G1 X-0.07S800
G1 X-0.07S0
G1 X-0.07S800
G1 X-0.07S0
G1 X-8.4S800
G1 X-0.07S0
G1 X-0.21S800
G1 X-0.07S0
G1 X-0.14S800
G1 X-0.07S0
G1 X-0.14S800
G1 X-0.07S0
G1 X-0.14S800
G1 X-0.07S0
G1 X-0.14S800
G1 X-0.07S0
G1 X-0.14S800
G1 X-0.07S0
G1 X-0.14S800
G1 X-0.07S0
G1 X-0.14S800
G1 X-0.07S0
G1 X-18.34S800
G0 X-3.125
G0 Y0.07
G0 X3.125
G1 X26.39
G1 X14.7S0
G1 X255.85S800
G0 X3.125
G0 Y0.07
G0 X-3.125
G1 X-258.79
G1 X-17.92S0
G1 X-20.23S800
G0 X-3.125
G0 X1.82Y0.07
G0 X3.125
G1 X0.14
G1 X0.07S0
G1 X0.14S800
G1 X0.07S0
G1 X0.14S800
G1 X0.07S0
G1 X0.14S800
G1 X0.07S0
G1 X0.21S800
G1 X0.07S0
G1 X0.21S800
G1 X0.07S0
G1 X0.14S800
G1 X0.07S0
G1 X0.14S800
G1 X0.07S0
G1 X0.14S800
G1 X0.07S0
G1 X0.21S800
G1 X0.07S0
G1 X1.47S800
G1 X0.07S0
G1 X0.07S800
G1 X0.07S0
G1 X0.07S800
G1 X0.07S0
G1 X0.07S800
G1 X0.14S0
G1 X0.07S800
G1 X0.07S0
G1 X0.07S800
G1 X0.14S0
G1 X0.07S800
G1 X0.14S0
G1 X0.07S800
G1 X0.14S0
G1 X0.07S800
G1 X0.14S0
G1 X0.07S800
G1 X0.14S0
G1 X0.07S800
G1 X0.14S0
G1 X0.07S800
G1 X0.14S0
G1 X0.07S800
G1 X0.14S0
G1 X0.07S800
G1 X0.14S0
G1 X0.07S800
G1 X0.14S0
G1 X0.07S800
G1 X0.14S0
G1 X0.07S800
G1 X0.14S0
G1 X0.07S800
G1 X0.14S0
G1 X0.07S800
G1 X0.07S0
G1 X0.07S800
G1 X0.07S0
G1 X0.07S800
G1 X0.07S0
G1 X0.07S800
G1 X0.07S0
G1 X0.07S800
G1 X0.07S0
G1 X0.07S800
G1 X0.07S0
G1 X0.07S800
G1 X0.07S0
G1 X0.07S800
G1 X0.14S0
G1 X0.07S800
G1 X0.14S0
G1 X0.07S800
G1 X0.14S0
G1 X0.07S800
G1 X0.14S0
G1 X0.07S800
G1 X0.14S0
G1 X0.07S800
G1 X0.14S0
G1 X0.07S800
G1 X0.07S0
G1 X0.07S800
G1 X0.07S0
G1 X0.07S800
G1 X0.07S0
G1 X0.07S800
G1 X0.07S0
G1 X0.07S800
G1 X0.07S0
G1 X0.14S800
G1 X0.07S0
G1 X3.01S800
G1 X0.07S0
G1 X0.14S800
G1 X0.07S0
G1 X0.14S800
G1 X0.07S0
G1 X0.07S800
G1 X0.07S0
G1 X0.14S800
G1 X19.25S0
G1 X0.14S800
G1 X0.07S0
G1 X0.14S800
G1 X0.07S0
G1 X0.14S800
G1 X0.07S0
G1 X0.14S800
G1 X0.07S0
G1 X0.14S800
G1 X0.07S0
G1 X0.14S800
G1 X0.07S0
G1 X0.14S800
G1 X0.07S0
G1 X260.26S800
G0 X3.125
G0 Y0.07
G0 X-3.125
G1 X-263.27
G0 X-3.125
G0 X-3.99Y0.07
G0 X3.125
G1 X267.26
G0 X3.125
G0 Y0.07
G0 X-3.125
G1 X-269.36
G1 X-0.07S0
G1 X-0.07S800
G1 X-0.14S0
G1 X-0.07S800
G1 X-0.14S0
G1 X-0.07S800
G1 X-0.14S0
G1 X-0.07S800
G1 X-0.14S0
G1 X-0.07S800
G0 X-3.125
G0 X-4.41Y0.07
G0 X3.125
G1 X274.75
G0 X3.125
G0 Y0.07
G0 X-3.125
G1 X-282.03
G1 X-0.07S0
G1 X-0.14S800
G1 X-0.07S0
G1 X-0.14S800
G1 X-0.07S0
G1 X-0.14S800
G1 X-0.07S0
G1 X-0.14S800
G1 X-0.07S0
G1 X-0.14S800
G1 X-0.07S0
G1 X-0.14S800
G1 X-0.07S0
G1 X-0.14S800
G1 X-0.07S0
G1 X-0.14S800
G1 X-0.07S0
G1 X-0.14S800
G1 X-0.07S0
G1 X-0.14S800
G1 X-0.07S0
G1 X-0.14S800
G1 X-0.07S0
G1 X-0.91S800
G1 X-5.11S0
G1 X-1.19S800
G1 X-0.07S0
G1 X-0.28S800
G1 X-0.07S0
G1 X-0.28S800
G1 X-0.07S0
G1 X-0.14S800
G1 X-0.07S0
G1 X-4.34S800
G0 X-3.125
G0 Y0.07
G0 X3.125
G1 X296.94
G0 X3.125
G0 Y0.07
G0 X-3.125
G1 X-258.16
G1 X-5.67S0
G1 X-33.11S800
G0 X-3.125
G0 X0.77Y0.07
G0 X3.125
G1 X0.07
G1 X0.77S0
G1 X20.72S800
G1 X0.56S0
G1 X0.07S800
G1 X0.14S0
G1 X0.07S800
G1 X0.14S0
G1 X0.07S800
G1 X0.14S0
G1 X0.07S800
G1 X2.66S0
G1 X0.07S800
G1 X0.14S0
G1 X0.07S800
G1 X18.27S0
G1 X252.14S800
G0 X3.125
G0 Y0.07
G0 X-3.125
G1 X-248.85
G1 X-0.07S0
G1 X-0.14S800
G1 X-0.07S0
G1 X-0.14S800
G1 X-0.07S0
G1 X-0.14S800
G1 X-0.07S0
G1 X-0.14S800
G1 X-0.07S0
G1 X-0.56S800
G0 X-3.125
G0 X2.87Y0.07
G0 X3.125
G1 X247.45
G0 X3.125
G0 Y0.07
G0 X-3.125
G1 X-245.07
G1 X-0.14S0
G1 X-0.07S800
G1 X-0.28S0
G1 X-0.07S800
G1 X-0.28S0
G1 X-0.07S800
G0 X-3.125
G0 X-18.9Y0.07
G0 X3.125
G1 X0.07
G1 X0.14S0
G1 X0.07S800
G1 X0.14S0
G1 X0.07S800
G1 X0.07S0
G1 X0.07S800
G1 X0.07S0
G1 X0.07S800
G1 X0.07S0
G1 X0.07S800
G1 X0.07S0
G1 X0.07S800
G1 X0.07S0
G1 X0.07S800
G1 X0.07S0
G1 X0.07S800
G1 X0.07S0
G1 X0.07S800
G1 X0.07S0
G1 X0.07S800
G1 X0.07S0
G1 X0.07S800
G1 X0.07S0
G1 X0.07S800
G1 X0.14S0
G1 X0.07S800
G1 X0.14S0
G1 X0.07S800
G1 X0.21S0
G1 X0.07S800
G1 X0.14S0
G1 X0.07S800
G1 X0.14S0
G1 X0.07S800
G1 X0.14S0
G1 X0.07S800
G1 X1.54S0
G1 X0.07S800
G1 X0.14S0
G1 X0.07S800
G1 X0.14S0
G1 X0.07S800
G1 X0.14S0
G1 X0.07S800
G1 X0.07S0
G1 X0.07S800
G1 X0.07S0
G1 X0.07S800
G1 X0.07S0
G1 X0.07S800
G1 X0.07S0
G1 X0.07S800
G1 X0.07S0
G1 X0.07S800
G1 X0.14S0
G1 X0.07S800
G1 X0.14S0
G1 X0.07S800
G1 X1.33S0
G1 X0.07S800
G1 X0.14S0
G1 X0.07S800
G1 X0.14S0
G1 X0.07S800
G1 X0.07S0
G1 X0.07S800
G1 X0.07S0
G1 X0.07S800
G1 X0.07S0
G1 X0.07S800
G1 X10.99S0
G1 X245.07S800
G0 X3.125
G0 Y0.07
G0 X-3.125
G1 X-245.07
G1 X-8.05S0
G1 X-15.89S800
G0 X-3.125
G0 X-6.09Y0.07
G0 X3.125
G1 X24.01
G1 X0.07S0
G1 X0.21S800
G1 X0.07S0
G1 X0.35S800
G1 X0.07S0
G1 X0.14S800
G1 X0.07S0
G1 X0.07S800
G1 X0.14S0
G1 X0.07S800
G1 X0.07S0
G1 X0.14S800
G1 X4.55S0
G1 X245.07S800
G0 X3.125
G0 Y0.07
G0 X-3.125
G1 X-245.07
G1 X-4.2S0
G1 X-0.42S800
G1 X-0.07S0
G1 X-28.42S800
G0 X-3.125
G0 X-6.09Y0.07
G0 X3.125
G1 X33.81
G1 X5.25S0
G1 X245.21S800
G0 X3.125
G0 Y0.07
G0 X-3.125
G1 X-246.47
G1 X-5.18S0
G1 X-38.36S800
G1 X-0.07S0
G1 X-0.14S800
G1 X-0.07S0
G1 X-0.07S800
G0 X-3.125
G0 X-3.15Y0.07
G0 X3.125
G1 X41.16
G1 X5.25S0
G1 X247.1S800
G0 X3.125
G0 Y0.07
G0 X-3.125
G1 X-248.29
G1 X-9.59S0
G1 X-39.06S800
G0 X-3.125
G0 Y0.07
G0 X3.125
G1 X32.06
G1 X0.07S0
G1 X0.14S800
G1 X0.07S0
G1 X0.07S800
G1 X0.07S0
G1 X0.07S800
G1 X0.07S0
G1 X0.07S800
G1 X0.07S0
G1 X0.07S800
G1 X0.07S0
G1 X0.07S800
G1 X0.07S0
G1 X0.07S800
G1 X0.07S0
G1 X0.07S800
G1 X0.07S0
G1 X0.07S800
G1 X0.07S0
G1 X0.07S800
G1 X0.07S0
G1 X0.07S800
G1 X0.07S0
G1 X0.07S800
G1 X0.07S0
G1 X0.07S800
G1 X0.07S0
G1 X0.07S800
G1 X0.07S0
G1 X0.07S800
G1 X0.07S0
G1 X0.07S800
G1 X0.07S0
G1 X0.07S800
G1 X0.07S0
G1 X0.07S800
G1 X0.07S0
G1 X0.07S800
G1 X0.07S0
G1 X0.07S800
G1 X0.07S0
G1 X0.07S800
G1 X0.07S0
G1 X0.07S800
G1 X12.25S0
G1 X0.07S800
G1 X0.14S0
G1 X0.07S800
G1 X0.07S0
G1 X0.07S800
G1 X0.07S0
G1 X248.99S800
G0 X3.125
G0 Y0.07
G0 X-3.125
G1 X-250.18
G1 X-17.78S0
G1 X-28.98S800
G0 X-3.125
G0 Y0.07
G0 X3.125
G1 X24.01
G1 X21.49S0
G1 X251.44S800
G0 X3.125
G0 Y0.07
G0 X-3.125
G1 X-252.42
G1 X-0.07S0
G1 X-0.14S800
G1 X-22.47S0
G1 X-0.07S800
G1 X-0.07S0
G1 X-0.07S800
G1 X-0.07S0
G1 X-0.07S800
G1 X-0.07S0
G1 X-0.07S800
G1 X-0.07S0
G1 X-0.07S800
G1 X-0.07S0
G1 X-0.07S800
G1 X-0.07S0
G1 X-0.07S800
G1 X-0.07S0
G1 X-0.07S800
G1 X-0.07S0
G1 X-0.07S800
G1 X-0.07S0
G1 X-0.07S800
G1 X-0.07S0
G1 X-0.07S800
G1 X-0.07S0
G1 X-0.07S800
G1 X-0.07S0
G1 X-0.07S800
G1 X-0.07S0
G1 X-0.07S800
G1 X-0.07S0
G1 X-19.88S800
G0 X-3.125
G0 Y0.07
G0 X3.125
G1 X17.85
G1 X21.21S0
G1 X0.07S800
G1 X0.14S0
G1 X0.07S800
G1 X0.14S0
G1 X0.07S800
G1 X0.14S0
G1 X0.07S800
G1 X0.14S0
G1 X0.07S800
G1 X0.14S0
G1 X0.07S800
G1 X1.89S0
G1 X254.87S800
G0 X3.125
G0 Y0.07
G0 X-3.125
G1 X-263.41
G1 X-19.18S0
G1 X-14.35S800
G0 X-3.125
G0 Y0.07
G0 X3.125
G1 X11.13
G1 X0.07S0
G1 X0.14S800
G1 X0.07S0
G1 X0.14S800
G1 X0.07S0
G1 X0.14S800
G1 X0.07S0
G1 X0.07S800
G1 X0.07S0
G1 X0.07S800
G1 X0.07S0
G1 X0.07S800
G1 X0.07S0
G1 X0.07S800
G1 X0.14S0
G1 X0.07S800
G1 X15.26S0
G1 X0.07S800
G1 X0.07S0
G1 X0.07S800
G1 X0.07S0
G1 X0.07S800
G1 X0.14S0
G1 X0.07S800
G1 X0.63S0
G1 X0.07S800
G1 X0.14S0
G1 X0.07S800
G1 X0.14S0
G1 X0.07S800
G1 X0.07S0
G1 X0.07S800
G1 X0.14S0
G1 X0.07S800
G1 X0.14S0
G1 X0.07S800
G1 X0.14S0
G1 X0.07S800
G1 X0.14S0
G1 X0.07S800
G1 X0.07S0
G1 X266.42S800
G0 X3.125
G0 Y0.07
G0 X-3.125
G1 X-271.6
G1 X-15.89S0
G1 X-9.45S800
G0 X-3.125
G0 Y0.07
G0 X3.125
G1 X6.51
G1 X14.42S0
G1 X276.01S800
G0 X3.125
G0 Y0.07
G0 X-3.125
G1 X-252.49
G1 X-0.07S0
G1 X-25.69S800
G1 X-0.07S0
G1 X-0.21S800
G1 X-0.07S0
G1 X-0.21S800
G1 X-0.07S0
G1 X-0.14S800
G1 X-0.07S0
G1 X-0.07S800
G1 X-0.07S0
G1 X-0.07S800
G1 X-0.07S0
G1 X-0.07S800
G1 X-0.07S0
G1 X-0.07S800
G1 X-0.14S0
G1 X-0.07S800
G1 X-11.97S0
G1 X-0.07S800
G1 X-0.14S0
G1 X-0.07S800
G1 X-0.14S0
G1 X-0.07S800
G1 X-0.14S0
G1 X-0.07S800
G1 X-0.14S0
G1 X-0.07S800
G1 X-0.14S0
G1 X-0.07S800
G1 X-0.14S0
G1 X-0.07S800
G1 X-0.07S0
G1 X-3.78S800
G0 X-3.125
G0 Y0.07
G0 X3.125
G1 X2.8
G1 X43.26S0
G1 X250.88S800
G0 X3.125
G0 Y0.07
G0 X-3.125
G1 X-248.92
G1 X-45.43S0
G1 X-2.59S800
G0 X-3.125
G0 Y0.07
G0 X3.125
G1 X2.45
G1 X46.34S0
G1 X0.14S800
G1 X0.07S0
G1 X0.14S800
G1 X0.07S0
G1 X0.14S800
G1 X0.07S0
G1 X247.52S800
G0 X3.125
G0 Y0.07
G0 X-3.125
G1 X-246.75
G1 X-47.95S0
G1 X-2.24S800
G0 X-3.125
G0 Y0.07
G0 X3.125
G1 X1.96
G1 X0.07S0
G1 X0.07S800
G1 X38.29S0
G1 X0.14S800
G1 X0.07S0
G1 X1.4S800
G1 X0.07S0
G1 X0.14S800
G1 X0.07S0
G1 X0.07S800
G1 X0.07S0
G1 X0.07S800
G1 X0.07S0
G1 X0.07S800
G1 X0.07S0
G1 X0.07S800
G1 X0.07S0
G1 X0.07S800
G1 X0.07S0
G1 X0.07S800
G1 X8.33S0
G1 X245.56S800
G0 X3.125
G0 Y0.07
G0 X-3.125
G1 X-245
G1 X-5.95S0
G1 X-0.07S800
G1 X-0.14S0
G1 X-0.07S800
G1 X-0.14S0
G1 X-0.07S800
G1 X-0.14S0
G1 X-7.28S800
G1 X-0.07S0
G1 X-0.14S800
G1 X-0.07S0
G1 X-0.14S800
G1 X-0.07S0
G1 X-0.07S800
G1 X-0.07S0
G1 X-0.07S800
G1 X-0.07S0
G1 X-0.07S800
G1 X-0.14S0
G1 X-0.07S800
G1 X-8.89S0
G1 X-0.07S800
G1 X-0.14S0
G1 X-0.07S800
G1 X-0.14S0
G1 X-0.07S800
G1 X-0.14S0
G1 X-0.07S800
G1 X-0.14S0
G1 X-0.07S800
G1 X-0.14S0
G1 X-0.07S800
G1 X-0.14S0
G1 X-0.07S800
G1 X-0.07S0
G1 X-0.07S800
G1 X-0.07S0
G1 X-0.07S800
G1 X-0.07S0
G1 X-0.14S800
G1 X-0.07S0
G1 X-0.14S800
G1 X-0.07S0
G1 X-0.07S800
G1 X-0.07S0
G1 X-0.07S800
G1 X-0.07S0
G1 X-0.07S800
G1 X-0.07S0
G1 X-0.07S800
G1 X-0.07S0
G1 X-0.07S800
G1 X-0.07S0
G1 X-0.07S800
G1 X-0.07S0
G1 X-0.07S800
G1 X-0.14S0
G1 X-0.07S800
G1 X-0.07S0
G1 X-0.07S800
G1 X-0.14S0
G1 X-0.07S800
G1 X-0.14S0
G1 X-0.07S800
G1 X-0.14S0
G1 X-0.07S800
G1 X-0.14S0
G1 X-0.07S800
G1 X-0.21S0
G1 X-0.07S800
G1 X-2.94S0
G1 X-0.07S800
G1 X-0.21S0
G1 X-0.07S800
G1 X-0.21S0
G1 X-0.07S800
G1 X-0.21S0
G1 X-0.07S800
G1 X-0.21S0
G1 X-0.07S800
G1 X-0.14S0
G1 X-0.07S800
G1 X-0.14S0
G1 X-0.07S800
G1 X-1.33S0
G1 X-0.07S800
G1 X-0.21S0
G1 X-0.07S800
G1 X-0.14S0
G1 X-0.07S800
G1 X-0.14S0
G1 X-0.07S800
G1 X-1.68S0
G1 X-0.07S800
G1 X-0.28S0
G1 X-0.07S800
G1 X-2.1S0
G1 X-0.07S800
G1 X-0.21S0
G1 X-0.07S800
G1 X-0.21S0
G1 X-0.07S800
G1 X-1.12S0
G1 X-0.07S800
G1 X-0.21S0
G1 X-0.07S800
G1 X-0.21S0
G1 X-0.07S800
G1 X-3.01S0
G1 X-0.07S800
G1 X-0.14S0
G1 X-0.07S800
G1 X-0.14S0
G1 X-0.07S800
G1 X-0.14S0
G1 X-0.07S800
G1 X-1.82S0
G1 X-0.07S800
G1 X-0.14S0
G1 X-0.07S800
G1 X-0.21S0
G1 X-0.07S800
G1 X-0.21S0
G1 X-0.07S800
G1 X-0.21S0
G1 X-0.07S800
G1 X-0.42S0
G1 X-0.07S800
G1 X-0.21S0
G1 X-0.07S800
G1 X-1.19S0
G1 X-1.82S800
G0 X-3.125
G0 Y0.07
G0 X3.125
G1 X1.47
G1 X1.19S0
G1 X24.36S800
G1 X9.03S0
G1 X11.55S800
G1 X5.32S0
G1 X244.02S800
G0 X3.125
G0 Y0.07
G0 X-3.125
G1 X-243.11
G1 X-0.21S0
G1 X-0.07S800
G1 X-4.41S0
G1 X-0.07S800
G1 X-0.07S0
G1 X-0.14S800
G1 X-0.07S0
G1 X-13.72S800
G1 X-0.07S0
G1 X-0.14S800
G1 X-0.07S0
G1 X-0.14S800
G1 X-0.07S0
G1 X-0.14S800
G1 X-0.07S0
G1 X-0.14S800
G1 X-9.1S0
G1 X-0.07S800
G1 X-0.14S0
G1 X-0.07S800
G1 X-0.14S0
G1 X-0.07S800
G1 X-0.14S0
G1 X-0.07S800
G1 X-0.14S0
G1 X-21.84S800
G1 X-1.4S0
G1 X-0.07S800
G1 X-0.07S0
G1 X-0.91S800
G0 X-3.125
G0 Y0.07
G0 X3.125
G1 X0.35
G1 X2.03S0
G1 X20.37S800
G1 X9.66S0
G1 X0.07S800
G1 X0.7S0
G1 X16.8S800
G1 X4.27S0
G1 X242.69S800
G0 X3.125
G0 Y0.07
G0 X-3.125
G1 X-242.76
G1 X-3.08S0
G1 X-19.88S800
G1 X-11.83S0
G1 X-17.29S800
G0 X-3.125
G0 X-0.28Y0.07
G0 X3.125
G1 X13.09
G1 X0.07S0
G1 X0.07S800
G1 X0.07S0
G1 X0.07S800
G1 X0.07S0
G1 X0.07S800
G1 X0.07S0
G1 X0.14S800
G1 X0.07S0
G1 X0.14S800
G1 X0.07S0
G1 X0.28S800
G1 X0.07S0
G1 X0.21S800
G1 X0.07S0
G1 X0.14S800
G1 X0.07S0
G1 X0.14S800
G1 X0.07S0
G1 X0.14S800
G1 X0.07S0
G1 X0.07S800
G1 X0.14S0
G1 X0.07S800
G1 X11.55S0
G1 X23.03S800
G1 X0.07S0
G1 X0.14S800
G1 X2.1S0
G1 X242.69S800
G0 X3.125
G0 Y0.07
G0 X-3.125
G1 X-242.76
G1 X-2.24S0
G1 X-0.14S800
G1 X-0.07S0
G1 X-24.08S800
G1 X-16.1S0
G1 X-9.94S800
G1 X-0.14S0
G1 X-0.07S800
G0 X-3.125
G0 X-0.28Y0.07
G0 X3.125
G1 X9.17
G1 X14.77S0
G1 X26.11S800
G1 X2.94S0
G1 X242.83S800
G0 X3.125
G0 Y0.07
G0 X-3.125
G1 X-243.46
G1 X-2.87S0
G1 X-0.14S800
G1 X-0.07S0
G1 X-27.51S800
G1 X-0.07S0
G1 X-0.07S800
G1 X-0.07S0
G1 X-0.07S800
G1 X-0.07S0
G1 X-0.07S800
G1 X-0.14S0
G1 X-0.07S800
G1 X-0.07S0
G1 X-0.07S800
G1 X-11.83S0
G1 X-9.66S800
G1 X-0.07S0
G1 X-0.14S800
G1 X-0.07S0
G1 X-0.07S800
G1 X-0.07S0
G1 X-0.07S800
G1 X-0.07S0
G1 X-0.07S800
G0 X-3.125
G0 Y0.07
G0 X3.125
G1 X10.29
G1 X10.78S0
G1 X1.89S800
G1 X0.07S0
G1 X0.14S800
G1 X0.07S0
G1 X26.32S800
G1 X3.57S0
G1 X243.81S800
G0 X3.125
G0 Y0.07
G0 X-3.125
G1 X-244.44
G1 X-4.55S0
G1 X-4.27S800
G1 X-4.13S0
G1 X-9.1S800
G1 X-3.22S0
G1 X-0.07S800
G1 X-16.87S0
G1 X-10.29S800
G0 X-3.125
G0 Y0.07
G0 X3.125
G1 X10.36
G1 X0.07S0
G1 X0.07S800
G1 X0.07S0
G1 X0.07S800
G1 X41.16S0
G1 X0.07S800
G1 X0.07S0
G1 X0.07S800
G1 X0.14S0
G1 X244.79S800
G0 X3.125
G0 Y0.07
G0 X-3.125
G1 X-245.63
G1 X-36.75S0
G1 X-0.07S800
G1 X-0.21S0
G1 X-0.07S800
G1 X-0.21S0
G1 X-0.07S800
G1 X-0.14S0
G1 X-0.07S800
G1 X-0.14S0
G1 X-0.07S800
G1 X-0.21S0
G1 X-0.07S800
G1 X-0.56S0
G1 X-12.67S800
G0 X-3.125
G0 Y0.07
G0 X3.125
G1 X16.94
G1 X33.46S0
G1 X246.54S800
G0 X3.125
G0 Y0.07
G0 X-3.125
G1 X-247.03
G1 X-0.07S0
G1 X-0.07S800
G1 X-0.14S0
G1 X-0.07S800
G1 X-27.93S0
G1 X-0.07S800
G1 X-0.14S0
G1 X-0.07S800
G1 X-0.07S0
G1 X-0.07S800
G1 X-0.07S0
G1 X-0.14S800
G1 X-0.07S0
G1 X-0.35S800
G1 X-0.07S0
G1 X-0.28S800
G1 X-0.07S0
G1 X-0.21S800
G1 X-0.07S0
G1 X-0.21S800
G1 X-0.07S0
G1 X-19.6S800
G0 X-3.125
G0 Y0.07
G0 X3.125
G1 X26.53
G1 X0.21S0
G1 X0.07S800
G1 X0.14S0
G1 X0.07S800
G1 X0.21S0
G1 X0.07S800
G1 X0.14S0
G1 X0.07S800
G1 X0.14S0
G1 X0.07S800
G1 X20.79S0
G1 X248.43S800
G0 X3.125
G0 Y0.07
G0 X-3.125
G1 X-255.43
G1 X-7.07S0
G1 X-34.44S800
G0 X-3.125
G0 Y0.07
G0 X3.125
G1 X33.53
G1 X6.37S0
G1 X0.07S800
G1 X0.14S0
G1 X0.07S800
G1 X0.14S0
G1 X0.07S800
G1 X0.14S0
G1 X256.41S800
G0 X3.125
G0 Y0.07
G0 X-3.125
G1 X-257.95
G1 X-7.14S0
G1 X-31.85S800
G0 X-3.125
G0 Y0.07
G0 X3.125
G1 X30.17
G1 X0.28S0
G1 X0.07S800
G1 X0.21S0
G1 X0.07S800
G1 X6.51S0
G1 X259.63S800
G0 X3.125
G0 Y0.07
G0 X-3.125
G1 X-260.54
G1 X-0.14S0
G1 X-0.07S800
G1 X-0.14S0
G1 X-0.07S800
G1 X-0.14S0
G1 X-0.07S800
G1 X-6.44S0
G1 X-29.33S800
G0 X-3.125
G0 Y0.07
G0 X3.125
G1 X27.65
G1 X7.14S0
G1 X262.15S800
G0 X3.125
G0 Y0.07
G0 X-3.125
G1 X-263.83
G1 X-6.37S0
G1 X-0.07S800
G1 X-0.14S0
G1 X-0.07S800
G1 X-0.14S0
G1 X-0.07S800
G1 X-0.14S0
G1 X-0.07S800
G1 X-0.07S0
G1 X-25.97S800
G0 X-3.125
G0 Y0.07
G0 X3.125
G1 X24.22
G1 X0.07S0
G1 X0.14S800
G1 X0.07S0
G1 X0.14S800
G1 X0.07S0
G1 X0.35S800
G1 X6.44S0
G1 X0.07S800
G1 X0.14S0
G1 X0.07S800
G1 X0.14S0
G1 X0.07S800
G1 X0.07S0
G1 X0.07S800
G1 X0.07S0
G1 X264.74S800
G0 X3.125
G0 Y0.07
G0 X-3.125
G1 X-266.35
G1 X-7.28S0
G1 X-23.31S800
G0 X-3.125
G0 Y0.07
G0 X3.125
G1 X21.91
G1 X0.14S0
G1 X0.07S800
G1 X0.14S0
G1 X0.07S800
G1 X6.58S0
G1 X268.03S800
G0 X3.125
G0 Y0.07
G0 X-3.125
G1 X-268.94
G1 X-0.07S0
G1 X-0.07S800
G1 X-0.07S0
G1 X-0.07S800
G1 X-0.14S0
G1 X-0.07S800
G1 X-0.14S0
G1 X-0.07S800
G1 X-5.46S0
G1 X-21.84S800
G0 X-3.125
G0 X3.92Y0.07
G0 X3.125
G1 X17.92
G1 X4.48S0
G1 X270.62S800
G0 X3.125
G0 Y0.07
G0 X-3.125
G1 X-271.81
G1 X-3.22S0
G1 X-6.65S800
G1 X-0.14S0
G1 X-0.07S800
G1 X-0.14S0
G1 X-0.07S800
G1 X-0.14S0
G1 X-0.07S800
G1 X-0.07S0
G1 X-0.07S800
G1 X-0.07S0
G1 X-0.07S800
G1 X-0.07S0
G1 X-0.07S800
G1 X-0.07S0
G1 X-0.07S800
G1 X-0.07S0
G1 X-0.07S800
G1 X-0.07S0
G1 X-0.07S800
G1 X-0.07S0
G1 X-0.07S800
G1 X-0.07S0
G1 X-0.14S800
G1 X-0.07S0
G1 X-0.14S800
G1 X-0.07S0
G1 X-0.14S800
G1 X-0.07S0
G1 X-0.14S800
G1 X-0.07S0
G1 X-0.14S800
G1 X-0.07S0
G1 X-0.07S800
G1 X-0.07S0
G1 X-0.07S800
G1 X-0.07S0
G1 X-0.07S800
G1 X-0.07S0
G1 X-0.07S800
G1 X-0.14S0
G1 X-0.07S800
G1 X-0.21S0
G1 X-0.07S800
G1 X-0.7S0
G1 X-0.07S800
G1 X-0.21S0
G1 X-0.07S800
G1 X-0.14S0
G1 X-0.07S800
G1 X-0.14S0
G1 X-0.07S800
G1 X-0.14S0
G1 X-0.07S800
G1 X-0.14S0
G1 X-0.07S800
G1 X-0.21S0
G1 X-0.07S800
G0 X-3.125
G0 X9.24Y0.07
G0 X3.125
G1 X3.22
G1 X3.78S0
G1 X271.32S800
G0 X3.125
G0 Y0.07
G0 X-3.125
G1 X-270.34
G1 X-4.27S0
G1 X-3.71S800
G0 X-3.125
G0 Y0.07
G0 X3.125
G1 X4.34
G1 X0.07S0
G1 X0.14S800
G1 X0.07S0
G1 X0.07S800
G1 X3.85S0
G1 X0.07S800
G1 X0.07S0
G1 X0.07S800
G1 X0.07S0
G1 X0.07S800
G1 X0.07S0
G1 X269.36S800
G0 X3.125
G0 X-0.07Y0.07
G0 X-3.125
G1 X-268.8
G1 X-4.27S0
G1 X-5.18S800
G0 X-3.125
G0 Y0.07
G0 X3.125
G1 X6.23
G1 X4.27S0
G1 X26.74S800
G1 X0.91S0
G1 X239.89S800
G0 X3.125
G0 X-0.21Y0.07
G0 X-3.125
G1 X-239.61
G1 X-1.68S0
G1 X-0.07S800
G1 X-0.14S0
G1 X-0.07S800
G1 X-0.07S0
G1 X-0.07S800
G1 X-0.14S0
G1 X-24.57S800
G1 X-0.07S0
G1 X-0.07S800
G1 X-4.13S0
G1 X-0.07S800
G1 X-0.07S0
G1 X-0.07S800
G1 X-0.07S0
G1 X-0.07S800
G1 X-0.07S0
G1 X-7.49S800
G1 X-0.07S0
G1 X-0.14S800
G1 X-0.07S0
G1 X-0.14S800
G1 X-0.07S0
G1 X-0.14S800
G1 X-0.07S0
G1 X-0.07S800
G1 X-0.07S0
G1 X-0.07S800
G1 X-0.07S0
G1 X-0.07S800
G1 X-0.07S0
G1 X-0.07S800
G1 X-0.07S0
G1 X-0.07S800
G1 X-0.07S0
G1 X-0.07S800
G1 X-0.07S0
G1 X-0.07S800
G1 X-0.07S0
G1 X-0.07S800
G1 X-0.07S0
G1 X-0.07S800
G1 X-0.07S0
G1 X-0.14S800
G1 X-0.07S0
G1 X-0.14S800
G1 X-0.07S0
G1 X-0.77S800
G1 X-0.07S0
G1 X-0.14S800
G1 X-0.07S0
G1 X-0.14S800
G1 X-0.07S0
G1 X-0.14S800
G1 X-0.07S0
G1 X-0.14S800
G1 X-0.07S0
G1 X-0.14S800
G1 X-0.07S0
G1 X-0.14S800
G0 X-3.125
G0 X-7.91Y0.07
G0 X3.125
G1 X0.07
G1 X0.21S0
G1 X0.07S800
G1 X0.21S0
G1 X0.07S800
G1 X0.14S0
G1 X0.07S800
G1 X0.14S0
G1 X0.07S800
G1 X0.14S0
G1 X0.07S800
G1 X0.14S0
G1 X0.07S800
G1 X0.21S0
G1 X0.07S800
G1 X0.21S0
G1 X0.07S800
G1 X0.28S0
G1 X0.07S800
G1 X0.28S0
G1 X18.2S800
G1 X4.2S0
G1 X23.31S800
G1 X3.01S0
G1 X239.4S800
G0 X3.125
G0 X-0.28Y0.07
G0 X-3.125
G1 X-238.91
G1 X-4.83S0
G1 X-20.72S800
G1 X-4.2S0
G1 X-27.37S800
G0 X-3.125
G0 Y0.07
G0 X3.125
G1 X27.93
G1 X0.07S0
G1 X0.14S800
G1 X0.07S0
G1 X0.07S800
G1 X3.78S0
G1 X0.14S800
G1 X0.07S0
G1 X0.14S800
G1 X0.07S0
G1 X18.13S800
G1 X0.07S0
G1 X0.07S800
G1 X0.07S0
G1 X0.07S800
G1 X0.07S0
G1 X0.07S800
G1 X0.07S0
G1 X0.07S800
G1 X0.07S0
G1 X0.07S800
G1 X0.07S0
G1 X0.07S800
G1 X5.74S0
G1 X238.7S800
G0 X3.125
G0 X1.05Y0.07
G0 X-3.125
G1 X-0.21
G1 X-1.05S0
G1 X-238.42S800
G1 X-0.63S0
G1 X-0.49S800
G1 X-6.65S0
G1 X-16.45S800
G1 X-4.2S0
G1 X-28.84S800
G0 X-3.125
G0 Y0.07
G0 X3.125
G1 X29.82
G1 X4.2S0
G1 X13.09S800
G1 X7.77S0
G1 X1.89S800
G1 X0.63S0
G1 X238.07S800
G1 X1.05S0
G1 X0.42S800
G0 X3.125
G0 Y0.07
G0 X-3.125
G1 X-0.63
G1 X-0.98S0
G1 X-237.86S800
G1 X-0.63S0
G1 X-2.66S800
G1 X-0.07S0
G1 X-0.07S800
G1 X-0.14S0
G1 X-0.07S800
G1 X-8.26S0
G1 X-0.07S800
G1 X-0.14S0
G1 X-0.07S800
G1 X-0.14S0
G1 X-0.07S800
G1 X-0.07S0
G1 X-0.07S800
G1 X-0.07S0
G1 X-0.07S800
G1 X-0.07S0
G1 X-0.07S800
G1 X-0.07S0
G1 X-0.14S800
G1 X-0.07S0
G1 X-0.21S800
G1 X-0.07S0
G1 X-0.63S800
G1 X-0.07S0
G1 X-6.79S800
G1 X-0.07S0
G1 X-0.14S800
G1 X-0.07S0
G1 X-0.14S800
G1 X-0.07S0
G1 X-0.14S800
G1 X-0.07S0
G1 X-0.14S800
G1 X-0.07S0
G1 X-0.14S800
G1 X-0.07S0
G1 X-0.14S800
G1 X-0.07S0
G1 X-0.21S800
G1 X-0.07S0
G1 X-0.28S800
G1 X-0.07S0
G1 X-0.14S800
G1 X-3.78S0
G1 X-0.07S800
G1 X-0.07S0
G1 X-0.14S800
G1 X-0.07S0
G1 X-30.38S800
G0 X-3.125
G0 Y0.07
G0 X3.125
G1 X30.17
G1 X22.47S0
G1 X4.34S800
G1 X0.63S0
G1 X237.51S800
G1 X1.05S0
G1 X0.77S800
G0 X3.125
G0 Y0.07
G0 X-3.125
G1 X-0.98
G1 X-1.12S0
G1 X-237.09S800
G1 X-0.63S0
G1 X-6.09S800
G1 X-25.62S0
G1 X-25.41S800
G0 X-3.125
G0 Y0.07
G0 X3.125
G1 X18.55
G1 X0.07S0
G1 X0.07S800
G1 X0.07S0
G1 X0.14S800
G1 X0.07S0
G1 X1.19S800
G1 X0.07S0
G1 X0.14S800
G1 X0.07S0
G1 X0.14S800
G1 X0.07S0
G1 X0.14S800
G1 X0.07S0
G1 X0.07S800
G1 X0.07S0
G1 X0.14S800
G1 X0.07S0
G1 X0.07S800
G1 X0.07S0
G1 X0.14S800
G1 X0.07S0
G1 X0.14S800
G1 X0.07S0
G1 X0.14S800
G1 X0.07S0
G1 X0.14S800
G1 X0.07S0
G1 X0.14S800
G1 X26.67S0
G1 X0.07S800
G1 X0.07S0
G1 X0.07S800
G1 X0.07S0
G1 X0.07S800
G1 X0.07S0
G1 X0.07S800
G1 X0.07S0
G1 X0.07S800
G1 X0.07S0
G1 X0.07S800
G1 X0.07S0
G1 X0.07S800
G1 X0.07S0
G1 X7.21S800
G1 X0.63S0
G1 X236.88S800
G1 X1.05S0
G1 X1.19S800
G0 X3.125
G0 X-0.07Y0.07
G0 X-3.125
G1 X-1.33
G1 X-1.05S0
G1 X-236.6S800
G1 X-0.63S0
G1 X-9.45S800
G1 X-33.11S0
G1 X-14.7S800
G0 X-3.125
G0 X3.29Y0.07
G0 X3.125
G1 X0.07
G1 X0.14S0
G1 X0.07S800
G1 X0.14S0
G1 X0.07S800
G1 X0.07S0
G1 X0.07S800
G1 X0.07S0
G1 X0.07S800
G1 X0.07S0
G1 X0.07S800
G1 X0.07S0
G1 X0.07S800
G1 X0.07S0
G1 X0.07S800
G1 X0.07S0
G1 X0.07S800
G1 X0.07S0
G1 X0.07S800
G1 X0.07S0
G1 X0.07S800
G1 X0.07S0
G1 X0.07S800
G1 X0.07S0
G1 X0.14S800
G1 X0.07S0
G1 X0.07S800
G1 X0.07S0
G1 X0.07S800
G1 X0.07S0
G1 X0.07S800
G1 X0.14S0
G1 X0.07S800
G1 X0.14S0
G1 X0.07S800
G1 X0.21S0
G1 X0.07S800
G1 X27.51S0
G1 X1.47S800
G1 X9.17S0
G1 X12.88S800
G1 X0.56S0
G1 X236.32S800
G1 X1.12S0
G1 X1.05S800
G0 X3.125
G0 X-0.14Y0.07
G0 X-3.125
G1 X-1.05
G1 X-0.07S0
G1 X-0.07S800
G1 X-0.98S0
G1 X-236.04S800
G1 X-0.63S0
G1 X-16.59S800
G1 X-0.14S0
G1 X-0.07S800
G1 X-0.07S0
G1 X-0.07S800
G1 X-0.07S0
G1 X-0.07S800
G1 X-0.07S0
G1 X-0.07S800
G1 X-0.07S0
G1 X-0.07S800
G1 X-0.07S0
G1 X-0.07S800
G1 X-0.07S0
G1 X-0.14S800
G1 X-0.07S0
G1 X-0.14S800
G1 X-0.07S0
G1 X-0.14S800
G1 X-0.07S0
G1 X-0.07S800
G1 X-0.07S0
G1 X-7.7S800
G1 X-0.07S0
G1 X-0.14S800
G1 X-0.07S0
G1 X-0.07S800
G1 X-0.07S0
G1 X-0.07S800
G1 X-0.07S0
G1 X-0.07S800
G1 X-0.14S0
G1 X-0.07S800
G1 X-0.14S0
G1 X-0.07S800
G1 X-1.12S0
G1 X-0.07S800
G0 X-3.125
G0 X-2.45Y0.07
G0 X3.125
G1 X30.8
G1 X0.63S0
G1 X235.76S800
G1 X1.05S0
G1 X0.7S800
G0 X3.125
G0 X-2.52Y0.07
G0 X-3.125
G1 X-234.85
G1 X-0.63S0
G1 X-36.96S800
G0 X-3.125
G0 X-8.33Y0.07
G0 X3.125
G1 X0.07
G1 X3.99S0
G1 X0.07S800
G1 X0.28S0
G1 X40.95S800
G1 X0.56S0
G1 X234.29S800
G0 X3.125
G0 X4.34Y0.07
G0 X-3.125
G1 X-0.28
G1 X-4.76S0
G1 X-233.45S800
G1 X-0.56S0
G1 X-57.89S800
G0 X-3.125
G0 Y0.07
G0 X3.125
G1 X57.96
G1 X0.56S0
G1 X232.68S800
G1 X0.14S0
G1 X0.07S800
G1 X4.76S0
G1 X0.07S800
G1 X0.07S0
G1 X0.63S800
G0 X3.125
G0 Y0.07
G0 X-3.125
G1 X-1.05
G1 X-5.04S0
G1 X-232.26S800
G1 X-0.56S0
G1 X-58.03S800
G0 X-3.125
G0 Y0.07
G0 X3.125
G1 X58.17
G1 X0.56S0
G1 X231.7S800
G1 X3.01S0
G1 X3.5S800
G0 X3.125
G0 Y0.07
G0 X-3.125
G1 X-4.2
G1 X-0.07S0
G1 X-0.14S800
G1 X-0.07S0
G1 X-0.07S800
G1 X-2.24S0
G1 X-0.07S800
G1 X-0.14S0
G1 X-231.14S800
G1 X-0.56S0
G1 X-58.24S800
G0 X-3.125
G0 Y0.07
G0 X3.125
G1 X58.31
G1 X0.56S0
G1 X230.79S800
G1 X2.38S0
G1 X4.9S800
G0 X3.125
G0 Y0.07
G0 X-3.125
G1 X-5.53
G1 X-2.17S0
G1 X-230.3S800
G1 X-0.56S0
G1 X-58.38S800
G0 X-3.125
G0 Y0.07
G0 X3.125
G1 X58.52
G1 X0.42S0
G1 X229.95S800
G1 X0.07S0
G1 X0.07S800
G1 X1.75S0
G1 X0.07S800
G1 X0.07S0
G1 X6.02S800
G0 X3.125
G0 Y0.07
G0 X-3.125
G1 X-6.44
G1 X-1.89S0
G1 X-229.53S800
G1 X-0.56S0
G1 X-56.28S800
G0 X-3.125
G0 X6.44Y0.07
G0 X3.125
G1 X49.91
G1 X0.56S0
G1 X229.11S800
G1 X1.75S0
G1 X6.65S800
G0 X3.125
G0 X-0.14Y0.07
G0 X-3.125
G1 X-0.07
G1 X-0.07S0
G1 X-6.65S800
G1 X-0.07S0
G1 X-0.07S800
G1 X-1.61S0
G1 X-228.76S800
G1 X-0.49S0
G1 X-42.98S800
G1 X-0.07S0
G1 X-0.21S800
G1 X-0.07S0
G1 X-0.28S800
G1 X-0.07S0
G1 X-0.42S800
G1 X-0.07S0
G1 X-1.89S800
G1 X-0.07S0
G1 X-0.14S800
G1 X-0.07S0
G1 X-0.14S800
G1 X-0.07S0
G1 X-0.14S800
G1 X-0.07S0
G1 X-0.07S800
G0 X-3.125
G0 X8.61Y0.07
G0 X3.125
G1 X0.77
G1 X0.07S0
G1 X0.14S800
G1 X0.07S0
G1 X0.14S800
G1 X0.07S0
G1 X0.14S800
G1 X0.07S0
G1 X0.14S800
G1 X0.07S0
G1 X0.14S800
G1 X0.07S0
G1 X0.14S800
G1 X0.07S0
G1 X0.14S800
G1 X0.07S0
G1 X0.28S800
G1 X0.07S0
G1 X0.21S800
G1 X0.07S0
G1 X0.14S800
G1 X0.07S0
G1 X0.14S800
G1 X0.07S0
G1 X0.14S800
G1 X0.07S0
G1 X0.21S800
G1 X0.07S0
G1 X34.44S800
G1 X0.49S0
G1 X228.48S800
G1 X1.54S0
G1 X6.93S800
G0 X3.125
G0 X-0.28Y0.07
G0 X-3.125
G1 X-7
G1 X-1.47S0
G1 X-228.13S800
G1 X-0.49S0
G1 X-26.04S800
G1 X-5.25S0
G1 X-0.07S800
G1 X-0.21S0
G1 X-0.07S800
G1 X-0.14S0
G1 X-0.07S800
G1 X-0.21S0
G1 X-0.07S800
G0 X-3.125
G0 X-26.74Y0.07
G0 X3.125
G1 X0.77
G1 X0.07S0
G1 X0.14S800
G1 X0.07S0
G1 X0.07S800
G1 X0.07S0
G1 X0.07S800
G1 X0.07S0
G1 X0.07S800
G1 X0.07S0
G1 X0.07S800
G1 X0.07S0
G1 X0.07S800
G1 X0.07S0
G1 X0.14S800
G1 X0.07S0
G1 X0.14S800
G1 X0.07S0
G1 X0.07S800
G1 X0.07S0
G1 X0.07S800
G1 X0.07S0
G1 X0.07S800
G1 X0.07S0
G1 X0.07S800
G1 X0.07S0
G1 X0.07S800
G1 X0.07S0
G1 X0.07S800
G1 X0.07S0
G1 X0.07S800
G1 X0.07S0
G1 X0.07S800
G1 X0.07S0
G1 X0.07S800
G1 X0.07S0
G1 X0.07S800
G1 X0.07S0
G1 X0.07S800
G1 X56S0
G1 X227.57S800
G1 X1.4S0
G1 X0.07S800
G1 X0.07S0
G1 X7S800
G0 X3.125
G0 X1.19Y0.07
G0 X-3.125
G1 X-0.14
G1 X-1.26S0
G1 X-7.14S800
G1 X-1.4S0
G1 X-227.36S800
G1 X-52.43S0
G1 X-0.07S800
G1 X-0.21S0
G1 X-6.93S800
G0 X-3.125
G0 Y0.07
G0 X3.125
G1 X13.44
G1 X46.2S0
G1 X227.08S800
G1 X1.33S0
G1 X7.21S800
G1 X1.19S0
G1 X0.49S800
G0 X3.125
G0 Y0.07
G0 X-3.125
G1 X-0.7
G1 X-1.12S0
G1 X-7.28S800
G1 X-1.33S0
G1 X-226.87S800
G1 X-39.69S0
G1 X-0.07S800
G1 X-0.28S0
G1 X-0.07S800
G1 X-0.14S0
G1 X-0.07S800
G1 X-0.14S0
G1 X-0.07S800
G1 X-0.14S0
G1 X-0.07S800
G1 X-0.14S0
G1 X-0.07S800
G1 X-0.14S0
G1 X-0.07S800
G1 X-0.14S0
G1 X-0.07S800
G1 X-0.14S0
G1 X-0.07S800
G1 X-0.07S0
G1 X-17.99S800
G0 X-3.125
G0 Y0.07
G0 X3.125
G1 X28.63
G1 X1.4S0
G1 X0.07S800
G1 X0.21S0
G1 X0.07S800
G1 X0.21S0
G1 X0.07S800
G1 X28.98S0
G1 X226.59S800
G1 X1.33S0
G1 X7.28S800
G1 X1.26S0
G1 X0.84S800
G0 X3.125
G0 Y0.07
G0 X-3.125
G1 X-1.12
G1 X-1.19S0
G1 X-7.42S800
G1 X-1.19S0
G1 X-229.32S800
G1 X-20.23S0
G1 X-36.47S800
G0 X-3.125
G0 Y0.07
G0 X3.125
G1 X33.81
G1 X18.41S0
G1 X0.07S800
G1 X0.14S0
G1 X0.07S800
G1 X0.07S0
G1 X0.07S800
G1 X0.07S0
G1 X0.07S800
G1 X0.07S0
G1 X0.14S800
G1 X0.07S0
G1 X0.14S800
G1 X0.07S0
G1 X0.14S800
G1 X0.07S0
G1 X0.14S800
G1 X0.07S0
G1 X0.07S800
G1 X0.07S0
G1 X0.07S800
G1 X0.07S0
G1 X0.07S800
G1 X0.07S0
G1 X0.07S800
G1 X0.07S0
G1 X0.07S800
G1 X0.07S0
G1 X231.49S800
G1 X1.12S0
G1 X7.49S800
G1 X1.05S0
G1 X1.4S800
G0 X3.125
G0 Y0.07
G0 X-3.125
G1 X-1.61
G1 X-1.12S0
G1 X-7.42S800
G1 X-1.19S0
G1 X-235.76S800
G1 X-21.35S0
G1 X-28.49S800
G0 X-3.125
G0 Y0.07
G0 X3.125
G1 X23.1
G1 X22.19S0
G1 X0.28S800
G1 X0.07S0
G1 X0.21S800
G1 X0.07S0
G1 X0.21S800
G1 X0.07S0
G1 X0.21S800
G1 X0.07S0
G1 X238.91S800
G1 X1.19S0
G1 X7.42S800
G1 X1.12S0
G1 X1.82S800
G0 X3.125
G0 X-0.28Y0.07
G0 X-3.125
G1 X-1.75
G1 X-1.05S0
G1 X-7.56S800
G1 X-1.05S0
G1 X-242.34S800
G1 X-0.14S0
G1 X-0.07S800
G1 X-0.14S0
G1 X-0.07S800
G1 X-0.14S0
G1 X-0.07S800
G1 X-0.14S0
G1 X-0.07S800
G1 X-0.14S0
G1 X-0.07S800
G1 X-0.14S0
G1 X-0.07S800
G1 X-0.14S0
G1 X-0.07S800
G1 X-0.14S0
G1 X-0.07S800
G1 X-0.14S0
G1 X-0.07S800
G1 X-0.14S0
G1 X-0.07S800
G1 X-0.14S0
G1 X-0.07S800
G1 X-20.72S0
G1 X-19.88S800
G0 X-3.125
G0 Y0.07
G0 X3.125
G1 X13.58
G1 X24.36S0
G1 X247.1S800
G1 X1.12S0
G1 X7.49S800
G1 X1.05S0
G1 X1.68S800
G0 X3.125
G0 X-0.21Y0.07
G0 X-3.125
G1 X-0.07
G1 X-0.14S0
G1 X-1.47S800
G1 X-1.05S0
G1 X-7.56S800
G1 X-1.05S0
G1 X-250.95S800
G1 X-0.07S0
G1 X-0.14S800
G1 X-0.07S0
G1 X-0.07S800
G1 X-0.07S0
G1 X-0.07S800
G1 X-0.07S0
G1 X-0.14S800
G1 X-0.07S0
G1 X-0.14S800
G1 X-0.07S0
G1 X-0.28S800
G1 X-22.4S0
G1 X-0.07S800
G1 X-0.14S0
G1 X-0.07S800
G1 X-0.07S0
G1 X-0.07S800
G1 X-0.07S0
G1 X-0.07S800
G1 X-0.07S0
G1 X-0.07S800
G1 X-0.07S0
G1 X-0.14S800
G1 X-0.07S0
G1 X-0.14S800
G1 X-0.07S0
G1 X-0.14S800
G1 X-0.07S0
G1 X-0.14S800
G1 X-0.07S0
G1 X-0.14S800
G1 X-0.07S0
G1 X-0.14S800
G1 X-0.07S0
G1 X-0.14S800
G1 X-0.07S0
G1 X-0.14S800
G1 X-0.07S0
G1 X-0.14S800
G1 X-0.07S0
G1 X-0.07S800
G1 X-0.07S0
G1 X-0.07S800
G1 X-0.07S0
G1 X-7.28S800
G0 X-3.125
G0 Y0.07
G0 X3.125
G1 X3.71
G1 X23.59S0
G1 X0.07S800
G1 X0.14S0
G1 X0.07S800
G1 X0.14S0
G1 X0.07S800
G1 X0.07S0
G1 X0.07S800
G1 X0.07S0
G1 X0.07S800
G1 X0.07S0
G1 X0.07S800
G1 X0.07S0
G1 X0.07S800
G1 X0.07S0
G1 X0.07S800
G1 X0.07S0
G1 X0.07S800
G1 X0.07S0
G1 X0.07S800
G1 X0.07S0
G1 X0.14S800
G1 X0.07S0
G1 X0.14S800
G1 X0.07S0
G1 X0.14S800
G1 X0.07S0
G1 X0.14S800
G1 X0.07S0
G1 X0.14S800
G1 X0.07S0
G1 X254.8S800
G1 X0.98S0
G1 X7.63S800
G1 X0.98S0
G1 X1.47S800
G0 X3.125
G0 X-0.49Y0.07
G0 X-3.125
G1 X-1.19
G1 X-0.98S0
G1 X-7.56S800
G1 X-1.05S0
G1 X-259.91S800
G0 X-3.125
G0 X-5.95Y0.07
G0 X3.125
G1 X0.07
G1 X0.14S0
G1 X0.07S800
G1 X0.14S0
G1 X0.07S800
G1 X0.14S0
G1 X0.07S800
G1 X0.14S0
G1 X0.07S800
G1 X0.14S0
G1 X0.07S800
G1 X0.07S0
G1 X264.46S800
G1 X1.05S0
G1 X7.49S800
G1 X1.05S0
G1 X0.98S800
G1 X1.89S0
G1 X0.21S800
G0 X3.125
G0 Y0.07
G0 X-3.125
G1 X-0.42
G1 X-1.96S0
G1 X-0.84S800
G1 X-0.98S0
G1 X-7.63S800
G1 X-0.98S0
G1 X-268.8S800
G0 X-3.125
G0 X-6.3Y0.07
G0 X3.125
G1 X274.96
G1 X0.98S0
G1 X7.56S800
G1 X1.05S0
G1 X0.63S800
G1 X1.89S0
G1 X0.84S800
G0 X3.125
G0 X-0.14Y0.07
G0 X-3.125
G1 X-0.98
G1 X-0.07S0
G1 X-0.07S800
G1 X-1.96S0
G1 X-0.42S800
G1 X-0.91S0
G1 X-7.63S800
G1 X-0.98S0
G1 X-277.97S800
G1 X-0.07S0
G1 X-0.14S800
G1 X-0.07S0
G1 X-0.14S800
G1 X-0.07S0
G1 X-0.14S800
G1 X-0.07S0
G1 X-0.14S800
G1 X-0.07S0
G1 X-0.14S800
G1 X-0.07S0
G1 X-0.14S800
G1 X-0.07S0
G1 X-0.14S800
G1 X-0.07S0
G1 X-0.14S800
G1 X-0.07S0
G1 X-0.14S800
G1 X-0.07S0
G1 X-0.07S800
G1 X-0.14S0
G1 X-0.07S800
G1 X-0.21S0
G1 X-0.07S800
G1 X-0.21S0
G1 X-0.07S800
G1 X-0.28S0
G1 X-0.07S800
G1 X-0.28S0
G1 X-0.07S800
G0 X-3.125
G0 X-2.31Y0.07
G0 X3.125
G1 X283.71
G1 X0.91S0
G1 X7.56S800
G1 X1.05S0
G1 X0.14S800
G1 X2.1S0
G1 X1.19S800
G0 X3.125
G0 X-0.35Y0.07
G0 X-3.125
G1 X-1.33
G1 X-2.94S0
G1 X-7.63S800
G1 X-0.91S0
G1 X-283.5S800
G0 X-3.125
G0 Y0.07
G0 X3.125
G1 X283.29
G1 X0.91S0
G1 X7.63S800
G1 X2.73S0
G1 X0.14S800
G1 X0.07S0
G1 X1.26S800
G0 X3.125
G0 X-0.21Y0.07
G0 X-3.125
G1 X-1.54
G1 X-2.59S0
G1 X-7.63S800
G1 X-0.91S0
G1 X-283.15S800
G0 X-3.125
G0 Y0.07
G0 X3.125
G1 X283.01
G1 X0.91S0
G1 X7.56S800
G1 X2.31S0
G1 X1.68S800
G0 X3.125
G0 X1.47Y0.07
G0 X-3.125
G1 X-0.21
G1 X-0.07S0
G1 X-0.07S800
G1 X-1.4S0
G1 X-1.75S800
G1 X-0.07S0
G1 X-0.07S800
G1 X-2.03S0
G1 X-0.07S800
G1 X-0.07S0
G1 X-7.42S800
G1 X-0.84S0
G1 X-282.87S800
G0 X-3.125
G0 Y0.07
G0 X3.125
G1 X282.87
G1 X0.7S0
G1 X7.28S800
G1 X2.17S0
G1 X1.89S800
G1 X1.54S0
G1 X0.49S800
G0 X3.125
G0 Y0.07
G0 X-3.125
G1 X-0.84
G1 X-1.47S0
G1 X-2.17S800
G1 X-1.96S0
G1 X-7.07S800
G1 X-0.56S0
G1 X-282.87S800
G0 X-3.125
G0 Y0.07
G0 X3.125
G1 X282.94
G1 X0.42S0
G1 X6.79S800
G1 X0.07S0
G1 X0.07S800
G1 X1.68S0
G1 X0.14S800
G1 X0.07S0
G1 X2.17S800
G1 X1.47S0
G1 X0.07S800
G1 X0.07S0
G1 X0.98S800
G0 X3.125
G0 Y0.07
G0 X-3.125
G1 X-1.33
G1 X-1.54S0
G1 X-2.45S800
G1 X-1.68S0
G1 X-6.51S800
G1 X-0.49S0
G1 X-282.94S800
G0 X-3.125
G0 Y0.07
G0 X3.125
G1 X283.01
G1 X0.42S0
G1 X6.16S800
G1 X1.61S0
G1 X2.52S800
G1 X1.54S0
G1 X1.68S800
G0 X3.125
G0 Y0.07
G0 X-3.125
G1 X-1.96
G1 X-1.54S0
G1 X-2.38S800
G1 X-0.14S0
G1 X-0.07S800
G1 X-1.54S0
G1 X-5.81S800
G1 X-0.42S0
G1 X-283.08S800
G0 X-3.125
G0 Y0.07
G0 X3.125
G1 X283.15
G1 X0.49S0
G1 X5.39S800
G1 X1.61S0
G1 X2.59S800
G1 X1.47S0
G1 X2.24S800
G0 X3.125
G0 X-0.42Y0.07
G0 X-3.125
G1 X-2.1
G1 X-1.54S0
G1 X-2.59S800
G1 X-1.61S0
G1 X-4.97S800
G1 X-0.56S0
G1 X-283.15S800
G0 X-3.125
G0 Y0.07
G0 X3.125
G1 X283.22
G1 X0.56S0
G1 X4.55S800
G1 X1.68S0
G1 X2.59S800
G1 X1.47S0
G1 X0.07S800
G1 X0.07S0
G1 X2.03S800
G0 X3.125
G0 X-0.35Y0.07
G0 X-3.125
G1 X-2.03
G1 X-1.54S0
G1 X-2.66S800
G1 X-1.68S0
G1 X-4.06S800
G1 X-0.63S0
G1 X-283.29S800
G0 X-3.125
G0 Y0.07
G0 X3.125
G1 X282.87
G1 X0.28S0
G1 X0.07S800
G1 X0.77S0
G1 X3.57S800
G1 X1.75S0
G1 X2.66S800
G1 X1.54S0
G1 X2.03S800
G0 X3.125
G0 X-0.28Y0.07
G0 X-3.125
G1 X-1.96
G1 X-1.54S0
G1 X-2.66S800
G1 X-1.75S0
G1 X-3.29S800
G1 X-1.47S0
G1 X-282.59S800
G0 X-3.125
G0 Y0.07
G0 X3.125
G1 X282.1
G1 X2.1S0
G1 X2.73S800
G1 X1.82S0
G1 X2.66S800
G1 X1.61S0
G1 X1.89S800
G1 X1.75S0
G1 X0.28S800
G0 X3.125
G0 Y0.07
G0 X-3.125
G1 X-0.7
G1 X-1.75S0
G1 X-1.89S800
G1 X-1.61S0
G1 X-2.59S800
G1 X-1.89S0
G1 X-2.31S800
G1 X-2.45S0
G1 X-281.75S800
G0 X-3.125
G0 Y0.07
G0 X3.125
G1 X281.61
G1 X2.24S0
G1 X0.07S800
G1 X0.21S0
G1 X2.17S800
G1 X1.82S0
G1 X2.73S800
G1 X1.61S0
G1 X1.82S800
G1 X1.68S0
G1 X0.98S800
G0 X3.125
G0 Y0.07
G0 X-3.125
G1 X-1.26
G1 X-1.82S0
G1 X-1.82S800
G1 X-1.61S0
G1 X-2.66S800
G1 X-1.89S0
G1 X-2.8S800
G1 X-1.75S0
G1 X-281.33S800
G0 X-3.125
G0 Y0.07
G0 X3.125
G1 X281.05
G1 X0.07S0
G1 X0.07S800
G1 X1.26S0
G1 X0.07S800
G1 X0.07S0
G1 X2.87S800
G1 X0.07S0
G1 X0.07S800
G1 X1.75S0
G1 X2.73S800
G1 X1.68S0
G1 X1.75S800
G1 X1.75S0
G1 X1.68S800
G0 X3.125
G0 Y0.07
G0 X-3.125
G1 X-1.89
G1 X-1.75S0
G1 X-1.82S800
G1 X-1.61S0
G1 X-2.8S800
G1 X-1.82S0
G1 X-3.01S800
G1 X-1.33S0
G1 X-280.91S800
G0 X-3.125
G0 Y0.07
G0 X3.125
G1 X280.7
G1 X1.19S0
G1 X2.87S800
G1 X1.89S0
G1 X2.87S800
G1 X1.68S0
G1 X1.68S800
G1 X1.75S0
G1 X2.31S800
G0 X3.125
G0 Y0.07
G0 X-3.125
G1 X-2.52
G1 X-0.07S0
G1 X-0.14S800
G1 X-1.68S0
G1 X-1.61S800
G1 X-0.07S0
G1 X-0.07S800
G1 X-1.47S0
G1 X-0.07S800
G1 X-0.07S0
G1 X-2.87S800
G1 X-1.82S0
G1 X-0.07S800
G1 X-0.07S0
G1 X-2.73S800
G1 X-1.05S0
G1 X-280.56S800
G0 X-3.125
G0 Y0.07
G0 X3.125
G1 X280.49
G1 X0.91S0
G1 X2.66S800
G1 X1.96S0
G1 X2.94S800
G1 X1.68S0
G1 X1.61S800
G1 X1.82S0
G1 X2.87S800
G0 X3.125
G0 Y0.07
G0 X-3.125
G1 X-3.29
G1 X-1.75S0
G1 X-1.68S800
G1 X-1.68S0
G1 X-2.94S800
G1 X-1.96S0
G1 X-2.45S800
G1 X-0.91S0
G1 X-280.28S800
G0 X-3.125
G0 Y0.07
G0 X3.125
G1 X280.14
G1 X0.84S0
G1 X2.17S800
G1 X0.07S0
G1 X0.07S800
G1 X1.89S0
G1 X0.07S800
G1 X0.07S0
G1 X2.94S800
G1 X1.61S0
G1 X0.07S800
G1 X0.07S0
G1 X1.54S800
G1 X1.75S0
G1 X3.64S800
G0 X3.125
G0 Y0.07
G0 X-3.125
G1 X-3.92
G1 X-1.75S0
G1 X-1.61S800
G1 X-1.68S0
G1 X-3.01S800
G1 X-2.03S0
G1 X-2.1S800
G1 X-0.84S0
G1 X-280S800
G0 X-3.125
G0 Y0.07
G0 X3.125
G1 X279.86
G1 X0.84S0
G1 X1.75S800
G1 X2.03S0
G1 X3.08S800
G1 X1.75S0
G1 X1.61S800
G1 X1.68S0
G1 X4.34S800
G0 X3.125
G0 Y0.07
G0 X-3.125
G1 X-4.62
G1 X-1.75S0
G1 X-1.47S800
G1 X-0.07S0
G1 X-0.07S800
G1 X-1.68S0
G1 X-3.22S800
G1 X-1.89S0
G1 X-0.14S800
G1 X-0.07S0
G1 X-1.47S800
G1 X-0.7S0
G1 X-279.79S800
G0 X-3.125
G0 Y0.07
G0 X3.125
G1 X279.72
G1 X0.63S0
G1 X1.26S800
G1 X2.17S0
G1 X3.22S800
G1 X1.68S0
G1 X1.54S800
G1 X1.82S0
G1 X4.9S800
G0 X3.125
G0 Y0.07
G0 X-3.125
G1 X-5.32
G1 X-1.82S0
G1 X-1.47S800
G1 X-1.75S0
G1 X-3.29S800
G1 X-2.17S0
G1 X-0.84S800
G1 X-0.77S0
G1 X-279.51S800
G0 X-3.125
G0 Y0.07
G0 X3.125
G1 X279.51
G1 X0.56S0
G1 X0.56S800
G1 X0.07S0
G1 X0.14S800
G1 X2.17S0
G1 X3.29S800
G1 X0.07S0
G1 X0.07S800
G1 X1.54S0
G1 X0.07S800
G1 X0.07S0
G1 X1.33S800
G1 X0.07S0
G1 X0.07S800
G1 X1.68S0
G1 X0.07S800
G1 X0.07S0
G1 X5.53S800
G0 X3.125
G0 Y0.07
G0 X-3.125
G1 X-5.95
G1 X-1.82S0
G1 X-1.4S800
G1 X-1.75S0
G1 X-3.43S800
G1 X-2.24S0
G1 X-0.28S800
G1 X-0.7S0
G1 X-279.37S800
G0 X-3.125
G0 Y0.07
G0 X3.125
G1 X279.3
G1 X2.8S0
G1 X3.5S800
G1 X1.75S0
G1 X1.4S800
G1 X1.82S0
G1 X6.37S800
G0 X3.125
G0 Y0.07
G0 X-3.125
G1 X-6.58
G1 X-0.07S0
G1 X-0.07S800
G1 X-1.68S0
G1 X-0.07S800
G1 X-0.07S0
G1 X-1.33S800
G1 X-1.75S0
G1 X-3.5S800
G1 X-0.14S0
G1 X-0.07S800
G1 X-2.45S0
G1 X-279.16S800
G0 X-3.125
G0 Y0.07
G0 X3.125
G1 X279.09
G1 X2.17S0
G1 X3.71S800
G1 X1.82S0
G1 X1.33S800
G1 X1.82S0
G1 X6.79S800
G0 X3.125
G0 X-0.35Y0.07
G0 X-3.125
G1 X-6.86
G1 X-1.82S0
G1 X-1.33S800
G1 X-1.82S0
G1 X-3.85S800
G1 X-1.68S0
G1 X-279.02S800
G0 X-3.125
G0 Y0.07
G0 X3.125
G1 X278.95
G1 X1.4S0
G1 X0.07S800
G1 X0.07S0
G1 X3.78S800
G1 X1.82S0
G1 X1.26S800
G1 X1.89S0
G1 X6.93S800
G0 X3.125
G0 X-0.28Y0.07
G0 X-3.125
G1 X-7
G1 X-1.89S0
G1 X-1.26S800
G1 X-1.82S0
G1 X-3.99S800
G1 X-1.05S0
G1 X-278.88S800
G0 X-3.125
G0 Y0.07
G0 X3.125
G1 X278.88
G1 X0.56S0
G1 X4.06S800
G1 X1.82S0
G1 X1.26S800
G1 X1.89S0
G1 X7.07S800
G0 X3.125
G0 X1.4Y0.07
G0 X-3.125
G1 X-0.14
G1 X-1.47S0
G1 X-7.07S800
G1 X-1.96S0
G1 X-1.19S800
G1 X-0.07S0
G1 X-0.07S800
G1 X-1.68S0
G1 X-4.13S800
G1 X-0.28S0
G1 X-278.88S800
G0 X-3.125
G0 Y0.07
G0 X3.125
G1 X282.87
G1 X1.82S0
G1 X1.26S800
G1 X1.89S0
G1 X7.21S800
G1 X1.47S0
G1 X0.42S800
G0 X3.125
G0 Y0.07
G0 X-3.125
G1 X-0.77
G1 X-1.47S0
G1 X-7.28S800
G1 X-1.89S0
G1 X-1.19S800
G1 X-1.89S0
G1 X-282.45S800
G0 X-3.125
G0 Y0.07
G0 X3.125
G1 X282.24
G1 X1.82S0
G1 X1.26S800
G1 X1.82S0
G1 X7.35S800
G1 X1.47S0
G1 X0.98S800
G0 X3.125
G0 Y0.07
G0 X-3.125
G1 X-1.26
G1 X-1.54S0
G1 X-7.35S800
G1 X-1.89S0
G1 X-1.19S800
G1 X-1.96S0
G1 X-281.75S800
G0 X-3.125
G0 Y0.07
G0 X3.125
G1 X281.33
G1 X0.14S0
G1 X0.07S800
G1 X1.75S0
G1 X1.19S800
G1 X1.89S0
G1 X7.42S800
G1 X1.54S0
G1 X1.61S800
G0 X3.125
G0 Y0.07
G0 X-3.125
G1 X-1.82
G1 X-1.54S0
G1 X-7.49S800
G1 X-1.82S0
G1 X-1.26S800
G1 X-1.89S0
G1 X-281.12S800
G0 X-3.125
G0 Y0.07
G0 X3.125
G1 X280.7
G1 X1.89S0
G1 X1.26S800
G1 X1.82S0
G1 X7.56S800
G1 X1.61S0
G1 X2.1S800
G0 X3.125
G0 Y0.07
G0 X-3.125
G1 X-2.31
G1 X-0.07S0
G1 X-0.14S800
G1 X-1.54S0
G1 X-7.49S800
G1 X-0.07S0
G1 X-0.07S800
G1 X-1.89S0
G1 X-1.05S800
G1 X-0.07S0
G1 X-0.07S800
G1 X-1.75S0
G1 X-0.07S800
G1 X-0.07S0
G1 X-225.75S800
G1 X-0.07S0
G1 X-0.07S800
G1 X-0.14S0
G1 X-0.07S800
G1 X-0.14S0
G1 X-0.07S800
G1 X-0.14S0
G1 X-0.07S800
G1 X-0.14S0
G1 X-0.07S800
G1 X-0.14S0
G1 X-0.07S800
G1 X-0.14S0
G1 X-0.07S800
G1 X-0.07S0
G1 X-0.07S800
G1 X-0.14S0
G1 X-0.07S800
G1 X-0.07S0
G1 X-0.07S800
G1 X-0.07S0
G1 X-0.07S800
G1 X-0.07S0
G1 X-0.07S800
G1 X-0.07S0
G1 X-0.07S800
G1 X-0.07S0
G1 X-0.07S800
G1 X-0.07S0
G1 X-0.07S800
G1 X-0.07S0
G1 X-0.07S800
G1 X-0.07S0
G1 X-0.14S800
G1 X-7S0
G1 X-0.07S800
G1 X-0.07S0
G1 X-0.07S800
G1 X-0.07S0
G1 X-0.07S800
G1 X-0.07S0
G1 X-0.07S800
G1 X-0.07S0
G1 X-0.07S800
G1 X-0.07S0
G1 X-0.07S800
G1 X-0.07S0
G1 X-0.07S800
G1 X-0.07S0
G1 X-0.07S800
G1 X-0.07S0
G1 X-0.07S800
G1 X-0.07S0
G1 X-0.07S800
G1 X-0.07S0
G1 X-0.07S800
G1 X-0.07S0
G1 X-0.07S800
G1 X-0.07S0
G1 X-0.07S800
G1 X-0.07S0
G1 X-0.07S800
G1 X-0.07S0
G1 X-0.07S800
G1 X-0.07S0
G1 X-0.07S800
G1 X-0.07S0
G1 X-0.07S800
G1 X-0.07S0
G1 X-0.07S800
G1 X-0.07S0
G1 X-0.07S800
G1 X-0.07S0
G1 X-0.07S800
G1 X-0.07S0
G1 X-41.79S800
G0 X-3.125
G0 Y0.07
G0 X3.125
G1 X39.76
G1 X16.73S0
G1 X223.51S800
G1 X1.96S0
G1 X1.19S800
G1 X1.89S0
G1 X7.63S800
G1 X1.61S0
G1 X2.66S800
G0 X3.125
G0 X-0.21Y0.07
G0 X-3.125
G1 X-2.87
G1 X-1.61S0
G1 X-7.63S800
G1 X-1.89S0
G1 X-1.26S800
G1 X-1.96S0
G1 X-220.71S800
G1 X-22.26S0
G1 X-36.54S800
G0 X-3.125
G0 Y0.07
G0 X3.125
G1 X34.02
G1 X0.07S0
G1 X0.07S800
G1 X0.07S0
G1 X0.07S800
G1 X0.07S0
G1 X0.07S800
G1 X0.07S0
G1 X0.07S800
G1 X0.07S0
G1 X0.07S800
G1 X0.14S0
G1 X0.07S800
G1 X0.07S0
G1 X0.07S800
G1 X0.07S0
G1 X0.07S800
G1 X23.66S0
G1 X220.29S800
G1 X0.07S0
G1 X0.07S800
G1 X1.82S0
G1 X0.07S800
G1 X0.07S0
G1 X1.05S800
G1 X0.07S0
G1 X0.07S800
G1 X1.75S0
G1 X0.07S800
G1 X0.07S0
G1 X7.63S800
G1 X0.07S0
G1 X0.07S800
G1 X1.47S0
G1 X0.07S800
G1 X0.07S0
G1 X2.66S800
G1 X0.07S0
G1 X0.07S800
G0 X3.125
G0 X-0.28Y0.07
G0 X-3.125
G1 X-2.94
G1 X-1.61S0
G1 X-7.7S800
G1 X-1.89S0
G1 X-1.33S800
G1 X-1.89S0
G1 X-220.01S800
G1 X-25.83S0
G1 X-33.04S800
G0 X-3.125
G0 Y0.07
G0 X3.125
G1 X25.06
G1 X5.18S0
G1 X0.84S800
G1 X12.25S0
G1 X9.59S800
G1 X5.95S0
G1 X219.52S800
G1 X1.96S0
G1 X1.33S800
G1 X1.89S0
G1 X7.84S800
G1 X1.54S0
G1 X2.94S800
G0 X3.125
G0 X-0.21Y0.07
G0 X-3.125
G1 X-2.94
G1 X-0.07S0
G1 X-0.07S800
G1 X-1.54S0
G1 X-7.77S800
G1 X-0.07S0
G1 X-0.07S800
G1 X-1.75S0
G1 X-0.07S800
G1 X-0.07S0
G1 X-1.19S800
G1 X-0.07S0
G1 X-0.07S800
G1 X-1.89S0
G1 X-219.17S800
G1 X-3.85S0
G1 X-0.07S800
G1 X-0.07S0
G1 X-0.14S800
G1 X-0.07S0
G1 X-14S800
G1 X-0.07S0
G1 X-0.14S800
G1 X-0.07S0
G1 X-0.14S800
G1 X-0.07S0
G1 X-0.14S800
G1 X-0.07S0
G1 X-0.07S800
G1 X-0.14S0
G1 X-0.07S800
G1 X-0.14S0
G1 X-0.07S800
G1 X-0.14S0
G1 X-0.07S800
G1 X-0.14S0
G1 X-0.07S800
G1 X-15.12S0
G1 X-0.07S800
G1 X-0.07S0
G1 X-0.21S800
G1 X-0.07S0
G1 X-0.14S800
G1 X-0.07S0
G1 X-23.31S800
G0 X-3.125
G0 Y0.07
G0 X3.125
G1 X22.54
G1 X14.7S0
G1 X16.66S800
G1 X4.48S0
G1 X219.31S800
G1 X2.03S0
G1 X1.26S800
G1 X1.96S0
G1 X7.84S800
G1 X1.61S0
G1 X3.08S800
G1 X1.4S0
G1 X0.07S800
G0 X3.125
G0 Y0.07
G0 X-3.125
G1 X-0.42
G1 X-1.33S0
G1 X-3.15S800
G1 X-1.61S0
G1 X-7.91S800
G1 X-2.03S0
G1 X-1.26S800
G1 X-2.03S0
G1 X-219.8S800
G1 X-4.69S0
G1 X-18.06S800
G1 X-13.23S0
G1 X-21.42S800
G0 X-3.125
G0 Y0.07
G0 X3.125
G1 X20.58
G1 X0.07S0
G1 X0.14S800
G1 X0.07S0
G1 X0.07S800
G1 X11.69S0
G1 X0.07S800
G1 X0.07S0
G1 X0.07S800
G1 X0.14S0
G1 X0.07S800
G1 X0.07S0
G1 X0.07S800
G1 X0.07S0
G1 X0.07S800
G1 X0.07S0
G1 X0.07S800
G1 X0.07S0
G1 X17.78S800
G1 X0.07S0
G1 X0.14S800
G1 X0.07S0
G1 X0.07S800
G1 X0.07S0
G1 X0.07S800
G1 X0.07S0
G1 X0.07S800
G1 X4.55S0
G1 X0.07S800
G1 X0.14S0
G1 X0.07S800
G1 X0.14S0
G1 X220.01S800
G1 X1.89S0
G1 X0.07S800
G1 X0.07S0
G1 X1.19S800
G1 X0.07S0
G1 X0.07S800
G1 X1.75S0
G1 X0.07S800
G1 X0.14S0
G1 X7.91S800
G1 X1.54S0
G1 X0.07S800
G1 X0.07S0
G1 X3.15S800
G1 X1.26S0
G1 X0.07S800
G1 X0.07S0
G1 X0.56S800
G0 X3.125
G0 Y0.07
G0 X-3.125
G1 X-0.91
G1 X-1.33S0
G1 X-3.22S800
G1 X-1.61S0
G1 X-8.05S800
G1 X-1.96S0
G1 X-1.33S800
G1 X-1.89S0
G1 X-220.71S800
G1 X-5.53S0
G1 X-18.62S800
G1 X-2.24S0
G1 X-3.78S800
G1 X-5.67S0
G1 X-20.09S800
G0 X-3.125
G0 Y0.07
G0 X3.125
G1 X19.32
G1 X4.27S0
G1 X7.21S800
G1 X1.26S0
G1 X0.07S800
G1 X0.07S0
G1 X16.31S800
G1 X6.3S0
G1 X221.48S800
G1 X1.75S0
G1 X1.33S800
G1 X1.96S0
G1 X8.19S800
G1 X1.61S0
G1 X3.22S800
G1 X1.4S0
G1 X1.05S800
G0 X3.125
G0 X-0.21Y0.07
G0 X-3.125
G1 X-1.05
G1 X-1.33S0
G1 X-3.29S800
G1 X-0.07S0
G1 X-0.07S800
G1 X-1.47S0
G1 X-8.19S800
G1 X-1.96S0
G1 X-0.07S800
G1 X-0.07S0
G1 X-1.19S800
G1 X-0.14S0
G1 X-0.07S800
G1 X-1.47S0
G1 X-221.97S800
G1 X-0.07S0
G1 X-0.07S800
G1 X-0.07S0
G1 X-0.07S800
G1 X-0.14S0
G1 X-0.07S800
G1 X-6.23S0
G1 X-0.07S800
G1 X-0.07S0
G1 X-0.07S800
G1 X-0.07S0
G1 X-0.07S800
G1 X-0.07S0
G1 X-0.07S800
G1 X-0.07S0
G1 X-0.07S800
G1 X-0.07S0
G1 X-0.07S800
G1 X-0.07S0
G1 X-0.07S800
G1 X-0.07S0
G1 X-0.07S800
G1 X-0.07S0
G1 X-0.07S800
G1 X-0.07S0
G1 X-13.72S800
G1 X-1.47S0
G1 X-8.26S800
G1 X-0.14S0
G1 X-0.07S800
G1 X-3.64S0
G1 X-0.07S800
G1 X-0.07S0
G1 X-18.76S800
G0 X-3.125
G0 Y0.07
G0 X3.125
G1 X15.68
G1 X7.14S0
G1 X8.4S800
G1 X1.96S0
G1 X2.03S800
G1 X0.7S0
G1 X8.75S800
G1 X8.33S0
G1 X223.02S800
G1 X1.33S0
G1 X1.33S800
G1 X2.03S0
G1 X8.26S800
G1 X1.61S0
G1 X3.29S800
G1 X1.4S0
G1 X0.98S800
G0 X3.125
G0 X-0.42Y0.07
G0 X-3.125
G1 X-0.84
G1 X-1.4S0
G1 X-3.36S800
G1 X-1.61S0
G1 X-8.4S800
G1 X-1.96S0
G1 X-1.33S800
G1 X-1.12S0
G1 X-224.28S800
G1 X-20.02S0
G1 X-7.63S800
G0 X-3.125
G0 X0.42Y0.07
G0 X3.125
G1 X7.42
G1 X0.07S0
G1 X0.07S800
G1 X18.55S0
G1 X0.07S800
G1 X0.14S0
G1 X0.07S800
G1 X0.07S0
G1 X224.91S800
G1 X1.05S0
G1 X1.26S800
G1 X1.89S0
G1 X0.07S800
G1 X0.07S0
G1 X8.4S800
G1 X1.54S0
G1 X3.43S800
G1 X1.4S0
G1 X0.91S800
G0 X3.125
G0 X-0.42Y0.07
G0 X-3.125
G1 X-0.77
G1 X-1.4S0
G1 X-3.43S800
G1 X-1.61S0
G1 X-8.54S800
G1 X-1.89S0
G1 X-1.19S800
G1 X-0.98S0
G1 X-226.38S800
G1 X-17.01S0
G1 X-7.14S800
G0 X-3.125
G0 X-4.83Y0.07
G0 X3.125
G1 X0.77
G1 X4.41S0
G1 X0.14S800
G1 X0.07S0
G1 X7.07S800
G1 X14.49S0
G1 X0.63S800
G1 X0.07S0
G1 X0.14S800
G1 X0.07S0
G1 X227.36S800
G1 X0.91S0
G1 X0.91S800
G1 X1.96S0
G1 X8.61S800
G1 X1.61S0
G1 X3.5S800
G1 X1.4S0
G1 X0.7S800
G1 X1.68S0
G1 X0.35S800
G0 X3.125
G0 Y0.07
G0 X-3.125
G1 X-0.56
G1 X-1.68S0
G1 X-0.7S800
G1 X-1.4S0
G1 X-3.5S800
G1 X-1.61S0
G1 X-8.75S800
G1 X-1.82S0
G1 X-0.84S800
G1 X-0.84S0
G1 X-229.81S800
G1 X-8.4S0
G1 X-0.07S800
G1 X-0.14S0
G1 X-0.07S800
G1 X-0.14S0
G1 X-0.07S800
G1 X-3.71S0
G1 X-7S800
G1 X-3.08S0
G1 X-0.07S800
G1 X-0.14S0
G1 X-0.07S800
G1 X-0.14S0
G1 X-3.71S800
G1 X-0.56S0
G1 X-0.07S800
G1 X-0.21S0
G1 X-0.07S800
G1 X-0.21S0
G1 X-0.07S800
G1 X-0.14S0
G1 X-0.07S800
G1 X-0.14S0
G1 X-0.07S800
G1 X-0.14S0
G1 X-0.07S800
G1 X-0.14S0
G1 X-0.07S800
G1 X-0.14S0
G1 X-0.07S800
G1 X-0.14S0
G1 X-0.07S800
G1 X-0.14S0
G1 X-0.07S800
G1 X-0.21S0
G1 X-0.07S800
G0 X-3.125
G0 X-15.68Y0.07
G0 X3.125
G1 X23.59
G1 X2.73S0
G1 X6.02S800
G1 X2.59S0
G1 X240.1S800
G1 X0.84S0
G1 X0.56S800
G1 X1.96S0
G1 X8.75S800
G1 X1.61S0
G1 X3.57S800
G1 X1.4S0
G1 X0.56S800
G1 X1.75S0
G1 X0.91S800
G0 X3.125
G0 Y0.07
G0 X-3.125
G1 X-1.19
G1 X-0.07S0
G1 X-0.07S800
G1 X-1.61S0
G1 X-0.63S800
G1 X-1.33S0
G1 X-3.64S800
G1 X-1.61S0
G1 X-8.82S800
G1 X-1.75S0
G1 X-0.07S800
G1 X-0.14S0
G1 X-0.35S800
G1 X-0.77S0
G1 X-240.24S800
G1 X-0.07S0
G1 X-0.14S800
G1 X-2.8S0
G1 X-0.07S800
G1 X-0.14S0
G1 X-0.07S800
G1 X-0.14S0
G1 X-4.41S800
G1 X-0.07S0
G1 X-0.14S800
G1 X-2.31S0
G1 X-0.07S800
G1 X-0.07S0
G1 X-22.68S800
G1 X-0.63S0
G1 X-0.07S800
G0 X-3.125
G0 X26.88Y0.07
G0 X3.125
G1 X2.66
G1 X3.85S0
G1 X240.66S800
G1 X0.77S0
G1 X0.14S800
G1 X1.96S0
G1 X8.89S800
G1 X1.61S0
G1 X3.64S800
G1 X1.4S0
G1 X0.49S800
G1 X1.68S0
G1 X1.54S800
G0 X3.125
G0 Y0.07
G0 X-3.125
G1 X-1.89
G1 X-1.75S0
G1 X-0.42S800
G1 X-1.33S0
G1 X-3.71S800
G1 X-1.61S0
G1 X-8.96S800
G1 X-2.59S0
G1 X-241.08S800
G0 X-3.125
G0 X-0.7Y0.07
G0 X3.125
G1 X0.07
G1 X0.07S0
G1 X0.14S800
G1 X0.07S0
G1 X241.36S800
G1 X2.24S0
G1 X0.07S800
G1 X0.07S0
G1 X8.89S800
G1 X1.61S0
G1 X3.71S800
G1 X0.07S0
G1 X0.07S800
G1 X1.26S0
G1 X0.07S800
G1 X0.07S0
G1 X0.14S800
G1 X0.14S0
G1 X0.07S800
G1 X1.54S0
G1 X0.07S800
G1 X0.07S0
G1 X2.17S800
G0 X3.125
G0 Y0.07
G0 X-3.125
G1 X-2.45
G1 X-1.82S0
G1 X-0.21S800
G1 X-1.4S0
G1 X-3.78S800
G1 X-1.61S0
G1 X-9.1S800
G1 X-2.1S0
G1 X-241.99S800
G0 X-3.125
G0 X-0.98Y0.07
G0 X3.125
G1 X242.9
G1 X1.75S0
G1 X9.1S800
G1 X1.68S0
G1 X3.85S800
G1 X1.4S0
G1 X0.07S800
G1 X1.82S0
G1 X2.87S800
G0 X3.125
G0 Y0.07
G0 X-3.125
G1 X-3.08
G1 X-0.07S0
G1 X-0.07S800
G1 X-3.22S0
G1 X-3.92S800
G1 X-1.54S0
G1 X-0.07S800
G1 X-0.07S0
G1 X-9.03S800
G1 X-0.07S0
G1 X-0.07S800
G1 X-1.47S0
G1 X-244.09S800
G1 X-0.07S0
G1 X-0.14S800
G1 X-0.07S0
G1 X-0.14S800
G1 X-0.07S0
G1 X-0.14S800
G1 X-0.07S0
G1 X-0.14S800
G1 X-0.77S0
G1 X-0.07S800
G1 X-0.14S0
G1 X-0.07S800
G1 X-0.14S0
G1 X-0.07S800
G1 X-0.14S0
G1 X-0.07S800
G1 X-0.07S0
G1 X-0.07S800
G1 X-0.07S0
G1 X-27.65S800
G0 X-3.125
G0 Y0.07
G0 X3.125
G1 X274.19
G1 X1.26S0
G1 X9.17S800
G1 X1.75S0
G1 X3.92S800
G1 X3.15S0
G1 X3.5S800
G0 X3.125
G0 Y0.07
G0 X-3.125
G1 X-3.92
G1 X-3.01S0
G1 X-3.99S800
G1 X-1.75S0
G1 X-9.24S800
G1 X-0.77S0
G1 X-274.26S800
G0 X-3.125
G0 Y0.07
G0 X3.125
G1 X274.26
G1 X0.35S0
G1 X9.31S800
G1 X0.07S0
G1 X0.07S800
G1 X1.61S0
G1 X0.07S800
G1 X0.07S0
G1 X3.92S800
G1 X2.87S0
G1 X0.07S800
G1 X0.07S0
G1 X4.2S800
G0 X3.125
G0 Y0.07
G0 X-3.125
G1 X-4.55
G1 X-2.87S0
G1 X-4.13S800
G1 X-1.68S0
G1 X-9.38S800
G1 X-0.07S0
G1 X-274.26S800
G0 X-3.125
G0 Y0.07
G0 X3.125
G1 X283.29
G1 X1.75S0
G1 X4.13S800
G1 X2.8S0
G1 X4.97S800
G0 X3.125
G0 Y0.07
G0 X-3.125
G1 X-5.18
G1 X-0.07S0
G1 X-0.07S800
G1 X-2.66S0
G1 X-4.2S800
G1 X-0.07S0
G1 X-0.07S800
G1 X-1.61S0
G1 X-283.01S800
G0 X-3.125
G0 Y0.07
G0 X3.125
G1 X282.66
G1 X1.75S0
G1 X4.34S800
G1 X2.66S0
G1 X5.53S800
G0 X3.125
G0 Y0.07
G0 X-3.125
G1 X-5.95
G1 X-2.59S0
G1 X-4.34S800
G1 X-1.75S0
G1 X-282.31S800
G0 X-3.125
G0 Y0.07
G0 X3.125
G1 X281.96
G1 X1.68S0
G1 X0.07S800
G1 X0.07S0
G1 X4.48S800
G1 X2.38S0
G1 X6.3S800
G0 X3.125
G0 Y0.07
G0 X-3.125
G1 X-6.58
G1 X-2.45S0
G1 X-4.48S800
G1 X-1.75S0
G1 X-218.47S800
G1 X-1.82S0
G1 X-61.39S800
G0 X-3.125
G0 Y0.07
G0 X3.125
G1 X59.43
G1 X5.25S0
G1 X216.58S800
G1 X1.75S0
G1 X4.62S800
G1 X2.31S0
G1 X7S800
G0 X3.125
G0 Y0.07
G0 X-3.125
G1 X-7.28
G1 X-0.07S0
G1 X-0.07S800
G1 X-2.1S0
G1 X-4.69S800
G1 X-1.68S0
G1 X-215.6S800
G1 X-7S0
G1 X-0.07S800
G1 X-0.07S0
G1 X-0.14S800
G1 X-0.07S0
G1 X-0.14S800
G1 X-0.07S0
G1 X-0.14S800
G1 X-0.07S0
G1 X-57.68S800
G0 X-3.125
G0 Y0.07
G0 X3.125
G1 X56.49
G1 X10.5S0
G1 X213.71S800
G1 X1.68S0
G1 X4.76S800
G1 X2.17S0
G1 X7.63S800
G0 X3.125
G0 Y0.07
G0 X-3.125
G1 X-8.05
G1 X-2.03S0
G1 X-4.83S800
G1 X-1.75S0
G1 X-212.87S800
G1 X-12.74S0
G1 X-0.07S800
G1 X-0.14S0
G1 X-54.46S800
G0 X-3.125
G0 Y0.07
G0 X3.125
G1 X52.36
G1 X0.07S0
G1 X0.14S800
G1 X0.07S0
G1 X0.14S800
G1 X0.07S0
G1 X0.14S800
G1 X0.07S0
G1 X0.28S800
G1 X7.98S0
G1 X0.07S800
G1 X0.14S0
G1 X0.07S800
G1 X0.14S0
G1 X0.07S800
G1 X0.07S0
G1 X0.98S800
G1 X0.07S0
G1 X0.07S800
G1 X0.14S0
G1 X0.07S800
G1 X4.2S0
G1 X212.66S800
G1 X1.68S0
G1 X4.9S800
G1 X2.03S0
G1 X8.26S800
G0 X3.125
G0 Y0.07
G0 X-3.125
G1 X-8.68
G1 X-1.89S0
G1 X-4.97S800
G1 X-1.68S0
G1 X-212.31S800
G1 X-3.08S0
G1 X-4.41S800
G1 X-8.82S0
G1 X-51.1S800
G0 X-3.125
G0 Y0.07
G0 X3.125
G1 X48.79
G1 X0.49S0
G1 X0.07S800
G1 X0.21S0
G1 X0.07S800
G1 X0.14S0
G1 X0.07S800
G1 X8.12S0
G1 X0.14S800
G1 X0.07S0
G1 X0.14S800
G1 X0.07S0
G1 X0.14S800
G1 X0.07S0
G1 X6.79S800
G1 X2.03S0
G1 X211.89S800
G1 X1.75S0
G1 X4.97S800
G1 X0.14S0
G1 X0.07S800
G1 X1.61S0
G1 X9.1S800
G0 X3.125
G0 Y0.07
G0 X-3.125
G1 X-9.31
G1 X-1.89S0
G1 X-4.97S800
G1 X-1.75S0
G1 X-211.82S800
G1 X-2.1S0
G1 X-8.26S800
G1 X-9.17S0
G1 X-47.67S800
G0 X-3.125
G0 Y0.07
G0 X3.125
G1 X45.29
G1 X9.66S0
G1 X9.73S800
G1 X2.1S0
G1 X211.89S800
G1 X1.75S0
G1 X4.76S800
G1 X2.03S0
G1 X9.73S800
G0 X3.125
G0 Y0.07
G0 X-3.125
G1 X-10.15
G1 X-2.03S0
G1 X-0.07S800
G1 X-0.07S0
G1 X-4.41S800
G1 X-0.07S0
G1 X-0.07S800
G1 X-1.75S0
G1 X-211.89S800
G1 X-0.07S0
G1 X-0.07S800
G1 X-1.96S0
G1 X-0.07S800
G1 X-0.07S0
G1 X-10.64S800
G1 X-0.07S0
G1 X-0.14S800
G1 X-0.07S0
G1 X-0.07S800
G1 X-0.07S0
G1 X-0.07S800
G1 X-0.07S0
G1 X-0.14S800
G1 X-9.1S0
G1 X-0.07S800
G1 X-0.14S0
G1 X-0.07S800
G1 X-0.14S0
G1 X-0.07S800
G1 X-0.14S0
G1 X-0.07S800
G1 X-0.14S0
G1 X-0.07S800
G1 X-0.14S0
G1 X-42.7S800
G0 X-3.125
G0 Y0.07
G0 X3.125
G1 X41.3
G1 X9.59S0
G1 X0.07S800
G1 X0.35S0
G1 X0.07S800
G1 X0.21S0
G1 X11.97S800
G1 X2.45S0
G1 X212.1S800
G1 X1.68S0
G1 X4.55S800
G1 X2.24S0
G1 X10.36S800
G0 X3.125
G0 Y0.07
G0 X-3.125
G1 X-10.71
G1 X-2.45S0
G1 X-4.34S800
G1 X-1.75S0
G1 X-212.17S800
G1 X-4.13S0
G1 X-12.04S800
G1 X-10.78S0
G1 X-38.57S800
G0 X-3.125
G0 Y0.07
G0 X3.125
G1 X35.63
G1 X0.07S0
G1 X0.07S800
G1 X0.14S0
G1 X0.07S800
G1 X0.07S0
