; LightBurn Pro 2.0.05
; GRBL device profile, absolute coords
; Bounds: X0.03 Y1.96 to X303.22 Y211.4
G00 G17 G40 G21 G54
G90
M4
; Image @ 7500 мм/мин, 80% power
M8
G0 X5.026Y51.959
; Layer C00
G91
G0 X3.125
G1 X38.22F7500S800
G1 X1.33S0
G1 X1.05S800
G1 X1.33S0
G1 X30.52S800
G1 X1.89S0
G1 X48.37S800
G1 X1.12S0
G1 X1.4S800
G1 X1.12S0
G1 X8.05S800
G1 X1.05S0
G1 X2.59S800
G1 X1.12S0
G1 X47.74S800
G1 X1.19S0
G1 X1.82S800
G1 X1.19S0
G1 X10.15S800
G1 X1.12S0
G1 X1.47S800
G1 X1.26S0
G1 X1.54S800
G1 X1.19S0
G1 X1.89S800
G1 X1.05S0
G1 X72.52S800
G1 X1.12S0
G1 X1.33S800
G1 X1.12S0
G1 X5.39S800
G1 X1.19S0
G1 X2.45S800
G0 X3.125
G0 X0.28Y0.07
G0 X-3.125
G1 X-2.45
G1 X-1.19S0
G1 X-5.46S800
G1 X-1.12S0
G1 X-1.26S800
G1 X-1.19S0
G1 X-72.52S800
G1 X-0.98S0
G1 X-1.89S800
G1 X-1.19S0
G1 X-1.54S800
G1 X-1.26S0
G1 X-1.47S800
G1 X-1.19S0
G1 X-10.08S800
G1 X-1.33S0
G1 X-1.75S800
G1 X-1.12S0
G1 X-47.81S800
G1 X-1.12S0
G1 X-2.66S800
G1 X-0.98S0
G1 X-7.98S800
G1 X-1.12S0
G1 X-1.4S800
G1 X-1.19S0
G1 X-48.37S800
G1 X-1.82S0
G1 X-0.07S800
G1 X-0.07S0
G1 X-30.38S800
G1 X-1.33S0
G1 X-1.05S800
G1 X-1.33S0
G1 X-38.5S800
G0 X-3.125
G0 Y0.07
G0 X3.125
G1 X38.71
G1 X1.33S0
G1 X1.05S800
G1 X1.26S0
G1 X30.52S800
G1 X1.82S0
G1 X48.37S800
G1 X1.19S0
G1 X1.4S800
G1 X1.19S0
G1 X7.91S800
G1 X1.05S0
G1 X2.66S800
G1 X1.12S0
G1 X47.74S800
G1 X1.19S0
G1 X1.75S800
G1 X1.26S0
G1 X10.08S800
G1 X1.19S0
G1 X1.54S800
G1 X1.19S0
G1 X1.54S800
G1 X1.19S0
G1 X1.89S800
G1 X1.05S0
G1 X72.45S800
G1 X1.19S0
G1 X1.26S800
G1 X1.19S0
G1 X5.39S800
G1 X1.19S0
G1 X2.45S800
G0 X3.125
G0 X0.28Y0.07
G0 X-3.125
G1 X-2.52
G1 X-1.19S0
G1 X-5.32S800
G1 X-1.19S0
G1 X-1.26S800
G1 X-1.19S0
G1 X-72.45S800
G1 X-1.12S0
G1 X-1.89S800
G1 X-1.19S0
G1 X-1.47S800
G1 X-1.19S0
G1 X-1.61S800
G1 X-1.12S0
G1 X-10.15S800
G1 X-1.19S0
G1 X-1.82S800
G1 X-1.12S0
G1 X-47.81S800
G1 X-1.12S0
G1 X-2.59S800
G1 X-1.12S0
G1 X-7.91S800
G1 X-1.19S0
G1 X-1.4S800
G1 X-1.12S0
G1 X-48.37S800
G1 X-1.89S0
G1 X-30.45S800
G1 X-1.26S0
G1 X-1.05S800
G1 X-1.33S0
G1 X-38.99S800
G0 X-3.125
G0 Y0.07
G0 X3.125
G1 X39.27
G1 X1.26S0
G1 X1.05S800
G1 X1.33S0
G1 X30.45S800
G1 X1.82S0
G1 X48.37S800
G1 X1.19S0
G1 X1.33S800
G1 X1.19S0
G1 X7.91S800
G1 X1.12S0
G1 X2.66S800
G1 X1.05S0
G1 X47.81S800
G1 X1.19S0
G1 X1.82S800
G1 X1.19S0
G1 X10.08S800
G1 X1.19S0
G1 X1.54S800
G1 X1.26S0
G1 X1.47S800
G1 X1.05S0
G1 X0.07S800
G1 X0.07S0
G1 X1.82S800
G1 X1.05S0
G1 X72.52S800
G1 X1.19S0
G1 X1.26S800
G1 X1.19S0
G1 X5.39S800
G1 X1.19S0
G1 X2.45S800
G0 X3.125
G0 X0.14Y0.07
G0 X-3.125
G1 X-2.38
G1 X-1.19S0
G1 X-5.46S800
G1 X-1.19S0
G1 X-1.19S800
G1 X-1.19S0
G1 X-72.52S800
G1 X-1.12S0
G1 X-1.82S800
G1 X-1.19S0
G1 X-1.47S800
G1 X-1.26S0
G1 X-1.54S800
G1 X-1.19S0
G1 X-10.08S800
G1 X-1.19S0
G1 X-1.75S800
G1 X-1.26S0
G1 X-47.74S800
G1 X-1.12S0
G1 X-2.66S800
G1 X-1.05S0
G1 X-7.91S800
G1 X-1.19S0
G1 X-1.4S800
G1 X-1.19S0
G1 X-48.3S800
G1 X-1.89S0
G1 X-30.38S800
G1 X-1.26S0
G1 X-1.05S800
G1 X-1.33S0
G1 X-39.48S800
G0 X-3.125
G0 Y0.07
G0 X3.125
G1 X39.76
G1 X1.33S0
G1 X1.05S800
G1 X1.26S0
G1 X30.38S800
G1 X1.82S0
G1 X48.44S800
G1 X1.12S0
G1 X1.4S800
G1 X1.19S0
G1 X7.84S800
G1 X1.12S0
G1 X2.59S800
G1 X1.12S0
G1 X47.81S800
G1 X1.19S0
G1 X1.82S800
G1 X1.26S0
G1 X10.01S800
G1 X1.12S0
G1 X1.61S800
G1 X1.26S0
G1 X1.47S800
G1 X1.19S0
G1 X1.82S800
G1 X1.05S0
G1 X72.52S800
G1 X1.19S0
G1 X1.26S800
G1 X1.19S0
G1 X5.39S800
G1 X1.19S0
G1 X2.17S800
G0 X3.125
G0 Y0.07
G0 X-3.125
G1 X-1.96
G1 X-1.12S0
G1 X-5.46S800
G1 X-1.19S0
G1 X-1.19S800
G1 X-1.19S0
G1 X-72.59S800
G1 X-1.12S0
G1 X-1.82S800
G1 X-1.12S0
G1 X-1.4S800
G1 X-0.07S0
G1 X-0.07S800
G1 X-1.12S0
G1 X-1.68S800
G1 X-1.12S0
G1 X-10.08S800
G1 X-1.19S0
G1 X-1.75S800
G1 X-1.26S0
G1 X-47.81S800
G1 X-1.12S0
G1 X-2.59S800
G1 X-1.05S0
G1 X-0.07S800
G1 X-0.07S0
G1 X-7.84S800
G1 X-1.12S0
G1 X-1.47S800
G1 X-1.05S0
G1 X-48.51S800
G1 X-1.75S0
G1 X-30.31S800
G1 X-1.33S0
G1 X-0.98S800
G1 X-0.07S0
G1 X-0.07S800
G1 X-1.26S0
G1 X-39.97S800
G0 X-3.125
G0 Y0.07
G0 X3.125
G1 X40.18
G1 X1.33S0
G1 X1.05S800
G1 X1.33S0
G1 X30.31S800
G1 X1.75S0
G1 X48.44S800
G1 X1.12S0
G1 X1.47S800
G1 X1.19S0
G1 X7.84S800
G1 X1.05S0
G1 X2.66S800
G1 X1.12S0
G1 X47.81S800
G1 X1.19S0
G1 X1.82S800
G1 X1.19S0
G1 X10.08S800
G1 X1.19S0
G1 X1.54S800
G1 X1.26S0
G1 X1.47S800
G1 X1.19S0
G1 X1.75S800
G1 X1.05S0
G1 X72.59S800
G1 X1.19S0
G1 X1.26S800
G1 X1.12S0
G1 X5.46S800
G1 X1.19S0
G1 X1.75S800
G0 X3.125
G0 Y0.07
G0 X-3.125
G1 X-1.47
G1 X-1.19S0
G1 X-5.46S800
G1 X-1.19S0
G1 X-1.19S800
G1 X-1.19S0
G1 X-72.59S800
G1 X-1.12S0
G1 X-1.75S800
G1 X-1.19S0
G1 X-1.47S800
G1 X-1.19S0
G1 X-1.61S800
G1 X-1.19S0
G1 X-10.01S800
G1 X-1.19S0
G1 X-1.82S800
G1 X-1.19S0
G1 X-47.88S800
G1 X-1.12S0
G1 X-2.59S800
G1 X-1.12S0
G1 X-7.84S800
G1 X-1.19S0
G1 X-1.4S800
G1 X-1.12S0
G1 X-48.51S800
G1 X-1.75S0
G1 X-30.24S800
G1 X-1.33S0
G1 X-1.05S800
G1 X-1.26S0
G1 X-40.53S800
G0 X-3.125
G0 Y0.07
G0 X3.125
G1 X40.67
G1 X0.07S0
G1 X0.07S800
G1 X1.19S0
G1 X0.07S800
G1 X0.07S0
G1 X0.91S800
G1 X1.33S0
G1 X30.24S800
G1 X1.75S0
G1 X48.44S800
G1 X1.19S0
G1 X1.4S800
G1 X1.19S0
G1 X7.77S800
G1 X1.19S0
G1 X2.59S800
G1 X1.05S0
G1 X0.07S800
G1 X0.07S0
G1 X47.81S800
G1 X1.12S0
G1 X0.07S800
G1 X0.07S0
G1 X1.68S800
G1 X1.19S0
G1 X0.07S800
G1 X0.07S0
G1 X9.94S800
G1 X1.19S0
G1 X1.68S800
G1 X1.12S0
G1 X0.07S800
G1 X0.07S0
G1 X1.33S800
G1 X1.12S0
G1 X1.82S800
G1 X1.05S0
G1 X72.66S800
G1 X1.19S0
G1 X1.26S800
G1 X1.05S0
G1 X5.46S800
G1 X1.19S0
G1 X0.07S800
G1 X0.07S0
G1 X1.19S800
G0 X3.125
G0 Y0.07
G0 X-3.125
G1 X-1.05
G1 X-1.26S0
G1 X-5.46S800
G1 X-1.12S0
G1 X-1.26S800
G1 X-1.12S0
G1 X-72.66S800
G1 X-1.12S0
G1 X-1.68S800
G1 X-1.19S0
G1 X-1.4S800
G1 X-1.26S0
G1 X-1.61S800
G1 X-1.19S0
G1 X-10.01S800
G1 X-1.19S0
G1 X-1.82S800
G1 X-1.19S0
G1 X-47.88S800
G1 X-1.12S0
G1 X-2.59S800
G1 X-1.19S0
G1 X-7.7S800
G1 X-1.19S0
G1 X-1.47S800
G1 X-1.19S0
G1 X-48.44S800
G1 X-1.75S0
G1 X-30.24S800
G1 X-1.26S0
G1 X-1.05S800
G1 X-1.33S0
G1 X-40.95S800
G0 X-3.125
G0 Y0.07
G0 X3.125
G1 X41.23
G1 X1.33S0
G1 X1.05S800
G1 X1.26S0
G1 X30.24S800
G1 X1.75S0
G1 X48.44S800
G1 X1.12S0
G1 X1.47S800
G1 X1.19S0
G1 X7.77S800
G1 X1.12S0
G1 X2.66S800
G1 X1.05S0
G1 X47.95S800
G1 X1.19S0
G1 X1.75S800
G1 X1.26S0
G1 X10.01S800
G1 X1.19S0
G1 X1.61S800
G1 X1.26S0
G1 X1.4S800
G1 X1.19S0
G1 X1.68S800
G1 X1.12S0
G1 X72.66S800
G1 X1.12S0
G1 X1.19S800
G1 X1.19S0
G1 X5.46S800
G1 X1.19S0
G1 X0.84S800
G0 X3.125
G0 Y0.07
G0 X-3.125
G1 X-0.63
G1 X-1.19S0
G1 X-5.46S800
G1 X-1.19S0
G1 X-1.19S800
G1 X-1.19S0
G1 X-72.66S800
G1 X-1.12S0
G1 X-1.68S800
G1 X-1.19S0
G1 X-1.4S800
G1 X-1.19S0
G1 X-1.68S800
G1 X-1.19S0
G1 X-10.01S800
G1 X-1.19S0
G1 X-1.68S800
G1 X-0.07S0
G1 X-0.07S800
G1 X-1.19S0
G1 X-47.81S800
G1 X-0.07S0
G1 X-0.07S800
G1 X-1.05S0
G1 X-2.66S800
G1 X-1.12S0
G1 X-7.63S800
G1 X-0.07S0
G1 X-0.07S800
G1 X-1.05S0
G1 X-0.07S800
G1 X-0.07S0
G1 X-1.4S800
G1 X-1.19S0
G1 X-48.44S800
G1 X-1.75S0
G1 X-30.03S800
G1 X-0.07S0
G1 X-0.07S800
G1 X-1.19S0
G1 X-0.07S800
G1 X-0.07S0
G1 X-0.98S800
G1 X-1.26S0
G1 X-41.51S800
G0 X-3.125
G0 Y0.07
G0 X3.125
G1 X41.72
G1 X1.33S0
G1 X0.98S800
G1 X1.33S0
G1 X30.1S800
G1 X1.75S0
G1 X48.51S800
G1 X1.12S0
G1 X1.47S800
G1 X1.19S0
G1 X7.7S800
G1 X1.19S0
G1 X2.59S800
G1 X1.12S0
G1 X47.95S800
G1 X1.19S0
G1 X1.82S800
G1 X1.19S0
G1 X9.94S800
G1 X1.26S0
G1 X1.61S800
G1 X1.26S0
G1 X1.33S800
G1 X1.19S0
G1 X1.68S800
G1 X1.12S0
G1 X72.66S800
G1 X1.19S0
G1 X1.19S800
G1 X1.19S0
G1 X5.46S800
G1 X1.26S0
G1 X0.35S800
G0 X3.125
G0 Y0.07
G0 X-3.125
G1 X-0.14
G1 X-1.19S0
G1 X-5.53S800
G1 X-1.12S0
G1 X-1.19S800
G1 X-1.19S0
G1 X-72.73S800
G1 X-1.12S0
G1 X-1.61S800
G1 X-1.19S0
G1 X-1.4S800
G1 X-1.19S0
G1 X-1.68S800
G1 X-1.19S0
G1 X-9.94S800
G1 X-1.26S0
G1 X-1.75S800
G1 X-1.19S0
G1 X-48.02S800
G1 X-1.12S0
G1 X-2.59S800
G1 X-1.12S0
G1 X-7.7S800
G1 X-1.19S0
G1 X-1.47S800
G1 X-1.19S0
G1 X-48.44S800
G1 X-1.75S0
G1 X-30.1S800
G1 X-1.26S0
G1 X-1.05S800
G1 X-1.33S0
G1 X-42S800
G0 X-3.125
G0 Y0.07
G0 X3.125
G1 X42.21
G1 X1.33S0
G1 X0.98S800
G1 X1.33S0
G1 X30.03S800
G1 X1.68S0
G1 X48.51S800
G1 X1.19S0
G1 X1.47S800
G1 X0.07S0
G1 X0.07S800
G1 X1.05S0
G1 X7.7S800
G1 X1.12S0
G1 X2.59S800
G1 X0.07S0
G1 X0.07S800
G1 X0.98S0
G1 X0.07S800
G1 X0.07S0
G1 X47.88S800
G1 X1.19S0
G1 X1.75S800
G1 X0.07S0
G1 X0.07S800
G1 X1.12S0
G1 X9.94S800
G1 X1.19S0
G1 X1.68S800
G1 X0.07S0
G1 X0.07S800
G1 X1.12S0
G1 X1.33S800
G1 X1.19S0
G1 X1.61S800
G1 X0.07S0
G1 X0.07S800
G1 X0.98S0
G1 X72.73S800
G1 X1.19S0
G1 X1.19S800
G1 X1.19S0
G1 X5.46S800
G1 X0.07S0
G1 X0.07S800
G0 X3.125
G0 X0.14Y0.07
G0 X-3.125
G1 X-5.53
G1 X-1.12S0
G1 X-1.19S800
G1 X-1.19S0
G1 X-72.73S800
G1 X-1.12S0
G1 X-1.68S800
G1 X-1.12S0
G1 X-1.33S800
G1 X-1.26S0
G1 X-1.68S800
G1 X-1.19S0
G1 X-9.94S800
G1 X-1.26S0
G1 X-1.75S800
G1 X-1.19S0
G1 X-48.02S800
G1 X-1.12S0
G1 X-2.59S800
G1 X-1.19S0
G1 X-7.63S800
G1 X-1.19S0
G1 X-1.47S800
G1 X-1.19S0
G1 X-48.51S800
G1 X-1.75S0
G1 X-29.96S800
G1 X-1.33S0
G1 X-0.98S800
G1 X-1.33S0
G1 X-42.49S800
G0 X-3.125
G0 Y0.07
G0 X3.125
G1 X42.77
G1 X1.33S0
G1 X0.98S800
G1 X1.33S0
G1 X29.96S800
G1 X1.68S0
G1 X48.58S800
G1 X1.12S0
G1 X1.47S800
G1 X1.19S0
G1 X7.7S800
G1 X1.12S0
G1 X2.59S800
G1 X1.12S0
G1 X48.02S800
G1 X1.26S0
G1 X1.75S800
G1 X1.19S0
G1 X9.94S800
G1 X1.26S0
G1 X1.68S800
G1 X1.26S0
G1 X1.26S800
G1 X1.19S0
G1 X1.61S800
G1 X1.12S0
G1 X72.73S800
G1 X1.19S0
G1 X1.19S800
G1 X1.12S0
G1 X5.6S800
G0 X3.125
G0 X0.14Y0.07
G0 X-3.125
G1 X-5.53
G1 X-1.19S0
G1 X-1.19S800
G1 X-1.19S0
G1 X-72.73S800
G1 X-1.05S0
G1 X-1.68S800
G1 X-1.12S0
G1 X-1.33S800
G1 X-1.26S0
G1 X-1.68S800
G1 X-1.19S0
G1 X-10.01S800
G1 X-1.19S0
G1 X-1.75S800
G1 X-1.19S0
G1 X-48.02S800
G1 X-1.19S0
G1 X-2.59S800
G1 X-1.12S0
G1 X-7.7S800
G1 X-1.12S0
G1 X-1.54S800
G1 X-1.12S0
G1 X-48.58S800
G1 X-1.68S0
G1 X-29.96S800
G1 X-1.26S0
G1 X-0.98S800
G1 X-1.33S0
G1 X-42.98S800
G0 X-3.125
G0 Y0.07
G0 X3.125
G1 X43.26
G1 X1.33S0
G1 X0.98S800
G1 X1.26S0
G1 X29.96S800
G1 X1.68S0
G1 X48.58S800
G1 X1.12S0
G1 X1.54S800
G1 X1.19S0
G1 X7.56S800
G1 X1.19S0
G1 X2.59S800
G1 X1.12S0
G1 X48.09S800
G1 X1.19S0
G1 X1.75S800
G1 X1.19S0
G1 X10.01S800
G1 X1.19S0
G1 X1.68S800
G1 X1.26S0
G1 X1.26S800
G1 X1.19S0
G1 X1.61S800
G1 X1.12S0
G1 X72.8S800
G1 X1.12S0
G1 X1.19S800
G1 X1.19S0
G1 X5.53S800
G0 X3.125
G0 X0.21Y0.07
G0 X-3.125
G1 X-5.53
G1 X-1.19S0
G1 X-1.12S800
G1 X-1.19S0
G1 X-72.87S800
G1 X-1.05S0
G1 X-1.54S800
G1 X-1.26S0
G1 X-1.19S800
G1 X-1.26S0
G1 X-1.75S800
G1 X-1.19S0
G1 X-9.94S800
G1 X-1.19S0
G1 X-1.82S800
G1 X-1.12S0
G1 X-48.16S800
G1 X-1.12S0
G1 X-2.59S800
G1 X-1.12S0
G1 X-7.63S800
G1 X-1.19S0
G1 X-1.47S800
G1 X-1.19S0
G1 X-48.58S800
G1 X-1.68S0
G1 X-29.82S800
G1 X-1.33S0
G1 X-1.05S800
G1 X-1.26S0
G1 X-43.54S800
G0 X-3.125
G0 Y0.07
G0 X3.125
G1 X43.68
G1 X1.26S0
G1 X1.05S800
G1 X1.33S0
G1 X29.89S800
G1 X1.61S0
G1 X48.65S800
G1 X1.12S0
G1 X1.47S800
G1 X1.19S0
G1 X7.63S800
G1 X1.12S0
G1 X2.59S800
G1 X1.19S0
G1 X48.09S800
G1 X1.19S0
G1 X1.75S800
G1 X1.26S0
G1 X9.87S800
G1 X1.26S0
G1 X1.68S800
G1 X1.26S0
G1 X1.26S800
G1 X1.19S0
G1 X1.54S800
G1 X1.12S0
G1 X72.8S800
G1 X1.19S0
G1 X1.12S800
G1 X1.26S0
G1 X5.32S800
G0 X3.125
G0 Y0.07
G0 X-3.125
G1 X-5.11
G1 X-1.19S0
G1 X-1.12S800
G1 X-1.19S0
G1 X-72.87S800
G1 X-1.12S0
G1 X-1.47S800
G1 X-1.19S0
G1 X-1.26S800
G1 X-1.26S0
G1 X-1.75S800
G1 X-1.19S0
G1 X-9.94S800
G1 X-1.19S0
G1 X-1.75S800
G1 X-1.26S0
G1 X-48.09S800
G1 X-1.12S0
G1 X-2.59S800
G1 X-1.19S0
G1 X-7.56S800
G1 X-1.19S0
G1 X-1.54S800
G1 X-1.12S0
G1 X-48.58S800
G1 X-1.68S0
G1 X-30.03S800
G1 X-1.05S0
G1 X-1.12S800
G1 X-1.19S0
G1 X-44.03S800
G0 X-3.125
G0 Y0.07
G0 X3.125
G1 X44.31
G1 X1.12S0
G1 X0.07S800
G1 X0.21S0
G1 X0.35S800
G1 X0.07S0
G1 X0.07S800
G1 X1.05S0
G1 X30.45S800
G1 X1.54S0
G1 X48.72S800
G1 X1.12S0
G1 X1.54S800
G1 X1.19S0
G1 X7.56S800
G1 X1.12S0
G1 X2.59S800
G1 X1.12S0
G1 X48.16S800
G1 X1.19S0
G1 X1.75S800
G1 X1.26S0
G1 X9.94S800
G1 X1.19S0
G1 X1.75S800
G1 X1.26S0
G1 X1.19S800
G1 X1.26S0
G1 X1.47S800
G1 X1.05S0
G1 X72.94S800
G1 X1.12S0
G1 X1.19S800
G1 X1.19S0
G1 X4.83S800
G0 X3.125
G0 Y0.07
G0 X-3.125
G1 X-4.69
G1 X-1.19S0
G1 X-1.12S800
G1 X-1.19S0
G1 X-72.87S800
G1 X-1.12S0
G1 X-1.47S800
G1 X-1.26S0
G1 X-1.19S800
G1 X-1.26S0
G1 X-1.75S800
G1 X-1.19S0
G1 X-9.94S800
G1 X-1.19S0
G1 X-1.75S800
G1 X-1.26S0
G1 X-48.09S800
G1 X-1.19S0
G1 X-2.59S800
G1 X-1.12S0
G1 X-7.56S800
G1 X-1.19S0
G1 X-1.54S800
G1 X-1.12S0
G1 X-48.65S800
G1 X-1.61S0
G1 X-30.66S800
G1 X-2.73S0
G1 X-44.45S800
G0 X-3.125
G0 Y0.07
G0 X3.125
G1 X44.73
G1 X2.24S0
G1 X31.15S800
G1 X1.54S0
G1 X48.65S800
G1 X1.19S0
G1 X1.54S800
G1 X1.19S0
G1 X7.56S800
G1 X1.12S0
G1 X2.59S800
G1 X1.12S0
G1 X48.16S800
G1 X1.19S0
G1 X1.75S800
G1 X1.26S0
G1 X9.94S800
G1 X1.19S0
G1 X1.75S800
G1 X1.26S0
G1 X1.19S800
G1 X1.19S0
G1 X1.47S800
G1 X1.12S0
G1 X72.87S800
G1 X1.19S0
G1 X1.12S800
G1 X1.26S0
G1 X4.41S800
G0 X3.125
G0 Y0.07
G0 X-3.125
G1 X-4.2
G1 X-1.12S0
G1 X-1.26S800
G1 X-1.12S0
G1 X-72.87S800
G1 X-1.12S0
G1 X-1.47S800
G1 X-1.19S0
G1 X-1.19S800
G1 X-1.26S0
G1 X-1.82S800
G1 X-1.19S0
G1 X-9.87S800
G1 X-1.26S0
G1 X-1.75S800
G1 X-1.19S0
G1 X-48.23S800
G1 X-1.12S0
G1 X-2.59S800
G1 X-1.12S0
G1 X-7.56S800
G1 X-1.19S0
G1 X-1.54S800
G1 X-1.12S0
G1 X-48.72S800
G1 X-1.54S0
G1 X-31.57S800
G1 X-1.82S0
G1 X-44.94S800
G0 X-3.125
G0 Y0.07
G0 X3.125
G1 X45.08
G1 X1.54S0
G1 X31.85S800
G1 X1.61S0
G1 X48.65S800
G1 X1.19S0
G1 X1.54S800
G1 X1.19S0
G1 X7.49S800
G1 X1.12S0
G1 X2.59S800
G1 X1.19S0
G1 X48.23S800
G1 X1.19S0
G1 X1.68S800
G1 X1.26S0
G1 X9.87S800
G1 X1.26S0
G1 X1.75S800
G1 X1.33S0
G1 X1.12S800
G1 X1.19S0
G1 X1.47S800
G1 X1.05S0
G1 X72.94S800
G1 X1.19S0
G1 X1.19S800
G1 X1.19S0
G1 X3.99S800
G0 X3.125
G0 Y0.07
G0 X-3.125
G1 X-3.71
G1 X-1.19S0
G1 X-1.19S800
G1 X-1.19S0
G1 X-72.94S800
G1 X-1.05S0
G1 X-1.47S800
G1 X-1.19S0
G1 X-1.12S800
G1 X-1.26S0
G1 X-1.82S800
G1 X-1.19S0
G1 X-9.87S800
G1 X-1.26S0
G1 X-1.75S800
G1 X-1.26S0
G1 X-48.23S800
G1 X-1.12S0
G1 X-2.59S800
G1 X-1.12S0
G1 X-7.49S800
G1 X-1.19S0
G1 X-1.61S800
G1 X-1.12S0
G1 X-48.72S800
G1 X-1.54S0
G1 X-32.55S800
G1 X-0.7S0
G1 X-45.5S800
G0 X-3.125
G0 Y0.07
G0 X3.125
G1 X79.03
G1 X1.54S0
G1 X48.65S800
G1 X1.12S0
G1 X1.61S800
G1 X1.12S0
G1 X7.56S800
G1 X1.12S0
G1 X2.59S800
G1 X1.12S0
G1 X48.23S800
G1 X1.26S0
G1 X1.75S800
G1 X1.19S0
G1 X9.94S800
G1 X1.12S0
G1 X1.89S800
G1 X1.26S0
G1 X1.12S800
G1 X1.19S0
G1 X1.4S800
G1 X1.05S0
G1 X73.01S800
G1 X1.19S0
G1 X1.19S800
G1 X1.12S0
G1 X0.07S800
G1 X0.07S0
G1 X3.43S800
G0 X3.125
G0 Y0.07
G0 X-3.125
G1 X-3.29
G1 X-1.26S0
G1 X-1.19S800
G1 X-1.12S0
G1 X-73.01S800
G1 X-1.12S0
G1 X-1.33S800
G1 X-1.19S0
G1 X-1.12S800
G1 X-1.26S0
G1 X-1.82S800
G1 X-1.26S0
G1 X-9.8S800
G1 X-1.26S0
G1 X-1.75S800
G1 X-1.26S0
G1 X-48.23S800
G1 X-1.19S0
G1 X-2.59S800
G1 X-1.12S0
G1 X-7.42S800
G1 X-1.19S0
G1 X-1.61S800
G1 X-1.19S0
G1 X-48.65S800
G1 X-1.54S0
G1 X-79.17S800
G0 X-3.125
G0 Y0.07
G0 X3.125
G1 X79.45
G1 X1.54S0
G1 X48.65S800
G1 X1.19S0
G1 X1.54S800
G1 X1.19S0
G1 X7.49S800
G1 X1.12S0
G1 X2.59S800
G1 X1.19S0
G1 X48.23S800
G1 X1.26S0
G1 X1.75S800
G1 X1.19S0
G1 X9.87S800
G1 X1.19S0
G1 X1.89S800
G1 X1.26S0
G1 X1.12S800
G1 X1.19S0
G1 X1.33S800
G1 X1.12S0
G1 X73.01S800
G1 X1.12S0
G1 X1.19S800
G1 X1.19S0
G1 X3.08S800
G0 X3.125
G0 Y0.07
G0 X-3.125
G1 X-2.8
G1 X-1.26S0
G1 X-1.12S800
G1 X-1.26S0
G1 X-72.87S800
G1 X-0.07S0
G1 X-0.07S800
G1 X-1.05S0
G1 X-1.26S800
G1 X-0.07S0
G1 X-0.07S800
G1 X-1.12S0
G1 X-1.05S800
G1 X-0.07S0
G1 X-0.07S800
G1 X-1.19S0
G1 X-1.82S800
G1 X-0.07S0
G1 X-0.07S800
G1 X-1.12S0
G1 X-9.87S800
G1 X-1.26S0
G1 X-1.68S800
G1 X-1.26S0
G1 X-48.3S800
G1 X-1.05S0
G1 X-2.66S800
G1 X-1.19S0
G1 X-7.42S800
G1 X-1.19S0
G1 X-1.54S800
G1 X-1.19S0
G1 X-48.65S800
G1 X-1.54S0
G1 X-79.66S800
G0 X-3.125
G0 Y0.07
G0 X3.125
G1 X79.87
G1 X1.47S0
G1 X48.72S800
G1 X1.12S0
G1 X1.61S800
G1 X1.19S0
G1 X7.42S800
G1 X1.19S0
G1 X2.59S800
G1 X1.12S0
G1 X48.37S800
G1 X1.19S0
G1 X1.75S800
G1 X1.19S0
G1 X9.87S800
G1 X1.19S0
G1 X1.89S800
G1 X1.26S0
G1 X1.05S800
G1 X1.26S0
G1 X1.26S800
G1 X1.19S0
G1 X72.94S800
G1 X1.19S0
G1 X1.19S800
G1 X1.19S0
G1 X2.66S800
G0 X3.125
G0 Y0.07
G0 X-3.125
G1 X-2.38
G1 X-1.19S0
G1 X-1.19S800
G1 X-1.19S0
G1 X-73.01S800
G1 X-1.47S0
G1 X-0.98S800
G1 X-1.19S0
G1 X-1.05S800
G1 X-1.26S0
G1 X-1.89S800
G1 X-1.26S0
G1 X-9.8S800
G1 X-1.26S0
G1 X-1.68S800
G1 X-1.19S0
G1 X-48.37S800
G1 X-1.12S0
G1 X-2.66S800
G1 X-1.12S0
G1 X-7.42S800
G1 X-1.19S0
G1 X-1.61S800
G1 X-1.12S0
G1 X-48.72S800
G1 X-1.47S0
G1 X-80.15S800
G0 X-3.125
G0 Y0.07
G0 X3.125
G1 X80.29
G1 X1.47S0
G1 X48.72S800
G1 X1.12S0
G1 X1.68S800
G1 X1.12S0
G1 X7.42S800
G1 X1.12S0
G1 X2.66S800
G1 X1.12S0
G1 X48.37S800
G1 X1.19S0
G1 X0.07S800
G1 X0.07S0
G1 X1.68S800
G1 X1.19S0
G1 X0.07S800
G1 X0.07S0
G1 X9.73S800
G1 X1.12S0
G1 X1.96S800
G1 X1.19S0
G1 X1.12S800
G1 X1.26S0
G1 X0.63S800
G1 X1.75S0
G1 X73.01S800
G1 X1.12S0
G1 X0.07S800
G1 X0.07S0
G1 X1.12S800
G1 X1.19S0
G1 X2.17S800
G0 X3.125
G0 Y0.07
G0 X-3.125
G1 X-1.96
G1 X-1.19S0
G1 X-1.19S800
G1 X-1.19S0
G1 X-72.94S800
G1 X-2.1S0
G1 X-0.42S800
G1 X-1.19S0
G1 X-1.05S800
G1 X-1.26S0
G1 X-1.96S800
G1 X-1.19S0
G1 X-9.73S800
G1 X-1.26S0
G1 X-1.75S800
G1 X-1.19S0
G1 X-48.44S800
G1 X-1.12S0
G1 X-2.59S800
G1 X-1.19S0
G1 X-7.35S800
G1 X-1.19S0
G1 X-1.61S800
G1 X-1.19S0
G1 X-48.65S800
G1 X-1.54S0
G1 X-80.5S800
G0 X-3.125
G0 Y0.07
G0 X3.125
G1 X80.78
G1 X1.47S0
G1 X48.72S800
G1 X1.19S0
G1 X1.61S800
G1 X1.12S0
G1 X7.42S800
G1 X1.19S0
G1 X2.59S800
G1 X1.12S0
G1 X48.44S800
G1 X1.26S0
G1 X1.68S800
G1 X1.26S0
G1 X9.73S800
G1 X1.19S0
G1 X1.96S800
G1 X1.26S0
G1 X1.05S800
G1 X1.19S0
G1 X0.14S800
G1 X0.42S0
G1 X0.7S800
G1 X1.19S0
G1 X72.94S800
G1 X1.19S0
G1 X1.26S800
G1 X1.19S0
G1 X1.68S800
G0 X3.125
G0 Y0.07
G0 X-3.125
G1 X-1.4
G1 X-0.07S0
G1 X-0.07S800
G1 X-1.19S0
G1 X-1.26S800
G1 X-1.12S0
G1 X-73.01S800
G1 X-1.05S0
G1 X-0.07S800
G1 X-0.07S0
G1 X-0.91S800
G1 X-1.54S0
G1 X-0.98S800
G1 X-1.26S0
G1 X-1.96S800
G1 X-1.19S0
G1 X-9.8S800
G1 X-1.26S0
G1 X-1.68S800
G1 X-1.26S0
G1 X-48.37S800
G1 X-1.19S0
G1 X-2.59S800
G1 X-1.05S0
G1 X-0.07S800
G1 X-0.07S0
G1 X-7.35S800
G1 X-1.19S0
G1 X-1.61S800
G1 X-1.05S0
G1 X-0.07S800
G1 X-0.07S0
G1 X-48.72S800
G1 X-1.4S0
G1 X-80.99S800
G0 X-3.125
G0 Y0.07
G0 X3.125
G1 X81.2
G1 X1.47S0
G1 X48.72S800
G1 X1.12S0
G1 X1.68S800
G1 X1.19S0
G1 X7.35S800
G1 X1.12S0
G1 X2.66S800
G1 X1.12S0
G1 X48.44S800
G1 X1.26S0
G1 X1.68S800
G1 X1.26S0
G1 X9.73S800
G1 X1.19S0
G1 X2.03S800
G1 X1.26S0
G1 X0.98S800
G1 X1.26S0
G1 X1.19S800
G1 X1.19S0
G1 X72.94S800
G1 X1.19S0
G1 X1.26S800
G1 X1.19S0
G1 X1.26S800
G0 X3.125
G0 Y0.07
G0 X-3.125
G1 X-0.98
G1 X-1.26S0
G1 X-1.19S800
G1 X-1.19S0
G1 X-72.94S800
G1 X-1.19S0
G1 X-1.26S800
G1 X-1.19S0
G1 X-0.98S800
G1 X-1.33S0
G1 X-1.96S800
G1 X-1.19S0
G1 X-9.73S800
G1 X-1.26S0
G1 X-1.68S800
G1 X-1.26S0
G1 X-48.44S800
G1 X-1.19S0
G1 X-2.59S800
G1 X-1.19S0
G1 X-7.35S800
G1 X-1.19S0
G1 X-1.61S800
G1 X-1.19S0
G1 X-48.72S800
G1 X-1.4S0
G1 X-81.48S800
G0 X-3.125
G0 Y0.07
G0 X3.125
G1 X81.62
G1 X1.4S0
G1 X48.72S800
G1 X1.19S0
G1 X1.61S800
G1 X1.19S0
G1 X7.42S800
G1 X1.12S0
G1 X2.59S800
G1 X1.19S0
G1 X48.44S800
G1 X1.26S0
G1 X1.68S800
G1 X0.07S0
G1 X0.07S800
G1 X1.12S0
G1 X9.73S800
G1 X1.19S0
G1 X2.03S800
G1 X1.26S0
G1 X0.98S800
G1 X1.19S0
G1 X1.26S800
G1 X1.19S0
G1 X72.94S800
G1 X0.07S0
G1 X0.07S800
G1 X1.05S0
G1 X1.26S800
G1 X1.19S0
G1 X0.84S800
G0 X3.125
G0 Y0.07
G0 X-3.125
G1 X-0.56
G1 X-1.19S0
G1 X-1.26S800
G1 X-1.19S0
G1 X-72.94S800
G1 X-1.19S0
G1 X-1.26S800
G1 X-1.19S0
G1 X-0.98S800
G1 X-1.26S0
G1 X-2.03S800
G1 X-1.19S0
G1 X-9.73S800
G1 X-1.26S0
G1 X-1.68S800
G1 X-1.26S0
G1 X-48.51S800
G1 X-1.12S0
G1 X-2.59S800
G1 X-1.19S0
G1 X-7.35S800
G1 X-1.19S0
G1 X-1.61S800
G1 X-1.19S0
G1 X-48.72S800
G1 X-1.4S0
G1 X-38.01S800
G1 X-0.28S0
G1 X-43.61S800
G0 X-3.125
G0 Y0.07
G0 X3.125
G1 X43.61
G1 X0.63S0
G1 X37.94S800
G1 X1.33S0
G1 X48.79S800
G1 X1.19S0
G1 X1.61S800
G1 X1.19S0
G1 X7.28S800
G1 X1.19S0
G1 X2.59S800
G1 X1.19S0
G1 X48.51S800
G1 X1.26S0
G1 X1.68S800
G1 X1.26S0
G1 X9.66S800
G1 X1.19S0
G1 X2.1S800
G1 X1.26S0
G1 X0.91S800
G1 X1.26S0
G1 X1.19S800
G1 X1.26S0
G1 X72.94S800
G1 X1.19S0
G1 X1.19S800
G1 X1.26S0
G1 X0.28S800
G0 X3.125
G0 Y0.07
G0 X-3.125
G1 X-0.14
G1 X-1.26S0
G1 X-1.19S800
G1 X-1.19S0
G1 X-72.94S800
G1 X-1.19S0
G1 X-1.26S800
G1 X-1.12S0
G1 X-0.07S800
G1 X-0.07S0
G1 X-0.84S800
G1 X-1.33S0
G1 X-2.03S800
G1 X-1.26S0
G1 X-9.66S800
G1 X-1.26S0
G1 X-1.68S800
G1 X-1.19S0
G1 X-48.58S800
G1 X-1.19S0
G1 X-2.59S800
G1 X-1.12S0
G1 X-7.28S800
G1 X-1.26S0
G1 X-1.61S800
G1 X-1.19S0
G1 X-48.79S800
G1 X-1.33S0
G1 X-37.87S800
G1 X-0.84S0
G1 X-43.61S800
G0 X-3.125
G0 Y0.07
G0 X3.125
G1 X43.61
G1 X1.19S0
G1 X37.73S800
G1 X1.4S0
G1 X48.79S800
G1 X1.19S0
G1 X1.61S800
G1 X1.26S0
G1 X7.28S800
G1 X1.12S0
G1 X2.59S800
G1 X1.19S0
G1 X48.58S800
G1 X1.19S0
G1 X1.68S800
G1 X1.26S0
G1 X9.66S800
G1 X1.19S0
G1 X2.1S800
G1 X1.33S0
G1 X0.84S800
G1 X1.26S0
G1 X1.26S800
G1 X1.12S0
G1 X73.01S800
G1 X1.19S0
G1 X1.19S800
G0 X3.125
G0 X0.28Y0.07
G0 X-3.125
G1 X-1.19
G1 X-1.26S0
G1 X-72.94S800
G1 X-1.12S0
G1 X-1.33S800
G1 X-1.19S0
G1 X-0.84S800
G1 X-1.33S0
G1 X-2.1S800
G1 X-1.19S0
G1 X-9.66S800
G1 X-1.26S0
G1 X-1.68S800
G1 X-1.26S0
G1 X-48.58S800
G1 X-1.12S0
G1 X-2.66S800
G1 X-1.12S0
G1 X-7.21S800
G1 X-1.26S0
G1 X-1.68S800
G1 X-1.12S0
G1 X-48.86S800
G1 X-1.33S0
G1 X-37.66S800
G1 X-1.47S0
G1 X-43.68S800
G0 X-3.125
G0 Y0.07
G0 X3.125
G1 X43.82
G1 X1.54S0
G1 X37.66S800
G1 X1.26S0
G1 X48.86S800
G1 X1.19S0
G1 X1.61S800
G1 X1.26S0
G1 X7.21S800
G1 X1.19S0
G1 X2.59S800
G1 X1.12S0
G1 X48.65S800
G1 X1.19S0
G1 X1.68S800
G1 X1.33S0
G1 X9.59S800
G1 X1.26S0
G1 X2.1S800
G1 X1.26S0
G1 X0.84S800
G1 X1.26S0
G1 X1.26S800
G1 X1.19S0
G1 X72.94S800
G1 X1.19S0
G1 X1.19S800
G0 X3.125
G0 X0.28Y0.07
G0 X-3.125
G1 X-1.12
G1 X-1.33S0
G1 X-72.94S800
G1 X-1.19S0
G1 X-1.19S800
G1 X-1.26S0
G1 X-0.77S800
G1 X-1.33S0
G1 X-2.1S800
G1 X-1.26S0
G1 X-9.66S800
G1 X-1.26S0
G1 X-1.68S800
G1 X-1.19S0
G1 X-48.65S800
G1 X-1.12S0
G1 X-2.59S800
G1 X-1.19S0
G1 X-7.21S800
G1 X-1.26S0
G1 X-1.61S800
G1 X-1.26S0
G1 X-48.79S800
G1 X-1.26S0
G1 X-37.52S800
G1 X-1.75S0
G1 X-44.03S800
G0 X-3.125
G0 Y0.07
G0 X3.125
G1 X44.38
G1 X1.61S0
G1 X0.07S800
G1 X0.07S0
G1 X37.38S800
G1 X1.33S0
G1 X48.79S800
G1 X1.19S0
G1 X1.68S800
G1 X1.19S0
G1 X7.21S800
G1 X1.19S0
G1 X2.59S800
G1 X1.12S0
G1 X48.65S800
G1 X1.26S0
G1 X1.68S800
G1 X1.26S0
G1 X9.59S800
G1 X1.33S0
G1 X2.1S800
G1 X1.33S0
G1 X0.77S800
G1 X1.19S0
G1 X1.26S800
G1 X1.19S0
G1 X72.94S800
G1 X1.26S0
G1 X1.12S800
G0 X3.125
G0 X0.21Y0.07
G0 X-3.125
G1 X-1.12
G1 X-1.26S0
G1 X-73.01S800
G1 X-1.19S0
G1 X-1.19S800
G1 X-1.26S0
G1 X-0.77S800
G1 X-1.33S0
G1 X-2.1S800
G1 X-1.26S0
G1 X-9.59S800
G1 X-1.33S0
G1 X-1.61S800
G1 X-1.26S0
G1 X-48.72S800
G1 X-1.12S0
G1 X-2.59S800
G1 X-1.12S0
G1 X-7.21S800
G1 X-1.26S0
G1 X-1.61S800
G1 X-1.26S0
G1 X-48.79S800
G1 X-1.33S0
G1 X-37.38S800
G1 X-1.75S0
G1 X-44.52S800
G0 X-3.125
G0 Y0.07
G0 X3.125
G1 X44.8
G1 X1.89S0
G1 X37.24S800
G1 X1.26S0
G1 X48.86S800
G1 X1.19S0
G1 X1.68S800
G1 X1.26S0
G1 X7.14S800
G1 X1.19S0
G1 X2.59S800
G1 X1.12S0
G1 X48.72S800
G1 X1.26S0
G1 X1.61S800
G1 X1.33S0
G1 X9.59S800
G1 X1.26S0
G1 X2.1S800
G1 X1.33S0
G1 X0.77S800
G1 X1.19S0
G1 X1.26S800
G1 X1.19S0
G1 X73.01S800
G1 X1.19S0
G1 X0.91S800
G0 X3.125
G0 Y0.07
G0 X-3.125
G1 X-0.63
G1 X-1.26S0
G1 X-73.01S800
G1 X-1.12S0
G1 X-1.26S800
G1 X-1.19S0
G1 X-0.77S800
G1 X-1.33S0
G1 X-2.1S800
G1 X-1.26S0
G1 X-9.66S800
G1 X-1.26S0
G1 X-1.68S800
G1 X-1.26S0
G1 X-48.72S800
G1 X-1.12S0
G1 X-2.59S800
G1 X-1.12S0
G1 X-7.21S800
G1 X-1.19S0
G1 X-1.68S800
G1 X-1.19S0
G1 X-48.86S800
G1 X-1.26S0
G1 X-37.17S800
G1 X-0.07S0
G1 X-0.07S800
G1 X-1.82S0
G1 X-45.08S800
G0 X-3.125
G0 Y0.07
G0 X3.125
G1 X45.22
G1 X2.03S0
G1 X37.1S800
G1 X1.26S0
G1 X48.86S800
G1 X1.26S0
G1 X1.61S800
G1 X1.26S0
G1 X7.14S800
G1 X1.12S0
G1 X2.66S800
G1 X1.12S0
G1 X48.72S800
G1 X1.26S0
G1 X1.68S800
G1 X1.26S0
G1 X9.59S800
G1 X1.26S0
G1 X2.17S800
G1 X1.33S0
G1 X0.7S800
G1 X1.26S0
G1 X1.19S800
G1 X1.19S0
G1 X73.01S800
G1 X1.19S0
G1 X0.49S800
G0 X3.125
G0 Y0.07
G0 X-3.125
G1 X-0.21
G1 X-1.19S0
G1 X-73.01S800
G1 X-1.19S0
G1 X-1.19S800
G1 X-1.26S0
G1 X-0.7S800
G1 X-1.33S0
G1 X-2.17S800
G1 X-1.26S0
G1 X-9.59S800
G1 X-1.26S0
G1 X-1.61S800
G1 X-1.33S0
G1 X-48.72S800
G1 X-1.19S0
G1 X-2.59S800
G1 X-1.19S0
G1 X-7.07S800
G1 X-1.26S0
G1 X-1.68S800
G1 X-1.19S0
G1 X-48.93S800
G1 X-1.19S0
G1 X-37.03S800
G1 X-2.17S0
G1 X-45.43S800
G0 X-3.125
G0 Y0.07
G0 X3.125
G1 X45.71
G1 X2.17S0
G1 X36.96S800
G1 X1.19S0
G1 X48.93S800
G1 X1.26S0
G1 X1.68S800
G1 X1.19S0
G1 X7.14S800
G1 X1.12S0
G1 X2.59S800
G1 X1.12S0
G1 X48.79S800
G1 X1.26S0
G1 X0.07S800
G1 X0.07S0
G1 X1.61S800
G1 X1.26S0
G1 X9.52S800
G1 X1.26S0
G1 X2.24S800
G1 X1.33S0
G1 X0.63S800
G1 X1.19S0
G1 X1.26S800
G1 X1.19S0
G1 X73.08S800
G0 X3.125
G0 X0.14Y0.07
G0 X-3.125
G1 X-73.01
G1 X-1.19S0
G1 X-1.26S800
G1 X-1.19S0
G1 X-0.63S800
G1 X-1.33S0
G1 X-2.24S800
G1 X-1.26S0
G1 X-9.59S800
G1 X-1.26S0
G1 X-1.61S800
G1 X-1.26S0
G1 X-48.86S800
G1 X-1.12S0
G1 X-2.59S800
G1 X-1.12S0
G1 X-7.14S800
G1 X-1.26S0
G1 X-1.68S800
G1 X-1.19S0
G1 X-48.93S800
G1 X-1.26S0
G1 X-36.82S800
G1 X-2.24S0
G1 X-45.92S800
G0 X-3.125
G0 Y0.07
G0 X3.125
G1 X46.2
G1 X2.31S0
G1 X36.82S800
G1 X1.12S0
G1 X49S800
G1 X1.19S0
G1 X1.75S800
G1 X1.19S0
G1 X7.07S800
G1 X1.12S0
G1 X2.59S800
G1 X1.19S0
G1 X48.86S800
G1 X1.26S0
G1 X1.61S800
G1 X1.33S0
G1 X9.52S800
G1 X1.26S0
G1 X2.24S800
G1 X1.33S0
G1 X0.63S800
G1 X1.19S0
G1 X1.26S800
G1 X1.19S0
G1 X73.01S800
G0 X3.125
G0 X0.21Y0.07
G0 X-3.125
G1 X-73.08
G1 X-1.19S0
G1 X-1.19S800
G1 X-1.26S0
G1 X-0.49S800
G1 X-0.07S0
G1 X-0.07S800
G1 X-1.19S0
G1 X-0.07S800
G1 X-0.07S0
G1 X-2.17S800
G1 X-1.26S0
G1 X-9.45S800
G1 X-0.07S0
G1 X-0.07S800
G1 X-1.26S0
G1 X-1.61S800
G1 X-1.19S0
G1 X-0.07S800
G1 X-0.07S0
G1 X-48.86S800
G1 X-1.12S0
G1 X-2.59S800
G1 X-1.12S0
G1 X-7S800
G1 X-0.07S0
G1 X-0.07S800
G1 X-1.05S0
G1 X-0.07S800
G1 X-0.07S0
G1 X-1.61S800
G1 X-0.07S0
G1 X-0.07S800
G1 X-1.12S0
G1 X-49S800
G1 X-1.19S0
G1 X-36.68S800
G1 X-2.31S0
G1 X-0.07S800
G1 X-0.07S0
G1 X-46.34S800
G0 X-3.125
G0 Y0.07
G0 X3.125
G1 X46.62
G1 X2.45S0
G1 X36.61S800
G1 X1.12S0
G1 X49.07S800
G1 X1.19S0
G1 X1.75S800
G1 X1.19S0
G1 X7.07S800
G1 X1.12S0
G1 X2.59S800
G1 X1.19S0
G1 X48.86S800
G1 X1.33S0
G1 X1.61S800
G1 X1.26S0
G1 X9.52S800
G1 X1.26S0
G1 X2.24S800
G1 X1.33S0
G1 X0.63S800
G1 X1.19S0
G1 X1.19S800
G1 X1.26S0
G1 X73.01S800
G0 X3.125
G0 X0.28Y0.07
G0 X-3.125
G1 X-73.08
G1 X-1.19S0
G1 X-1.19S800
G1 X-1.26S0
G1 X-0.56S800
G1 X-1.26S0
G1 X-2.31S800
G1 X-1.26S0
G1 X-9.52S800
G1 X-1.26S0
G1 X-1.61S800
G1 X-1.33S0
G1 X-48.93S800
G1 X-1.12S0
G1 X-2.59S800
G1 X-1.19S0
G1 X-7S800
G1 X-1.19S0
G1 X-1.75S800
G1 X-1.26S0
G1 X-49.28S800
G1 X-0.84S0
G1 X-36.54S800
G1 X-2.59S0
G1 X-46.83S800
G0 X-3.125
G0 Y0.07
G0 X3.125
G1 X47.11
G1 X2.52S0
G1 X0.07S800
G1 X0.07S0
G1 X36.33S800
G1 X0.07S0
G1 X0.07S800
G1 X0.56S0
G1 X49.56S800
G1 X1.12S0
G1 X1.75S800
G1 X1.19S0
G1 X0.07S800
G1 X0.07S0
G1 X6.86S800
G1 X0.07S0
G1 X0.07S800
G1 X1.05S0
G1 X2.59S800
G1 X1.12S0
G1 X0.07S800
G1 X0.07S0
G1 X48.86S800
G1 X1.26S0
G1 X0.07S800
G1 X0.07S0
G1 X1.47S800
G1 X1.33S0
G1 X9.52S800
G1 X1.19S0
G1 X0.07S800
G1 X0.07S0
G1 X2.17S800
G1 X0.07S0
G1 X0.07S800
G1 X1.19S0
G1 X0.56S800
G1 X1.19S0
G1 X0.07S800
G1 X0.07S0
G1 X1.12S800
G1 X1.19S0
G1 X72.87S800
G0 X3.125
G0 Y0.07
G0 X-3.125
G1 X-72.59
G1 X-1.19S0
G1 X-1.26S800
G1 X-1.19S0
G1 X-0.56S800
G1 X-1.33S0
G1 X-2.31S800
G1 X-1.26S0
G1 X-9.45S800
G1 X-1.33S0
G1 X-1.61S800
G1 X-1.26S0
G1 X-49S800
G1 X-1.12S0
G1 X-2.59S800
G1 X-1.19S0
G1 X-7S800
G1 X-1.19S0
G1 X-1.75S800
G1 X-1.19S0
G1 X-49.84S800
G1 X-0.35S0
G1 X-36.4S800
G1 X-2.73S0
G1 X-47.25S800
G0 X-3.125
G0 Y0.07
G0 X3.125
G1 X47.6
G1 X2.73S0
G1 X36.33S800
G1 X0.07S0
G1 X50.12S800
G1 X1.19S0
G1 X1.68S800
G1 X1.33S0
G1 X6.93S800
G1 X1.19S0
G1 X2.52S800
G1 X1.12S0
G1 X49.07S800
G1 X1.33S0
G1 X1.54S800
G1 X1.33S0
G1 X9.45S800
G1 X1.26S0
G1 X2.31S800
G1 X1.33S0
G1 X0.49S800
G1 X1.26S0
G1 X1.19S800
G1 X1.26S0
G1 X72.31S800
G0 X3.125
G0 Y0.07
G0 X-3.125
G1 X-72.17
G1 X-1.26S0
G1 X-1.19S800
G1 X-1.19S0
G1 X-0.49S800
G1 X-1.33S0
G1 X-2.38S800
G1 X-1.26S0
G1 X-9.45S800
G1 X-1.26S0
G1 X-1.61S800
G1 X-1.26S0
G1 X-49.07S800
G1 X-1.19S0
G1 X-2.52S800
G1 X-1.19S0
G1 X-6.93S800
G1 X-1.12S0
G1 X-0.07S800
G1 X-0.07S0
G1 X-1.75S800
G1 X-1.19S0
G1 X-86.31S800
G1 X-0.07S0
G1 X-0.07S800
G1 X-2.8S0
G1 X-47.74S800
G0 X-3.125
G0 Y0.07
G0 X3.125
G1 X48.02
G1 X1.19S0
G1 X0.14S800
G1 X1.54S0
G1 X86.38S800
G1 X1.19S0
G1 X1.75S800
G1 X1.26S0
G1 X6.93S800
G1 X1.19S0
G1 X2.52S800
G1 X1.19S0
G1 X49.07S800
G1 X1.26S0
G1 X1.61S800
G1 X1.26S0
G1 X9.45S800
G1 X1.33S0
G1 X2.31S800
G1 X1.33S0
G1 X0.42S800
G1 X1.26S0
G1 X1.19S800
G1 X1.26S0
G1 X71.89S800
G0 X3.125
G0 Y0.07
G0 X-3.125
G1 X-71.61
G1 X-1.26S0
G1 X-1.19S800
G1 X-1.26S0
G1 X-0.42S800
G1 X-1.33S0
G1 X-2.31S800
G1 X-1.33S0
G1 X-9.45S800
G1 X-1.33S0
G1 X-1.54S800
G1 X-1.26S0
G1 X-49.14S800
G1 X-1.12S0
G1 X-2.59S800
G1 X-1.19S0
G1 X-6.93S800
G1 X-1.19S0
G1 X-1.82S800
G1 X-1.19S0
G1 X-86.24S800
G1 X-1.54S0
G1 X-0.21S800
G1 X-1.19S0
G1 X-48.3S800
G0 X-3.125
G0 Y0.07
G0 X3.125
G1 X48.44
G1 X1.26S0
G1 X0.21S800
G1 X1.54S0
G1 X86.17S800
G1 X1.26S0
G1 X1.75S800
G1 X1.26S0
G1 X6.93S800
G1 X1.12S0
G1 X2.59S800
G1 X1.19S0
G1 X49.07S800
G1 X1.33S0
G1 X1.54S800
G1 X1.33S0
G1 X9.45S800
G1 X1.26S0
G1 X2.31S800
G1 X1.4S0
G1 X0.35S800
G1 X0.07S0
G1 X0.07S800
G1 X1.12S0
G1 X1.19S800
G1 X1.26S0
G1 X71.47S800
G0 X3.125
G0 Y0.07
G0 X-3.125
G1 X-71.19
G1 X-1.19S0
G1 X-1.33S800
G1 X-1.19S0
G1 X-0.35S800
G1 X-1.33S0
G1 X-2.38S800
G1 X-1.26S0
G1 X-9.45S800
G1 X-1.33S0
G1 X-1.54S800
G1 X-1.33S0
G1 X-49.14S800
G1 X-1.19S0
G1 X-2.45S800
G1 X-1.19S0
G1 X-7S800
G1 X-1.19S0
G1 X-1.75S800
G1 X-1.19S0
G1 X-86.17S800
G1 X-1.54S0
G1 X-0.35S800
G1 X-1.19S0
G1 X-48.72S800
G0 X-3.125
G0 Y0.07
G0 X3.125
G1 X49
G1 X1.26S0
G1 X0.35S800
G1 X1.54S0
G1 X86.03S800
G1 X1.19S0
G1 X1.82S800
G1 X1.19S0
G1 X6.93S800
G1 X1.19S0
G1 X2.52S800
G1 X1.19S0
G1 X49.14S800
G1 X1.33S0
G1 X1.54S800
G1 X1.33S0
G1 X9.38S800
G1 X1.26S0
G1 X2.45S800
G1 X1.4S0
G1 X0.28S800
G1 X1.19S0
G1 X1.26S800
G1 X1.26S0
G1 X70.91S800
G0 X3.125
G0 Y0.07
G0 X-3.125
G1 X-70.77
G1 X-1.19S0
G1 X-1.26S800
G1 X-1.26S0
G1 X-0.28S800
G1 X-1.4S0
G1 X-2.38S800
G1 X-1.26S0
G1 X-9.45S800
G1 X-1.33S0
G1 X-1.54S800
G1 X-1.26S0
G1 X-49.21S800
G1 X-1.19S0
G1 X-2.52S800
G1 X-1.19S0
G1 X-6.86S800
G1 X-1.26S0
G1 X-1.75S800
G1 X-1.19S0
G1 X-86.03S800
G1 X-1.54S0
G1 X-0.42S800
G1 X-1.26S0
G1 X-49.14S800
G0 X-3.125
G0 Y0.07
G0 X3.125
G1 X49.42
G1 X1.26S0
G1 X0.49S800
G1 X1.54S0
G1 X85.89S800
G1 X1.19S0
G1 X1.82S800
G1 X1.26S0
G1 X6.86S800
G1 X1.19S0
G1 X2.52S800
G1 X1.19S0
G1 X49.21S800
G1 X1.26S0
G1 X1.54S800
G1 X1.33S0
G1 X9.38S800
G1 X1.26S0
G1 X2.52S800
G1 X1.33S0
G1 X0.28S800
G1 X1.26S0
G1 X1.19S800
G1 X1.26S0
G1 X70.49S800
G0 X3.125
G0 Y0.07
G0 X-3.125
G1 X-70.21
G1 X-1.26S0
G1 X-1.26S800
G1 X-1.19S0
G1 X-0.21S800
G1 X-0.07S0
G1 X-0.07S800
G1 X-1.33S0
G1 X-2.45S800
G1 X-1.26S0
G1 X-9.31S800
G1 X-1.4S0
G1 X-1.54S800
G1 X-1.26S0
G1 X-49.28S800
G1 X-1.19S0
G1 X-2.45S800
G1 X-1.19S0
G1 X-6.86S800
G1 X-1.26S0
G1 X-1.82S800
G1 X-1.19S0
G1 X-85.82S800
G1 X-1.54S0
G1 X-0.56S800
G1 X-1.26S0
G1 X-49.7S800
G0 X-3.125
G0 Y0.07
G0 X3.125
G1 X49.84
G1 X1.26S0
G1 X0.63S800
G1 X1.54S0
G1 X85.75S800
G1 X1.19S0
G1 X1.82S800
G1 X1.26S0
G1 X6.86S800
G1 X1.19S0
G1 X2.52S800
G1 X1.12S0
G1 X49.28S800
G1 X1.33S0
G1 X1.54S800
G1 X1.33S0
G1 X9.38S800
G1 X1.26S0
G1 X2.45S800
G1 X1.4S0
G1 X0.21S800
G1 X1.19S0
G1 X1.33S800
G1 X1.19S0
G1 X70.07S800
G0 X3.125
G0 Y0.07
G0 X-3.125
G1 X-69.79
G1 X-1.19S0
G1 X-1.33S800
G1 X-1.19S0
G1 X-0.21S800
G1 X-1.4S0
G1 X-2.45S800
G1 X-1.26S0
G1 X-9.38S800
G1 X-1.33S0
G1 X-1.54S800
G1 X-1.33S0
G1 X-49.28S800
G1 X-1.12S0
G1 X-2.52S800
G1 X-1.19S0
G1 X-6.86S800
G1 X-1.26S0
G1 X-1.82S800
G1 X-1.19S0
G1 X-85.75S800
G1 X-1.47S0
G1 X-0.63S800
G1 X-1.26S0
G1 X-50.19S800
G0 X-3.125
G0 Y0.07
G0 X3.125
G1 X50.4
G1 X1.26S0
G1 X0.77S800
G1 X1.47S0
G1 X85.68S800
G1 X1.19S0
G1 X1.82S800
G1 X1.26S0
G1 X6.79S800
G1 X1.19S0
G1 X2.52S800
G1 X1.19S0
G1 X49.28S800
G1 X1.19S0
G1 X0.07S800
G1 X0.07S0
G1 X1.54S800
G1 X1.33S0
G1 X9.38S800
G1 X1.19S0
G1 X2.59S800
G1 X1.4S0
G1 X0.14S800
G1 X1.19S0
G1 X1.26S800
G1 X1.26S0
G1 X69.51S800
G0 X3.125
G0 Y0.07
G0 X-3.125
G1 X-69.37
G1 X-1.19S0
G1 X-1.26S800
G1 X-1.26S0
G1 X-0.14S800
G1 X-1.4S0
G1 X-2.52S800
G1 X-1.26S0
G1 X-9.31S800
G1 X-1.4S0
G1 X-1.54S800
G1 X-1.26S0
G1 X-49.35S800
G1 X-1.12S0
G1 X-2.52S800
G1 X-1.19S0
G1 X-6.86S800
G1 X-1.19S0
G1 X-1.89S800
G1 X-1.19S0
G1 X-85.61S800
G1 X-1.47S0
G1 X-0.77S800
G1 X-1.26S0
G1 X-50.61S800
G0 X-3.125
G0 Y0.07
G0 X3.125
G1 X50.89
G1 X1.26S0
G1 X0.77S800
G1 X1.54S0
G1 X85.54S800
G1 X1.19S0
G1 X1.82S800
G1 X1.26S0
G1 X6.86S800
G1 X1.19S0
G1 X2.45S800
G1 X1.19S0
G1 X49.35S800
G1 X1.33S0
G1 X1.47S800
G1 X1.4S0
G1 X9.31S800
G1 X1.26S0
G1 X2.59S800
G1 X2.66S0
G1 X1.33S800
G1 X1.19S0
G1 X69.09S800
G0 X3.125
G0 Y0.07
G0 X-3.125
G1 X-68.81
G1 X-1.26S0
G1 X-1.33S800
G1 X-2.59S0
G1 X-2.66S800
G1 X-1.26S0
G1 X-9.31S800
G1 X-1.26S0
G1 X-1.54S800
G1 X-0.07S0
G1 X-0.07S800
G1 X-1.19S0
G1 X-49.42S800
G1 X-1.19S0
G1 X-2.52S800
G1 X-1.12S0
G1 X-6.86S800
G1 X-1.19S0
G1 X-1.89S800
G1 X-1.19S0
G1 X-85.47S800
G1 X-1.4S0
G1 X-0.91S800
G1 X-1.33S0
G1 X-51.1S800
G0 X-3.125
G0 Y0.07
G0 X3.125
G1 X51.31
G1 X1.26S0
G1 X0.91S800
G1 X1.54S0
G1 X85.4S800
G1 X1.19S0
G1 X1.89S800
G1 X1.19S0
G1 X6.86S800
G1 X1.19S0
G1 X2.45S800
G1 X1.19S0
G1 X49.35S800
G1 X1.33S0
G1 X1.54S800
G1 X1.4S0
G1 X9.24S800
G1 X1.26S0
G1 X2.66S800
G1 X2.59S0
G1 X1.33S800
G1 X1.19S0
G1 X68.67S800
G0 X3.125
G0 Y0.07
G0 X-3.125
G1 X-68.32
G1 X-1.26S0
G1 X-1.33S800
G1 X-2.59S0
G1 X-2.66S800
G1 X-1.26S0
G1 X-9.24S800
G1 X-1.4S0
G1 X-1.54S800
G1 X-1.26S0
G1 X-49.42S800
G1 X-1.19S0
G1 X-2.52S800
G1 X-1.19S0
G1 X-6.79S800
G1 X-1.26S0
G1 X-1.82S800
G1 X-1.19S0
G1 X-85.33S800
G1 X-1.54S0
G1 X-0.98S800
G1 X-1.26S0
G1 X-51.59S800
G0 X-3.125
G0 Y0.07
G0 X3.125
G1 X51.87
G1 X1.19S0
G1 X1.05S800
G1 X1.47S0
G1 X85.33S800
G1 X1.12S0
G1 X0.07S800
G1 X0.07S0
G1 X1.82S800
G1 X1.19S0
G1 X6.86S800
G1 X1.12S0
G1 X2.52S800
G1 X1.12S0
G1 X49.49S800
G1 X1.33S0
G1 X1.54S800
G1 X1.26S0
G1 X0.07S800
G1 X0.07S0
G1 X9.17S800
G1 X1.26S0
G1 X2.66S800
G1 X2.59S0
G1 X1.33S800
G1 X1.19S0
G1 X0.07S800
G1 X0.07S0
G1 X68.04S800
G0 X3.125
G0 Y0.07
G0 X-3.125
G1 X-67.9
G1 X-1.26S0
G1 X-1.33S800
G1 X-2.52S0
G1 X-2.73S800
G1 X-1.26S0
G1 X-9.24S800
G1 X-1.33S0
G1 X-1.54S800
G1 X-1.26S0
G1 X-49.56S800
G1 X-1.19S0
G1 X-2.45S800
G1 X-1.19S0
G1 X-6.72S800
G1 X-1.26S0
G1 X-1.89S800
G1 X-1.19S0
G1 X-85.19S800
G1 X-1.54S0
G1 X-1.05S800
G1 X-1.33S0
G1 X-52.01S800
G0 X-3.125
G0 Y0.07
G0 X3.125
G1 X52.29
G1 X1.33S0
G1 X1.12S800
G1 X1.54S0
G1 X85.05S800
G1 X1.19S0
G1 X1.96S800
G1 X1.26S0
G1 X6.72S800
G1 X1.19S0
G1 X2.52S800
G1 X1.12S0
G1 X49.56S800
G1 X1.33S0
G1 X1.47S800
G1 X1.33S0
G1 X9.24S800
G1 X1.33S0
G1 X2.66S800
G1 X2.52S0
G1 X1.33S800
G1 X1.26S0
G1 X67.62S800
G0 X3.125
G0 Y0.07
G0 X-3.125
G1 X-67.48
G1 X-1.12S0
G1 X-0.07S800
G1 X-0.07S0
G1 X-1.33S800
G1 X-2.38S0
G1 X-2.66S800
G1 X-0.07S0
G1 X-0.07S800
G1 X-1.26S0
G1 X-9.1S800
G1 X-0.07S0
G1 X-0.07S800
G1 X-1.33S0
G1 X-1.4S800
G1 X-0.07S0
G1 X-0.07S800
G1 X-1.26S0
G1 X-49.56S800
G1 X-1.19S0
G1 X-2.52S800
G1 X-1.12S0
G1 X-6.65S800
G1 X-0.07S0
G1 X-0.07S800
G1 X-1.12S0
G1 X-0.07S800
G1 X-0.07S0
G1 X-1.82S800
G1 X-1.12S0
G1 X-0.07S800
G1 X-0.07S0
G1 X-84.98S800
G1 X-0.07S0
G1 X-0.07S800
G1 X-1.33S0
G1 X-0.07S800
G1 X-0.07S0
G1 X-1.05S800
G1 X-0.07S0
G1 X-0.07S800
G1 X-1.19S0
G1 X-52.57S800
G0 X-3.125
G0 Y0.07
G0 X3.125
G1 X52.78
G1 X1.26S0
G1 X1.26S800
G1 X1.54S0
G1 X84.98S800
G1 X1.19S0
G1 X1.89S800
G1 X1.26S0
G1 X6.72S800
G1 X1.19S0
G1 X2.45S800
G1 X1.19S0
G1 X49.56S800
G1 X1.33S0
G1 X1.54S800
G1 X1.33S0
G1 X9.17S800
G1 X1.33S0
G1 X2.73S800
G1 X2.45S0
G1 X1.33S800
G1 X1.26S0
G1 X67.2S800
G0 X3.125
G0 Y0.07
G0 X-3.125
G1 X-66.92
G1 X-1.26S0
G1 X-1.33S800
G1 X-2.45S0
G1 X-2.73S800
G1 X-1.33S0
G1 X-9.17S800
G1 X-1.33S0
G1 X-1.47S800
G1 X-1.4S0
G1 X-49.56S800
G1 X-1.19S0
G1 X-2.45S800
G1 X-1.19S0
G1 X-6.72S800
G1 X-1.26S0
G1 X-1.89S800
G1 X-1.26S0
G1 X-84.91S800
G1 X-1.54S0
G1 X-1.26S800
G1 X-1.26S0
G1 X-53.06S800
G0 X-3.125
G0 Y0.07
G0 X3.125
G1 X53.2
G1 X1.33S0
G1 X1.26S800
G1 X0.07S0
G1 X0.07S800
G1 X1.4S0
G1 X84.91S800
G1 X1.19S0
G1 X1.89S800
G1 X0.07S0
G1 X0.07S800
G1 X1.19S0
G1 X6.65S800
G1 X1.19S0
G1 X0.07S800
G1 X0.07S0
G1 X2.31S800
G1 X1.19S0
G1 X49.63S800
G1 X0.07S0
G1 X0.07S800
G1 X1.19S0
G1 X1.54S800
G1 X1.33S0
G1 X9.17S800
G1 X1.33S0
G1 X2.73S800
G1 X0.07S0
G1 X0.07S800
G1 X2.24S0
G1 X1.4S800
G1 X1.19S0
G1 X66.78S800
G0 X3.125
G0 Y0.07
G0 X-3.125
G1 X-66.5
G1 X-1.26S0
G1 X-1.33S800
G1 X-2.38S0
G1 X-2.73S800
G1 X-1.33S0
G1 X-9.17S800
G1 X-1.33S0
G1 X-1.47S800
G1 X-1.4S0
G1 X-49.63S800
G1 X-1.19S0
G1 X-2.45S800
G1 X-1.19S0
G1 X-6.65S800
G1 X-1.33S0
G1 X-1.89S800
G1 X-1.26S0
G1 X-84.77S800
G1 X-1.54S0
G1 X-1.33S800
G1 X-1.33S0
G1 X-53.48S800
G0 X-3.125
G0 Y0.07
G0 X3.125
G1 X53.76
G1 X1.33S0
G1 X1.4S800
G1 X1.47S0
G1 X84.77S800
G1 X1.19S0
G1 X1.96S800
G1 X1.33S0
G1 X6.58S800
G1 X1.26S0
G1 X2.45S800
G1 X1.12S0
G1 X49.7S800
G1 X1.4S0
G1 X1.47S800
G1 X1.33S0
G1 X9.17S800
G1 X1.33S0
G1 X2.8S800
G1 X2.24S0
G1 X1.4S800
G1 X1.26S0
G1 X66.22S800
G0 X3.125
G0 Y0.07
G0 X-3.125
G1 X-66.01
G1 X-1.19S0
G1 X-0.07S800
G1 X-0.07S0
G1 X-1.33S800
G1 X-2.31S0
G1 X-2.66S800
G1 X-0.07S0
G1 X-0.07S800
G1 X-1.26S0
G1 X-9.17S800
G1 X-1.33S0
G1 X-1.54S800
G1 X-1.19S0
G1 X-0.07S800
G1 X-0.07S0
G1 X-49.7S800
G1 X-1.19S0
G1 X-2.45S800
G1 X-1.19S0
G1 X-6.65S800
G1 X-1.26S0
G1 X-2.03S800
G1 X-1.12S0
G1 X-84.77S800
G1 X-1.33S0
G1 X-0.07S800
G1 X-0.07S0
G1 X-1.4S800
G1 X-1.19S0
G1 X-0.07S800
G1 X-0.07S0
G1 X-53.97S800
G0 X-3.125
G0 Y0.07
G0 X3.125
G1 X54.25
G1 X1.33S0
G1 X1.47S800
G1 X1.47S0
G1 X84.7S800
G1 X1.19S0
G1 X1.96S800
G1 X1.26S0
G1 X6.58S800
G1 X1.26S0
G1 X2.38S800
G1 X1.19S0
G1 X49.77S800
G1 X1.33S0
G1 X1.54S800
G1 X1.33S0
G1 X9.17S800
G1 X1.26S0
G1 X2.8S800
G1 X2.24S0
G1 X1.4S800
G1 X1.33S0
G1 X65.73S800
G0 X3.125
G0 Y0.07
G0 X-3.125
G1 X-65.45
G1 X-1.33S0
G1 X-1.4S800
G1 X-2.17S0
G1 X-2.87S800
G1 X-1.26S0
G1 X-9.17S800
G1 X-1.33S0
G1 X-1.47S800
G1 X-1.33S0
G1 X-49.84S800
G1 X-1.19S0
G1 X-2.38S800
G1 X-1.19S0
G1 X-6.65S800
G1 X-1.26S0
G1 X-1.96S800
G1 X-1.26S0
G1 X-84.56S800
G1 X-1.47S0
G1 X-1.54S800
G1 X-1.33S0
G1 X-54.53S800
G0 X-3.125
G0 Y0.07
G0 X3.125
G1 X54.74
G1 X1.26S0
G1 X1.54S800
G1 X1.54S0
G1 X84.49S800
G1 X1.26S0
G1 X1.96S800
G1 X1.33S0
G1 X6.58S800
G1 X1.19S0
G1 X2.45S800
G1 X1.12S0
G1 X49.84S800
G1 X1.33S0
G1 X1.47S800
G1 X1.4S0
G1 X9.1S800
G1 X1.33S0
G1 X2.8S800
G1 X2.24S0
G1 X1.4S800
G1 X1.26S0
G1 X65.31S800
G0 X3.125
G0 Y0.07
G0 X-3.125
G1 X-65.03
G1 X-1.26S0
G1 X-1.47S800
G1 X-2.1S0
G1 X-2.87S800
G1 X-1.33S0
G1 X-9.1S800
G1 X-1.33S0
G1 X-1.54S800
G1 X-1.26S0
G1 X-49.91S800
G1 X-1.19S0
G1 X-2.38S800
G1 X-1.19S0
G1 X-6.58S800
G1 X-1.33S0
G1 X-1.96S800
G1 X-1.26S0
G1 X-84.49S800
G1 X-1.47S0
G1 X-1.61S800
G1 X-1.26S0
G1 X-55.02S800
G0 X-3.125
G0 Y0.07
G0 X3.125
G1 X55.3
G1 X1.26S0
G1 X1.68S800
G1 X1.47S0
G1 X84.42S800
G1 X1.26S0
G1 X1.96S800
G1 X1.33S0
G1 X6.58S800
G1 X1.19S0
G1 X2.38S800
G1 X1.12S0
G1 X49.98S800
G1 X1.33S0
G1 X1.47S800
G1 X1.33S0
G1 X9.1S800
G1 X1.33S0
G1 X2.87S800
G1 X2.1S0
G1 X1.47S800
G1 X1.26S0
G1 X64.75S800
G0 X3.125
G0 Y0.07
G0 X-3.125
G1 X-64.54
G1 X-1.33S0
G1 X-1.47S800
G1 X-2.03S0
G1 X-2.94S800
G1 X-1.26S0
G1 X-9.1S800
G1 X-1.4S0
G1 X-1.47S800
G1 X-1.33S0
G1 X-49.91S800
G1 X-1.19S0
G1 X-2.38S800
G1 X-1.19S0
G1 X-6.58S800
G1 X-1.26S0
G1 X-2.03S800
G1 X-1.26S0
G1 X-84.35S800
G1 X-1.47S0
G1 X-1.68S800
G1 X-1.33S0
G1 X-55.44S800
G0 X-3.125
G0 Y0.07
G0 X3.125
G1 X55.72
G1 X1.33S0
G1 X1.68S800
G1 X1.47S0
G1 X84.42S800
G1 X1.19S0
G1 X2.03S800
G1 X1.26S0
G1 X6.58S800
G1 X1.19S0
G1 X2.38S800
G1 X1.19S0
G1 X49.98S800
G1 X1.26S0
G1 X1.47S800
G1 X1.4S0
G1 X9.1S800
G1 X1.33S0
G1 X2.87S800
G1 X2.03S0
G1 X1.54S800
G1 X1.26S0
G1 X64.26S800
G0 X3.125
G0 Y0.07
G0 X-3.125
G1 X-63.98
G1 X-1.33S0
G1 X-1.47S800
G1 X-1.96S0
G1 X-2.94S800
G1 X-1.33S0
G1 X-9.1S800
G1 X-1.4S0
G1 X-1.4S800
G1 X-1.4S0
G1 X-49.98S800
G1 X-1.19S0
G1 X-2.31S800
G1 X-1.26S0
G1 X-6.51S800
G1 X-1.26S0
G1 X-2.03S800
G1 X-1.26S0
G1 X-84.28S800
G1 X-1.4S0
G1 X-1.75S800
G1 X-1.4S0
G1 X-56S800
G0 X-3.125
G0 Y0.07
G0 X3.125
G1 X56.21
G1 X1.33S0
G1 X1.75S800
G1 X1.47S0
G1 X84.28S800
G1 X1.26S0
G1 X1.96S800
G1 X1.33S0
G1 X6.51S800
G1 X1.26S0
G1 X2.31S800
G1 X1.19S0
G1 X49.98S800
G1 X1.4S0
G1 X1.4S800
G1 X1.4S0
G1 X9.03S800
G1 X1.33S0
G1 X3.01S800
G1 X1.89S0
G1 X1.54S800
G1 X1.26S0
G1 X63.84S800
G0 X3.125
G0 Y0.07
G0 X-3.125
G1 X-63.49
G1 X-1.33S0
G1 X-1.54S800
G1 X-1.89S0
G1 X-3.01S800
G1 X-1.26S0
G1 X-9.1S800
G1 X-1.4S0
G1 X-1.4S800
G1 X-1.4S0
G1 X-50.05S800
G1 X-1.19S0
G1 X-2.31S800
G1 X-1.19S0
G1 X-6.51S800
G1 X-1.33S0
G1 X-2.03S800
G1 X-1.19S0
G1 X-84.21S800
G1 X-1.47S0
G1 X-1.75S800
G1 X-1.4S0
G1 X-56.49S800
G0 X-3.125
G0 Y0.07
G0 X3.125
G1 X56.77
G1 X1.26S0
G1 X0.07S800
G1 X0.07S0
G1 X1.82S800
G1 X1.4S0
G1 X84.14S800
G1 X1.26S0
G1 X2.03S800
G1 X1.33S0
G1 X6.51S800
G1 X1.19S0
G1 X2.31S800
G1 X1.12S0
G1 X50.12S800
G1 X1.4S0
G1 X1.47S800
G1 X1.33S0
G1 X9.03S800
G1 X1.33S0
G1 X3.01S800
G1 X1.82S0
G1 X1.61S800
G1 X1.19S0
G1 X0.07S800
G1 X0.07S0
G1 X63.21S800
G0 X3.125
G0 Y0.07
G0 X-3.125
G1 X-63.07
G1 X-1.26S0
G1 X-1.61S800
G1 X-1.82S0
G1 X-3.01S800
G1 X-1.33S0
G1 X-9.03S800
G1 X-1.33S0
G1 X-1.47S800
G1 X-1.4S0
G1 X-50.05S800
G1 X-1.19S0
G1 X-2.38S800
G1 X-1.19S0
G1 X-6.51S800
G1 X-1.26S0
G1 X-2.03S800
G1 X-1.26S0
G1 X-84.07S800
G1 X-1.54S0
G1 X-1.82S800
G1 X-1.33S0
G1 X-56.98S800
G0 X-3.125
G0 Y0.07
G0 X3.125
G1 X57.26
G1 X1.33S0
G1 X1.89S800
G1 X1.47S0
G1 X84.07S800
G1 X1.19S0
G1 X2.1S800
G1 X1.26S0
G1 X6.51S800
G1 X1.19S0
G1 X2.31S800
G1 X1.26S0
G1 X50.05S800
G1 X1.4S0
G1 X1.47S800
G1 X1.4S0
G1 X8.96S800
G1 X1.33S0
G1 X3.08S800
G1 X1.75S0
G1 X1.61S800
G1 X1.26S0
G1 X62.79S800
G0 X3.125
G0 Y0.07
G0 X-3.125
G1 X-62.58
G1 X-1.19S0
G1 X-1.68S800
G1 X-1.68S0
G1 X-3.15S800
G1 X-1.26S0
G1 X-8.96S800
G1 X-0.07S0
G1 X-0.07S800
G1 X-1.26S0
G1 X-1.4S800
G1 X-0.07S0
G1 X-0.07S800
G1 X-1.26S0
G1 X-50.26S800
G1 X-1.12S0
G1 X-2.38S800
G1 X-1.12S0
G1 X-6.51S800
G1 X-1.33S0
G1 X-2.03S800
G1 X-1.19S0
G1 X-84S800
G1 X-0.07S0
G1 X-0.07S800
G1 X-1.4S0
G1 X-1.82S800
G1 X-0.07S0
G1 X-0.07S800
G1 X-1.26S0
G1 X-57.54S800
G0 X-3.125
G0 Y0.07
G0 X3.125
G1 X57.75
G1 X1.33S0
G1 X1.89S800
G1 X1.54S0
G1 X83.93S800
G1 X1.26S0
G1 X2.03S800
G1 X1.33S0
G1 X6.44S800
G1 X1.26S0
G1 X2.24S800
G1 X1.19S0
G1 X50.26S800
G1 X1.33S0
G1 X1.4S800
G1 X1.4S0
G1 X9.03S800
G1 X1.33S0
G1 X3.08S800
G1 X1.68S0
G1 X1.61S800
G1 X1.26S0
G1 X62.37S800
G0 X3.125
G0 Y0.07
G0 X-3.125
G1 X-62.09
G1 X-1.26S0
G1 X-1.61S800
G1 X-1.68S0
G1 X-3.08S800
G1 X-1.33S0
G1 X-8.96S800
G1 X-1.4S0
G1 X-1.4S800
G1 X-1.4S0
G1 X-50.26S800
G1 X-1.19S0
G1 X-2.24S800
G1 X-1.26S0
G1 X-6.44S800
G1 X-1.26S0
G1 X-2.1S800
G1 X-1.26S0
G1 X-83.93S800
G1 X-1.47S0
G1 X-1.96S800
G1 X-1.33S0
G1 X-58.03S800
G0 X-3.125
G0 Y0.07
G0 X3.125
G1 X58.31
G1 X1.26S0
G1 X2.03S800
G1 X1.33S0
G1 X0.07S800
G1 X0.07S0
G1 X83.86S800
G1 X1.26S0
G1 X2.1S800
G1 X1.19S0
G1 X0.07S800
G1 X0.07S0
G1 X6.37S800
G1 X1.19S0
G1 X2.31S800
G1 X1.12S0
G1 X0.07S800
G1 X0.07S0
G1 X50.19S800
G1 X1.4S0
G1 X1.4S800
G1 X1.33S0
G1 X0.07S800
G1 X0.07S0
G1 X8.89S800
G1 X1.26S0
G1 X0.07S800
G1 X0.07S0
G1 X3.08S800
G1 X1.54S0
G1 X1.75S800
G1 X1.19S0
G1 X61.88S800
G0 X3.125
G0 Y0.07
G0 X-3.125
G1 X-61.6
G1 X-1.26S0
G1 X-1.68S800
G1 X-1.54S0
G1 X-3.22S800
G1 X-1.33S0
G1 X-8.89S800
G1 X-1.4S0
G1 X-1.4S800
G1 X-1.4S0
G1 X-50.33S800
G1 X-1.19S0
G1 X-2.24S800
G1 X-1.26S0
G1 X-6.37S800
G1 X-1.33S0
G1 X-2.03S800
G1 X-1.33S0
G1 X-83.86S800
G1 X-1.4S0
G1 X-2.03S800
G1 X-1.33S0
G1 X-58.52S800
G0 X-3.125
G0 Y0.07
G0 X3.125
G1 X58.8
G1 X1.33S0
G1 X2.03S800
G1 X1.47S0
G1 X83.86S800
G1 X1.26S0
G1 X2.03S800
G1 X1.33S0
G1 X6.37S800
G1 X1.19S0
G1 X2.31S800
G1 X1.19S0
G1 X50.33S800
G1 X1.4S0
G1 X1.4S800
G1 X1.4S0
G1 X8.89S800
G1 X1.33S0
G1 X3.22S800
G1 X1.54S0
G1 X1.61S800
G1 X1.33S0
G1 X61.32S800
G0 X3.125
G0 Y0.07
G0 X-3.125
G1 X-61.04
G1 X-0.07S0
G1 X-0.07S800
G1 X-1.26S0
G1 X-1.68S800
G1 X-1.4S0
G1 X-3.29S800
G1 X-1.19S0
G1 X-0.07S800
G1 X-0.07S0
G1 X-8.89S800
G1 X-1.26S0
G1 X-0.07S800
G1 X-0.07S0
G1 X-1.26S800
G1 X-0.07S0
G1 X-0.07S800
G1 X-1.33S0
G1 X-50.4S800
G1 X-1.19S0
G1 X-2.31S800
G1 X-1.12S0
G1 X-0.07S800
G1 X-0.07S0
G1 X-6.23S800
G1 X-0.07S0
G1 X-0.07S800
G1 X-1.26S0
G1 X-2.1S800
G1 X-1.26S0
G1 X-83.72S800
G1 X-0.07S0
G1 X-0.07S800
G1 X-1.33S0
G1 X-2.1S800
G1 X-1.33S0
G1 X-59.01S800
G0 X-3.125
G0 Y0.07
G0 X3.125
G1 X59.29
G1 X1.33S0
G1 X2.1S800
G1 X1.4S0
G1 X83.79S800
G1 X1.26S0
G1 X2.1S800
G1 X1.26S0
G1 X6.37S800
G1 X1.26S0
G1 X2.24S800
G1 X1.19S0
G1 X50.47S800
G1 X1.33S0
G1 X1.4S800
G1 X1.4S0
G1 X8.89S800
G1 X1.33S0
G1 X3.22S800
G1 X1.4S0
G1 X1.75S800
G1 X1.26S0
G1 X60.9S800
G0 X3.125
G0 Y0.07
G0 X-3.125
G1 X-60.55
G1 X-1.33S0
G1 X-2.03S800
G1 X-1.05S0
G1 X-3.29S800
G1 X-1.33S0
G1 X-8.89S800
G1 X-1.33S0
G1 X-1.4S800
G1 X-1.4S0
G1 X-50.47S800
G1 X-1.19S0
G1 X-2.24S800
G1 X-1.26S0
G1 X-6.37S800
G1 X-1.26S0
G1 X-2.1S800
G1 X-1.26S0
G1 X-83.72S800
G1 X-1.47S0
G1 X-2.1S800
G1 X-1.33S0
G1 X-59.57S800
G0 X-3.125
G0 Y0.07
G0 X3.125
G1 X59.71
G1 X1.4S0
G1 X2.1S800
G1 X0.07S0
G1 X0.07S800
G1 X1.33S0
G1 X83.72S800
G1 X1.19S0
G1 X2.1S800
G1 X0.07S0
G1 X0.07S800
G1 X1.19S0
G1 X6.3S800
G1 X0.07S0
G1 X0.07S800
G1 X1.12S0
G1 X2.24S800
G1 X1.19S0
G1 X50.47S800
G1 X1.4S0
G1 X1.4S800
G1 X1.4S0
G1 X8.89S800
G1 X1.26S0
G1 X0.07S800
G1 X0.07S0
G1 X3.22S800
G1 X0.84S0
G1 X2.17S800
G1 X1.33S0
G1 X60.41S800
G0 X3.125
G0 Y0.07
G0 X-3.125
G1 X-60.13
G1 X-1.33S0
G1 X-2.45S800
G1 X-0.56S0
G1 X-3.36S800
G1 X-1.26S0
G1 X-8.89S800
G1 X-1.4S0
G1 X-1.4S800
G1 X-1.33S0
G1 X-50.54S800
G1 X-1.19S0
G1 X-2.24S800
G1 X-1.26S0
G1 X-6.3S800
G1 X-1.33S0
G1 X-2.1S800
G1 X-1.26S0
G1 X-83.65S800
G1 X-1.4S0
G1 X-2.17S800
G1 X-1.33S0
G1 X-60.06S800
G0 X-3.125
G0 Y0.07
G0 X3.125
G1 X60.34
G1 X1.33S0
G1 X2.17S800
G1 X1.47S0
G1 X83.58S800
G1 X1.26S0
G1 X2.1S800
G1 X1.33S0
G1 X6.3S800
G1 X1.26S0
G1 X2.24S800
G1 X1.19S0
G1 X50.54S800
G1 X1.4S0
G1 X1.33S800
G1 X1.4S0
G1 X8.89S800
G1 X1.33S0
G1 X3.29S800
G1 X0.28S0
G1 X2.73S800
G1 X1.4S0
G1 X59.78S800
G0 X3.125
G0 Y0.07
G0 X-3.125
G1 X-59.64
G1 X-1.33S0
G1 X-6.37S800
G1 X-1.33S0
G1 X-8.89S800
G1 X-1.19S0
G1 X-0.07S800
G1 X-0.07S0
G1 X-1.33S800
G1 X-1.4S0
G1 X-50.54S800
G1 X-1.26S0
G1 X-2.17S800
G1 X-1.33S0
G1 X-6.3S800
G1 X-1.26S0
G1 X-2.17S800
G1 X-1.19S0
G1 X-83.58S800
G1 X-1.47S0
G1 X-2.17S800
G1 X-1.33S0
G1 X-60.55S800
G0 X-3.125
G0 Y0.07
G0 X3.125
G1 X60.83
G1 X1.4S0
G1 X2.17S800
G1 X1.4S0
G1 X83.51S800
G1 X1.26S0
G1 X2.17S800
G1 X1.26S0
G1 X6.37S800
G1 X1.26S0
G1 X2.17S800
G1 X1.19S0
G1 X50.68S800
G1 X1.33S0
G1 X1.33S800
G1 X1.4S0
G1 X8.82S800
G1 X1.33S0
G1 X6.37S800
G1 X1.33S0
G1 X59.36S800
G0 X3.125
G0 Y0.07
G0 X-3.125
G1 X-59.08
G1 X-1.33S0
G1 X-6.3S800
G1 X-1.4S0
G1 X-8.82S800
G1 X-1.4S0
G1 X-1.33S800
G1 X-1.33S0
G1 X-50.68S800
G1 X-1.26S0
G1 X-2.1S800
G1 X-1.26S0
G1 X-6.37S800
G1 X-1.26S0
G1 X-2.17S800
G1 X-1.26S0
G1 X-83.44S800
G1 X-1.47S0
G1 X-2.17S800
G1 X-1.4S0
G1 X-61.11S800
G0 X-3.125
G0 Y0.07
G0 X3.125
G1 X61.32
G1 X1.4S0
G1 X2.17S800
G1 X1.4S0
G1 X83.51S800
G1 X1.26S0
G1 X2.1S800
G1 X1.33S0
G1 X6.3S800
G1 X1.26S0
G1 X2.17S800
G1 X1.19S0
G1 X50.68S800
G1 X1.4S0
G1 X1.05S800
G1 X1.61S0
G1 X8.89S800
G1 X1.33S0
G1 X6.37S800
G1 X1.33S0
G1 X58.87S800
G0 X3.125
G0 Y0.07
G0 X-3.125
G1 X-58.59
G1 X-1.33S0
G1 X-6.3S800
G1 X-1.4S0
G1 X-8.89S800
G1 X-1.33S0
G1 X-0.14S800
G1 X-0.56S0
G1 X-0.63S800
G1 X-1.33S0
G1 X-50.75S800
G1 X-1.19S0
G1 X-2.17S800
G1 X-1.26S0
G1 X-6.3S800
G1 X-1.26S0
G1 X-2.17S800
G1 X-1.26S0
G1 X-83.44S800
G1 X-1.4S0
G1 X-2.24S800
G1 X-1.4S0
G1 X-61.6S800
G0 X-3.125
G0 Y0.07
G0 X3.125
G1 X61.88
G1 X1.4S0
G1 X2.24S800
G1 X1.4S0
G1 X83.37S800
G1 X1.33S0
G1 X2.1S800
G1 X1.33S0
G1 X6.3S800
G1 X1.26S0
G1 X2.17S800
G1 X1.19S0
G1 X50.75S800
G1 X1.4S0
G1 X0.07S800
G1 X0.7S0
G1 X0.49S800
G1 X1.33S0
G1 X8.89S800
G1 X1.4S0
G1 X6.3S800
G1 X1.33S0
G1 X58.31S800
G0 X3.125
G0 Y0.07
G0 X-3.125
G1 X-58.1
G1 X-1.33S0
G1 X-6.3S800
G1 X-1.4S0
G1 X-8.89S800
G1 X-1.33S0
G1 X-0.77S800
G1 X-1.89S0
G1 X-50.82S800
G1 X-1.19S0
G1 X-2.1S800
G1 X-1.26S0
G1 X-6.3S800
G1 X-1.33S0
G1 X-2.17S800
G1 X-1.26S0
G1 X-83.37S800
G1 X-1.4S0
G1 X-2.24S800
G1 X-1.4S0
G1 X-62.09S800
G0 X-3.125
G0 Y0.07
G0 X3.125
G1 X62.44
G1 X1.33S0
G1 X2.24S800
G1 X1.47S0
G1 X83.3S800
G1 X1.26S0
G1 X2.17S800
G1 X1.33S0
G1 X6.3S800
G1 X1.26S0
G1 X2.1S800
G1 X1.19S0
G1 X50.82S800
G1 X1.54S0
G1 X1.12S800
G1 X1.33S0
G1 X8.89S800
G1 X1.4S0
G1 X6.3S800
G1 X1.33S0
G1 X57.82S800
G0 X3.125
G0 Y0.07
G0 X-3.125
G1 X-57.61
G1 X-1.26S0
G1 X-6.3S800
G1 X-1.4S0
G1 X-8.89S800
G1 X-1.33S0
G1 X-1.33S800
G1 X-1.33S0
G1 X-50.82S800
G1 X-1.26S0
G1 X-2.1S800
G1 X-1.19S0
G1 X-6.3S800
G1 X-1.33S0
G1 X-2.24S800
G1 X-1.19S0
G1 X-83.3S800
G1 X-1.4S0
G1 X-2.31S800
G1 X-1.33S0
G1 X-62.72S800
G0 X-3.125
G0 Y0.07
G0 X3.125
G1 X62.93
G1 X1.4S0
G1 X2.24S800
G1 X1.4S0
G1 X83.3S800
G1 X1.19S0
G1 X2.17S800
G1 X1.4S0
G1 X6.23S800
G1 X1.26S0
G1 X2.1S800
G1 X1.19S0
G1 X50.89S800
G1 X1.26S0
G1 X1.33S800
G1 X1.33S0
G1 X8.96S800
G1 X1.4S0
G1 X6.3S800
G1 X1.26S0
G1 X57.4S800
G0 X3.125
G0 Y0.07
G0 X-3.125
G1 X-57.05
G1 X-1.33S0
G1 X-6.3S800
G1 X-1.4S0
G1 X-8.89S800
G1 X-1.4S0
G1 X-1.4S800
G1 X-1.19S0
G1 X-50.89S800
G1 X-1.19S0
G1 X-2.1S800
G1 X-1.26S0
G1 X-6.23S800
G1 X-1.33S0
G1 X-2.24S800
G1 X-1.19S0
G1 X-83.3S800
G1 X-1.4S0
G1 X-2.24S800
G1 X-1.4S0
G1 X-63.21S800
G0 X-3.125
G0 Y0.07
G0 X3.125
G1 X63.49
G1 X1.26S0
G1 X0.07S800
G1 X0.07S0
G1 X2.24S800
G1 X1.4S0
G1 X83.23S800
G1 X1.19S0
G1 X2.31S800
G1 X1.33S0
G1 X6.23S800
G1 X1.19S0
G1 X2.1S800
G1 X1.19S0
G1 X50.96S800
G1 X1.19S0
G1 X1.4S800
G1 X1.33S0
G1 X9.03S800
G1 X1.33S0
G1 X6.3S800
G1 X1.26S0
G1 X56.84S800
G0 X3.125
G0 Y0.07
G0 X-3.125
G1 X-56.56
G1 X-1.33S0
G1 X-6.3S800
G1 X-1.4S0
G1 X-8.96S800
G1 X-1.33S0
G1 X-1.47S800
G1 X-1.12S0
G1 X-50.96S800
G1 X-1.19S0
G1 X-2.1S800
G1 X-1.26S0
G1 X-6.16S800
G1 X-1.33S0
G1 X-2.31S800
G1 X-1.19S0
G1 X-83.16S800
G1 X-1.47S0
G1 X-2.24S800
G1 X-1.4S0
G1 X-63.7S800
G0 X-3.125
G0 Y0.07
G0 X3.125
G1 X64.05
G1 X1.33S0
G1 X2.31S800
G1 X1.4S0
G1 X83.16S800
G1 X1.19S0
G1 X2.31S800
G1 X1.33S0
G1 X6.16S800
G1 X1.26S0
G1 X2.1S800
G1 X1.19S0
G1 X50.89S800
G1 X1.19S0
G1 X1.47S800
G1 X1.33S0
G1 X9.03S800
G1 X1.4S0
G1 X6.23S800
G1 X1.33S0
G1 X56.28S800
G0 X3.125
G0 Y0.07
G0 X-3.125
G1 X-56
G1 X-0.07S0
G1 X-0.07S800
G1 X-1.19S0
G1 X-0.07S800
G1 X-0.07S0
G1 X-6.09S800
G1 X-0.07S0
G1 X-0.07S800
G1 X-1.33S0
G1 X-9.03S800
G1 X-1.26S0
G1 X-1.47S800
G1 X-1.19S0
G1 X-50.96S800
G1 X-1.19S0
G1 X-2.03S800
G1 X-1.26S0
G1 X-6.09S800
G1 X-0.07S0
G1 X-0.07S800
G1 X-1.26S0
G1 X-2.31S800
G1 X-1.26S0
G1 X-83.16S800
G1 X-1.33S0
G1 X-2.24S800
G1 X-0.07S0
G1 X-0.07S800
G1 X-1.33S0
G1 X-64.26S800
G0 X-3.125
G0 Y0.07
G0 X3.125
G1 X64.54
G1 X1.4S0
G1 X2.24S800
G1 X1.4S0
G1 X83.09S800
G1 X1.26S0
G1 X2.31S800
G1 X1.33S0
G1 X6.16S800
G1 X1.26S0
G1 X2.03S800
G1 X1.19S0
G1 X50.89S800
G1 X1.19S0
G1 X1.54S800
G1 X1.33S0
G1 X8.96S800
G1 X1.4S0
G1 X6.23S800
G1 X1.4S0
G1 X55.79S800
G0 X3.125
G0 Y0.07
G0 X-3.125
G1 X-55.51
G1 X-1.33S0
G1 X-6.23S800
G1 X-1.4S0
G1 X-9.03S800
G1 X-1.33S0
G1 X-1.54S800
G1 X-1.19S0
G1 X-50.89S800
G1 X-1.19S0
G1 X-2.03S800
G1 X-1.26S0
G1 X-6.16S800
G1 X-1.33S0
G1 X-2.31S800
G1 X-1.26S0
G1 X-83.02S800
G1 X-1.47S0
G1 X-2.24S800
G1 X-1.4S0
G1 X-64.82S800
G0 X-3.125
G0 Y0.07
G0 X3.125
G1 X65.03
G1 X1.47S0
G1 X2.24S800
G1 X1.4S0
G1 X82.95S800
G1 X0.07S0
G1 X0.07S800
G1 X1.12S0
G1 X0.07S800
G1 X0.07S0
G1 X2.24S800
G1 X0.07S0
G1 X0.07S800
G1 X1.19S0
G1 X6.09S800
G1 X0.07S0
G1 X0.07S800
G1 X1.12S0
G1 X0.07S800
G1 X0.07S0
G1 X1.89S800
G1 X0.07S0
G1 X0.07S800
G1 X1.05S0
G1 X0.07S800
G1 X0.07S0
G1 X50.75S800
G1 X0.07S0
G1 X0.07S800
G1 X1.05S0
G1 X0.07S800
G1 X0.07S0
G1 X1.47S800
G1 X1.26S0
G1 X0.07S800
G1 X0.07S0
G1 X8.96S800
G1 X1.33S0
G1 X0.07S800
G1 X0.07S0
G1 X6.09S800
G1 X0.07S0
G1 X0.07S800
G1 X1.19S0
G1 X55.37S800
G0 X3.125
G0 Y0.07
G0 X-3.125
G1 X-55.02
G1 X-1.4S0
G1 X-6.16S800
G1 X-1.4S0
G1 X-9.1S800
G1 X-1.33S0
G1 X-1.54S800
G1 X-1.19S0
G1 X-50.89S800
G1 X-1.19S0
G1 X-2.03S800
G1 X-1.26S0
G1 X-6.09S800
G1 X-1.33S0
G1 X-2.38S800
G1 X-1.26S0
G1 X-82.95S800
G1 X-1.4S0
G1 X-2.24S800
G1 X-1.47S0
G1 X-65.31S800
G0 X-3.125
G0 Y0.07
G0 X3.125
G1 X65.66
G1 X1.4S0
G1 X2.24S800
G1 X1.4S0
G1 X82.95S800
G1 X1.26S0
G1 X2.38S800
G1 X1.33S0
G1 X6.09S800
G1 X1.26S0
G1 X2.03S800
G1 X1.19S0
G1 X50.89S800
G1 X1.19S0
G1 X1.54S800
G1 X1.33S0
G1 X9.1S800
G1 X1.4S0
G1 X6.23S800
G1 X1.33S0
G1 X54.74S800
G0 X3.125
G0 Y0.07
G0 X-3.125
G1 X-54.6
G1 X-1.26S0
G1 X-6.23S800
G1 X-1.4S0
G1 X-9.1S800
G1 X-1.33S0
G1 X-1.61S800
G1 X-1.19S0
G1 X-50.82S800
G1 X-1.26S0
G1 X-1.96S800
G1 X-1.19S0
G1 X-0.07S800
G1 X-0.07S0
G1 X-5.88S800
G1 X-0.07S0
G1 X-0.07S800
G1 X-1.33S0
G1 X-2.38S800
G1 X-1.26S0
G1 X-82.95S800
G1 X-1.26S0
G1 X-0.07S800
G1 X-0.07S0
G1 X-2.17S800
G1 X-0.07S0
G1 X-0.07S800
G1 X-1.19S0
G1 X-0.07S800
G1 X-0.07S0
G1 X-65.87S800
G0 X-3.125
G0 Y0.07
G0 X3.125
G1 X66.15
G1 X1.4S0
G1 X2.24S800
G1 X1.4S0
G1 X82.95S800
G1 X1.26S0
G1 X2.38S800
G1 X1.33S0
G1 X6.09S800
G1 X1.26S0
G1 X1.96S800
G1 X1.26S0
G1 X50.82S800
G1 X1.12S0
G1 X1.68S800
G1 X1.33S0
G1 X9.1S800
G1 X1.4S0
G1 X6.16S800
G1 X1.33S0
G1 X54.32S800
G0 X3.125
G0 Y0.07
G0 X-3.125
G1 X-53.97
G1 X-1.33S0
G1 X-6.23S800
G1 X-1.4S0
G1 X-9.1S800
G1 X-1.33S0
G1 X-1.61S800
G1 X-1.19S0
G1 X-50.89S800
G1 X-1.19S0
G1 X-1.96S800
G1 X-1.26S0
G1 X-6.02S800
G1 X-1.4S0
G1 X-2.38S800
G1 X-1.26S0
G1 X-82.88S800
G1 X-1.4S0
G1 X-2.24S800
G1 X-1.47S0
G1 X-66.43S800
G0 X-3.125
G0 Y0.07
G0 X3.125
G1 X66.64
G1 X0.07S0
G1 X0.07S800
G1 X1.33S0
G1 X2.24S800
G1 X1.33S0
G1 X82.88S800
G1 X1.26S0
G1 X2.45S800
G1 X1.33S0
G1 X6.02S800
G1 X1.26S0
G1 X1.96S800
G1 X1.26S0
G1 X50.82S800
G1 X1.19S0
G1 X1.61S800
G1 X0.07S0
G1 X0.07S800
G1 X1.19S0
G1 X9.17S800
G1 X1.4S0
G1 X6.16S800
G1 X0.07S0
G1 X0.07S800
G1 X1.19S0
G1 X53.83S800
G0 X3.125
G0 Y0.07
G0 X-3.125
G1 X-53.48
G1 X-1.4S0
G1 X-6.16S800
G1 X-1.4S0
G1 X-9.1S800
G1 X-1.4S0
G1 X-1.61S800
G1 X-1.26S0
G1 X-50.75S800
G1 X-1.26S0
G1 X-1.89S800
G1 X-1.33S0
G1 X-6.02S800
G1 X-1.33S0
G1 X-2.45S800
G1 X-1.26S0
G1 X-82.81S800
G1 X-1.4S0
G1 X-2.24S800
G1 X-1.4S0
G1 X-66.99S800
G0 X-3.125
G0 Y0.07
G0 X3.125
G1 X67.27
G1 X1.4S0
G1 X2.24S800
G1 X1.4S0
G1 X82.81S800
G1 X1.33S0
G1 X2.38S800
G1 X1.4S0
G1 X5.81S800
G1 X1.47S0
G1 X1.89S800
G1 X1.19S0
G1 X50.82S800
G1 X1.26S0
G1 X1.61S800
G1 X1.4S0
G1 X9.17S800
G1 X1.4S0
G1 X6.16S800
G1 X1.33S0
G1 X53.2S800
G0 X3.125
G0 Y0.07
G0 X-3.125
G1 X-52.99
G1 X-1.4S0
G1 X-6.16S800
G1 X-1.4S0
G1 X-9.17S800
G1 X-1.33S0
G1 X-1.68S800
G1 X-1.26S0
G1 X-50.75S800
G1 X-1.12S0
G1 X-0.07S800
G1 X-0.07S0
G1 X-1.89S800
G1 X-1.61S0
G1 X-5.67S800
G1 X-1.33S0
G1 X-2.45S800
G1 X-1.33S0
G1 X-82.81S800
G1 X-1.33S0
G1 X-2.24S800
G1 X-1.4S0
G1 X-67.48S800
G0 X-3.125
G0 Y0.07
G0 X3.125
G1 X67.76
G1 X1.47S0
G1 X2.17S800
G1 X1.4S0
G1 X82.74S800
G1 X1.33S0
G1 X2.45S800
G1 X1.33S0
G1 X5.32S800
G1 X0.42S0
G1 X0.21S800
G1 X1.33S0
G1 X1.89S800
G1 X1.26S0
G1 X50.75S800
G1 X1.26S0
G1 X1.68S800
G1 X1.33S0
G1 X9.24S800
G1 X1.4S0
G1 X6.09S800
G1 X1.4S0
G1 X52.71S800
G0 X3.125
G0 Y0.07
G0 X-3.125
G1 X-52.43
G1 X-1.33S0
G1 X-6.16S800
G1 X-1.4S0
G1 X-9.24S800
G1 X-1.33S0
G1 X-1.68S800
G1 X-1.26S0
G1 X-50.75S800
G1 X-1.26S0
G1 X-1.89S800
G1 X-1.33S0
G1 X-0.49S800
G1 X-0.35S0
G1 X-5.04S800
G1 X-1.33S0
G1 X-2.45S800
G1 X-1.33S0
G1 X-82.81S800
G1 X-1.33S0
G1 X-2.24S800
G1 X-1.4S0
G1 X-68.11S800
G0 X-3.125
G0 Y0.07
G0 X3.125
G1 X68.32
G1 X1.4S0
G1 X2.24S800
G1 X1.33S0
G1 X82.74S800
G1 X1.33S0
G1 X2.45S800
G1 X1.33S0
G1 X4.9S800
G1 X0.35S0
G1 X0.7S800
G1 X1.26S0
G1 X1.89S800
G1 X1.26S0
G1 X50.82S800
G1 X1.19S0
G1 X1.68S800
G1 X1.4S0
G1 X9.24S800
G1 X1.33S0
G1 X6.16S800
G1 X1.4S0
G1 X52.22S800
G0 X3.125
G0 Y0.07
G0 X-3.125
G1 X-51.87
G1 X-1.4S0
G1 X-6.16S800
G1 X-1.4S0
G1 X-9.24S800
G1 X-1.33S0
G1 X-1.75S800
G1 X-1.19S0
G1 X-50.82S800
G1 X-1.26S0
G1 X-1.89S800
G1 X-1.26S0
G1 X-1.05S800
G1 X-0.35S0
G1 X-4.48S800
G1 X-1.4S0
G1 X-2.45S800
G1 X-1.33S0
G1 X-82.67S800
G1 X-1.4S0
G1 X-2.17S800
G1 X-1.47S0
G1 X-68.6S800
G0 X-3.125
G0 Y0.07
G0 X3.125
G1 X68.95
G1 X1.4S0
G1 X2.17S800
G1 X1.33S0
G1 X82.74S800
G1 X1.33S0
G1 X2.45S800
G1 X1.4S0
G1 X4.2S800
G1 X0.35S0
G1 X1.26S800
G1 X1.33S0
G1 X1.89S800
G1 X1.26S0
G1 X50.75S800
G1 X1.26S0
G1 X1.75S800
G1 X1.33S0
G1 X9.24S800
G1 X1.4S0
G1 X6.23S800
G1 X1.33S0
G1 X51.59S800
G0 X3.125
G0 Y0.07
G0 X-3.125
G1 X-51.38
G1 X-1.4S0
G1 X-6.16S800
G1 X-1.4S0
G1 X-9.31S800
G1 X-1.33S0
G1 X-1.75S800
G1 X-1.19S0
G1 X-50.75S800
G1 X-1.33S0
G1 X-1.82S800
G1 X-1.33S0
G1 X-1.47S800
G1 X-0.35S0
G1 X-3.99S800
G1 X-1.4S0
G1 X-2.52S800
G1 X-1.26S0
G1 X-82.74S800
G1 X-1.4S0
G1 X-2.1S800
G1 X-1.4S0
G1 X-69.16S800
G0 X-3.125
G0 Y0.07
G0 X3.125
G1 X69.44
G1 X1.47S0
G1 X2.1S800
G1 X1.4S0
G1 X82.67S800
G1 X1.33S0
G1 X2.45S800
G1 X1.4S0
G1 X3.64S800
G1 X0.42S0
G1 X1.75S800
G1 X1.33S0
G1 X1.89S800
G1 X1.26S0
G1 X50.75S800
G1 X1.19S0
G1 X1.75S800
G1 X1.33S0
G1 X9.31S800
G1 X1.4S0
G1 X6.16S800
G1 X1.4S0
G1 X51.1S800
G0 X3.125
G0 Y0.07
G0 X-3.125
G1 X-50.89
G1 X-1.33S0
G1 X-6.16S800
G1 X-1.33S0
G1 X-9.38S800
G1 X-1.33S0
G1 X-1.68S800
G1 X-0.07S0
G1 X-0.07S800
G1 X-1.19S0
G1 X-50.75S800
G1 X-1.19S0
G1 X-1.89S800
G1 X-1.33S0
G1 X-2.1S800
G1 X-0.35S0
G1 X-3.36S800
G1 X-1.33S0
G1 X-2.59S800
G1 X-1.26S0
G1 X-82.74S800
G1 X-1.26S0
G1 X-2.17S800
G1 X-1.4S0
G1 X-69.79S800
G0 X-3.125
G0 Y0.07
G0 X3.125
G1 X70
G1 X1.47S0
G1 X2.03S800
G1 X1.4S0
G1 X82.67S800
G1 X1.26S0
G1 X2.52S800
G1 X1.33S0
G1 X3.15S800
G1 X0.42S0
G1 X2.24S800
G1 X1.33S0
G1 X1.89S800
G1 X1.26S0
G1 X50.75S800
G1 X1.26S0
G1 X1.75S800
G1 X1.33S0
G1 X9.31S800
G1 X1.47S0
G1 X6.09S800
G1 X1.4S0
G1 X50.61S800
G0 X3.125
G0 Y0.07
G0 X-3.125
G1 X-50.33
G1 X-1.33S0
G1 X-6.16S800
G1 X-1.4S0
G1 X-9.45S800
G1 X-1.26S0
G1 X-1.75S800
G1 X-1.26S0
G1 X-50.75S800
G1 X-1.26S0
G1 X-1.89S800
G1 X-1.33S0
G1 X-2.52S800
G1 X-0.49S0
G1 X-2.73S800
G1 X-1.33S0
G1 X-2.59S800
G1 X-1.26S0
G1 X-82.67S800
G1 X-1.33S0
G1 X-2.03S800
G1 X-1.54S0
G1 X-70.28S800
G0 X-3.125
G0 Y0.07
G0 X3.125
G1 X70.56
G1 X1.47S0
G1 X2.03S800
G1 X1.33S0
G1 X82.74S800
G1 X1.26S0
G1 X2.59S800
G1 X1.26S0
G1 X2.45S800
G1 X0.49S0
G1 X2.87S800
G1 X1.26S0
G1 X1.96S800
G1 X1.19S0
G1 X50.82S800
G1 X1.19S0
G1 X1.82S800
G1 X1.26S0
G1 X9.45S800
G1 X1.4S0
G1 X6.16S800
G1 X1.33S0
G1 X50.05S800
G0 X3.125
G0 Y0.07
G0 X-3.125
G1 X-49.84
G1 X-1.33S0
G1 X-6.09S800
G1 X-1.54S0
G1 X-9.38S800
G1 X-1.33S0
G1 X-1.68S800
G1 X-1.33S0
G1 X-50.75S800
G1 X-1.26S0
G1 X-1.89S800
G1 X-1.26S0
G1 X-3.15S800
G1 X-0.56S0
G1 X-2.1S800
G1 X-1.26S0
G1 X-2.59S800
G1 X-1.33S0
G1 X-82.6S800
G1 X-1.4S0
G1 X-1.96S800
G1 X-1.47S0
G1 X-24.78S800
G1 X-0.07S0
G1 X-45.99S800
G0 X-3.125
G0 Y0.07
G0 X3.125
G1 X45.99
G1 X0.42S0
G1 X24.78S800
G1 X1.47S0
G1 X1.96S800
G1 X1.33S0
G1 X82.67S800
G1 X1.26S0
G1 X2.59S800
G1 X1.33S0
G1 X1.68S800
G1 X0.56S0
G1 X3.5S800
G1 X1.26S0
G1 X1.89S800
G1 X1.26S0
G1 X50.82S800
G1 X1.26S0
G1 X1.68S800
G1 X1.33S0
G1 X9.45S800
G1 X1.47S0
G1 X6.09S800
G1 X1.4S0
G1 X49.49S800
G0 X3.125
G0 Y0.07
G0 X-3.125
G1 X-49.21
G1 X-0.07S0
G1 X-0.07S800
G1 X-1.33S0
G1 X-6.09S800
G1 X-1.4S0
G1 X-9.52S800
G1 X-1.26S0
G1 X-1.68S800
G1 X-0.07S0
G1 X-0.07S800
G1 X-1.26S0
G1 X-50.68S800
G1 X-0.07S0
G1 X-0.07S800
G1 X-1.12S0
G1 X-1.82S800
G1 X-0.07S0
G1 X-0.07S800
G1 X-1.19S0
G1 X-3.85S800
G1 X-0.7S0
G1 X-1.19S800
G1 X-0.07S0
G1 X-0.07S800
G1 X-1.26S0
G1 X-2.52S800
G1 X-1.26S0
G1 X-0.07S800
G1 X-0.07S0
G1 X-82.6S800
G1 X-1.33S0
G1 X-1.89S800
G1 X-0.07S0
G1 X-0.07S800
G1 X-1.4S0
G1 X-24.71S800
G1 X-0.07S0
G1 X-0.07S800
G1 X-0.63S0
G1 X-45.92S800
G0 X-3.125
G0 Y0.07
G0 X3.125
G1 X45.92
G1 X0.98S0
G1 X24.78S800
G1 X1.47S0
G1 X1.96S800
G1 X1.33S0
G1 X82.6S800
G1 X1.33S0
G1 X2.52S800
G1 X1.4S0
G1 X0.84S800
G1 X0.77S0
G1 X4.06S800
G1 X1.33S0
G1 X1.82S800
G1 X1.26S0
G1 X50.82S800
G1 X1.26S0
G1 X1.75S800
G1 X1.33S0
G1 X9.52S800
G1 X1.4S0
G1 X6.09S800
G1 X1.33S0
G1 X49.07S800
G0 X3.125
G0 Y0.07
G0 X-3.125
G1 X-48.72
G1 X-1.4S0
G1 X-6.02S800
G1 X-1.47S0
G1 X-9.52S800
G1 X-1.33S0
G1 X-1.68S800
G1 X-1.33S0
G1 X-50.82S800
G1 X-1.26S0
G1 X-1.82S800
G1 X-1.26S0
G1 X-4.48S800
G1 X-1.12S0
G1 X-0.14S800
G1 X-1.33S0
G1 X-2.59S800
G1 X-1.33S0
G1 X-82.6S800
G1 X-1.33S0
G1 X-1.89S800
G1 X-1.47S0
G1 X-24.78S800
G1 X-1.4S0
G1 X-45.85S800
G0 X-3.125
G0 Y0.07
G0 X3.125
G1 X46.06
G1 X1.33S0
G1 X24.85S800
G1 X1.47S0
G1 X1.89S800
G1 X1.33S0
G1 X82.6S800
G1 X0.07S0
G1 X0.07S800
G1 X1.12S0
G1 X0.07S800
G1 X0.07S0
G1 X2.45S800
G1 X0.07S0
G1 X0.07S800
G1 X2.1S0
G1 X4.83S800
G1 X1.33S0
G1 X1.89S800
G1 X1.19S0
G1 X50.75S800
G1 X0.07S0
G1 X0.07S800
G1 X1.19S0
G1 X0.07S800
G1 X0.07S0
G1 X1.54S800
G1 X0.07S0
G1 X0.07S800
G1 X1.19S0
G1 X0.07S800
G1 X0.07S0
G1 X9.45S800
G1 X1.4S0
G1 X0.07S800
G1 X0.07S0
G1 X5.95S800
G1 X0.07S0
G1 X0.07S800
G1 X1.19S0
G1 X0.07S800
G1 X0.07S0
G1 X48.44S800
G0 X3.125
G0 Y0.07
G0 X-3.125
G1 X-48.23
G1 X-1.33S0
G1 X-6.09S800
G1 X-1.47S0
G1 X-9.59S800
G1 X-1.33S0
G1 X-1.68S800
G1 X-1.26S0
G1 X-50.82S800
G1 X-1.26S0
G1 X-1.82S800
G1 X-1.33S0
G1 X-5.18S800
G1 X-1.89S0
G1 X-2.52S800
G1 X-1.33S0
G1 X-82.6S800
G1 X-1.33S0
G1 X-1.82S800
G1 X-1.47S0
G1 X-24.85S800
G1 X-1.47S0
G1 X-46.27S800
G0 X-3.125
G0 Y0.07
G0 X3.125
G1 X46.48
G1 X1.61S0
G1 X24.78S800
G1 X1.47S0
G1 X1.82S800
G1 X1.33S0
G1 X82.6S800
G1 X1.33S0
G1 X2.59S800
G1 X1.4S0
G1 X5.6S800
G1 X1.33S0
G1 X1.82S800
G1 X1.26S0
G1 X50.82S800
G1 X1.26S0
G1 X1.75S800
G1 X1.26S0
G1 X9.66S800
G1 X1.47S0
G1 X6.02S800
G1 X1.4S0
G1 X47.88S800
G0 X3.125
G0 Y0.07
G0 X-3.125
G1 X-47.74
G1 X-1.4S0
G1 X-5.81S800
G1 X-0.07S0
G1 X-0.14S800
G1 X-1.47S0
G1 X-9.52S800
G1 X-0.07S0
G1 X-0.07S800
G1 X-1.26S0
G1 X-1.68S800
G1 X-1.33S0
G1 X-50.82S800
G1 X-1.12S0
G1 X-0.07S800
G1 X-0.07S0
G1 X-1.68S800
G1 X-0.07S0
G1 X-0.07S800
G1 X-1.26S0
G1 X-5.74S800
G1 X-1.19S0
G1 X-0.07S800
G1 X-0.07S0
G1 X-2.45S800
G1 X-0.07S0
G1 X-0.07S800
G1 X-1.26S0
G1 X-82.6S800
G1 X-1.33S0
G1 X-1.82S800
G1 X-1.33S0
G1 X-0.07S800
G1 X-0.07S0
G1 X-24.78S800
G1 X-1.61S0
G1 X-46.69S800
G0 X-3.125
G0 Y0.07
G0 X3.125
G1 X46.9
G1 X1.75S0
G1 X24.78S800
G1 X1.47S0
G1 X1.75S800
G1 X1.33S0
G1 X82.6S800
G1 X1.33S0
G1 X2.52S800
G1 X1.4S0
G1 X5.67S800
G1 X1.26S0
G1 X1.82S800
G1 X1.26S0
G1 X50.82S800
G1 X1.33S0
G1 X1.68S800
G1 X1.33S0
G1 X9.66S800
G1 X1.47S0
G1 X6.02S800
G1 X1.4S0
G1 X47.39S800
G0 X3.125
G0 Y0.07
G0 X-3.125
G1 X-47.04
G1 X-1.47S0
G1 X-5.95S800
G1 X-1.47S0
G1 X-9.73S800
G1 X-1.33S0
G1 X-1.68S800
G1 X-1.26S0
G1 X-50.89S800
G1 X-1.26S0
G1 X-1.82S800
G1 X-1.33S0
G1 X-5.6S800
G1 X-1.4S0
G1 X-2.52S800
G1 X-1.33S0
G1 X-82.53S800
G1 X-1.4S0
G1 X-1.68S800
G1 X-1.54S0
G1 X-24.78S800
G1 X-1.82S0
G1 X-47.11S800
G0 X-3.125
G0 Y0.07
G0 X3.125
G1 X47.32
G1 X1.82S0
G1 X24.78S800
G1 X0.14S0
G1 X0.07S800
G1 X1.33S0
G1 X1.61S800
G1 X1.4S0
G1 X82.53S800
G1 X1.33S0
G1 X2.66S800
G1 X1.26S0
G1 X5.67S800
G1 X1.33S0
G1 X1.82S800
G1 X1.19S0
G1 X50.89S800
G1 X1.33S0
G1 X1.68S800
G1 X1.26S0
G1 X9.73S800
G1 X1.54S0
G1 X5.95S800
G1 X1.4S0
G1 X46.9S800
G0 X3.125
G0 Y0.07
G0 X-3.125
G1 X-46.55
G1 X-1.4S0
G1 X-6.02S800
G1 X-1.47S0
G1 X-9.8S800
G1 X-1.26S0
G1 X-1.68S800
G1 X-1.33S0
G1 X-50.89S800
G1 X-1.26S0
G1 X-1.75S800
G1 X-1.33S0
G1 X-5.67S800
G1 X-1.33S0
G1 X-2.59S800
G1 X-1.33S0
G1 X-82.53S800
G1 X-1.33S0
G1 X-1.61S800
G1 X-1.54S0
G1 X-24.78S800
G1 X-1.96S0
G1 X-47.53S800
G0 X-3.125
G0 Y0.07
G0 X3.125
G1 X47.74
G1 X2.03S0
G1 X24.85S800
G1 X1.54S0
G1 X1.54S800
G1 X1.4S0
G1 X82.53S800
G1 X1.33S0
G1 X2.59S800
G1 X1.33S0
G1 X5.6S800
G1 X1.33S0
G1 X1.75S800
G1 X1.26S0
G1 X50.89S800
G1 X1.33S0
G1 X1.68S800
G1 X1.26S0
G1 X9.87S800
G1 X1.47S0
G1 X5.95S800
G1 X1.4S0
G1 X46.27S800
G0 X3.125
G0 Y0.07
G0 X-3.125
G1 X-46.06
G1 X-1.47S0
G1 X-5.88S800
G1 X-1.47S0
G1 X-9.87S800
G1 X-1.33S0
G1 X-1.61S800
G1 X-1.33S0
G1 X-50.96S800
G1 X-1.19S0
G1 X-1.82S800
G1 X-1.33S0
G1 X-5.6S800
G1 X-1.33S0
G1 X-2.59S800
G1 X-1.33S0
G1 X-82.46S800
G1 X-1.4S0
G1 X-1.61S800
G1 X-1.47S0
G1 X-24.85S800
G1 X-2.03S0
G1 X-47.95S800
G0 X-3.125
G0 Y0.07
G0 X3.125
G1 X48.16
G1 X2.17S0
G1 X24.85S800
G1 X1.47S0
G1 X1.33S800
G1 X1.68S0
G1 X82.39S800
G1 X1.33S0
G1 X2.66S800
G1 X1.33S0
G1 X5.53S800
G1 X1.33S0
G1 X1.75S800
G1 X1.26S0
G1 X50.96S800
G1 X1.4S0
G1 X1.54S800
G1 X1.33S0
G1 X9.87S800
G1 X1.47S0
G1 X5.95S800
G1 X1.47S0
G1 X45.71S800
G0 X3.125
G0 Y0.07
G0 X-3.125
G1 X-45.43
G1 X-1.4S0
G1 X-6.02S800
G1 X-1.4S0
G1 X-9.94S800
G1 X-1.33S0
G1 X-1.54S800
G1 X-1.4S0
G1 X-50.89S800
G1 X-1.33S0
G1 X-1.75S800
G1 X-1.33S0
G1 X-5.53S800
G1 X-1.4S0
G1 X-2.59S800
G1 X-1.33S0
G1 X-82.32S800
G1 X-2.1S0
G1 X-0.91S800
G1 X-1.47S0
G1 X-24.92S800
G1 X-2.24S0
G1 X-48.37S800
G0 X-3.125
G0 Y0.07
G0 X3.125
G1 X48.58
G1 X2.24S0
G1 X24.85S800
G1 X1.54S0
G1 X0.7S800
G1 X2.31S0
G1 X82.32S800
G1 X1.33S0
G1 X2.59S800
G1 X1.4S0
G1 X5.53S800
G1 X1.33S0
G1 X1.75S800
G1 X1.26S0
G1 X50.96S800
G1 X1.33S0
G1 X1.61S800
G1 X1.26S0
G1 X10.01S800
G1 X1.4S0
G1 X5.95S800
G1 X1.47S0
G1 X45.22S800
G0 X3.125
G0 Y0.07
G0 X-3.125
G1 X-44.94
G1 X-1.4S0
G1 X-5.95S800
G1 X-1.47S0
G1 X-9.94S800
G1 X-1.33S0
G1 X-1.54S800
G1 X-1.4S0
G1 X-50.96S800
G1 X-1.26S0
G1 X-1.75S800
G1 X-1.33S0
G1 X-5.53S800
G1 X-1.4S0
G1 X-2.59S800
G1 X-1.33S0
G1 X-82.25S800
G1 X-1.54S0
G1 X-0.7S800
G1 X-0.49S0
G1 X-0.28S800
G1 X-1.47S0
G1 X-24.92S800
G1 X-2.38S0
G1 X-48.79S800
G0 X-3.125
G0 Y0.07
G0 X3.125
G1 X49.07
G1 X2.45S0
G1 X24.85S800
G1 X1.82S0
G1 X1.19S800
G1 X1.47S0
G1 X0.07S800
G1 X0.07S0
G1 X82.11S800
G1 X1.33S0
G1 X2.59S800
G1 X1.33S0
G1 X5.53S800
G1 X1.4S0
G1 X1.75S800
G1 X1.26S0
G1 X51.03S800
G1 X1.4S0
G1 X1.47S800
G1 X1.19S0
G1 X0.07S800
G1 X0.07S0
G1 X9.94S800
G1 X1.47S0
G1 X6.02S800
G1 X1.33S0
G1 X44.66S800
G0 X3.125
G0 Y0.07
G0 X-3.125
G1 X-44.45
G1 X-1.33S0
G1 X-6.02S800
G1 X-1.47S0
G1 X-10.01S800
G1 X-1.33S0
G1 X-1.47S800
G1 X-1.4S0
G1 X-50.96S800
G1 X-1.33S0
G1 X-1.75S800
G1 X-1.33S0
G1 X-5.46S800
G1 X-1.4S0
G1 X-2.59S800
G1 X-1.33S0
G1 X-82.18S800
G1 X-1.54S0
G1 X-1.4S800
G1 X-1.61S0
G1 X-24.92S800
G1 X-2.45S0
G1 X-49.21S800
G0 X-3.125
G0 Y0.07
G0 X3.125
G1 X49.42
G1 X2.59S0
G1 X24.92S800
G1 X1.54S0
G1 X1.47S800
G1 X1.61S0
G1 X82.04S800
G1 X1.33S0
G1 X2.59S800
G1 X1.4S0
G1 X5.46S800
G1 X1.4S0
G1 X1.68S800
G1 X1.33S0
G1 X51.03S800
G1 X1.33S0
G1 X1.47S800
G1 X1.4S0
G1 X10.01S800
G1 X1.47S0
G1 X5.95S800
G1 X1.4S0
G1 X44.1S800
G0 X3.125
G0 Y0.07
G0 X-3.125
G1 X-43.82
G1 X-1.4S0
G1 X-5.88S800
G1 X-0.07S0
G1 X-0.07S800
G1 X-1.4S0
G1 X-9.94S800
G1 X-0.07S0
G1 X-0.07S800
G1 X-1.4S0
G1 X-1.4S800
G1 X-1.33S0
G1 X-51.1S800
G1 X-1.26S0
G1 X-1.68S800
G1 X-0.07S0
G1 X-0.07S800
G1 X-1.26S0
G1 X-5.46S800
G1 X-0.07S0
G1 X-0.07S800
G1 X-1.26S0
G1 X-2.66S800
G1 X-1.26S0
G1 X-82.04S800
G1 X-0.07S0
G1 X-0.07S800
G1 X-1.4S0
G1 X-1.61S800
G1 X-1.4S0
G1 X-25.06S800
G1 X-2.59S0
G1 X-49.63S800
G0 X-3.125
G0 Y0.07
G0 X3.125
G1 X49.84
G1 X1.12S0
G1 X0.14S800
G1 X1.4S0
G1 X24.99S800
G1 X1.54S0
G1 X1.47S800
G1 X1.61S0
G1 X81.97S800
G1 X1.33S0
G1 X2.59S800
G1 X1.33S0
G1 X5.53S800
G1 X1.33S0
G1 X1.75S800
G1 X1.26S0
G1 X51.1S800
G1 X1.4S0
G1 X1.05S800
G1 X1.75S0
G1 X10.01S800
G1 X1.47S0
G1 X5.95S800
G1 X1.47S0
G1 X43.54S800
G0 X3.125
G0 Y0.07
G0 X-3.125
G1 X-43.26
G1 X-1.4S0
G1 X-5.95S800
G1 X-1.47S0
G1 X-9.94S800
G1 X-2.24S0
G1 X-0.7S800
G1 X-1.4S0
G1 X-51.1S800
G1 X-1.26S0
G1 X-1.75S800
G1 X-1.33S0
G1 X-5.46S800
G1 X-1.4S0
G1 X-2.59S800
G1 X-1.33S0
G1 X-81.97S800
G1 X-1.54S0
G1 X-1.47S800
G1 X-1.61S0
G1 X-24.92S800
G1 X-1.47S0
G1 X-0.14S800
G1 X-1.19S0
G1 X-50.05S800
G0 X-3.125
G0 Y0.07
G0 X3.125
G1 X50.26
G1 X1.12S0
G1 X0.07S800
G1 X0.07S0
G1 X0.14S800
G1 X1.33S0
G1 X0.07S800
G1 X0.07S0
G1 X24.92S800
G1 X0.07S0
G1 X0.07S800
G1 X1.47S0
G1 X1.47S800
G1 X1.54S0
G1 X0.07S800
G1 X0.07S0
G1 X81.83S800
G1 X1.26S0
G1 X2.66S800
G1 X1.26S0
G1 X0.07S800
G1 X0.07S0
G1 X5.46S800
G1 X1.26S0
G1 X0.07S800
G1 X0.07S0
G1 X1.61S800
G1 X1.33S0
G1 X51.1S800
G1 X1.4S0
G1 X0.35S800
G1 X0.56S0
G1 X0.42S800
G1 X1.47S0
G1 X0.07S800
G1 X0.07S0
G1 X9.87S800
G1 X0.07S0
G1 X0.07S800
G1 X1.33S0
G1 X0.07S800
G1 X0.07S0
G1 X5.81S800
G1 X1.33S0
G1 X0.07S800
G1 X0.07S0
G1 X42.98S800
G0 X3.125
G0 Y0.07
G0 X-3.125
G1 X-42.77
G1 X-1.4S0
G1 X-5.95S800
G1 X-1.47S0
G1 X-9.94S800
G1 X-1.54S0
G1 X-0.84S800
G1 X-0.42S0
G1 X-0.14S800
G1 X-1.4S0
G1 X-51.1S800
G1 X-1.26S0
G1 X-1.75S800
G1 X-1.4S0
G1 X-5.46S800
G1 X-1.33S0
G1 X-2.66S800
G1 X-1.26S0
G1 X-81.9S800
G1 X-1.54S0
G1 X-1.47S800
G1 X-1.61S0
G1 X-24.99S800
G1 X-1.47S0
G1 X-0.21S800
G1 X-1.19S0
G1 X-50.47S800
G0 X-3.125
G0 Y0.07
G0 X3.125
G1 X50.75
G1 X1.12S0
G1 X0.35S800
G1 X1.47S0
G1 X25.06S800
G1 X1.54S0
G1 X1.47S800
G1 X1.61S0
G1 X81.76S800
G1 X1.33S0
G1 X2.59S800
G1 X1.33S0
G1 X5.46S800
G1 X1.4S0
G1 X1.75S800
G1 X1.26S0
G1 X51.1S800
G1 X1.61S0
G1 X1.26S800
G1 X1.54S0
G1 X9.94S800
G1 X1.47S0
G1 X5.88S800
G1 X1.47S0
G1 X42.42S800
G0 X3.125
G0 Y0.07
G0 X-3.125
G1 X-42.14
G1 X-0.07S0
G1 X-0.07S800
G1 X-1.33S0
G1 X-5.81S800
G1 X-0.07S0
G1 X-0.07S800
G1 X-1.33S0
G1 X-0.07S800
G1 X-0.07S0
G1 X-9.8S800
G1 X-0.07S0
G1 X-0.07S800
G1 X-1.4S0
G1 X-0.07S800
G1 X-0.07S0
G1 X-1.33S800
G1 X-0.07S0
G1 X-0.07S800
G1 X-1.26S0
G1 X-0.07S800
G1 X-0.07S0
G1 X-51.03S800
G1 X-0.07S0
G1 X-0.07S800
G1 X-1.12S0
G1 X-0.07S800
G1 X-0.07S0
G1 X-1.68S800
G1 X-1.26S0
G1 X-5.53S800
G1 X-1.26S0
G1 X-0.07S800
G1 X-0.07S0
G1 X-2.52S800
G1 X-0.07S0
G1 X-0.07S800
G1 X-1.26S0
G1 X-81.69S800
G1 X-0.07S0
G1 X-0.07S800
G1 X-1.33S0
G1 X-0.07S800
G1 X-0.07S0
G1 X-1.4S800
G1 X-0.07S0
G1 X-0.07S800
G1 X-1.4S0
G1 X-0.07S800
G1 X-0.07S0
G1 X-24.99S800
G1 X-0.07S0
G1 X-0.07S800
G1 X-1.26S0
G1 X-0.07S800
G1 X-0.07S0
G1 X-0.28S800
G1 X-0.07S0
G1 X-0.07S800
G1 X-1.12S0
G1 X-50.89S800
G0 X-3.125
G0 Y0.07
G0 X3.125
G1 X51.17
G1 X1.12S0
G1 X0.42S800
G1 X1.4S0
G1 X25.2S800
G1 X1.54S0
G1 X1.47S800
G1 X1.61S0
G1 X81.69S800
G1 X1.26S0
G1 X2.66S800
G1 X1.33S0
G1 X5.46S800
G1 X1.4S0
G1 X1.68S800
G1 X1.26S0
G1 X51.24S800
G1 X1.4S0
G1 X1.4S800
G1 X1.61S0
G1 X9.87S800
G1 X1.47S0
G1 X5.95S800
G1 X1.4S0
G1 X41.93S800
G0 X3.125
G0 Y0.07
G0 X-3.125
G1 X-41.58
G1 X-1.47S0
G1 X-5.88S800
G1 X-1.47S0
G1 X-9.94S800
G1 X-1.47S0
G1 X-1.54S800
G1 X-1.4S0
G1 X-51.17S800
G1 X-1.33S0
G1 X-1.68S800
G1 X-1.4S0
G1 X-5.39S800
G1 X-1.4S0
G1 X-2.66S800
G1 X-1.26S0
G1 X-81.62S800
G1 X-1.54S0
G1 X-1.54S800
G1 X-1.54S0
G1 X-25.2S800
G1 X-1.4S0
G1 X-0.56S800
G1 X-1.12S0
G1 X-51.38S800
G0 X-3.125
G0 Y0.07
G0 X3.125
G1 X51.52
G1 X1.12S0
G1 X0.63S800
G1 X1.4S0
G1 X25.2S800
G1 X0.07S0
G1 X0.07S800
G1 X1.4S0
G1 X1.47S800
G1 X0.07S0
G1 X0.07S800
G1 X1.47S0
G1 X81.55S800
G1 X1.33S0
G1 X0.07S800
G1 X0.07S0
G1 X2.52S800
G1 X0.07S0
G1 X0.07S800
G1 X1.19S0
G1 X0.07S800
G1 X0.07S0
G1 X5.39S800
G1 X1.26S0
G1 X1.75S800
G1 X1.26S0
G1 X51.24S800
G1 X1.4S0
G1 X1.47S800
G1 X0.07S0
G1 X0.07S800
G1 X1.4S0
G1 X0.07S800
G1 X0.07S0
G1 X9.8S800
G1 X1.54S0
G1 X5.81S800
G1 X0.07S0
G1 X0.07S800
G1 X1.33S0
G1 X41.37S800
G0 X3.125
G0 Y0.07
G0 X-3.125
G1 X-41.09
G1 X-1.4S0
G1 X-5.88S800
G1 X-1.54S0
G1 X-9.87S800
G1 X-1.54S0
G1 X-1.54S800
G1 X-1.4S0
G1 X-51.24S800
G1 X-1.26S0
G1 X-1.75S800
G1 X-1.33S0
G1 X-5.39S800
G1 X-1.4S0
G1 X-2.59S800
G1 X-1.4S0
G1 X-81.48S800
G1 X-1.54S0
G1 X-1.54S800
G1 X-1.61S0
G1 X-25.2S800
G1 X-1.4S0
G1 X-0.63S800
G1 X-1.12S0
G1 X-51.8S800
G0 X-3.125
G0 Y0.07
G0 X3.125
G1 X52.08
G1 X1.12S0
G1 X0.7S800
G1 X1.33S0
G1 X25.34S800
G1 X1.54S0
G1 X1.47S800
G1 X1.61S0
G1 X81.48S800
G1 X1.33S0
G1 X2.59S800
G1 X1.4S0
G1 X5.39S800
G1 X1.33S0
G1 X1.75S800
G1 X1.26S0
G1 X51.24S800
G1 X1.4S0
G1 X1.61S800
G1 X1.54S0
G1 X9.87S800
G1 X1.54S0
G1 X5.81S800
G1 X1.47S0
G1 X40.74S800
G0 X3.125
G0 Y0.07
G0 X-3.125
G1 X-40.53
G1 X-1.33S0
G1 X-0.07S800
G1 X-0.07S0
G1 X-5.81S800
G1 X-1.54S0
G1 X-9.87S800
G1 X-1.4S0
G1 X-0.07S800
G1 X-0.07S0
G1 X-1.61S800
G1 X-1.26S0
G1 X-0.07S800
G1 X-0.07S0
G1 X-51.24S800
G1 X-1.33S0
G1 X-1.68S800
G1 X-1.33S0
G1 X-5.46S800
G1 X-1.33S0
G1 X-2.66S800
G1 X-1.33S0
G1 X-81.41S800
G1 X-1.4S0
G1 X-0.07S800
G1 X-0.07S0
G1 X-1.54S800
G1 X-1.47S0
G1 X-0.07S800
G1 X-0.07S0
G1 X-25.27S800
G1 X-1.26S0
G1 X-0.07S800
G1 X-0.07S0
G1 X-0.7S800
G1 X-1.12S0
G1 X-52.22S800
G0 X-3.125
G0 Y0.07
G0 X3.125
G1 X52.43
G1 X1.12S0
G1 X0.84S800
G1 X1.33S0
G1 X25.41S800
G1 X1.54S0
G1 X1.47S800
G1 X1.61S0
G1 X81.34S800
G1 X1.4S0
G1 X2.59S800
G1 X1.4S0
G1 X5.39S800
G1 X1.33S0
G1 X1.75S800
G1 X1.26S0
G1 X51.31S800
G1 X1.33S0
G1 X1.68S800
G1 X1.54S0
G1 X9.8S800
G1 X1.61S0
G1 X5.81S800
G1 X1.47S0
G1 X40.18S800
G0 X3.125
G0 Y0.07
G0 X-3.125
G1 X-39.83
G1 X-1.54S0
G1 X-5.81S800
G1 X-1.47S0
G1 X-9.87S800
G1 X-1.61S0
G1 X-1.68S800
G1 X-1.33S0
G1 X-51.31S800
G1 X-1.26S0
G1 X-1.75S800
G1 X-1.33S0
G1 X-5.39S800
G1 X-1.4S0
G1 X-2.59S800
G1 X-1.4S0
G1 X-81.27S800
G1 X-1.54S0
G1 X-1.54S800
G1 X-1.54S0
G1 X-25.41S800
G1 X-1.4S0
G1 X-0.84S800
G1 X-1.12S0
G1 X-52.71S800
G0 X-3.125
G0 Y0.07
G0 X3.125
G1 X52.85
G1 X1.19S0
G1 X0.84S800
G1 X1.4S0
G1 X25.41S800
G1 X1.54S0
G1 X1.47S800
G1 X0.14S0
G1 X0.07S800
G1 X1.4S0
G1 X81.27S800
G1 X0.07S0
G1 X0.07S800
G1 X1.26S0
G1 X2.59S800
G1 X1.33S0
G1 X5.46S800
G1 X1.33S0
G1 X1.68S800
G1 X1.26S0
G1 X51.38S800
G1 X1.33S0
G1 X1.75S800
G1 X1.47S0
G1 X9.87S800
G1 X1.61S0
G1 X5.74S800
G1 X1.47S0
G1 X39.69S800
G0 X3.125
G0 Y0.07
G0 X-3.125
G1 X-39.34
G1 X-1.47S0
G1 X-5.74S800
G1 X-1.61S0
G1 X-9.87S800
G1 X-1.54S0
G1 X-1.75S800
G1 X-1.33S0
G1 X-51.31S800
G1 X-1.33S0
G1 X-1.68S800
G1 X-1.33S0
G1 X-5.46S800
G1 X-1.33S0
G1 X-2.59S800
G1 X-1.33S0
G1 X-81.27S800
G1 X-1.54S0
G1 X-1.54S800
G1 X-1.61S0
G1 X-25.41S800
G1 X-1.33S0
G1 X-0.98S800
G1 X-1.19S0
G1 X-53.06S800
G0 X-3.125
G0 Y0.07
G0 X3.125
G1 X53.34
G1 X1.19S0
G1 X0.91S800
G1 X1.4S0
G1 X25.55S800
G1 X1.54S0
G1 X1.54S800
G1 X1.54S0
G1 X81.2S800
G1 X1.4S0
G1 X2.52S800
G1 X1.4S0
G1 X5.39S800
G1 X1.33S0
G1 X1.68S800
G1 X1.26S0
G1 X51.38S800
G1 X1.4S0
G1 X1.75S800
G1 X1.54S0
G1 X9.87S800
G1 X1.54S0
G1 X5.81S800
G1 X1.47S0
G1 X38.99S800
G0 X3.125
G0 Y0.07
G0 X-3.125
G1 X-38.85
G1 X-1.4S0
G1 X-5.81S800
G1 X-1.54S0
G1 X-9.87S800
G1 X-1.54S0
G1 X-1.82S800
G1 X-1.4S0
G1 X-51.31S800
G1 X-1.26S0
G1 X-1.75S800
G1 X-1.33S0
G1 X-5.32S800
G1 X-1.4S0
G1 X-2.59S800
G1 X-1.33S0
G1 X-81.2S800
G1 X-1.54S0
G1 X-1.54S800
G1 X-1.61S0
G1 X-25.48S800
G1 X-1.4S0
G1 X-0.98S800
G1 X-1.19S0
G1 X-53.48S800
G0 X-3.125
G0 Y0.07
G0 X3.125
G1 X53.76
G1 X1.19S0
G1 X0.98S800
G1 X1.4S0
G1 X25.62S800
G1 X1.54S0
G1 X1.54S800
G1 X1.54S0
G1 X81.13S800
G1 X1.4S0
G1 X2.52S800
G1 X1.4S0
G1 X5.32S800
G1 X1.33S0
G1 X1.75S800
G1 X1.26S0
G1 X51.38S800
G1 X1.4S0
G1 X1.82S800
G1 X1.54S0
G1 X9.87S800
G1 X1.54S0
G1 X5.81S800
G1 X1.47S0
G1 X38.43S800
G0 X3.125
G0 Y0.07
G0 X-3.125
G1 X-38.15
G1 X-1.47S0
G1 X-5.74S800
G1 X-1.54S0
G1 X-9.87S800
G1 X-1.54S0
G1 X-1.89S800
G1 X-1.4S0
G1 X-51.38S800
G1 X-1.26S0
G1 X-1.75S800
G1 X-1.26S0
G1 X-5.32S800
G1 X-0.07S0
G1 X-0.07S800
G1 X-1.33S0
G1 X-2.52S800
G1 X-1.4S0
G1 X-81.06S800
G1 X-1.54S0
G1 X-1.54S800
G1 X-1.54S0
G1 X-25.62S800
G1 X-1.4S0
G1 X-1.12S800
G1 X-1.19S0
G1 X-53.97S800
G0 X-3.125
G0 Y0.07
G0 X3.125
G1 X54.18
G1 X1.12S0
G1 X1.19S800
G1 X1.33S0
G1 X25.69S800
G1 X1.54S0
G1 X1.54S800
G1 X1.54S0
G1 X81.06S800
G1 X1.33S0
G1 X2.59S800
G1 X1.4S0
G1 X5.32S800
G1 X1.33S0
G1 X1.68S800
G1 X1.33S0
G1 X51.38S800
G1 X1.33S0
G1 X1.89S800
G1 X1.61S0
G1 X9.87S800
G1 X1.54S0
G1 X5.74S800
G1 X1.47S0
G1 X37.94S800
G0 X3.125
G0 Y0.07
G0 X-3.125
G1 X-37.59
G1 X-1.47S0
G1 X-5.74S800
G1 X-1.54S0
G1 X-9.87S800
G1 X-1.54S0
G1 X-2.03S800
G1 X-1.33S0
G1 X-51.38S800
G1 X-1.26S0
G1 X-1.75S800
G1 X-1.33S0
G1 X-5.32S800
G1 X-1.4S0
G1 X-2.52S800
G1 X-1.4S0
G1 X-80.99S800
G1 X-1.54S0
G1 X-1.54S800
G1 X-1.54S0
G1 X-25.69S800
G1 X-1.4S0
G1 X-1.19S800
G1 X-1.12S0
G1 X-54.46S800
G0 X-3.125
G0 Y0.07
G0 X3.125
G1 X54.67
G1 X1.12S0
G1 X1.26S800
G1 X1.33S0
G1 X25.83S800
G1 X1.54S0
G1 X1.54S800
G1 X1.47S0
G1 X81.06S800
G1 X1.33S0
G1 X2.52S800
G1 X1.4S0
G1 X5.32S800
G1 X1.33S0
G1 X1.68S800
G1 X1.26S0
G1 X51.52S800
G1 X1.26S0
G1 X2.03S800
G1 X1.47S0
G1 X9.94S800
G1 X1.54S0
G1 X5.74S800
G1 X1.4S0
G1 X37.38S800
G0 X3.125
G0 Y0.07
G0 X-3.125
G1 X-37.1
G1 X-1.47S0
G1 X-5.67S800
G1 X-1.54S0
G1 X-9.87S800
G1 X-1.61S0
G1 X-1.96S800
G1 X-1.4S0
G1 X-51.45S800
G1 X-1.26S0
G1 X-1.68S800
G1 X-1.33S0
G1 X-5.32S800
G1 X-1.4S0
G1 X-2.52S800
G1 X-1.4S0
G1 X-80.92S800
G1 X-1.61S0
G1 X-1.47S800
G1 X-1.61S0
G1 X-25.69S800
G1 X-1.4S0
G1 X-1.26S800
G1 X-1.19S0
G1 X-54.81S800
G0 X-3.125
G0 Y0.07
G0 X3.125
G1 X55.09
G1 X1.19S0
G1 X1.26S800
G1 X1.4S0
G1 X25.83S800
G1 X1.54S0
G1 X1.54S800
G1 X1.54S0
G1 X80.92S800
G1 X1.4S0
G1 X2.52S800
G1 X1.4S0
G1 X5.25S800
G1 X1.33S0
G1 X1.68S800
G1 X1.26S0
G1 X51.52S800
G1 X1.33S0
G1 X2.03S800
G1 X1.54S0
G1 X9.87S800
G1 X1.61S0
G1 X5.67S800
G1 X1.47S0
G1 X36.75S800
G0 X3.125
G0 Y0.07
G0 X-3.125
G1 X-36.47
G1 X-1.47S0
G1 X-5.67S800
G1 X-0.07S0
G1 X-0.07S800
G1 X-1.4S0
G1 X-9.87S800
G1 X-0.07S0
G1 X-0.07S800
G1 X-1.4S0
G1 X-2.17S800
G1 X-1.26S0
G1 X-51.52S800
G1 X-1.26S0
G1 X-1.68S800
G1 X-1.4S0
G1 X-5.25S800
G1 X-1.33S0
G1 X-2.52S800
G1 X-0.07S0
G1 X-0.07S800
G1 X-1.33S0
G1 X-80.85S800
G1 X-1.47S0
G1 X-1.61S800
G1 X-1.54S0
G1 X-25.83S800
G1 X-0.07S0
G1 X-0.07S800
G1 X-1.19S0
G1 X-1.33S800
G1 X-0.07S0
G1 X-0.07S800
G1 X-1.12S0
G1 X-55.3S800
G0 X-3.125
G0 Y0.07
G0 X3.125
G1 X55.51
G1 X1.19S0
G1 X1.33S800
G1 X1.33S0
G1 X25.97S800
G1 X1.54S0
G1 X1.54S800
G1 X1.54S0
G1 X80.85S800
G1 X1.33S0
G1 X2.59S800
G1 X1.4S0
G1 X5.25S800
G1 X1.26S0
G1 X1.75S800
G1 X1.26S0
G1 X51.45S800
G1 X1.4S0
G1 X2.1S800
G1 X1.54S0
G1 X9.87S800
G1 X1.61S0
G1 X5.67S800
G1 X1.47S0
G1 X36.19S800
G0 X3.125
G0 Y0.07
G0 X-3.125
G1 X-35.91
G1 X-1.47S0
G1 X-5.67S800
G1 X-1.54S0
G1 X-9.87S800
G1 X-1.54S0
G1 X-2.17S800
G1 X-1.4S0
G1 X-51.45S800
G1 X-1.26S0
G1 X-1.68S800
G1 X-1.33S0
G1 X-5.25S800
G1 X-1.4S0
G1 X-2.52S800
G1 X-1.4S0
G1 X-80.78S800
G1 X-1.54S0
G1 X-1.54S800
G1 X-1.54S0
G1 X-25.97S800
G1 X-1.33S0
G1 X-1.47S800
G1 X-1.19S0
G1 X-55.72S800
G0 X-3.125
G0 Y0.07
G0 X3.125
G1 X56
G1 X1.05S0
G1 X0.07S800
G1 X0.07S0
G1 X1.4S800
G1 X1.26S0
G1 X0.07S800
G1 X0.07S0
G1 X25.97S800
G1 X1.47S0
G1 X0.07S800
G1 X0.07S0
G1 X1.4S800
G1 X0.07S0
G1 X0.07S800
G1 X1.47S0
G1 X0.07S800
G1 X0.07S0
G1 X80.64S800
G1 X1.26S0
G1 X0.07S800
G1 X0.07S0
G1 X2.45S800
G1 X1.4S0
G1 X5.18S800
G1 X0.07S0
G1 X0.07S800
G1 X1.26S0
G1 X1.68S800
G1 X1.26S0
G1 X0.07S800
G1 X0.07S0
G1 X51.38S800
G1 X1.33S0
G1 X2.17S800
G1 X0.07S0
G1 X0.07S800
G1 X1.4S0
G1 X0.07S800
G1 X0.07S0
G1 X9.73S800
G1 X0.07S0
G1 X0.07S800
G1 X1.4S0
G1 X0.07S800
G1 X0.07S0
G1 X5.53S800
G1 X0.07S0
G1 X0.07S800
G1 X1.4S0
G1 X35.63S800
G0 X3.125
G0 Y0.07
G0 X-3.125
G1 X-35.35
G1 X-1.47S0
G1 X-5.67S800
G1 X-1.54S0
G1 X-9.87S800
G1 X-1.54S0
G1 X-2.24S800
G1 X-1.33S0
G1 X-51.52S800
G1 X-1.33S0
G1 X-1.61S800
G1 X-1.4S0
G1 X-5.18S800
G1 X-1.4S0
G1 X-2.52S800
G1 X-1.4S0
G1 X-80.64S800
G1 X-1.61S0
G1 X-1.54S800
G1 X-1.61S0
G1 X-26.04S800
G1 X-1.26S0
G1 X-1.54S800
G1 X-1.12S0
G1 X-56.21S800
G0 X-3.125
G0 Y0.07
G0 X3.125
G1 X56.42
G1 X1.19S0
G1 X1.54S800
G1 X1.26S0
G1 X26.18S800
G1 X1.54S0
G1 X1.54S800
G1 X1.61S0
G1 X80.64S800
G1 X1.33S0
G1 X2.52S800
G1 X1.47S0
G1 X5.18S800
G1 X1.33S0
G1 X1.68S800
G1 X1.33S0
G1 X51.45S800
G1 X1.33S0
G1 X2.24S800
G1 X1.61S0
G1 X9.87S800
G1 X1.54S0
G1 X5.6S800
G1 X1.54S0
G1 X35S800
G0 X3.125
G0 Y0.07
G0 X-3.125
G1 X-34.65
G1 X-0.07S0
G1 X-0.07S800
G1 X-1.33S0
G1 X-0.07S800
G1 X-0.07S0
G1 X-5.53S800
G1 X-0.07S0
G1 X-0.07S800
G1 X-1.47S0
G1 X-0.07S800
G1 X-0.07S0
G1 X-9.66S800
G1 X-0.07S0
G1 X-0.07S800
G1 X-1.4S0
G1 X-0.07S800
G1 X-0.07S0
G1 X-2.17S800
G1 X-0.07S0
G1 X-0.07S800
G1 X-1.33S0
G1 X-51.52S800
G1 X-1.19S0
G1 X-0.07S800
G1 X-0.07S0
G1 X-1.61S800
G1 X-1.4S0
G1 X-5.18S800
G1 X-1.33S0
G1 X-2.45S800
G1 X-0.07S0
G1 X-0.07S800
G1 X-1.33S0
G1 X-80.5S800
G1 X-0.07S0
G1 X-0.07S800
G1 X-1.47S0
G1 X-0.07S800
G1 X-0.07S0
G1 X-1.47S800
G1 X-1.54S0
G1 X-0.07S800
G1 X-0.07S0
G1 X-25.97S800
G1 X-0.07S0
G1 X-0.07S800
G1 X-1.19S0
G1 X-0.07S800
G1 X-0.07S0
G1 X-1.54S800
G1 X-1.12S0
G1 X-56.63S800
G0 X-3.125
G0 Y0.07
G0 X3.125
G1 X56.84
G1 X1.19S0
G1 X1.54S800
G1 X1.33S0
G1 X26.25S800
G1 X1.54S0
G1 X1.54S800
G1 X1.61S0
G1 X80.5S800
G1 X1.4S0
G1 X2.59S800
G1 X1.4S0
G1 X5.11S800
G1 X1.4S0
G1 X1.61S800
G1 X1.33S0
G1 X51.52S800
G1 X1.33S0
G1 X2.31S800
G1 X1.61S0
G1 X9.87S800
G1 X1.54S0
G1 X5.6S800
G1 X1.54S0
G1 X34.44S800
G0 X3.125
G0 Y0.07
G0 X-3.125
G1 X-34.09
G1 X-1.54S0
G1 X-5.6S800
G1 X-1.61S0
G1 X-9.8S800
G1 X-1.54S0
G1 X-2.38S800
G1 X-1.4S0
G1 X-51.45S800
G1 X-1.4S0
G1 X-1.61S800
G1 X-1.4S0
G1 X-5.11S800
G1 X-1.4S0
G1 X-2.59S800
G1 X-1.33S0
G1 X-80.43S800
G1 X-1.61S0
G1 X-1.61S800
G1 X-1.54S0
G1 X-26.25S800
G1 X-1.33S0
G1 X-1.61S800
G1 X-1.19S0
G1 X-57.12S800
G0 X-3.125
G0 Y0.07
G0 X3.125
G1 X57.26
G1 X1.19S0
G1 X1.61S800
G1 X0.07S0
G1 X0.07S800
G1 X1.19S0
G1 X26.32S800
G1 X0.07S0
G1 X0.07S800
G1 X1.47S0
G1 X1.47S800
G1 X0.07S0
G1 X0.07S800
G1 X1.54S0
G1 X80.43S800
G1 X1.33S0
G1 X2.52S800
G1 X1.4S0
G1 X5.18S800
G1 X1.4S0
G1 X1.61S800
G1 X1.33S0
G1 X51.45S800
G1 X0.07S0
G1 X0.07S800
G1 X1.26S0
G1 X2.38S800
G1 X0.07S0
G1 X0.07S800
G1 X1.47S0
G1 X9.8S800
G1 X0.07S0
G1 X0.07S800
G1 X1.4S0
G1 X5.67S800
G1 X1.54S0
G1 X33.88S800
G0 X3.125
G0 Y0.07
G0 X-3.125
G1 X-33.53
G1 X-1.54S0
G1 X-5.6S800
G1 X-1.61S0
G1 X-9.8S800
G1 X-1.54S0
G1 X-2.45S800
G1 X-1.4S0
G1 X-51.45S800
G1 X-1.4S0
G1 X-1.61S800
G1 X-1.4S0
G1 X-5.11S800
G1 X-1.4S0
G1 X-2.52S800
G1 X-1.4S0
G1 X-80.36S800
G1 X-1.61S0
G1 X-1.61S800
G1 X-1.54S0
G1 X-26.39S800
G1 X-1.33S0
G1 X-1.61S800
G1 X-1.19S0
G1 X-57.54S800
G0 X-3.125
G0 Y0.07
G0 X3.125
G1 X57.75
G1 X1.19S0
G1 X1.68S800
G1 X1.4S0
G1 X26.39S800
G1 X1.61S0
G1 X1.54S800
G1 X1.68S0
G1 X80.22S800
G1 X1.4S0
G1 X2.52S800
G1 X1.4S0
G1 X5.11S800
G1 X1.4S0
G1 X1.61S800
G1 X1.33S0
G1 X51.52S800
G1 X1.4S0
G1 X2.45S800
G1 X1.61S0
G1 X9.8S800
G1 X1.61S0
G1 X5.6S800
G1 X1.54S0
G1 X33.18S800
G0 X3.125
G0 Y0.07
G0 X-3.125
G1 X-32.97
G1 X-1.54S0
G1 X-5.6S800
G1 X-1.61S0
G1 X-9.8S800
G1 X-1.47S0
G1 X-0.07S800
G1 X-0.07S0
G1 X-2.45S800
G1 X-1.4S0
G1 X-51.52S800
G1 X-1.33S0
G1 X-1.61S800
G1 X-1.4S0
G1 X-5.11S800
G1 X-1.4S0
G1 X-2.52S800
G1 X-1.4S0
G1 X-80.29S800
G1 X-1.61S0
G1 X-1.54S800
G1 X-1.61S0
G1 X-26.46S800
G1 X-1.33S0
G1 X-1.68S800
G1 X-1.26S0
G1 X-57.89S800
G0 X-3.125
G0 Y0.07
G0 X3.125
G1 X58.24
G1 X1.12S0
G1 X1.75S800
G1 X1.33S0
G1 X26.53S800
G1 X1.61S0
G1 X1.61S800
G1 X1.61S0
G1 X80.15S800
G1 X1.4S0
G1 X2.52S800
G1 X1.47S0
G1 X5.04S800
G1 X1.4S0
G1 X1.61S800
G1 X1.33S0
G1 X51.59S800
G1 X1.4S0
G1 X2.45S800
G1 X1.61S0
G1 X9.8S800
G1 X1.61S0
G1 X5.6S800
G1 X1.54S0
G1 X32.62S800
G0 X3.125
G0 Y0.07
G0 X-3.125
G1 X-32.27
G1 X-1.54S0
G1 X-5.6S800
G1 X-1.61S0
G1 X-9.8S800
G1 X-1.54S0
G1 X-2.59S800
G1 X-1.4S0
G1 X-51.59S800
G1 X-1.26S0
G1 X-1.68S800
G1 X-1.33S0
G1 X-5.11S800
G1 X-1.4S0
G1 X-2.59S800
G1 X-1.4S0
G1 X-80.08S800
G1 X-1.68S0
G1 X-1.54S800
G1 X-1.61S0
G1 X-26.6S800
G1 X-1.33S0
G1 X-1.75S800
G1 X-1.19S0
G1 X-58.45S800
G0 X-3.125
G0 Y0.07
G0 X3.125
G1 X58.66
G1 X1.19S0
G1 X1.75S800
G1 X1.33S0
G1 X26.6S800
G1 X1.61S0
G1 X1.61S800
G1 X1.61S0
G1 X80.08S800
G1 X1.4S0
G1 X2.52S800
G1 X1.4S0
G1 X5.11S800
G1 X1.4S0
G1 X1.61S800
G1 X1.33S0
G1 X51.52S800
G1 X1.47S0
G1 X2.52S800
G1 X1.61S0
G1 X9.73S800
G1 X1.68S0
G1 X5.6S800
G1 X1.47S0
G1 X32.13S800
G0 X3.125
G0 Y0.07
G0 X-3.125
G1 X-31.71
G1 X-1.54S0
G1 X-5.6S800
G1 X-1.61S0
G1 X-9.8S800
G1 X-1.61S0
G1 X-2.59S800
G1 X-1.4S0
G1 X-51.59S800
G1 X-1.26S0
G1 X-1.68S800
G1 X-1.33S0
G1 X-5.11S800
G1 X-1.47S0
G1 X-2.52S800
G1 X-1.33S0
G1 X-80.08S800
G1 X-1.61S0
G1 X-1.61S800
G1 X-1.54S0
G1 X-26.74S800
G1 X-1.33S0
G1 X-1.82S800
G1 X-1.19S0
G1 X-58.87S800
G0 X-3.125
G0 Y0.07
G0 X3.125
G1 X59.15
G1 X1.19S0
G1 X1.82S800
G1 X1.33S0
G1 X26.81S800
G1 X1.54S0
G1 X1.61S800
G1 X1.61S0
G1 X80.01S800
G1 X1.4S0
G1 X2.52S800
G1 X1.4S0
G1 X5.11S800
G1 X1.33S0
G1 X1.61S800
G1 X1.33S0
G1 X51.66S800
G1 X1.4S0
G1 X2.59S800
G1 X1.54S0
G1 X9.87S800
G1 X1.61S0
G1 X5.6S800
G1 X1.47S0
G1 X31.43S800
G0 X3.125
G0 Y0.07
G0 X-3.125
G1 X-31.15
G1 X-1.61S0
G1 X-5.46S800
G1 X-1.68S0
G1 X-9.8S800
G1 X-1.61S0
G1 X-2.66S800
G1 X-1.4S0
G1 X-51.59S800
G1 X-1.33S0
G1 X-1.61S800
G1 X-1.4S0
G1 X-5.04S800
G1 X-1.4S0
G1 X-2.59S800
G1 X-1.33S0
G1 X-80.01S800
G1 X-1.61S0
G1 X-1.61S800
G1 X-1.61S0
G1 X-26.81S800
G1 X-1.26S0
G1 X-1.89S800
G1 X-1.19S0
G1 X-59.29S800
G0 X-3.125
G0 Y0.07
G0 X3.125
G1 X59.57
G1 X1.19S0
G1 X1.89S800
G1 X1.26S0
G1 X26.95S800
G1 X1.54S0
G1 X1.61S800
G1 X1.68S0
G1 X79.87S800
G1 X1.4S0
G1 X2.52S800
G1 X1.4S0
G1 X5.04S800
G1 X1.4S0
G1 X1.61S800
G1 X1.33S0
G1 X51.66S800
G1 X1.4S0
G1 X2.66S800
G1 X1.61S0
G1 X9.87S800
G1 X1.61S0
G1 X5.53S800
G1 X1.54S0
G1 X30.8S800
G0 X3.125
G0 Y0.07
G0 X-3.125
G1 X-30.45
G1 X-0.07S0
G1 X-0.07S800
G1 X-1.47S0
G1 X-5.53S800
G1 X-1.61S0
G1 X-9.8S800
G1 X-0.07S0
G1 X-0.07S800
G1 X-1.47S0
G1 X-2.73S800
G1 X-1.4S0
G1 X-51.66S800
G1 X-1.33S0
G1 X-1.61S800
G1 X-1.4S0
G1 X-5.04S800
G1 X-1.4S0
G1 X-2.59S800
G1 X-1.33S0
G1 X-79.8S800
G1 X-0.07S0
G1 X-0.07S800
G1 X-1.54S0
G1 X-1.61S800
G1 X-1.54S0
G1 X-27.02S800
G1 X-1.26S0
G1 X-1.96S800
G1 X-1.12S0
G1 X-59.85S800
G0 X-3.125
G0 Y0.07
G0 X3.125
G1 X59.99
G1 X1.19S0
G1 X1.89S800
G1 X1.33S0
G1 X27.02S800
G1 X1.61S0
G1 X1.61S800
G1 X1.61S0
G1 X79.8S800
G1 X1.33S0
G1 X2.59S800
G1 X1.4S0
G1 X5.04S800
G1 X1.4S0
G1 X1.61S800
G1 X1.33S0
G1 X51.66S800
G1 X1.4S0
G1 X2.73S800
G1 X1.61S0
G1 X9.8S800
G1 X1.68S0
G1 X5.53S800
G1 X1.47S0
G1 X30.31S800
G0 X3.125
G0 Y0.07
G0 X-3.125
G1 X-29.89
G1 X-1.54S0
G1 X-5.53S800
G1 X-1.61S0
G1 X-9.87S800
G1 X-1.61S0
G1 X-2.73S800
G1 X-1.4S0
G1 X-51.66S800
G1 X-1.4S0
G1 X-1.61S800
G1 X-1.4S0
G1 X-4.97S800
G1 X-1.47S0
G1 X-2.52S800
G1 X-1.4S0
G1 X-79.73S800
G1 X-1.61S0
G1 X-1.61S800
G1 X-1.61S0
G1 X-27.09S800
G1 X-1.33S0
G1 X-1.89S800
G1 X-1.19S0
G1 X-60.27S800
G0 X-3.125
G0 Y0.07
G0 X3.125
G1 X60.48
G1 X1.12S0
G1 X0.07S800
G1 X0.07S0
G1 X1.89S800
G1 X1.26S0
G1 X27.16S800
G1 X1.61S0
G1 X1.61S800
G1 X1.54S0
G1 X0.07S800
G1 X0.07S0
G1 X79.66S800
G1 X1.33S0
G1 X0.07S800
G1 X0.07S0
G1 X2.52S800
G1 X1.47S0
G1 X4.97S800
G1 X1.33S0
G1 X1.61S800
G1 X1.26S0
G1 X0.07S800
G1 X0.07S0
G1 X51.59S800
G1 X1.4S0
G1 X2.8S800
G1 X1.54S0
G1 X0.07S800
G1 X0.07S0
G1 X9.8S800
G1 X1.68S0
G1 X5.46S800
G1 X1.47S0
G1 X29.68S800
G0 X3.125
G0 Y0.07
G0 X-3.125
G1 X-29.33
G1 X-1.61S0
G1 X-5.46S800
G1 X-1.61S0
G1 X-9.94S800
G1 X-1.54S0
G1 X-2.8S800
G1 X-1.47S0
G1 X-51.66S800
G1 X-1.33S0
G1 X-1.61S800
G1 X-1.4S0
G1 X-4.97S800
G1 X-1.47S0
G1 X-2.52S800
G1 X-1.33S0
G1 X-79.73S800
G1 X-1.61S0
G1 X-1.61S800
G1 X-1.61S0
G1 X-27.23S800
G1 X-1.26S0
G1 X-1.96S800
G1 X-1.19S0
G1 X-60.69S800
G0 X-3.125
G0 Y0.07
G0 X3.125
G1 X60.97
G1 X1.19S0
G1 X1.96S800
G1 X1.26S0
G1 X27.3S800
G1 X1.61S0
G1 X1.61S800
G1 X1.61S0
G1 X79.66S800
G1 X1.4S0
G1 X2.52S800
G1 X1.4S0
G1 X5.04S800
G1 X1.33S0
G1 X1.61S800
G1 X1.33S0
G1 X51.73S800
G1 X1.4S0
G1 X2.87S800
G1 X1.61S0
G1 X9.87S800
G1 X1.68S0
G1 X5.39S800
G1 X1.54S0
G1 X29.05S800
G0 X3.125
G0 Y0.07
G0 X-3.125
G1 X-28.77
G1 X-1.54S0
G1 X-5.39S800
G1 X-1.68S0
G1 X-9.87S800
G1 X-0.07S0
G1 X-0.07S800
G1 X-1.4S0
G1 X-2.87S800
G1 X-0.07S0
G1 X-0.07S800
G1 X-1.33S0
G1 X-51.66S800
G1 X-0.07S0
G1 X-0.07S800
G1 X-1.26S0
G1 X-1.61S800
G1 X-1.4S0
G1 X-4.97S800
G1 X-1.47S0
G1 X-2.45S800
G1 X-0.07S0
G1 X-0.07S800
G1 X-1.26S0
G1 X-0.07S800
G1 X-0.07S0
G1 X-79.38S800
G1 X-0.07S0
G1 X-0.07S800
G1 X-1.54S0
G1 X-1.61S800
G1 X-0.07S0
G1 X-0.07S800
G1 X-1.4S0
G1 X-0.07S800
G1 X-0.07S0
G1 X-27.37S800
G1 X-1.19S0
G1 X-2.03S800
G1 X-1.19S0
G1 X-61.18S800
G0 X-3.125
G0 Y0.07
G0 X3.125
G1 X61.39
G1 X1.19S0
G1 X2.03S800
G1 X1.26S0
G1 X27.37S800
G1 X1.61S0
G1 X1.61S800
G1 X1.68S0
G1 X79.52S800
G1 X1.4S0
G1 X2.52S800
G1 X1.47S0
G1 X4.97S800
G1 X1.33S0
G1 X1.61S800
G1 X1.33S0
G1 X51.8S800
G1 X1.33S0
G1 X2.94S800
G1 X1.61S0
G1 X9.94S800
G1 X1.61S0
G1 X5.39S800
G1 X1.54S0
G1 X28.49S800
G0 X3.125
G0 Y0.07
G0 X-3.125
G1 X-28.14
G1 X-1.68S0
G1 X-5.18S800
G1 X-1.68S0
G1 X-9.94S800
G1 X-1.61S0
G1 X-2.94S800
G1 X-1.4S0
G1 X-51.8S800
G1 X-1.33S0
G1 X-1.54S800
G1 X-1.4S0
G1 X-4.97S800
G1 X-1.47S0
G1 X-2.45S800
G1 X-1.47S0
G1 X-79.45S800
G1 X-1.61S0
G1 X-1.61S800
G1 X-1.61S0
G1 X-27.51S800
G1 X-1.26S0
G1 X-2.03S800
G1 X-1.26S0
G1 X-61.6S800
G0 X-3.125
G0 Y0.07
G0 X3.125
G1 X61.88
G1 X1.19S0
G1 X1.96S800
G1 X0.07S0
G1 X0.07S800
G1 X1.12S0
G1 X0.07S800
G1 X0.07S0
G1 X27.44S800
G1 X0.07S0
G1 X0.07S800
G1 X1.4S0
G1 X1.68S800
G1 X0.07S0
G1 X0.07S800
G1 X1.47S0
G1 X0.07S800
G1 X0.07S0
G1 X79.31S800
G1 X0.07S0
G1 X0.07S800
G1 X1.26S0
G1 X0.07S800
G1 X0.07S0
G1 X2.52S800
G1 X1.33S0
G1 X0.07S800
G1 X0.07S0
G1 X4.76S800
G1 X0.07S0
G1 X0.07S800
G1 X1.26S0
G1 X0.07S800
G1 X0.07S0
G1 X1.54S800
G1 X1.26S0
G1 X51.73S800
G1 X0.07S0
G1 X0.07S800
G1 X1.33S0
G1 X2.94S800
G1 X0.07S0
G1 X0.07S800
G1 X1.47S0
G1 X0.07S800
G1 X0.07S0
G1 X9.8S800
G1 X0.07S0
G1 X0.07S800
G1 X1.47S0
G1 X0.07S800
G1 X0.07S0
G1 X4.76S800
G1 X1.96S0
G1 X0.07S800
G1 X0.07S0
G1 X27.86S800
G0 X3.125
G0 Y0.07
G0 X-3.125
G1 X-27.58
G1 X-1.54S0
G1 X-0.35S800
G1 X-0.63S0
G1 X-4.34S800
G1 X-1.68S0
G1 X-9.94S800
G1 X-1.61S0
G1 X-3.01S800
G1 X-1.4S0
G1 X-51.8S800
G1 X-1.33S0
G1 X-1.61S800
G1 X-1.4S0
G1 X-4.83S800
G1 X-1.47S0
G1 X-2.52S800
G1 X-1.47S0
G1 X-79.38S800
G1 X-1.61S0
G1 X-1.61S800
G1 X-1.61S0
G1 X-27.65S800
G1 X-1.26S0
G1 X-2.03S800
G1 X-1.19S0
G1 X-62.09S800
G0 X-3.125
G0 Y0.07
G0 X3.125
G1 X62.37
G1 X1.19S0
G1 X2.03S800
G1 X1.26S0
G1 X27.72S800
G1 X1.61S0
G1 X1.68S800
G1 X1.54S0
G1 X79.38S800
G1 X1.47S0
G1 X2.45S800
G1 X1.47S0
G1 X4.9S800
G1 X1.33S0
G1 X1.61S800
G1 X1.33S0
G1 X51.87S800
G1 X1.4S0
G1 X3.01S800
G1 X1.61S0
G1 X9.94S800
G1 X1.68S0
G1 X3.85S800
G1 X0.7S0
G1 X0.77S800
G1 X1.47S0
G1 X27.3S800
G0 X3.125
G0 Y0.07
G0 X-3.125
G1 X-27.09
G1 X-1.33S0
G1 X-0.07S800
G1 X-0.07S0
G1 X-1.05S800
G1 X-0.7S0
G1 X-3.57S800
G1 X-1.54S0
G1 X-0.07S800
G1 X-0.07S0
G1 X-9.8S800
G1 X-0.07S0
G1 X-0.07S800
G1 X-1.54S0
G1 X-3.15S800
G1 X-1.26S0
G1 X-0.07S800
G1 X-0.07S0
G1 X-51.8S800
G1 X-1.19S0
G1 X-0.07S800
G1 X-0.07S0
G1 X-1.47S800
G1 X-0.07S0
G1 X-0.07S800
G1 X-1.26S0
G1 X-0.07S800
G1 X-0.07S0
G1 X-4.83S800
G1 X-1.33S0
G1 X-0.07S800
G1 X-0.07S0
G1 X-2.38S800
G1 X-0.07S0
G1 X-0.07S800
G1 X-1.33S0
G1 X-0.07S800
G1 X-0.07S0
G1 X-63.91S800
G1 X-0.07S0
G1 X-0.14S800
G1 X-0.91S0
G1 X-0.14S800
G1 X-0.07S0
G1 X-14S800
G1 X-1.54S0
G1 X-0.07S800
G1 X-0.07S0
G1 X-1.61S800
G1 X-1.47S0
G1 X-0.07S800
G1 X-0.07S0
G1 X-27.79S800
G1 X-1.19S0
G1 X-2.1S800
G1 X-1.19S0
G1 X-62.51S800
G0 X-3.125
G0 Y0.07
G0 X3.125
G1 X62.79
G1 X1.19S0
G1 X2.03S800
G1 X1.33S0
G1 X27.79S800
G1 X1.61S0
G1 X1.68S800
G1 X1.61S0
G1 X13.3S800
G1 X1.96S0
G1 X64.05S800
G1 X1.4S0
G1 X2.52S800
G1 X1.4S0
G1 X4.9S800
G1 X1.33S0
G1 X1.61S800
G1 X1.4S0
G1 X51.73S800
G1 X1.47S0
G1 X3.08S800
G1 X1.61S0
G1 X9.94S800
G1 X1.75S0
G1 X2.94S800
G1 X0.77S0
G1 X1.54S800
G1 X1.47S0
G1 X26.74S800
G0 X3.125
G0 Y0.07
G0 X-3.125
G1 X-26.39
G1 X-1.54S0
G1 X-1.96S800
G1 X-0.77S0
G1 X-2.45S800
G1 X-1.68S0
G1 X-10.01S800
G1 X-1.61S0
G1 X-3.08S800
G1 X-1.47S0
G1 X-51.8S800
G1 X-1.4S0
G1 X-1.54S800
G1 X-1.4S0
G1 X-4.83S800
G1 X-1.47S0
G1 X-2.45S800
G1 X-1.47S0
G1 X-63.98S800
G1 X-2.66S0
G1 X-12.6S800
G1 X-1.61S0
G1 X-1.68S800
G1 X-1.61S0
G1 X-27.93S800
G1 X-1.19S0
G1 X-2.1S800
G1 X-1.19S0
G1 X-63.07S800
G0 X-3.125
G0 Y0.07
G0 X3.125
G1 X63.21
G1 X1.26S0
G1 X2.03S800
G1 X0.07S0
G1 X0.07S800
G1 X1.12S0
G1 X27.93S800
G1 X0.14S0
G1 X0.07S800
G1 X1.4S0
G1 X0.14S800
G1 X0.07S0
G1 X1.47S800
G1 X1.61S0
G1 X12.25S800
G1 X2.94S0
G1 X63.98S800
G1 X1.47S0
G1 X2.52S800
G1 X1.47S0
G1 X4.83S800
G1 X1.33S0
G1 X1.61S800
G1 X1.33S0
G1 X51.87S800
G1 X1.4S0
G1 X3.15S800
G1 X0.07S0
G1 X0.07S800
G1 X1.47S0
G1 X10.01S800
G1 X0.07S0
G1 X0.07S800
G1 X1.47S0
G1 X2.17S800
G1 X0.77S0
G1 X2.38S800
G1 X1.47S0
G1 X26.18S800
G0 X3.125
G0 Y0.07
G0 X-3.125
G1 X-25.9
G1 X-1.47S0
G1 X-2.73S800
G1 X-0.91S0
G1 X-1.54S800
G1 X-1.68S0
G1 X-10.01S800
G1 X-1.61S0
G1 X-3.15S800
G1 X-1.4S0
G1 X-51.87S800
G1 X-1.4S0
G1 X-1.54S800
G1 X-1.4S0
G1 X-4.83S800
G1 X-1.47S0
G1 X-2.45S800
G1 X-1.47S0
G1 X-63.91S800
G1 X-3.64S0
G1 X-11.62S800
G1 X-1.61S0
G1 X-1.68S800
G1 X-1.61S0
G1 X-28S800
G1 X-1.26S0
G1 X-2.1S800
G1 X-1.19S0
G1 X-63.49S800
G0 X-3.125
G0 Y0.07
G0 X3.125
G1 X63.77
G1 X1.19S0
G1 X2.1S800
G1 X1.19S0
G1 X28.21S800
G1 X1.54S0
G1 X1.68S800
G1 X1.68S0
G1 X11.06S800
G1 X1.33S0
G1 X1.19S800
G1 X1.61S0
G1 X63.91S800
G1 X1.4S0
G1 X2.52S800
G1 X1.47S0
G1 X4.76S800
G1 X1.4S0
G1 X1.54S800
G1 X1.4S0
G1 X51.87S800
G1 X1.47S0
G1 X3.15S800
G1 X1.68S0
G1 X9.94S800
G1 X1.68S0
G1 X0.91S800
G1 X0.98S0
G1 X3.29S800
G1 X1.47S0
G1 X25.55S800
G0 X3.125
G0 Y0.07
G0 X-3.125
G1 X-25.34
G1 X-1.47S0
G1 X-3.57S800
G1 X-1.05S0
G1 X-0.56S800
G1 X-1.47S0
G1 X-0.07S800
G1 X-0.14S0
G1 X-10.01S800
G1 X-1.61S0
G1 X-3.22S800
G1 X-1.47S0
G1 X-51.8S800
G1 X-1.4S0
G1 X-1.54S800
G1 X-1.4S0
G1 X-4.83S800
G1 X-1.4S0
G1 X-2.52S800
G1 X-1.47S0
G1 X-63.84S800
G1 X-1.54S0
G1 X-1.68S800
G1 X-1.12S0
G1 X-10.85S800
G1 X-1.68S0
G1 X-1.61S800
G1 X-1.47S0
G1 X-0.07S800
G1 X-0.14S0
G1 X-28.14S800
G1 X-1.26S0
G1 X-2.1S800
G1 X-1.19S0
G1 X-63.91S800
G0 X-3.125
G0 Y0.07
G0 X3.125
G1 X64.19
G1 X1.19S0
G1 X2.1S800
G1 X1.19S0
G1 X28.35S800
G1 X1.61S0
G1 X1.68S800
G1 X1.61S0
G1 X10.5S800
G1 X1.4S0
G1 X1.75S800
G1 X1.54S0
G1 X63.84S800
G1 X1.47S0
G1 X2.45S800
G1 X1.47S0
G1 X4.76S800
G1 X1.4S0
G1 X1.61S800
G1 X1.33S0
G1 X51.87S800
G1 X1.47S0
G1 X3.22S800
G1 X1.68S0
G1 X10.01S800
G1 X2.66S0
G1 X4.13S800
G1 X1.47S0
G1 X24.99S800
G0 X3.125
G0 Y0.07
G0 X-3.125
G1 X-24.64
G1 X-1.47S0
G1 X-4.69S800
G1 X-2.1S0
G1 X-10.01S800
G1 X-1.68S0
G1 X-3.22S800
G1 X-1.47S0
G1 X-51.87S800
G1 X-1.4S0
G1 X-1.54S800
G1 X-1.47S0
G1 X-4.76S800
G1 X-1.4S0
G1 X-2.52S800
G1 X-1.4S0
G1 X-63.77S800
G1 X-1.68S0
G1 X-1.68S800
G1 X-1.47S0
G1 X-10.36S800
G1 X-1.68S0
G1 X-1.68S800
G1 X-1.61S0
G1 X-28.42S800
G1 X-1.19S0
G1 X-2.1S800
G1 X-1.19S0
G1 X-64.47S800
G0 X-3.125
G0 Y0.07
G0 X3.125
G1 X64.61
G1 X1.19S0
G1 X2.1S800
G1 X1.26S0
G1 X28.42S800
G1 X1.61S0
G1 X1.68S800
G1 X1.68S0
G1 X10.36S800
G1 X1.47S0
G1 X1.68S800
G1 X1.75S0
G1 X63.63S800
G1 X1.47S0
G1 X2.52S800
G1 X1.4S0
G1 X4.76S800
G1 X1.4S0
G1 X1.54S800
G1 X1.4S0
G1 X51.87S800
G1 X1.47S0
G1 X3.36S800
G1 X1.61S0
G1 X9.94S800
G1 X1.89S0
G1 X4.9S800
G1 X1.47S0
G1 X24.5S800
G0 X3.125
G0 Y0.07
G0 X-3.125
G1 X-24.08
G1 X-1.54S0
G1 X-5.25S800
G1 X-1.47S0
G1 X-10.01S800
G1 X-1.68S0
G1 X-3.29S800
G1 X-1.47S0
G1 X-51.94S800
G1 X-1.33S0
G1 X-1.54S800
G1 X-1.47S0
G1 X-4.69S800
G1 X-1.47S0
G1 X-2.45S800
G1 X-1.47S0
G1 X-63.63S800
G1 X-1.68S0
G1 X-1.75S800
G1 X-1.47S0
G1 X-10.29S800
G1 X-1.68S0
G1 X-1.75S800
G1 X-1.61S0
G1 X-28.49S800
G1 X-1.26S0
G1 X-2.03S800
G1 X-1.26S0
G1 X-64.89S800
G0 X-3.125
G0 Y0.07
G0 X3.125
G1 X65.17
G1 X1.26S0
G1 X2.03S800
G1 X1.26S0
G1 X28.56S800
G1 X1.68S0
G1 X1.68S800
G1 X1.61S0
G1 X10.29S800
G1 X1.47S0
G1 X1.82S800
G1 X1.61S0
G1 X63.7S800
G1 X1.4S0
G1 X2.45S800
G1 X1.47S0
G1 X4.76S800
G1 X1.4S0
G1 X1.54S800
G1 X1.4S0
G1 X51.94S800
G1 X1.47S0
G1 X3.36S800
G1 X1.61S0
G1 X10.01S800
G1 X1.4S0
G1 X5.32S800
G1 X1.47S0
G1 X23.8S800
G0 X3.125
G0 Y0.07
G0 X-3.125
G1 X-23.59
G1 X-1.47S0
G1 X-5.32S800
G1 X-1.4S0
G1 X-10.01S800
G1 X-1.61S0
G1 X-3.36S800
G1 X-1.54S0
G1 X-51.87S800
G1 X-1.4S0
G1 X-1.61S800
G1 X-1.4S0
G1 X-4.69S800
G1 X-1.47S0
G1 X-2.45S800
G1 X-1.47S0
G1 X-63.56S800
G1 X-1.68S0
G1 X-1.89S800
G1 X-1.4S0
G1 X-10.22S800
G1 X-1.68S0
G1 X-1.68S800
G1 X-1.68S0
G1 X-28.63S800
G1 X-1.26S0
G1 X-2.03S800
G1 X-1.26S0
G1 X-65.31S800
G0 X-3.125
G0 Y0.07
G0 X3.125
G1 X65.59
G1 X1.26S0
G1 X2.03S800
G1 X1.26S0
G1 X28.77S800
G1 X1.61S0
G1 X1.75S800
G1 X1.68S0
G1 X10.08S800
G1 X1.47S0
G1 X1.96S800
G1 X1.68S0
G1 X63.49S800
G1 X1.47S0
G1 X2.45S800
G1 X1.4S0
G1 X4.76S800
G1 X1.4S0
G1 X1.61S800
G1 X1.33S0
G1 X52.01S800
G1 X1.4S0
G1 X3.43S800
G1 X1.61S0
G1 X9.94S800
G1 X1.4S0
G1 X5.39S800
G1 X1.47S0
G1 X23.24S800
G0 X3.125
G0 Y0.07
G0 X-3.125
G1 X-22.89
G1 X-0.07S0
G1 X-0.07S800
G1 X-1.4S0
G1 X-5.39S800
G1 X-1.4S0
G1 X-9.8S800
G1 X-0.07S0
G1 X-0.07S800
G1 X-1.54S0
G1 X-3.5S800
G1 X-1.4S0
G1 X-51.94S800
G1 X-0.07S0
G1 X-0.07S800
G1 X-1.26S0
G1 X-1.61S800
G1 X-1.4S0
G1 X-4.69S800
G1 X-1.47S0
G1 X-2.52S800
G1 X-1.4S0
G1 X-63.42S800
G1 X-0.07S0
G1 X-0.07S800
G1 X-1.54S0
G1 X-2.03S800
G1 X-1.47S0
G1 X-10.01S800
G1 X-0.07S0
G1 X-0.07S800
G1 X-1.54S0
G1 X-1.68S800
G1 X-1.68S0
G1 X-28.91S800
G1 X-1.19S0
G1 X-2.03S800
G1 X-1.33S0
G1 X-65.8S800
G0 X-3.125
G0 Y0.07
G0 X3.125
G1 X66.01
G1 X1.26S0
G1 X2.1S800
G1 X1.19S0
G1 X28.91S800
G1 X1.61S0
G1 X1.75S800
G1 X1.68S0
G1 X10.08S800
G1 X1.4S0
G1 X2.03S800
G1 X1.68S0
G1 X63.49S800
G1 X1.4S0
G1 X2.45S800
G1 X1.47S0
G1 X4.69S800
G1 X1.4S0
G1 X1.54S800
G1 X1.4S0
G1 X52.01S800
G1 X1.47S0
G1 X3.43S800
G1 X1.61S0
G1 X9.87S800
G1 X1.33S0
G1 X5.46S800
G1 X1.54S0
G1 X22.68S800
G0 X3.125
G0 Y0.07
G0 X-3.125
G1 X-22.4
G1 X-1.47S0
G1 X-5.53S800
G1 X-1.33S0
G1 X-9.73S800
G1 X-1.68S0
G1 X-3.5S800
G1 X-1.4S0
G1 X-52.08S800
G1 X-1.33S0
G1 X-1.54S800
G1 X-1.47S0
G1 X-4.62S800
G1 X-1.54S0
G1 X-2.38S800
G1 X-1.47S0
G1 X-63.42S800
G1 X-1.61S0
G1 X-2.1S800
G1 X-1.47S0
G1 X-9.94S800
G1 X-1.75S0
G1 X-1.68S800
G1 X-1.61S0
G1 X-29.05S800
G1 X-1.19S0
G1 X-2.1S800
G1 X-1.19S0
G1 X-66.36S800
G0 X-3.125
G0 Y0.07
G0 X3.125
G1 X66.64
G1 X1.12S0
G1 X2.1S800
G1 X1.12S0
G1 X0.07S800
G1 X0.07S0
G1 X29.12S800
G1 X1.61S0
G1 X1.68S800
G1 X1.54S0
G1 X0.07S800
G1 X0.07S0
G1 X9.94S800
G1 X1.4S0
G1 X0.07S800
G1 X0.07S0
G1 X1.96S800
G1 X0.07S0
G1 X0.07S800
G1 X1.47S0
G1 X0.07S800
G1 X0.07S0
G1 X63.35S800
G1 X1.4S0
G1 X0.07S800
G1 X0.07S0
G1 X2.38S800
G1 X1.4S0
G1 X4.76S800
G1 X1.26S0
G1 X0.07S800
G1 X0.07S0
G1 X1.54S800
G1 X1.33S0
G1 X52.08S800
G1 X1.4S0
G1 X3.57S800
G1 X1.47S0
G1 X0.07S800
G1 X0.07S0
G1 X9.73S800
G1 X1.33S0
G1 X5.6S800
G1 X1.4S0
G1 X22.12S800
G0 X3.125
G0 Y0.07
G0 X-3.125
G1 X-21.84
G1 X-1.47S0
G1 X-5.6S800
G1 X-1.33S0
G1 X-9.66S800
G1 X-1.68S0
G1 X-3.5S800
G1 X-1.47S0
G1 X-52.08S800
G1 X-1.33S0
G1 X-1.61S800
G1 X-1.4S0
G1 X-4.62S800
G1 X-1.47S0
G1 X-2.45S800
G1 X-1.4S0
G1 X-63.42S800
G1 X-1.61S0
G1 X-2.17S800
G1 X-1.4S0
G1 X-9.94S800
G1 X-1.68S0
G1 X-1.75S800
G1 X-1.61S0
G1 X-29.19S800
G1 X-1.19S0
G1 X-2.03S800
G1 X-1.26S0
G1 X-66.78S800
G0 X-3.125
G0 Y0.07
G0 X3.125
G1 X67.06
G1 X1.19S0
G1 X2.03S800
G1 X1.26S0
G1 X29.26S800
G1 X1.68S0
G1 X1.68S800
G1 X1.68S0
G1 X9.87S800
G1 X1.47S0
G1 X2.24S800
G1 X1.54S0
G1 X63.35S800
G1 X1.47S0
G1 X2.38S800
G1 X1.47S0
G1 X4.69S800
G1 X1.4S0
G1 X1.54S800
G1 X1.4S0
G1 X52.08S800
G1 X1.4S0
G1 X3.57S800
G1 X1.68S0
G1 X9.59S800
G1 X1.33S0
G1 X5.6S800
G1 X1.54S0
G1 X21.49S800
G0 X3.125
G0 Y0.07
G0 X-3.125
G1 X-21.14
G1 X-0.07S0
G1 X-0.07S800
G1 X-1.33S0
G1 X-0.07S800
G1 X-0.07S0
G1 X-5.67S800
G1 X-1.33S0
G1 X-9.45S800
G1 X-0.07S0
G1 X-0.07S800
G1 X-1.54S0
G1 X-3.64S800
G1 X-1.33S0
G1 X-0.07S800
G1 X-0.07S0
G1 X-52.08S800
G1 X-1.33S0
G1 X-1.61S800
G1 X-1.4S0
G1 X-4.55S800
G1 X-0.07S0
G1 X-0.07S800
G1 X-1.4S0
G1 X-2.31S800
G1 X-0.07S0
G1 X-0.07S800
G1 X-1.47S0
G1 X-63.21S800
G1 X-0.07S0
G1 X-0.07S800
G1 X-1.4S0
G1 X-0.07S800
G1 X-0.07S0
G1 X-2.1S800
G1 X-0.07S0
G1 X-0.07S800
G1 X-1.4S0
G1 X-9.73S800
G1 X-0.07S0
G1 X-0.07S800
G1 X-1.61S0
G1 X-1.75S800
G1 X-1.68S0
G1 X-29.4S800
G1 X-1.12S0
G1 X-2.1S800
G1 X-1.19S0
G1 X-67.27S800
G0 X-3.125
G0 Y0.07
G0 X3.125
G1 X67.48
G1 X1.26S0
G1 X2.03S800
G1 X1.19S0
G1 X29.47S800
G1 X1.61S0
G1 X1.75S800
G1 X1.68S0
G1 X9.8S800
G1 X1.4S0
G1 X2.24S800
G1 X1.61S0
G1 X63.28S800
G1 X1.47S0
G1 X2.45S800
G1 X1.47S0
G1 X4.55S800
G1 X1.47S0
G1 X1.54S800
G1 X1.4S0
G1 X52.08S800
G1 X1.47S0
G1 X3.57S800
G1 X1.68S0
G1 X9.45S800
G1 X1.4S0
G1 X5.67S800
G1 X1.54S0
G1 X20.93S800
G0 X3.125
G0 Y0.07
G0 X-3.125
G1 X-20.65
G1 X-1.47S0
G1 X-5.74S800
G1 X-1.33S0
G1 X-9.45S800
G1 X-1.61S0
G1 X-3.64S800
G1 X-1.47S0
G1 X-52.15S800
G1 X-1.4S0
G1 X-1.54S800
G1 X-1.4S0
G1 X-4.55S800
G1 X-1.47S0
G1 X-2.52S800
G1 X-1.4S0
G1 X-63.28S800
G1 X-1.54S0
G1 X-2.24S800
G1 X-1.54S0
G1 X-9.73S800
G1 X-1.68S0
G1 X-1.75S800
G1 X-1.61S0
G1 X-29.54S800
G1 X-1.19S0
G1 X-2.03S800
G1 X-1.26S0
G1 X-67.76S800
G0 X-3.125
G0 Y0.07
G0 X3.125
G1 X67.9
G1 X0.07S0
G1 X0.07S800
G1 X1.12S0
G1 X0.07S800
G1 X0.07S0
G1 X1.89S800
G1 X1.19S0
G1 X29.61S800
G1 X0.07S0
G1 X0.07S800
G1 X1.47S0
G1 X0.07S800
G1 X0.07S0
G1 X1.68S800
G1 X0.07S0
G1 X0.07S800
G1 X1.54S0
G1 X9.66S800
G1 X0.07S0
G1 X0.07S800
G1 X1.33S0
G1 X2.31S800
G1 X0.07S0
G1 X0.07S800
G1 X1.4S0
G1 X63.28S800
G1 X0.07S0
G1 X0.07S800
G1 X1.26S0
G1 X0.07S800
G1 X0.07S0
G1 X2.31S800
G1 X0.07S0
G1 X0.07S800
G1 X1.33S0
G1 X0.07S800
G1 X0.07S0
G1 X4.48S800
G1 X0.07S0
G1 X0.07S800
G1 X1.26S0
G1 X0.07S800
G1 X0.07S0
G1 X1.47S800
G1 X1.26S0
G1 X0.07S800
G1 X0.07S0
G1 X52.08S800
G1 X0.07S0
G1 X0.07S800
G1 X1.33S0
G1 X0.07S800
G1 X0.07S0
G1 X3.57S800
G1 X1.61S0
G1 X9.31S800
G1 X0.07S0
G1 X0.07S800
G1 X1.26S0
G1 X5.74S800
G1 X0.07S0
G1 X0.07S800
G1 X1.33S0
G1 X0.07S800
G1 X0.07S0
G1 X20.3S800
G0 X3.125
G0 Y0.07
G0 X-3.125
G1 X-20.09
G1 X-1.54S0
G1 X-5.74S800
G1 X-1.4S0
G1 X-9.24S800
G1 X-1.68S0
G1 X-3.64S800
G1 X-1.54S0
G1 X-52.15S800
G1 X-1.4S0
G1 X-1.54S800
G1 X-1.4S0
G1 X-4.55S800
G1 X-1.54S0
G1 X-2.38S800
G1 X-1.47S0
G1 X-63.21S800
G1 X-1.54S0
G1 X-2.31S800
G1 X-1.54S0
G1 X-9.59S800
G1 X-1.68S0
G1 X-1.82S800
G1 X-1.61S0
G1 X-29.68S800
G1 X-1.26S0
G1 X-1.96S800
G1 X-1.26S0
G1 X-68.18S800
G0 X-3.125
G0 Y0.07
G0 X3.125
G1 X68.46
G1 X1.26S0
G1 X1.96S800
G1 X1.19S0
G1 X29.89S800
G1 X1.61S0
G1 X1.75S800
G1 X1.68S0
G1 X9.66S800
G1 X1.47S0
G1 X2.31S800
G1 X1.47S0
G1 X63.28S800
G1 X1.4S0
G1 X2.45S800
G1 X1.54S0
G1 X4.48S800
G1 X1.4S0
G1 X1.61S800
G1 X1.4S0
G1 X52.15S800
G1 X1.47S0
G1 X3.71S800
G1 X1.68S0
G1 X9.17S800
G1 X1.4S0
G1 X5.88S800
G1 X1.47S0
G1 X19.74S800
G0 X3.125
G0 Y0.07
G0 X-3.125
G1 X-19.53
G1 X-1.33S0
G1 X-0.07S800
G1 X-0.07S0
G1 X-5.95S800
G1 X-1.33S0
G1 X-9.17S800
G1 X-1.61S0
