; LightBurn Pro 2.0.05
; GRBL device profile, absolute coords
; Bounds: X0.03 Y1.89 to X303.22 Y211.47
G00 G17 G40 G21 G54
G90
M4
; Image @ 7500 мм/мин, 80% power
M8
G0 X5.026Y51.889
; Layer C00
G91
G0 X3.125
G1 X19.25F7500S800
G1 X0.84S0
G1 X0.84S800
G1 X0.84S0
G1 X54.81S800
G1 X0.91S0
G1 X1.75S800
G1 X0.98S0
G1 X22.33S800
G1 X0.91S0
G1 X2.03S800
G1 X0.98S0
G1 X13.37S800
G1 X1.05S0
G1 X1.19S800
G1 X1.05S0
G1 X22.82S800
G1 X1.61S0
G1 X60.34S800
G1 X1.26S0
G1 X2.73S800
G1 X1.26S0
G1 X1.89S800
G1 X1.19S0
G1 X1.4S800
G1 X1.33S0
G1 X59.71S800
G1 X1.54S0
G1 X3.64S800
G1 X1.47S0
G1 X11.62S800
G0 X3.125
G0 Y0.07
G0 X-3.125
G1 X-11.83
G1 X-0.07S0
G1 X-0.07S800
G1 X-1.47S0
G1 X-3.5S800
G1 X-0.07S0
G1 X-0.07S800
G1 X-1.47S0
G1 X-59.71S800
G1 X-1.26S0
G1 X-1.4S800
G1 X-1.26S0
G1 X-1.89S800
G1 X-1.19S0
G1 X-0.07S800
G1 X-0.07S0
G1 X-2.66S800
G1 X-1.33S0
G1 X-60.27S800
G1 X-1.54S0
G1 X-22.89S800
G1 X-0.98S0
G1 X-1.19S800
G1 X-0.98S0
G1 X-13.44S800
G1 X-1.05S0
G1 X-1.89S800
G1 X-0.98S0
G1 X-22.33S800
G1 X-0.98S0
G1 X-1.75S800
G1 X-0.91S0
G1 X-54.81S800
G1 X-0.84S0
G1 X-0.77S800
G1 X-0.91S0
G1 X-19.04S800
G0 X-3.125
G0 Y0.07
G0 X3.125
G1 X18.97
G1 X0.84S0
G1 X0.77S800
G1 X0.91S0
G1 X54.74S800
G1 X0.91S0
G1 X1.75S800
G1 X0.98S0
G1 X22.33S800
G1 X0.98S0
G1 X1.96S800
G1 X0.98S0
G1 X13.37S800
G1 X1.05S0
G1 X1.19S800
G1 X1.05S0
G1 X22.82S800
G1 X1.54S0
G1 X60.27S800
G1 X1.26S0
G1 X2.73S800
G1 X1.26S0
G1 X1.89S800
G1 X1.26S0
G1 X1.4S800
G1 X1.26S0
G1 X59.71S800
G1 X1.54S0
G1 X3.57S800
G1 X1.54S0
G1 X12.11S800
G0 X3.125
G0 Y0.07
G0 X-3.125
G1 X-12.46
G1 X-1.54S0
G1 X-3.57S800
G1 X-1.54S0
G1 X-59.64S800
G1 X-1.26S0
G1 X-1.4S800
G1 X-1.26S0
G1 X-1.89S800
G1 X-1.26S0
G1 X-2.73S800
G1 X-1.26S0
G1 X-60.27S800
G1 X-1.54S0
G1 X-22.75S800
G1 X-1.12S0
G1 X-1.19S800
G1 X-1.05S0
G1 X-13.3S800
G1 X-1.05S0
G1 X-1.89S800
G1 X-0.98S0
G1 X-22.33S800
G1 X-0.98S0
G1 X-1.68S800
G1 X-0.98S0
G1 X-54.74S800
G1 X-0.91S0
G1 X-0.77S800
G1 X-0.84S0
G1 X-18.76S800
G0 X-3.125
G0 Y0.07
G0 X3.125
G1 X18.55
G1 X0.07S0
G1 X0.07S800
G1 X0.77S0
G1 X0.77S800
G1 X0.84S0
G1 X54.74S800
G1 X0.98S0
G1 X1.75S800
G1 X0.91S0
G1 X22.33S800
G1 X0.98S0
G1 X1.89S800
G1 X0.07S0
G1 X0.07S800
G1 X0.91S0
G1 X13.37S800
G1 X0.98S0
G1 X1.19S800
G1 X1.05S0
G1 X22.82S800
G1 X1.47S0
G1 X0.07S800
G1 X0.07S0
G1 X60.13S800
G1 X0.07S0
G1 X0.07S800
G1 X1.19S0
G1 X2.66S800
G1 X0.07S0
G1 X0.07S800
G1 X1.12S0
G1 X0.07S800
G1 X0.07S0
G1 X1.75S800
G1 X1.26S0
G1 X1.4S800
G1 X1.26S0
G1 X59.57S800
G1 X0.07S0
G1 X0.07S800
G1 X1.4S0
G1 X3.64S800
G1 X1.47S0
G1 X0.07S800
G1 X0.07S0
G1 X12.67S800
G0 X3.125
G0 Y0.07
G0 X-3.125
G1 X-12.95
G1 X-1.54S0
G1 X-3.64S800
G1 X-1.54S0
G1 X-59.5S800
G1 X-1.26S0
G1 X-1.4S800
G1 X-1.26S0
G1 X-1.89S800
G1 X-1.26S0
G1 X-2.73S800
G1 X-1.26S0
G1 X-60.27S800
G1 X-1.54S0
G1 X-22.75S800
G1 X-1.05S0
G1 X-1.12S800
G1 X-1.12S0
G1 X-13.3S800
G1 X-1.05S0
G1 X-1.82S800
G1 X-1.05S0
G1 X-22.33S800
G1 X-0.91S0
G1 X-1.75S800
G1 X-0.98S0
G1 X-54.67S800
G1 X-0.91S0
G1 X-0.77S800
G1 X-0.84S0
G1 X-18.48S800
G0 X-3.125
G0 Y0.07
G0 X3.125
G1 X18.34
G1 X0.84S0
G1 X0.77S800
G1 X0.84S0
G1 X54.74S800
G1 X0.91S0
G1 X1.75S800
G1 X0.91S0
G1 X22.33S800
G1 X0.98S0
G1 X1.89S800
G1 X1.05S0
G1 X13.3S800
G1 X1.05S0
G1 X1.19S800
G1 X1.05S0
G1 X22.75S800
G1 X1.54S0
G1 X60.2S800
G1 X1.26S0
G1 X2.73S800
G1 X1.26S0
G1 X1.89S800
G1 X1.26S0
G1 X1.4S800
G1 X1.26S0
G1 X59.43S800
G1 X1.54S0
G1 X3.64S800
G1 X1.47S0
G1 X13.37S800
G0 X3.125
G0 Y0.07
G0 X-3.125
G1 X-13.51
G1 X-0.07S0
G1 X-0.07S800
G1 X-1.4S0
G1 X-0.07S800
G1 X-0.07S0
G1 X-3.57S800
G1 X-1.47S0
G1 X-0.07S800
G1 X-0.07S0
G1 X-59.36S800
G1 X-1.26S0
G1 X-1.26S800
G1 X-0.07S0
G1 X-0.07S800
G1 X-1.26S0
G1 X-1.89S800
G1 X-1.12S0
G1 X-0.07S800
G1 X-0.07S0
G1 X-2.73S800
G1 X-1.19S0
G1 X-0.07S800
G1 X-0.07S0
G1 X-59.99S800
G1 X-0.07S0
G1 X-0.07S800
G1 X-1.47S0
G1 X-22.75S800
G1 X-1.05S0
G1 X-1.19S800
G1 X-1.05S0
G1 X-13.23S800
G1 X-1.05S0
G1 X-1.96S800
G1 X-0.98S0
G1 X-22.33S800
G1 X-0.91S0
G1 X-1.75S800
G1 X-0.91S0
G1 X-54.67S800
G1 X-0.91S0
G1 X-0.7S800
G1 X-0.91S0
G1 X-18.13S800
G0 X-3.125
G0 Y0.07
G0 X3.125
G1 X17.99
G1 X0.84S0
G1 X0.77S800
G1 X0.91S0
G1 X54.67S800
G1 X0.91S0
G1 X1.75S800
G1 X0.98S0
G1 X22.26S800
G1 X1.05S0
G1 X1.82S800
G1 X1.05S0
G1 X13.3S800
G1 X0.98S0
G1 X1.26S800
G1 X0.98S0
G1 X22.75S800
G1 X1.54S0
G1 X60.13S800
G1 X1.26S0
G1 X2.8S800
G1 X1.26S0
G1 X1.82S800
G1 X1.33S0
G1 X1.4S800
G1 X1.26S0
G1 X59.29S800
G1 X1.61S0
G1 X3.57S800
G1 X1.54S0
G1 X13.86S800
G0 X3.125
G0 Y0.07
G0 X-3.125
G1 X-14.21
G1 X-1.47S0
G1 X-3.64S800
G1 X-1.54S0
G1 X-59.29S800
G1 X-1.26S0
G1 X-1.4S800
G1 X-1.33S0
G1 X-1.82S800
G1 X-1.26S0
G1 X-2.8S800
G1 X-1.26S0
G1 X-60.13S800
G1 X-1.47S0
G1 X-22.68S800
G1 X-1.12S0
G1 X-1.12S800
G1 X-1.12S0
G1 X-13.23S800
G1 X-0.98S0
G1 X-1.96S800
G1 X-0.98S0
G1 X-22.26S800
G1 X-0.98S0
G1 X-1.75S800
G1 X-0.91S0
G1 X-54.67S800
G1 X-0.91S0
G1 X-0.7S800
G1 X-0.84S0
G1 X-17.85S800
G0 X-3.125
G0 Y0.07
G0 X3.125
G1 X17.71
G1 X0.77S0
G1 X0.07S800
G1 X0.07S0
G1 X0.7S800
G1 X0.84S0
G1 X54.67S800
G1 X0.91S0
G1 X1.68S800
G1 X0.07S0
G1 X0.07S800
G1 X0.84S0
G1 X22.33S800
G1 X0.98S0
G1 X1.82S800
G1 X1.05S0
G1 X13.23S800
G1 X1.05S0
G1 X1.19S800
G1 X1.05S0
G1 X22.75S800
G1 X1.47S0
G1 X60.06S800
G1 X0.07S0
G1 X0.07S800
G1 X1.19S0
G1 X2.73S800
G1 X0.07S0
G1 X0.07S800
G1 X1.12S0
G1 X1.82S800
G1 X1.33S0
G1 X1.4S800
G1 X1.33S0
G1 X59.15S800
G1 X0.07S0
G1 X0.07S800
G1 X1.4S0
G1 X0.07S800
G1 X0.07S0
G1 X3.5S800
G1 X0.07S0
G1 X0.07S800
G1 X1.4S0
G1 X0.07S800
G1 X0.07S0
G1 X14.35S800
G0 X3.125
G0 Y0.07
G0 X-3.125
G1 X-14.7
G1 X-1.54S0
G1 X-3.64S800
G1 X-1.54S0
G1 X-59.22S800
G1 X-1.26S0
G1 X-1.4S800
G1 X-1.33S0
G1 X-1.75S800
G1 X-1.26S0
G1 X-2.8S800
G1 X-1.33S0
G1 X-60.06S800
G1 X-1.47S0
G1 X-22.68S800
G1 X-1.05S0
G1 X-1.19S800
G1 X-1.05S0
G1 X-13.3S800
G1 X-0.91S0
G1 X-1.96S800
G1 X-0.98S0
G1 X-22.26S800
G1 X-0.91S0
G1 X-1.75S800
G1 X-0.91S0
G1 X-54.67S800
G1 X-0.91S0
G1 X-0.7S800
G1 X-0.84S0
G1 X-17.57S800
G0 X-3.125
G0 Y0.07
G0 X3.125
G1 X17.36
G1 X0.84S0
G1 X0.77S800
G1 X0.84S0
G1 X54.67S800
G1 X0.91S0
G1 X1.75S800
G1 X0.91S0
G1 X22.26S800
G1 X0.98S0
G1 X1.89S800
G1 X1.05S0
G1 X13.23S800
G1 X1.05S0
G1 X1.19S800
G1 X1.05S0
G1 X22.68S800
G1 X1.4S0
G1 X60.06S800
G1 X1.33S0
G1 X2.87S800
G1 X1.19S0
G1 X1.75S800
G1 X1.33S0
G1 X1.4S800
G1 X1.26S0
G1 X59.15S800
G1 X1.54S0
G1 X3.64S800
G1 X1.54S0
G1 X15.05S800
G0 X3.125
G0 Y0.07
G0 X-3.125
G1 X-15.33
G1 X-1.54S0
G1 X-3.64S800
G1 X-1.54S0
G1 X-59.01S800
G1 X-1.26S0
G1 X-1.47S800
G1 X-1.4S0
G1 X-1.75S800
G1 X-1.19S0
G1 X-2.87S800
G1 X-1.26S0
G1 X-60.06S800
G1 X-1.33S0
G1 X-22.75S800
G1 X-1.05S0
G1 X-1.19S800
G1 X-1.05S0
G1 X-13.23S800
G1 X-0.98S0
G1 X-1.89S800
G1 X-0.98S0
G1 X-22.26S800
G1 X-0.91S0
G1 X-1.68S800
G1 X-0.07S0
G1 X-0.07S800
G1 X-0.84S0
G1 X-54.67S800
G1 X-0.84S0
G1 X-0.77S800
G1 X-0.84S0
G1 X-17.22S800
G0 X-3.125
G0 Y0.07
G0 X3.125
G1 X17.08
G1 X0.84S0
G1 X0.7S800
G1 X0.91S0
G1 X54.6S800
G1 X0.98S0
G1 X1.68S800
G1 X0.98S0
G1 X22.19S800
G1 X0.98S0
G1 X1.89S800
G1 X1.05S0
G1 X13.16S800
G1 X1.05S0
G1 X1.26S800
G1 X1.05S0
G1 X22.68S800
G1 X1.4S0
G1 X59.99S800
G1 X1.26S0
G1 X2.87S800
G1 X1.19S0
G1 X1.75S800
G1 X1.4S0
G1 X1.4S800
G1 X1.26S0
G1 X59.08S800
G1 X1.47S0
G1 X3.64S800
G1 X1.54S0
G1 X15.61S800
G0 X3.125
G0 Y0.07
G0 X-3.125
G1 X-15.89
G1 X-1.54S0
G1 X-3.64S800
G1 X-1.61S0
G1 X-58.94S800
G1 X-1.33S0
G1 X-1.4S800
G1 X-1.33S0
G1 X-1.75S800
G1 X-1.12S0
G1 X-2.94S800
G1 X-1.33S0
G1 X-59.92S800
G1 X-1.4S0
G1 X-22.61S800
G1 X-1.05S0
G1 X-1.19S800
G1 X-1.05S0
G1 X-13.23S800
G1 X-1.05S0
G1 X-1.82S800
G1 X-1.05S0
G1 X-22.19S800
G1 X-0.91S0
G1 X-1.75S800
G1 X-0.98S0
G1 X-54.6S800
G1 X-0.84S0
G1 X-0.7S800
G1 X-0.91S0
G1 X-16.87S800
G0 X-3.125
G0 Y0.07
G0 X3.125
G1 X16.8
G1 X0.84S0
G1 X0.7S800
G1 X0.91S0
G1 X54.6S800
G1 X0.91S0
G1 X1.68S800
G1 X0.98S0
G1 X22.26S800
G1 X0.91S0
G1 X1.89S800
G1 X0.98S0
G1 X13.23S800
G1 X1.05S0
G1 X1.19S800
G1 X1.05S0
G1 X22.68S800
G1 X1.33S0
G1 X59.92S800
G1 X1.26S0
G1 X0.07S800
G1 X0.07S0
G1 X2.94S800
G1 X1.12S0
G1 X1.61S800
G1 X1.4S0
G1 X1.4S800
G1 X1.26S0
G1 X59.01S800
G1 X1.61S0
G1 X3.64S800
G1 X1.4S0
G1 X0.07S800
G1 X0.07S0
G1 X16.1S800
G0 X3.125
G0 Y0.07
G0 X-3.125
G1 X-16.45
G1 X-1.54S0
G1 X-3.64S800
G1 X-1.54S0
G1 X-58.94S800
G1 X-1.26S0
G1 X-1.47S800
G1 X-1.33S0
G1 X-1.61S800
G1 X-1.19S0
G1 X-3.01S800
G1 X-1.26S0
G1 X-59.92S800
G1 X-1.33S0
G1 X-22.68S800
G1 X-1.05S0
G1 X-1.19S800
G1 X-0.98S0
G1 X-13.23S800
G1 X-1.05S0
G1 X-1.82S800
G1 X-1.05S0
G1 X-22.19S800
G1 X-0.91S0
G1 X-1.75S800
G1 X-0.91S0
G1 X-54.6S800
G1 X-0.91S0
G1 X-0.7S800
G1 X-0.84S0
G1 X-16.59S800
G0 X-3.125
G0 Y0.07
G0 X3.125
G1 X16.45
G1 X0.84S0
G1 X0.7S800
G1 X0.91S0
G1 X54.53S800
G1 X0.91S0
G1 X1.75S800
G1 X0.91S0
G1 X22.19S800
G1 X1.05S0
G1 X1.82S800
G1 X0.98S0
G1 X13.23S800
G1 X1.05S0
G1 X1.19S800
G1 X1.05S0
G1 X22.61S800
G1 X1.33S0
G1 X59.92S800
G1 X1.26S0
G1 X3.01S800
G1 X1.19S0
G1 X1.61S800
G1 X1.33S0
G1 X1.47S800
G1 X1.26S0
G1 X58.87S800
G1 X1.54S0
G1 X3.71S800
G1 X1.47S0
G1 X16.8S800
G0 X3.125
G0 Y0.07
G0 X-3.125
G1 X-17.08
G1 X-1.4S0
G1 X-3.78S800
G1 X-1.47S0
G1 X-58.8S800
G1 X-1.33S0
G1 X-1.47S800
G1 X-1.33S0
G1 X-1.61S800
G1 X-1.12S0
G1 X-3.01S800
G1 X-1.33S0
G1 X-59.85S800
G1 X-1.33S0
G1 X-22.61S800
G1 X-1.05S0
G1 X-1.19S800
G1 X-1.05S0
G1 X-13.23S800
G1 X-0.98S0
G1 X-1.82S800
G1 X-0.98S0
G1 X-22.19S800
G1 X-0.98S0
G1 X-1.68S800
G1 X-0.98S0
G1 X-54.6S800
G1 X-0.84S0
G1 X-0.7S800
G1 X-0.84S0
G1 X-16.31S800
G0 X-3.125
G0 Y0.07
G0 X3.125
G1 X16.17
G1 X0.84S0
G1 X0.7S800
G1 X0.84S0
G1 X54.53S800
G1 X0.98S0
G1 X1.75S800
G1 X0.91S0
G1 X22.12S800
G1 X1.05S0
G1 X1.82S800
G1 X0.98S0
G1 X13.23S800
G1 X1.05S0
G1 X1.19S800
G1 X1.05S0
G1 X22.61S800
G1 X1.33S0
G1 X59.78S800
G1 X1.33S0
G1 X3.08S800
G1 X1.12S0
G1 X1.54S800
G1 X1.33S0
G1 X1.47S800
G1 X1.26S0
G1 X58.8S800
G1 X1.61S0
G1 X3.64S800
G1 X1.47S0
G1 X17.36S800
G0 X3.125
G0 Y0.07
G0 X-3.125
G1 X-17.64
G1 X-1.54S0
G1 X-3.71S800
G1 X-1.47S0
G1 X-58.8S800
G1 X-1.26S0
G1 X-1.47S800
G1 X-1.4S0
G1 X-1.4S800
G1 X-1.19S0
G1 X-3.15S800
G1 X-1.26S0
G1 X-59.85S800
G1 X-1.26S0
G1 X-22.61S800
G1 X-0.98S0
G1 X-1.19S800
G1 X-1.05S0
G1 X-13.23S800
G1 X-0.98S0
G1 X-1.89S800
G1 X-0.91S0
G1 X-22.19S800
G1 X-0.91S0
G1 X-1.75S800
G1 X-0.91S0
G1 X-54.6S800
G1 X-0.84S0
G1 X-0.7S800
G1 X-0.84S0
G1 X-15.96S800
G0 X-3.125
G0 Y0.07
G0 X3.125
G1 X15.82
G1 X0.84S0
G1 X0.7S800
G1 X0.91S0
G1 X54.46S800
G1 X0.98S0
G1 X1.75S800
G1 X0.91S0
G1 X22.12S800
G1 X1.05S0
G1 X1.82S800
G1 X0.98S0
G1 X13.23S800
G1 X1.05S0
G1 X1.19S800
G1 X1.05S0
G1 X22.54S800
G1 X1.26S0
G1 X59.85S800
G1 X1.26S0
G1 X3.15S800
G1 X1.12S0
G1 X1.4S800
G1 X1.33S0
G1 X1.61S800
G1 X1.26S0
G1 X58.73S800
G1 X1.54S0
G1 X3.64S800
G1 X1.54S0
G1 X17.85S800
G0 X3.125
G0 Y0.07
G0 X-3.125
G1 X-18.2
G1 X-1.47S0
G1 X-3.71S800
G1 X-1.54S0
G1 X-58.66S800
G1 X-1.26S0
G1 X-1.54S800
G1 X-1.4S0
G1 X-1.4S800
G1 X-1.05S0
G1 X-3.22S800
G1 X-1.26S0
G1 X-59.78S800
G1 X-1.26S0
G1 X-22.61S800
G1 X-1.05S0
G1 X-1.19S800
G1 X-0.98S0
G1 X-13.23S800
G1 X-0.98S0
G1 X-1.82S800
G1 X-0.98S0
G1 X-22.12S800
G1 X-0.98S0
G1 X-1.68S800
G1 X-0.98S0
G1 X-54.53S800
G1 X-0.91S0
G1 X-0.63S800
G1 X-0.84S0
G1 X-15.68S800
G0 X-3.125
G0 Y0.07
G0 X3.125
G1 X15.47
G1 X0.84S0
G1 X0.7S800
G1 X0.91S0
G1 X54.46S800
G1 X0.98S0
G1 X1.75S800
G1 X0.91S0
G1 X22.12S800
G1 X0.98S0
G1 X1.82S800
G1 X1.05S0
G1 X13.16S800
G1 X0.98S0
G1 X1.19S800
G1 X1.05S0
G1 X22.54S800
G1 X1.26S0
G1 X59.78S800
G1 X1.26S0
G1 X3.22S800
G1 X1.12S0
G1 X1.33S800
G1 X1.4S0
G1 X1.54S800
G1 X1.26S0
G1 X58.66S800
G1 X1.47S0
G1 X3.71S800
G1 X1.54S0
G1 X18.48S800
G0 X3.125
G0 Y0.07
G0 X-3.125
G1 X-18.69
G1 X-1.54S0
G1 X-3.71S800
G1 X-1.47S0
G1 X-58.66S800
G1 X-1.19S0
G1 X-1.61S800
G1 X-1.4S0
G1 X-1.26S800
G1 X-1.12S0
G1 X-3.22S800
G1 X-1.33S0
G1 X-59.71S800
G1 X-1.26S0
G1 X-22.54S800
G1 X-1.05S0
G1 X-1.19S800
G1 X-0.98S0
G1 X-13.23S800
G1 X-0.98S0
G1 X-1.82S800
G1 X-1.05S0
G1 X-22.05S800
G1 X-0.91S0
G1 X-1.82S800
G1 X-0.91S0
G1 X-54.46S800
G1 X-0.91S0
G1 X-0.63S800
G1 X-0.84S0
G1 X-15.4S800
G0 X-3.125
G0 Y0.07
G0 X3.125
G1 X15.19
G1 X0.91S0
G1 X0.63S800
G1 X0.84S0
G1 X54.46S800
G1 X0.98S0
G1 X1.75S800
G1 X0.91S0
G1 X22.12S800
G1 X0.98S0
G1 X1.82S800
G1 X1.05S0
G1 X13.09S800
G1 X1.05S0
G1 X1.19S800
G1 X1.05S0
G1 X22.54S800
G1 X1.19S0
G1 X59.71S800
G1 X1.33S0
G1 X3.29S800
G1 X1.05S0
G1 X1.19S800
G1 X1.4S0
G1 X1.68S800
G1 X1.26S0
G1 X58.52S800
G1 X1.47S0
G1 X3.78S800
G1 X1.47S0
G1 X19.04S800
G0 X3.125
G0 Y0.07
G0 X-3.125
G1 X-19.39
G1 X-1.47S0
G1 X-3.57S800
G1 X-0.07S0
G1 X-0.07S800
G1 X-1.4S0
G1 X-0.07S800
G1 X-0.07S0
G1 X-58.45S800
G1 X-1.26S0
G1 X-1.68S800
G1 X-1.4S0
G1 X-1.12S800
G1 X-1.12S0
G1 X-3.29S800
G1 X-1.33S0
G1 X-59.64S800
G1 X-1.26S0
G1 X-22.54S800
G1 X-0.91S0
G1 X-0.07S800
G1 X-0.07S0
G1 X-1.12S800
G1 X-1.05S0
G1 X-13.16S800
G1 X-0.98S0
G1 X-1.82S800
G1 X-0.98S0
G1 X-22.05S800
G1 X-0.98S0
G1 X-1.75S800
G1 X-0.91S0
G1 X-54.53S800
G1 X-0.84S0
G1 X-0.63S800
G1 X-0.84S0
G1 X-15.05S800
G0 X-3.125
G0 Y0.07
G0 X3.125
G1 X14.91
G1 X0.84S0
G1 X0.63S800
G1 X0.91S0
G1 X54.46S800
G1 X0.91S0
G1 X1.82S800
G1 X0.84S0
G1 X22.12S800
G1 X0.98S0
G1 X1.82S800
G1 X1.05S0
G1 X13.09S800
G1 X1.05S0
G1 X1.19S800
G1 X1.05S0
G1 X22.47S800
G1 X1.26S0
G1 X59.64S800
G1 X1.26S0
G1 X3.36S800
G1 X1.12S0
G1 X1.05S800
G1 X1.4S0
G1 X1.75S800
G1 X1.19S0
G1 X58.52S800
G1 X1.47S0
G1 X3.71S800
G1 X1.47S0
G1 X19.6S800
G0 X3.125
G0 Y0.07
G0 X-3.125
G1 X-19.88
G1 X-1.54S0
G1 X-3.71S800
G1 X-1.47S0
G1 X-58.45S800
G1 X-1.19S0
G1 X-1.75S800
G1 X-1.47S0
G1 X-0.98S800
G1 X-1.05S0
G1 X-3.43S800
G1 X-1.26S0
G1 X-59.71S800
G1 X-1.12S0
G1 X-22.54S800
G1 X-1.05S0
G1 X-1.12S800
G1 X-1.05S0
G1 X-13.16S800
G1 X-0.98S0
G1 X-1.82S800
G1 X-0.98S0
G1 X-22.05S800
G1 X-0.91S0
G1 X-1.82S800
G1 X-0.91S0
G1 X-54.46S800
G1 X-0.84S0
G1 X-0.7S800
G1 X-0.84S0
G1 X-14.7S800
G0 X-3.125
G0 Y0.07
G0 X3.125
G1 X14.56
G1 X0.84S0
G1 X0.7S800
G1 X0.84S0
G1 X54.39S800
G1 X0.98S0
G1 X1.82S800
G1 X0.84S0
G1 X22.05S800
G1 X0.98S0
G1 X1.82S800
G1 X0.98S0
G1 X13.16S800
G1 X0.98S0
G1 X0.07S800
G1 X0.07S0
G1 X1.05S800
G1 X1.05S0
G1 X22.47S800
G1 X1.19S0
G1 X59.64S800
G1 X1.26S0
G1 X3.5S800
G1 X1.05S0
G1 X0.84S800
G1 X1.47S0
G1 X0.07S800
G1 X0.07S0
G1 X1.68S800
G1 X1.19S0
G1 X58.38S800
G1 X0.07S0
G1 X0.07S800
G1 X1.4S0
G1 X3.71S800
G1 X0.07S0
G1 X0.07S800
G1 X1.33S0
G1 X0.07S800
G1 X0.07S0
G1 X20.09S800
G0 X3.125
G0 Y0.07
G0 X-3.125
G1 X-20.44
G1 X-1.47S0
G1 X-3.71S800
G1 X-1.47S0
G1 X-58.38S800
G1 X-1.26S0
G1 X-1.82S800
G1 X-1.4S0
G1 X-0.84S800
G1 X-1.05S0
G1 X-3.5S800
G1 X-1.33S0
G1 X-59.57S800
G1 X-1.19S0
G1 X-22.47S800
G1 X-1.05S0
G1 X-1.12S800
G1 X-1.05S0
G1 X-13.16S800
G1 X-0.98S0
G1 X-1.82S800
G1 X-0.98S0
G1 X-22.05S800
G1 X-0.91S0
G1 X-1.82S800
G1 X-0.91S0
G1 X-54.39S800
G1 X-0.91S0
G1 X-0.56S800
G1 X-0.91S0
G1 X-14.42S800
G0 X-3.125
G0 Y0.07
G0 X3.125
G1 X14.28
G1 X0.84S0
G1 X0.63S800
G1 X0.84S0
G1 X54.39S800
G1 X0.98S0
G1 X1.75S800
G1 X0.91S0
G1 X22.05S800
G1 X0.98S0
G1 X1.82S800
G1 X0.98S0
G1 X13.16S800
G1 X0.98S0
G1 X1.19S800
G1 X1.05S0
G1 X22.68S800
G1 X0.91S0
G1 X59.57S800
G1 X1.33S0
G1 X3.5S800
G1 X1.12S0
G1 X0.7S800
G1 X1.47S0
G1 X1.82S800
G1 X1.26S0
G1 X58.31S800
G1 X1.47S0
G1 X3.78S800
G1 X1.4S0
G1 X20.79S800
G0 X3.125
G0 Y0.07
G0 X-3.125
G1 X-21.07
G1 X-1.4S0
G1 X-3.78S800
G1 X-1.4S0
G1 X-0.07S800
G1 X-0.07S0
G1 X-58.17S800
G1 X-1.33S0
G1 X-1.68S800
G1 X-0.07S0
G1 X-0.07S800
G1 X-1.54S0
G1 X-0.49S800
G1 X-0.07S0
G1 X-0.07S800
G1 X-1.05S0
G1 X-3.57S800
G1 X-1.26S0
G1 X-59.57S800
G1 X-0.7S0
G1 X-22.89S800
G1 X-1.05S0
G1 X-1.12S800
G1 X-1.05S0
G1 X-13.09S800
G1 X-0.98S0
G1 X-1.89S800
G1 X-0.91S0
G1 X-22.05S800
G1 X-0.91S0
G1 X-1.82S800
G1 X-0.91S0
G1 X-54.39S800
G1 X-0.91S0
G1 X-0.63S800
G1 X-0.84S0
G1 X-14.07S800
G0 X-3.125
G0 Y0.07
G0 X3.125
G1 X14
G1 X0.84S0
G1 X0.56S800
G1 X0.91S0
G1 X54.39S800
G1 X0.91S0
G1 X1.82S800
G1 X0.91S0
G1 X22.05S800
G1 X0.91S0
G1 X1.82S800
G1 X0.98S0
G1 X13.09S800
G1 X1.05S0
G1 X1.19S800
G1 X0.98S0
G1 X23.17S800
G1 X0.42S0
G1 X59.57S800
G1 X1.26S0
G1 X3.64S800
G1 X1.05S0
G1 X0.56S800
G1 X1.54S0
G1 X1.89S800
G1 X1.26S0
G1 X58.24S800
G1 X1.47S0
G1 X3.78S800
G1 X1.4S0
G1 X21.28S800
G0 X3.125
G0 Y0.07
G0 X-3.125
G1 X-21.63
G1 X-1.4S0
G1 X-3.78S800
G1 X-1.47S0
G1 X-58.17S800
G1 X-1.26S0
G1 X-1.96S800
G1 X-1.54S0
G1 X-0.42S800
G1 X-1.05S0
G1 X-3.71S800
G1 X-1.26S0
G1 X-59.57S800
G1 X-0.14S0
G1 X-23.38S800
G1 X-0.98S0
G1 X-1.19S800
G1 X-0.98S0
G1 X-13.16S800
G1 X-0.98S0
G1 X-1.75S800
G1 X-0.98S0
G1 X-22.05S800
G1 X-0.91S0
G1 X-1.82S800
G1 X-0.91S0
G1 X-54.39S800
G1 X-0.84S0
G1 X-0.63S800
G1 X-0.84S0
G1 X-13.79S800
G0 X-3.125
G0 Y0.07
G0 X3.125
G1 X13.65
G1 X0.84S0
G1 X0.56S800
G1 X0.98S0
G1 X54.32S800
G1 X0.84S0
G1 X0.07S800
G1 X0.07S0
G1 X1.68S800
G1 X0.91S0
G1 X0.07S800
G1 X0.07S0
G1 X21.91S800
G1 X0.91S0
G1 X1.82S800
G1 X0.98S0
G1 X13.16S800
G1 X0.98S0
G1 X1.19S800
G1 X1.05S0
G1 X83.02S800
G1 X1.19S0
G1 X0.07S800
G1 X0.07S0
G1 X3.64S800
G1 X0.98S0
G1 X0.07S800
G1 X0.07S0
G1 X0.28S800
G1 X0.07S0
G1 X0.07S800
G1 X1.33S0
G1 X0.07S800
G1 X0.07S0
G1 X1.96S800
G1 X1.19S0
G1 X58.17S800
G1 X1.47S0
G1 X3.78S800
G1 X1.4S0
G1 X0.07S800
G1 X0.07S0
G1 X21.77S800
G0 X3.125
G0 Y0.07
G0 X-3.125
G1 X-22.05
G1 X-1.54S0
G1 X-3.71S800
G1 X-1.54S0
G1 X-58.1S800
G1 X-1.19S0
G1 X-2.1S800
G1 X-1.47S0
G1 X-0.35S800
G1 X-0.98S0
G1 X-3.78S800
G1 X-1.33S0
G1 X-82.95S800
G1 X-0.98S0
G1 X-1.19S800
G1 X-0.98S0
G1 X-13.16S800
G1 X-0.98S0
G1 X-1.75S800
G1 X-0.98S0
G1 X-21.98S800
G1 X-0.98S0
G1 X-1.75S800
G1 X-0.91S0
G1 X-54.39S800
G1 X-0.84S0
G1 X-0.63S800
G1 X-0.84S0
G1 X-13.51S800
G0 X-3.125
G0 Y0.07
G0 X3.125
G1 X13.37
G1 X0.77S0
G1 X0.63S800
G1 X0.91S0
G1 X54.32S800
G1 X0.91S0
G1 X1.82S800
G1 X0.91S0
G1 X21.98S800
G1 X0.98S0
G1 X1.75S800
G1 X0.98S0
G1 X13.09S800
G1 X1.05S0
G1 X1.19S800
G1 X0.98S0
G1 X82.88S800
G1 X1.33S0
G1 X3.78S800
G1 X1.05S0
G1 X0.21S800
G1 X1.47S0
G1 X2.17S800
G1 X1.19S0
G1 X58.1S800
G1 X1.47S0
G1 X3.78S800
G1 X1.47S0
G1 X22.4S800
G0 X3.125
G0 Y0.07
G0 X-3.125
G1 X-22.68
G1 X-1.4S0
G1 X-3.78S800
G1 X-1.47S0
G1 X-58.03S800
G1 X-1.26S0
G1 X-2.17S800
G1 X-0.07S0
G1 X-0.07S800
G1 X-1.33S0
G1 X-0.07S800
G1 X-1.05S0
G1 X-3.99S800
G1 X-1.19S0
G1 X-82.88S800
G1 X-1.05S0
G1 X-1.19S800
G1 X-0.98S0
G1 X-13.09S800
G1 X-1.05S0
G1 X-1.68S800
G1 X-0.98S0
G1 X-21.98S800
G1 X-0.98S0
G1 X-1.75S800
G1 X-0.91S0
G1 X-54.39S800
G1 X-0.84S0
G1 X-0.63S800
G1 X-0.77S0
G1 X-13.23S800
G0 X-3.125
G0 Y0.07
G0 X3.125
G1 X13.09
G1 X0.84S0
G1 X0.56S800
G1 X0.84S0
G1 X54.32S800
G1 X0.91S0
G1 X1.82S800
G1 X0.91S0
G1 X21.98S800
G1 X0.98S0
G1 X1.75S800
G1 X0.98S0
G1 X13.09S800
G1 X1.05S0
G1 X1.19S800
G1 X0.98S0
G1 X82.81S800
G1 X1.26S0
G1 X3.92S800
G1 X2.52S0
G1 X2.31S800
G1 X1.19S0
G1 X57.96S800
G1 X1.54S0
G1 X3.71S800
G1 X1.54S0
G1 X22.89S800
G0 X3.125
G0 Y0.07
G0 X-3.125
G1 X-23.24
G1 X-1.47S0
G1 X-3.78S800
G1 X-1.47S0
G1 X-57.96S800
G1 X-1.19S0
G1 X-2.31S800
G1 X-2.45S0
G1 X-3.99S800
G1 X-1.26S0
G1 X-82.74S800
G1 X-0.98S0
G1 X-1.19S800
G1 X-1.05S0
G1 X-13.09S800
G1 X-0.98S0
G1 X-1.75S800
G1 X-0.98S0
G1 X-21.91S800
G1 X-0.98S0
G1 X-1.82S800
G1 X-0.84S0
G1 X-54.39S800
G1 X-0.84S0
G1 X-0.56S800
G1 X-0.84S0
G1 X-12.88S800
G0 X-3.125
G0 Y0.07
G0 X3.125
G1 X12.81
G1 X0.77S0
G1 X0.56S800
G1 X0.91S0
G1 X54.32S800
G1 X0.91S0
G1 X1.82S800
G1 X0.84S0
G1 X21.98S800
G1 X0.98S0
G1 X1.68S800
G1 X1.05S0
G1 X13.09S800
G1 X1.05S0
G1 X1.12S800
G1 X1.05S0
G1 X82.67S800
G1 X1.19S0
G1 X0.07S800
G1 X0.07S0
G1 X3.99S800
G1 X2.38S0
G1 X2.31S800
G1 X1.26S0
G1 X57.89S800
G1 X1.4S0
G1 X3.85S800
G1 X1.4S0
G1 X23.52S800
G0 X3.125
G0 Y0.07
G0 X-3.125
G1 X-23.8
G1 X-1.4S0
G1 X-3.85S800
G1 X-1.47S0
G1 X-57.82S800
G1 X-1.26S0
G1 X-2.38S800
G1 X-2.24S0
G1 X-4.06S800
G1 X-1.33S0
G1 X-82.6S800
G1 X-1.05S0
G1 X-1.19S800
G1 X-0.98S0
G1 X-13.09S800
G1 X-0.98S0
G1 X-1.75S800
G1 X-0.98S0
G1 X-21.91S800
G1 X-0.91S0
G1 X-1.82S800
G1 X-0.84S0
G1 X-54.39S800
G1 X-0.84S0
G1 X-0.56S800
G1 X-0.84S0
G1 X-12.6S800
G0 X-3.125
G0 Y0.07
G0 X3.125
G1 X12.46
G1 X0.84S0
G1 X0.56S800
G1 X0.84S0
G1 X54.32S800
G1 X0.91S0
G1 X1.75S800
G1 X0.91S0
G1 X21.91S800
G1 X0.98S0
G1 X1.75S800
G1 X0.98S0
G1 X13.09S800
G1 X0.98S0
G1 X1.19S800
G1 X1.05S0
G1 X82.53S800
G1 X1.33S0
G1 X4.13S800
G1 X2.1S0
G1 X2.45S800
G1 X1.26S0
G1 X57.82S800
G1 X1.47S0
G1 X3.78S800
G1 X1.47S0
G1 X24.08S800
G0 X3.125
G0 Y0.07
G0 X-3.125
G1 X-24.29
G1 X-1.47S0
G1 X-3.85S800
G1 X-1.4S0
G1 X-57.75S800
G1 X-1.26S0
G1 X-2.52S800
G1 X-2.03S0
G1 X-4.2S800
G1 X-1.26S0
G1 X-82.53S800
G1 X-1.05S0
G1 X-1.19S800
G1 X-0.98S0
G1 X-13.09S800
G1 X-0.98S0
G1 X-1.75S800
G1 X-0.91S0
G1 X-21.98S800
G1 X-0.91S0
G1 X-1.82S800
G1 X-0.84S0
G1 X-54.32S800
G1 X-0.91S0
G1 X-0.49S800
G1 X-0.84S0
G1 X-12.32S800
G0 X-3.125
G0 Y0.07
G0 X3.125
G1 X12.18
G1 X0.77S0
G1 X0.56S800
G1 X0.84S0
G1 X54.39S800
G1 X0.84S0
G1 X1.82S800
G1 X0.84S0
G1 X21.98S800
G1 X0.91S0
G1 X1.75S800
G1 X0.98S0
G1 X13.02S800
G1 X1.05S0
G1 X1.19S800
G1 X1.05S0
G1 X82.46S800
G1 X1.26S0
G1 X4.27S800
G1 X1.89S0
G1 X2.59S800
G1 X1.26S0
G1 X57.68S800
G1 X1.47S0
G1 X3.85S800
G1 X1.47S0
G1 X24.57S800
G0 X3.125
G0 Y0.07
G0 X-3.125
G1 X-24.92
G1 X-1.47S0
G1 X-3.78S800
G1 X-1.47S0
G1 X-57.68S800
G1 X-1.26S0
G1 X-2.66S800
G1 X-1.75S0
G1 X-4.34S800
G1 X-1.26S0
G1 X-82.46S800
G1 X-0.98S0
G1 X-1.19S800
G1 X-1.05S0
G1 X-13.02S800
G1 X-0.98S0
G1 X-1.75S800
G1 X-0.98S0
G1 X-21.84S800
G1 X-0.91S0
G1 X-1.82S800
G1 X-0.84S0
G1 X-54.32S800
G1 X-0.91S0
G1 X-0.49S800
G1 X-0.84S0
G1 X-11.97S800
G0 X-3.125
G0 Y0.07
G0 X3.125
G1 X11.9
G1 X0.84S0
G1 X0.49S800
G1 X0.91S0
G1 X54.25S800
G1 X0.91S0
G1 X1.75S800
G1 X0.91S0
G1 X21.91S800
G1 X0.98S0
G1 X1.61S800
G1 X1.05S0
G1 X13.02S800
G1 X1.05S0
G1 X1.19S800
G1 X1.05S0
G1 X82.32S800
G1 X1.33S0
G1 X4.34S800
G1 X1.68S0
G1 X2.73S800
G1 X1.19S0
G1 X57.68S800
G1 X1.47S0
G1 X3.78S800
G1 X1.54S0
G1 X25.06S800
G0 X3.125
G0 Y0.07
G0 X-3.125
G1 X-25.41
G1 X-1.47S0
G1 X-3.85S800
G1 X-1.47S0
G1 X-57.54S800
G1 X-1.26S0
G1 X-2.8S800
G1 X-1.68S0
G1 X-4.27S800
G1 X-1.33S0
G1 X-82.32S800
G1 X-0.98S0
G1 X-1.19S800
G1 X-1.05S0
G1 X-13.02S800
G1 X-1.05S0
G1 X-1.61S800
G1 X-0.98S0
G1 X-21.91S800
G1 X-0.91S0
G1 X-1.75S800
G1 X-0.84S0
G1 X-54.32S800
G1 X-0.84S0
G1 X-0.56S800
G1 X-0.84S0
G1 X-11.69S800
G0 X-3.125
G0 Y0.07
G0 X3.125
G1 X11.55
G1 X0.84S0
G1 X0.49S800
G1 X0.84S0
G1 X54.32S800
G1 X0.91S0
G1 X1.68S800
G1 X0.91S0
G1 X21.91S800
G1 X0.91S0
G1 X1.75S800
G1 X0.98S0
G1 X13.02S800
G1 X0.98S0
G1 X0.07S800
G1 X0.07S0
G1 X1.12S800
G1 X0.98S0
G1 X82.25S800
G1 X0.07S0
G1 X0.07S800
G1 X1.19S0
G1 X4.06S800
G1 X0.07S0
G1 X0.07S800
G1 X1.61S0
G1 X2.94S800
G1 X1.26S0
G1 X57.54S800
G1 X1.47S0
G1 X3.78S800
G1 X1.47S0
G1 X25.76S800
G0 X3.125
G0 Y0.07
G0 X-3.125
G1 X-25.97
G1 X-1.47S0
G1 X-3.78S800
G1 X-1.47S0
G1 X-57.54S800
G1 X-1.19S0
G1 X-3.01S800
G1 X-1.82S0
G1 X-3.99S800
G1 X-1.26S0
G1 X-82.25S800
G1 X-0.98S0
G1 X-1.19S800
G1 X-1.05S0
G1 X-13.02S800
G1 X-1.05S0
G1 X-1.61S800
G1 X-0.98S0
G1 X-21.84S800
G1 X-0.98S0
G1 X-1.68S800
G1 X-0.84S0
G1 X-54.39S800
G1 X-0.84S0
G1 X-0.49S800
G1 X-0.84S0
G1 X-11.41S800
G0 X-3.125
G0 Y0.07
G0 X3.125
G1 X11.27
G1 X0.84S0
G1 X0.42S800
G1 X0.91S0
G1 X54.32S800
G1 X0.84S0
G1 X1.75S800
G1 X0.91S0
G1 X21.84S800
G1 X0.98S0
G1 X1.68S800
G1 X0.98S0
G1 X13.02S800
G1 X0.98S0
G1 X1.26S800
G1 X0.98S0
G1 X82.18S800
G1 X1.26S0
G1 X3.85S800
G1 X1.96S0
G1 X3.01S800
G1 X1.26S0
G1 X57.4S800
G1 X1.47S0
G1 X3.85S800
G1 X1.47S0
G1 X26.25S800
G0 X3.125
G0 Y0.07
G0 X-3.125
G1 X-26.6
G1 X-1.26S0
G1 X-0.07S800
G1 X-0.07S0
G1 X-3.85S800
G1 X-1.4S0
G1 X-0.07S800
G1 X-0.07S0
G1 X-57.33S800
G1 X-1.26S0
G1 X-3.15S800
G1 X-1.89S0
G1 X-0.07S800
G1 X-0.07S0
G1 X-3.64S800
G1 X-1.26S0
G1 X-82.11S800
G1 X-1.05S0
G1 X-1.19S800
G1 X-0.98S0
G1 X-13.02S800
G1 X-1.05S0
G1 X-1.61S800
G1 X-0.84S0
G1 X-0.07S800
G1 X-0.07S0
G1 X-21.84S800
G1 X-0.91S0
G1 X-1.68S800
G1 X-0.91S0
G1 X-54.18S800
G1 X-0.07S0
G1 X-0.07S800
G1 X-0.77S0
G1 X-0.56S800
G1 X-0.84S0
G1 X-11.06S800
G0 X-3.125
G0 Y0.07
G0 X3.125
G1 X10.99
G1 X0.77S0
G1 X0.56S800
G1 X0.84S0
G1 X54.32S800
G1 X0.84S0
G1 X1.68S800
G1 X0.91S0
G1 X21.91S800
G1 X0.91S0
G1 X1.68S800
G1 X0.98S0
G1 X13.02S800
G1 X0.98S0
G1 X1.26S800
G1 X0.98S0
G1 X82.04S800
G1 X1.26S0
G1 X3.64S800
G1 X2.1S0
G1 X3.08S800
G1 X1.26S0
G1 X57.4S800
G1 X1.47S0
G1 X3.85S800
G1 X1.4S0
G1 X26.81S800
G0 X3.125
G0 Y0.07
G0 X-3.125
G1 X-27.09
G1 X-1.47S0
G1 X-3.85S800
G1 X-1.47S0
G1 X-57.33S800
G1 X-1.19S0
G1 X-3.01S800
G1 X-2.38S0
G1 X-3.5S800
G1 X-1.26S0
G1 X-81.97S800
G1 X-1.05S0
G1 X-1.19S800
G1 X-0.98S0
G1 X-13.02S800
G1 X-1.05S0
G1 X-1.61S800
G1 X-0.91S0
G1 X-21.84S800
G1 X-0.98S0
G1 X-1.61S800
G1 X-0.91S0
G1 X-54.32S800
G1 X-0.84S0
G1 X-0.49S800
G1 X-0.84S0
G1 X-10.78S800
G0 X-3.125
G0 Y0.07
G0 X3.125
G1 X10.64
G1 X0.84S0
G1 X0.42S800
G1 X0.91S0
G1 X54.25S800
G1 X0.07S0
G1 X0.07S800
G1 X0.77S0
G1 X1.68S800
G1 X0.91S0
G1 X21.84S800
G1 X0.91S0
G1 X0.07S800
G1 X0.07S0
G1 X1.54S800
G1 X0.98S0
G1 X13.02S800
G1 X0.98S0
G1 X1.26S800
G1 X1.05S0
G1 X81.9S800
G1 X1.19S0
G1 X0.07S800
G1 X0.07S0
G1 X3.29S800
G1 X0.07S0
G1 X0.07S800
G1 X2.38S0
G1 X2.94S800
G1 X1.19S0
G1 X0.07S800
G1 X0.07S0
G1 X57.12S800
G1 X0.07S0
G1 X0.07S800
G1 X1.4S0
G1 X3.85S800
G1 X1.47S0
G1 X27.37S800
G0 X3.125
G0 Y0.07
G0 X-3.125
G1 X-27.58
G1 X-1.47S0
G1 X-3.85S800
G1 X-1.47S0
G1 X-57.26S800
G1 X-1.26S0
G1 X-2.87S800
G1 X-2.66S0
G1 X-3.29S800
G1 X-1.26S0
G1 X-81.9S800
G1 X-0.98S0
G1 X-1.26S800
G1 X-0.98S0
G1 X-13.02S800
G1 X-1.05S0
G1 X-1.54S800
G1 X-0.98S0
G1 X-21.84S800
G1 X-0.91S0
G1 X-1.68S800
G1 X-0.84S0
G1 X-54.32S800
G1 X-0.91S0
G1 X-0.42S800
G1 X-0.84S0
G1 X-10.5S800
G0 X-3.125
G0 Y0.07
G0 X3.125
G1 X10.36
G1 X0.77S0
G1 X0.49S800
G1 X0.84S0
G1 X54.32S800
G1 X0.84S0
G1 X1.68S800
G1 X0.91S0
G1 X21.84S800
G1 X0.98S0
G1 X1.54S800
G1 X1.05S0
G1 X13.02S800
G1 X0.98S0
G1 X1.26S800
G1 X0.98S0
G1 X81.83S800
G1 X1.19S0
G1 X3.29S800
G1 X1.75S0
G1 X0.14S800
G1 X0.98S0
G1 X2.8S800
G1 X1.19S0
G1 X57.19S800
G1 X1.47S0
G1 X3.85S800
G1 X1.47S0
G1 X27.93S800
G0 X3.125
G0 Y0.07
G0 X-3.125
G1 X-28.07
G1 X-0.07S0
G1 X-0.07S800
G1 X-1.47S0
G1 X-3.78S800
G1 X-0.07S0
G1 X-0.07S800
G1 X-1.4S0
G1 X-57.05S800
G1 X-0.07S0
G1 X-0.07S800
G1 X-1.12S0
G1 X-2.8S800
G1 X-0.91S0
G1 X-0.21S800
G1 X-0.07S0
G1 X-0.07S800
G1 X-1.68S0
G1 X-3.22S800
G1 X-1.19S0
G1 X-81.83S800
G1 X-1.05S0
G1 X-1.05S800
G1 X-0.07S0
G1 X-0.07S800
G1 X-0.98S0
G1 X-13.02S800
G1 X-0.98S0
G1 X-1.61S800
G1 X-0.91S0
G1 X-21.84S800
G1 X-0.91S0
G1 X-1.61S800
G1 X-0.91S0
G1 X-54.25S800
G1 X-0.91S0
G1 X-0.49S800
G1 X-0.77S0
G1 X-10.22S800
G0 X-3.125
G0 Y0.07
G0 X3.125
G1 X10.08
G1 X0.84S0
G1 X0.42S800
G1 X0.84S0
G1 X54.32S800
G1 X0.84S0
G1 X1.68S800
G1 X0.84S0
G1 X21.91S800
G1 X0.91S0
G1 X1.54S800
G1 X1.05S0
G1 X13.02S800
G1 X0.98S0
G1 X1.19S800
G1 X1.05S0
G1 X81.76S800
G1 X1.19S0
G1 X3.15S800
G1 X1.68S0
G1 X0.42S800
G1 X0.98S0
G1 X2.66S800
G1 X1.26S0
G1 X57.12S800
G1 X1.47S0
G1 X3.85S800
G1 X1.47S0
G1 X28.42S800
G0 X3.125
G0 Y0.07
G0 X-3.125
G1 X-28.77
G1 X-1.47S0
G1 X-3.78S800
G1 X-1.54S0
G1 X-57.05S800
G1 X-1.26S0
G1 X-2.59S800
G1 X-0.91S0
G1 X-0.7S800
G1 X-1.61S0
G1 X-3.01S800
G1 X-1.26S0
G1 X-81.69S800
G1 X-1.05S0
G1 X-1.19S800
G1 X-0.98S0
G1 X-13.02S800
G1 X-1.05S0
G1 X-1.54S800
G1 X-0.91S0
G1 X-21.84S800
G1 X-0.91S0
G1 X-1.61S800
G1 X-0.91S0
G1 X-54.32S800
G1 X-0.84S0
G1 X-0.42S800
G1 X-0.84S0
G1 X-9.87S800
G0 X-3.125
G0 Y0.07
G0 X3.125
G1 X9.8
G1 X0.77S0
G1 X0.42S800
G1 X0.84S0
G1 X54.39S800
G1 X0.77S0
G1 X1.68S800
G1 X0.91S0
G1 X21.84S800
G1 X0.84S0
G1 X0.07S800
G1 X0.07S0
G1 X1.47S800
G1 X0.98S0
G1 X13.09S800
G1 X0.98S0
G1 X1.12S800
G1 X1.12S0
G1 X81.62S800
G1 X1.19S0
G1 X3.01S800
G1 X1.47S0
G1 X0.07S800
G1 X0.07S0
G1 X0.77S800
G1 X0.98S0
G1 X2.52S800
G1 X1.26S0
G1 X57.05S800
G1 X1.47S0
G1 X3.85S800
G1 X1.47S0
G1 X28.98S800
G0 X3.125
G0 Y0.07
G0 X-3.125
G1 X-29.26
G1 X-1.47S0
G1 X-3.85S800
G1 X-1.47S0
G1 X-56.98S800
G1 X-1.26S0
G1 X-2.45S800
G1 X-0.98S0
G1 X-0.98S800
G1 X-1.54S0
G1 X-2.87S800
G1 X-1.26S0
G1 X-81.62S800
G1 X-1.05S0
G1 X-1.19S800
G1 X-0.98S0
G1 X-13.02S800
G1 X-0.98S0
G1 X-1.54S800
G1 X-0.98S0
G1 X-21.84S800
G1 X-0.91S0
G1 X-1.54S800
G1 X-0.91S0
G1 X-54.32S800
G1 X-0.84S0
G1 X-0.42S800
G1 X-0.84S0
G1 X-9.59S800
G0 X-3.125
G0 Y0.07
G0 X3.125
G1 X9.45
G1 X0.84S0
G1 X0.42S800
G1 X0.84S0
G1 X54.32S800
G1 X0.84S0
G1 X1.61S800
G1 X0.84S0
G1 X21.84S800
G1 X0.91S0
G1 X1.54S800
G1 X0.98S0
G1 X13.09S800
G1 X0.98S0
G1 X1.19S800
G1 X0.98S0
G1 X81.62S800
G1 X1.26S0
G1 X2.87S800
G1 X1.47S0
G1 X1.12S800
G1 X0.98S0
G1 X2.38S800
G1 X1.26S0
G1 X56.98S800
G1 X1.4S0
G1 X3.92S800
G1 X1.4S0
G1 X29.61S800
G0 X3.125
G0 Y0.07
G0 X-3.125
G1 X-29.82
G1 X-1.4S0
G1 X-3.85S800
G1 X-0.07S0
G1 X-0.07S800
G1 X-1.33S0
G1 X-56.91S800
G1 X-0.07S0
G1 X-0.07S800
G1 X-1.19S0
G1 X-2.38S800
G1 X-0.98S0
G1 X-1.19S800
G1 X-1.4S0
G1 X-2.94S800
G1 X-1.19S0
G1 X-81.55S800
G1 X-0.98S0
G1 X-1.19S800
G1 X-0.98S0
G1 X-13.09S800
G1 X-0.98S0
G1 X-1.47S800
G1 X-0.98S0
G1 X-21.77S800
G1 X-0.98S0
G1 X-1.54S800
G1 X-0.84S0
G1 X-54.32S800
G1 X-0.84S0
G1 X-0.42S800
G1 X-0.84S0
G1 X-9.31S800
G0 X-3.125
G0 Y0.07
G0 X3.125
G1 X9.1
G1 X0.84S0
G1 X0.42S800
G1 X0.91S0
G1 X54.25S800
G1 X0.91S0
G1 X1.54S800
G1 X0.91S0
G1 X21.84S800
G1 X0.91S0
G1 X1.47S800
G1 X1.05S0
G1 X12.95S800
G1 X1.05S0
G1 X1.19S800
G1 X0.98S0
G1 X81.55S800
G1 X1.19S0
G1 X2.8S800
G1 X1.47S0
G1 X1.33S800
G1 X0.98S0
G1 X2.31S800
G1 X1.19S0
G1 X56.98S800
G1 X1.4S0
G1 X3.85S800
G1 X1.47S0
G1 X30.1S800
G0 X3.125
G0 Y0.07
G0 X-3.125
G1 X-30.38
G1 X-1.47S0
G1 X-3.92S800
G1 X-1.4S0
G1 X-56.91S800
G1 X-1.19S0
G1 X-2.24S800
G1 X-1.05S0
G1 X-1.4S800
G1 X-1.4S0
G1 X-2.8S800
G1 X-1.19S0
G1 X-81.48S800
G1 X-0.98S0
G1 X-1.19S800
G1 X-1.05S0
G1 X-12.95S800
G1 X-1.05S0
G1 X-1.47S800
G1 X-0.91S0
G1 X-21.84S800
G1 X-0.91S0
G1 X-1.54S800
G1 X-0.84S0
G1 X-54.32S800
G1 X-0.84S0
G1 X-0.42S800
G1 X-0.84S0
G1 X-8.96S800
G0 X-3.125
G0 Y0.07
G0 X3.125
G1 X8.89
G1 X0.84S0
G1 X0.28S800
G1 X0.91S0
G1 X54.32S800
G1 X0.91S0
G1 X1.47S800
G1 X0.98S0
G1 X21.77S800
G1 X0.91S0
G1 X1.47S800
G1 X0.98S0
G1 X13.02S800
G1 X1.05S0
G1 X1.19S800
G1 X0.98S0
G1 X81.41S800
G1 X1.26S0
G1 X2.73S800
G1 X1.33S0
G1 X0.07S800
G1 X0.07S0
G1 X1.4S800
G1 X1.05S0
G1 X2.24S800
G1 X1.12S0
G1 X56.98S800
G1 X1.33S0
G1 X3.92S800
G1 X1.47S0
G1 X30.59S800
G0 X3.125
G0 Y0.07
G0 X-3.125
G1 X-30.94
G1 X-1.47S0
G1 X-3.78S800
G1 X-1.47S0
G1 X-56.84S800
G1 X-1.19S0
G1 X-2.17S800
G1 X-1.05S0
G1 X-1.54S800
G1 X-1.4S0
G1 X-2.73S800
G1 X-1.19S0
G1 X-81.41S800
G1 X-0.98S0
G1 X-1.19S800
G1 X-1.05S0
G1 X-12.95S800
G1 X-1.05S0
G1 X-1.4S800
G1 X-0.98S0
G1 X-21.77S800
G1 X-0.98S0
G1 X-1.47S800
G1 X-0.84S0
G1 X-54.32S800
G1 X-0.84S0
G1 X-0.42S800
G1 X-0.84S0
G1 X-8.68S800
G0 X-3.125
G0 Y0.07
G0 X3.125
G1 X8.47
G1 X0.84S0
G1 X0.42S800
G1 X0.84S0
G1 X54.32S800
G1 X0.84S0
G1 X1.54S800
G1 X0.91S0
G1 X21.77S800
G1 X0.98S0
G1 X1.4S800
G1 X0.98S0
G1 X13.09S800
G1 X0.98S0
G1 X1.12S800
G1 X1.05S0
G1 X81.34S800
G1 X1.19S0
G1 X2.73S800
G1 X1.33S0
G1 X1.61S800
G1 X1.12S0
G1 X2.1S800
G1 X1.19S0
G1 X56.77S800
G1 X1.47S0
G1 X3.78S800
G1 X1.54S0
G1 X31.22S800
G0 X3.125
G0 Y0.07
G0 X-3.125
G1 X-31.43
G1 X-1.47S0
G1 X-3.85S800
G1 X-1.4S0
G1 X-56.77S800
G1 X-1.26S0
G1 X-2.03S800
G1 X-1.12S0
G1 X-1.61S800
G1 X-1.33S0
G1 X-2.73S800
G1 X-1.26S0
G1 X-81.27S800
G1 X-1.05S0
G1 X-1.19S800
G1 X-0.98S0
G1 X-12.95S800
G1 X-1.05S0
G1 X-1.4S800
G1 X-0.98S0
G1 X-21.77S800
G1 X-0.91S0
G1 X-1.47S800
G1 X-0.91S0
G1 X-54.25S800
G1 X-0.91S0
G1 X-0.35S800
G1 X-0.84S0
G1 X-8.4S800
G0 X-3.125
G0 Y0.07
G0 X3.125
G1 X8.26
G1 X0.84S0
G1 X0.35S800
G1 X0.84S0
G1 X54.32S800
G1 X0.84S0
G1 X1.47S800
G1 X0.91S0
G1 X21.77S800
G1 X0.98S0
G1 X1.4S800
G1 X0.98S0
G1 X13.09S800
G1 X0.98S0
G1 X1.12S800
G1 X1.05S0
G1 X81.2S800
G1 X1.26S0
G1 X2.73S800
G1 X1.26S0
G1 X1.75S800
G1 X1.05S0
G1 X2.1S800
G1 X1.19S0
G1 X56.77S800
G1 X1.4S0
G1 X3.85S800
G1 X1.4S0
G1 X31.78S800
G0 X3.125
G0 Y0.07
G0 X-3.125
G1 X-32.06
G1 X-1.47S0
G1 X-3.78S800
G1 X-1.47S0
G1 X-56.63S800
G1 X-1.26S0
G1 X-2.03S800
G1 X-1.12S0
G1 X-1.75S800
G1 X-1.26S0
G1 X-2.73S800
G1 X-1.26S0
G1 X-81.13S800
G1 X-0.98S0
G1 X-1.19S800
G1 X-1.05S0
G1 X-13.02S800
G1 X-0.98S0
G1 X-1.4S800
G1 X-0.91S0
G1 X-21.77S800
G1 X-0.98S0
G1 X-1.4S800
G1 X-0.91S0
G1 X-54.32S800
G1 X-0.84S0
G1 X-0.35S800
G1 X-0.84S0
G1 X-8.05S800
G0 X-3.125
G0 Y0.07
G0 X3.125
G1 X7.91
G1 X0.84S0
G1 X0.42S800
G1 X0.84S0
G1 X54.32S800
G1 X0.84S0
G1 X1.47S800
G1 X0.84S0
G1 X21.84S800
G1 X0.91S0
G1 X1.4S800
G1 X0.98S0
G1 X13.09S800
G1 X0.91S0
G1 X1.19S800
G1 X1.05S0
G1 X81.13S800
G1 X1.26S0
G1 X2.66S800
G1 X1.26S0
G1 X1.75S800
G1 X1.19S0
G1 X2.03S800
G1 X1.19S0
G1 X56.63S800
G1 X1.47S0
G1 X3.78S800
G1 X1.47S0
G1 X32.27S800
G0 X3.125
G0 Y0.07
G0 X-3.125
G1 X-32.55
G1 X-1.47S0
G1 X-3.85S800
G1 X-1.4S0
G1 X-56.63S800
G1 X-1.19S0
G1 X-2.03S800
G1 X-1.19S0
G1 X-1.75S800
G1 X-1.19S0
G1 X-2.73S800
G1 X-1.26S0
G1 X-81.06S800
G1 X-1.05S0
G1 X-1.12S800
G1 X-1.05S0
G1 X-13.02S800
G1 X-0.98S0
G1 X-1.4S800
G1 X-0.91S0
G1 X-21.77S800
G1 X-0.91S0
G1 X-1.47S800
G1 X-0.84S0
G1 X-54.25S800
G1 X-0.91S0
G1 X-0.35S800
G1 X-0.84S0
G1 X-7.77S800
G0 X-3.125
G0 Y0.07
G0 X3.125
G1 X7.63
G1 X0.84S0
G1 X0.35S800
G1 X0.84S0
G1 X54.25S800
G1 X0.91S0
G1 X1.47S800
G1 X0.84S0
G1 X21.77S800
G1 X0.98S0
G1 X1.33S800
G1 X1.05S0
G1 X12.95S800
G1 X0.07S0
G1 X0.07S800
G1 X0.91S0
G1 X1.12S800
G1 X1.05S0
G1 X80.99S800
G1 X0.07S0
G1 X0.07S800
G1 X1.12S0
G1 X2.73S800
G1 X1.26S0
G1 X1.75S800
G1 X1.19S0
G1 X1.96S800
G1 X0.07S0
G1 X0.07S800
G1 X1.05S0
G1 X56.56S800
G1 X0.07S0
G1 X0.07S800
G1 X1.33S0
G1 X3.85S800
G1 X1.4S0
G1 X32.9S800
G0 X3.125
G0 Y0.07
G0 X-3.125
G1 X-33.11
G1 X-1.4S0
G1 X-3.85S800
G1 X-1.4S0
G1 X-56.56S800
G1 X-1.26S0
G1 X-1.89S800
G1 X-1.26S0
G1 X-1.75S800
G1 X-1.19S0
G1 X-2.8S800
G1 X-1.19S0
G1 X-81.06S800
G1 X-0.91S0
G1 X-1.19S800
G1 X-1.05S0
G1 X-13.02S800
G1 X-0.98S0
G1 X-1.33S800
G1 X-0.98S0
G1 X-21.77S800
G1 X-0.84S0
G1 X-1.47S800
G1 X-0.84S0
G1 X-54.32S800
G1 X-0.84S0
G1 X-0.35S800
G1 X-0.84S0
G1 X-7.49S800
G0 X-3.125
G0 Y0.07
G0 X3.125
G1 X7.28
G1 X0.84S0
G1 X0.35S800
G1 X0.84S0
G1 X54.32S800
G1 X0.91S0
G1 X1.4S800
G1 X0.91S0
G1 X21.7S800
G1 X0.98S0
G1 X1.33S800
G1 X0.98S0
G1 X13.02S800
G1 X1.05S0
G1 X1.12S800
G1 X1.05S0
G1 X80.92S800
G1 X1.19S0
G1 X2.8S800
G1 X1.19S0
G1 X1.82S800
G1 X1.19S0
G1 X1.96S800
G1 X1.19S0
G1 X56.49S800
G1 X1.47S0
G1 X3.85S800
G1 X1.4S0
G1 X33.39S800
G0 X3.125
G0 Y0.07
G0 X-3.125
G1 X-33.67
G1 X-1.33S0
G1 X-0.07S800
G1 X-0.07S0
G1 X-3.78S800
G1 X-1.33S0
G1 X-0.07S800
G1 X-0.07S0
G1 X-56.42S800
G1 X-1.12S0
G1 X-0.07S800
G1 X-0.07S0
G1 X-1.96S800
G1 X-1.12S0
G1 X-0.07S800
G1 X-0.07S0
G1 X-1.75S800
G1 X-1.12S0
G1 X-2.8S800
G1 X-1.19S0
G1 X-80.92S800
G1 X-0.98S0
G1 X-1.12S800
G1 X-0.07S0
G1 X-0.07S800
G1 X-0.98S0
G1 X-13.02S800
G1 X-0.98S0
G1 X-1.33S800
G1 X-0.91S0
G1 X-21.77S800
G1 X-0.91S0
G1 X-1.4S800
G1 X-0.84S0
G1 X-54.32S800
G1 X-0.84S0
G1 X-0.35S800
G1 X-0.77S0
G1 X-7.21S800
G0 X-3.125
G0 Y0.07
G0 X3.125
G1 X7.07
G1 X0.84S0
G1 X0.28S800
G1 X0.91S0
G1 X54.25S800
G1 X0.84S0
G1 X1.4S800
G1 X0.98S0
G1 X21.7S800
G1 X0.91S0
G1 X1.33S800
G1 X1.05S0
G1 X12.95S800
G1 X1.05S0
G1 X1.12S800
G1 X1.05S0
G1 X80.85S800
G1 X1.19S0
G1 X2.87S800
G1 X1.12S0
G1 X1.68S800
G1 X1.33S0
G1 X1.96S800
G1 X1.19S0
G1 X56.42S800
G1 X1.47S0
G1 X3.85S800
G1 X1.4S0
G1 X33.88S800
G0 X3.125
G0 Y0.07
G0 X-3.125
G1 X-34.23
G1 X-1.4S0
G1 X-3.85S800
G1 X-1.4S0
G1 X-56.42S800
G1 X-1.19S0
G1 X-1.96S800
G1 X-1.33S0
G1 X-1.61S800
G1 X-1.19S0
G1 X-2.8S800
G1 X-1.26S0
G1 X-80.78S800
G1 X-1.05S0
G1 X-1.19S800
G1 X-0.98S0
G1 X-13.02S800
G1 X-0.98S0
G1 X-1.33S800
G1 X-0.91S0
G1 X-21.7S800
G1 X-0.91S0
G1 X-1.47S800
G1 X-0.84S0
G1 X-54.25S800
G1 X-0.84S0
G1 X-0.35S800
G1 X-0.84S0
G1 X-6.86S800
G0 X-3.125
G0 Y0.07
G0 X3.125
G1 X6.72
G1 X0.84S0
G1 X0.35S800
G1 X0.84S0
G1 X54.32S800
G1 X0.77S0
G1 X1.4S800
G1 X0.91S0
G1 X21.77S800
G1 X0.91S0
G1 X1.26S800
G1 X0.98S0
G1 X0.07S800
G1 X0.07S0
G1 X12.95S800
G1 X0.91S0
G1 X0.07S800
G1 X0.07S0
G1 X1.19S800
G1 X0.84S0
G1 X0.07S800
G1 X0.07S0
G1 X80.71S800
G1 X1.19S0
G1 X2.87S800
G1 X1.12S0
G1 X1.61S800
G1 X1.33S0
G1 X0.07S800
G1 X0.07S0
G1 X1.89S800
G1 X1.12S0
G1 X0.07S800
G1 X0.07S0
G1 X56.28S800
G1 X1.4S0
G1 X3.85S800
G1 X1.47S0
G1 X34.44S800
G0 X3.125
G0 Y0.07
G0 X-3.125
G1 X-34.72
G1 X-1.4S0
G1 X-3.85S800
G1 X-1.4S0
G1 X-56.35S800
G1 X-1.19S0
G1 X-1.96S800
G1 X-1.4S0
G1 X-1.61S800
G1 X-1.05S0
G1 X-2.94S800
G1 X-1.26S0
G1 X-80.64S800
G1 X-1.05S0
G1 X-1.19S800
G1 X-0.98S0
G1 X-13.02S800
G1 X-0.98S0
G1 X-1.26S800
G1 X-0.91S0
G1 X-21.77S800
G1 X-0.84S0
G1 X-1.4S800
G1 X-0.91S0
G1 X-54.32S800
G1 X-0.84S0
G1 X-0.28S800
G1 X-0.84S0
G1 X-6.58S800
G0 X-3.125
G0 Y0.07
G0 X3.125
G1 X6.44
G1 X0.84S0
G1 X0.28S800
G1 X0.84S0
G1 X54.32S800
G1 X0.84S0
G1 X1.4S800
G1 X0.84S0
G1 X21.77S800
G1 X0.91S0
G1 X1.26S800
G1 X0.98S0
G1 X13.02S800
G1 X0.98S0
G1 X1.26S800
G1 X0.98S0
G1 X80.64S800
G1 X1.19S0
G1 X2.94S800
G1 X1.12S0
G1 X1.47S800
G1 X1.47S0
G1 X1.96S800
G1 X1.26S0
G1 X56.21S800
G1 X1.47S0
G1 X3.85S800
G1 X1.4S0
G1 X35S800
G0 X3.125
G0 Y0.07
G0 X-3.125
G1 X-35.14
G1 X-0.07S0
G1 X-0.07S800
G1 X-1.4S0
G1 X-3.85S800
G1 X-1.47S0
G1 X-56.21S800
G1 X-1.12S0
G1 X-2.1S800
G1 X-1.47S0
G1 X-1.4S800
G1 X-1.05S0
G1 X-3.01S800
G1 X-1.19S0
G1 X-80.64S800
G1 X-0.98S0
G1 X-1.19S800
G1 X-0.98S0
G1 X-13.02S800
G1 X-1.05S0
G1 X-1.19S800
G1 X-0.91S0
G1 X-21.77S800
G1 X-0.84S0
G1 X-1.4S800
G1 X-0.84S0
G1 X-54.32S800
G1 X-0.84S0
G1 X-0.28S800
G1 X-0.84S0
G1 X-6.3S800
G0 X-3.125
G0 Y0.07
G0 X3.125
G1 X6.16
G1 X0.77S0
G1 X0.35S800
G1 X0.84S0
G1 X54.25S800
G1 X0.91S0
G1 X1.33S800
G1 X0.91S0
G1 X21.7S800
G1 X0.91S0
G1 X1.26S800
G1 X0.98S0
G1 X13.02S800
G1 X1.05S0
G1 X1.19S800
G1 X0.98S0
G1 X80.57S800
G1 X1.19S0
G1 X3.01S800
G1 X1.05S0
G1 X1.33S800
G1 X1.47S0
G1 X2.1S800
G1 X1.19S0
G1 X56.21S800
G1 X1.4S0
G1 X3.92S800
G1 X1.4S0
G1 X35.49S800
G0 X3.125
G0 Y0.07
G0 X-3.125
G1 X-35.84
G1 X-1.4S0
G1 X-3.85S800
G1 X-1.4S0
G1 X-56.21S800
G1 X-1.19S0
G1 X-2.1S800
G1 X-1.54S0
G1 X-1.19S800
G1 X-1.05S0
G1 X-3.08S800
G1 X-1.19S0
G1 X-80.5S800
G1 X-0.98S0
G1 X-1.26S800
G1 X-0.98S0
G1 X-13.02S800
G1 X-0.98S0
G1 X-1.26S800
G1 X-0.84S0
G1 X-21.77S800
G1 X-0.84S0
G1 X-1.4S800
G1 X-0.84S0
G1 X-54.25S800
G1 X-0.91S0
G1 X-0.28S800
G1 X-0.84S0
G1 X-5.95S800
G0 X-3.125
G0 Y0.07
G0 X3.125
G1 X5.88
G1 X0.84S0
G1 X0.21S800
G1 X0.84S0
G1 X54.32S800
G1 X0.91S0
G1 X1.26S800
G1 X0.98S0
G1 X21.7S800
G1 X0.91S0
G1 X1.19S800
G1 X0.98S0
G1 X13.02S800
G1 X0.98S0
G1 X1.19S800
G1 X0.98S0
G1 X80.5S800
G1 X1.12S0
G1 X0.07S800
G1 X0.07S0
G1 X3.08S800
G1 X1.05S0
G1 X0.98S800
G1 X1.54S0
G1 X0.07S800
G1 X0.07S0
G1 X2.17S800
G1 X1.19S0
G1 X56.14S800
G1 X1.33S0
G1 X3.92S800
G1 X1.4S0
G1 X35.84S800
G0 X3.125
G0 X-0.28Y0.07
G0 X-3.125
G1 X-35.84
G1 X-1.4S0
G1 X-3.85S800
G1 X-1.47S0
G1 X-56.07S800
G1 X-1.19S0
G1 X-2.24S800
G1 X-1.61S0
G1 X-0.91S800
G1 X-1.05S0
G1 X-3.15S800
G1 X-1.26S0
G1 X-80.36S800
G1 X-0.98S0
G1 X-1.19S800
G1 X-1.05S0
G1 X-13.02S800
G1 X-0.98S0
G1 X-1.19S800
G1 X-0.91S0
G1 X-21.7S800
G1 X-0.91S0
G1 X-1.33S800
G1 X-0.84S0
G1 X-54.32S800
G1 X-0.84S0
G1 X-0.28S800
G1 X-0.84S0
G1 X-5.67S800
G0 X-3.125
G0 Y0.07
G0 X3.125
G1 X5.53
G1 X0.84S0
G1 X0.21S800
G1 X0.84S0
G1 X54.32S800
G1 X0.91S0
G1 X1.26S800
G1 X0.98S0
G1 X21.63S800
G1 X0.91S0
G1 X1.19S800
G1 X0.98S0
G1 X13.02S800
G1 X0.98S0
G1 X1.26S800
G1 X0.98S0
G1 X80.29S800
G1 X1.26S0
G1 X3.22S800
G1 X0.98S0
G1 X0.77S800
G1 X1.68S0
G1 X2.31S800
G1 X1.26S0
G1 X56S800
G1 X1.47S0
G1 X3.85S800
G1 X1.4S0
G1 X35.77S800
G0 X3.125
G0 X-0.21Y0.07
G0 X-3.125
G1 X-35.7
G1 X-0.07S0
G1 X-0.07S800
G1 X-1.33S0
G1 X-3.92S800
G1 X-1.4S0
G1 X-56S800
G1 X-1.19S0
G1 X-2.38S800
G1 X-1.75S0
G1 X-0.63S800
G1 X-0.98S0
G1 X-3.22S800
G1 X-1.26S0
G1 X-80.29S800
G1 X-0.98S0
G1 X-1.19S800
G1 X-1.05S0
G1 X-13.02S800
G1 X-0.98S0
G1 X-1.12S800
G1 X-0.98S0
G1 X-21.7S800
G1 X-0.84S0
G1 X-1.4S800
G1 X-0.84S0
G1 X-54.25S800
G1 X-0.84S0
G1 X-0.28S800
G1 X-0.77S0
G1 X-5.46S800
G0 X-3.125
G0 Y0.07
G0 X3.125
G1 X5.25
G1 X0.84S0
G1 X0.21S800
G1 X0.91S0
G1 X54.25S800
G1 X0.84S0
G1 X1.33S800
G1 X0.91S0
G1 X21.63S800
G1 X0.98S0
G1 X1.05S800
G1 X1.05S0
G1 X13.02S800
G1 X0.98S0
G1 X1.26S800
G1 X0.98S0
G1 X80.22S800
G1 X1.26S0
G1 X3.29S800
G1 X0.98S0
G1 X0.42S800
G1 X1.82S0
G1 X2.45S800
G1 X1.26S0
G1 X55.93S800
G1 X1.4S0
G1 X3.92S800
G1 X1.4S0
G1 X35.7S800
G0 X3.125
G0 X1.4Y0.07
G0 X-3.125
G1 X-0.21
G1 X-1.54S0
G1 X-35.63S800
G1 X-1.47S0
G1 X-3.85S800
G1 X-1.47S0
G1 X-55.93S800
G1 X-1.19S0
G1 X-2.52S800
G1 X-1.96S0
G1 X-0.14S800
G1 X-0.98S0
G1 X-3.36S800
G1 X-1.26S0
G1 X-80.15S800
G1 X-0.98S0
G1 X-1.26S800
G1 X-0.98S0
G1 X-13.02S800
G1 X-0.98S0
G1 X-1.12S800
G1 X-0.91S0
G1 X-21.7S800
G1 X-0.91S0
G1 X-1.26S800
G1 X-0.84S0
G1 X-54.32S800
G1 X-0.84S0
G1 X-0.28S800
G1 X-0.77S0
G1 X-5.11S800
G0 X-3.125
G0 Y0.07
G0 X3.125
G1 X4.97
G1 X0.84S0
G1 X0.21S800
G1 X0.84S0
G1 X54.32S800
G1 X0.84S0
G1 X1.33S800
G1 X0.84S0
G1 X21.7S800
G1 X0.91S0
G1 X1.05S800
G1 X1.05S0
G1 X13.02S800
G1 X1.05S0
G1 X1.19S800
G1 X0.98S0
G1 X80.15S800
G1 X1.19S0
G1 X3.43S800
G1 X2.94S0
G1 X2.66S800
G1 X1.19S0
G1 X55.93S800
G1 X1.4S0
G1 X3.85S800
G1 X1.47S0
G1 X35.63S800
G1 X1.54S0
G1 X0.42S800
G0 X3.125
G0 Y0.07
G0 X-3.125
G1 X-0.7
G1 X-1.61S0
G1 X-35.63S800
G1 X-1.4S0
G1 X-3.85S800
G1 X-1.47S0
G1 X-55.86S800
G1 X-1.19S0
G1 X-2.8S800
G1 X-2.73S0
G1 X-3.5S800
G1 X-1.19S0
G1 X-80.08S800
G1 X-0.98S0
G1 X-1.26S800
G1 X-0.98S0
G1 X-13.02S800
G1 X-0.98S0
G1 X-1.12S800
G1 X-0.91S0
G1 X-21.63S800
G1 X-0.91S0
G1 X-1.26S800
G1 X-0.91S0
G1 X-54.25S800
G1 X-0.84S0
G1 X-0.21S800
G1 X-0.84S0
G1 X-4.83S800
G0 X-3.125
G0 Y0.07
G0 X3.125
G1 X4.62
G1 X0.84S0
G1 X0.21S800
G1 X0.91S0
G1 X54.25S800
G1 X0.84S0
G1 X1.33S800
G1 X0.84S0
G1 X21.63S800
G1 X0.98S0
G1 X1.05S800
G1 X0.98S0
G1 X13.09S800
G1 X0.91S0
G1 X1.26S800
G1 X0.98S0
G1 X80.01S800
G1 X1.26S0
G1 X3.5S800
G1 X2.52S0
G1 X2.94S800
G1 X1.26S0
G1 X55.79S800
G1 X1.4S0
G1 X3.92S800
G1 X1.4S0
G1 X35.63S800
G1 X1.47S0
G1 X1.12S800
G0 X3.125
G0 Y0.07
G0 X-3.125
G1 X-1.26
G1 X-1.54S0
G1 X-35.56S800
G1 X-1.47S0
G1 X-3.92S800
G1 X-1.4S0
G1 X-55.79S800
G1 X-1.19S0
G1 X-3.08S800
G1 X-2.38S0
G1 X-3.57S800
G1 X-1.19S0
G1 X-80.01S800
G1 X-0.98S0
G1 X-1.19S800
G1 X-1.05S0
G1 X-13.02S800
G1 X-0.98S0
G1 X-1.12S800
G1 X-0.84S0
G1 X-21.63S800
G1 X-0.98S0
G1 X-1.26S800
G1 X-0.84S0
G1 X-54.32S800
G1 X-0.84S0
G1 X-0.21S800
G1 X-0.77S0
G1 X-4.55S800
G0 X-3.125
G0 Y0.07
G0 X3.125
G1 X4.41
G1 X0.77S0
G1 X0.21S800
G1 X0.84S0
G1 X54.32S800
G1 X0.84S0
G1 X1.26S800
G1 X0.91S0
G1 X21.63S800
G1 X0.91S0
G1 X1.05S800
G1 X0.98S0
G1 X13.09S800
G1 X0.91S0
G1 X1.26S800
G1 X0.98S0
G1 X79.94S800
G1 X1.19S0
G1 X3.64S800
G1 X2.1S0
G1 X3.29S800
G1 X1.26S0
G1 X55.72S800
G1 X1.4S0
G1 X3.92S800
G1 X1.4S0
G1 X35.56S800
G1 X1.54S0
G1 X1.61S800
G0 X3.125
G0 Y0.07
G0 X-3.125
G1 X-1.96
G1 X-1.4S0
G1 X-0.07S800
G1 X-0.07S0
G1 X-35.49S800
G1 X-1.47S0
G1 X-3.85S800
G1 X-1.4S0
G1 X-55.72S800
G1 X-1.26S0
G1 X-3.29S800
G1 X-0.07S0
G1 X-0.14S800
G1 X-1.68S0
G1 X-3.78S800
G1 X-1.12S0
G1 X-0.07S800
G1 X-0.07S0
G1 X-79.87S800
G1 X-0.98S0
G1 X-1.19S800
G1 X-0.98S0
G1 X-13.09S800
G1 X-1.05S0
G1 X-0.98S800
G1 X-0.91S0
G1 X-21.63S800
G1 X-0.91S0
G1 X-1.19S800
G1 X-0.84S0
G1 X-54.32S800
G1 X-0.91S0
G1 X-0.14S800
G1 X-0.84S0
G1 X-4.2S800
G0 X-3.125
G0 Y0.07
G0 X3.125
G1 X4.06
G1 X0.84S0
G1 X0.21S800
G1 X0.84S0
G1 X54.25S800
G1 X0.84S0
G1 X1.26S800
G1 X0.91S0
G1 X21.7S800
G1 X0.84S0
G1 X1.05S800
G1 X0.98S0
G1 X13.09S800
G1 X0.98S0
G1 X1.19S800
G1 X0.98S0
G1 X79.8S800
G1 X1.26S0
G1 X3.92S800
G1 X1.47S0
G1 X3.64S800
G1 X1.19S0
G1 X55.72S800
G1 X1.4S0
G1 X3.92S800
G1 X1.4S0
G1 X35.49S800
G1 X1.54S0
G1 X2.17S800
G0 X3.125
G0 Y0.07
G0 X-3.125
G1 X-2.52
G1 X-1.54S0
G1 X-35.49S800
G1 X-1.33S0
G1 X-3.99S800
G1 X-1.33S0
G1 X-55.72S800
G1 X-1.19S0
G1 X-3.99S800
G1 X-0.77S0
G1 X-4.27S800
G1 X-1.19S0
G1 X-79.8S800
G1 X-0.98S0
G1 X-1.19S800
G1 X-0.98S0
G1 X-13.09S800
G1 X-1.05S0
G1 X-0.91S800
G1 X-0.91S0
G1 X-21.63S800
G1 X-0.91S0
G1 X-1.26S800
G1 X-0.84S0
G1 X-54.25S800
G1 X-0.91S0
G1 X-0.14S800
G1 X-0.84S0
G1 X-3.92S800
G0 X-3.125
G0 Y0.07
G0 X3.125
G1 X3.78
G1 X0.84S0
G1 X0.14S800
G1 X0.84S0
G1 X54.32S800
G1 X0.84S0
G1 X1.26S800
G1 X0.84S0
G1 X21.63S800
G1 X0.91S0
G1 X0.91S800
G1 X0.07S0
G1 X0.07S800
G1 X0.91S0
G1 X13.09S800
G1 X0.98S0
G1 X1.19S800
G1 X0.98S0
G1 X0.07S800
G1 X0.07S0
G1 X79.59S800
G1 X1.26S0
G1 X4.48S800
G1 X0.28S0
G1 X0.14S800
G1 X0.07S0
G1 X3.99S800
G1 X0.07S0
G1 X0.07S800
G1 X1.12S0
G1 X55.58S800
G1 X0.07S0
G1 X0.07S800
G1 X1.26S0
G1 X0.07S800
G1 X0.07S0
G1 X3.78S800
G1 X0.07S0
G1 X0.07S800
G1 X1.26S0
G1 X0.07S800
G1 X0.07S0
G1 X35.35S800
G1 X1.54S0
G1 X2.73S800
G0 X3.125
G0 X-0.21Y0.07
G0 X-3.125
G1 X-2.8
G1 X-1.47S0
G1 X-35.42S800
G1 X-1.47S0
G1 X-3.92S800
G1 X-1.33S0
G1 X-55.65S800
G1 X-1.19S0
G1 X-9.03S800
G1 X-1.26S0
G1 X-79.66S800
G1 X-0.98S0
G1 X-1.19S800
G1 X-0.98S0
G1 X-13.09S800
G1 X-1.05S0
G1 X-0.91S800
G1 X-0.91S0
G1 X-21.63S800
G1 X-0.91S0
G1 X-1.19S800
G1 X-0.84S0
G1 X-54.32S800
G1 X-0.84S0
G1 X-0.14S800
G1 X-0.84S0
G1 X-3.64S800
G0 X-3.125
G0 Y0.07
G0 X3.125
G1 X3.5
G1 X0.77S0
G1 X0.21S800
G1 X0.84S0
G1 X54.32S800
G1 X0.84S0
G1 X1.19S800
G1 X0.84S0
G1 X21.63S800
G1 X0.98S0
G1 X0.84S800
G1 X1.05S0
G1 X13.09S800
G1 X0.98S0
G1 X1.19S800
G1 X0.98S0
G1 X79.66S800
G1 X1.19S0
G1 X9.03S800
G1 X1.26S0
G1 X55.51S800
G1 X1.4S0
G1 X3.92S800
G1 X1.4S0
G1 X35.42S800
G1 X1.54S0
G1 X2.73S800
G0 X3.125
G0 X-0.21Y0.07
G0 X-3.125
G1 X-0.07
G1 X-0.07S0
G1 X-2.73S800
G1 X-1.47S0
G1 X-35.35S800
G1 X-1.4S0
G1 X-0.07S800
G1 X-0.07S0
G1 X-3.71S800
G1 X-0.07S0
G1 X-0.07S800
G1 X-1.33S0
G1 X-55.58S800
G1 X-1.19S0
G1 X-9.1S800
G1 X-1.19S0
G1 X-79.59S800
G1 X-0.91S0
G1 X-1.26S800
G1 X-0.98S0
G1 X-13.09S800
G1 X-0.98S0
G1 X-0.91S800
G1 X-0.91S0
G1 X-21.63S800
G1 X-0.91S0
G1 X-1.19S800
G1 X-0.84S0
G1 X-54.25S800
G1 X-0.84S0
G1 X-0.21S800
G1 X-0.77S0
G1 X-3.36S800
G0 X-3.125
G0 Y0.07
G0 X3.125
G1 X3.22
G1 X0.84S0
G1 X0.07S800
G1 X0.91S0
G1 X54.25S800
G1 X0.84S0
G1 X1.19S800
G1 X0.91S0
G1 X21.63S800
G1 X0.91S0
G1 X0.84S800
G1 X1.05S0
G1 X13.09S800
G1 X0.98S0
G1 X1.19S800
G1 X0.98S0
G1 X79.59S800
G1 X1.19S0
G1 X9.03S800
G1 X1.19S0
G1 X55.58S800
G1 X1.4S0
G1 X3.85S800
G1 X1.4S0
G1 X35.35S800
G1 X1.47S0
G1 X2.87S800
G0 X3.125
G0 X-0.42Y0.07
G0 X-3.125
G1 X-2.73
G1 X-1.47S0
G1 X-35.35S800
G1 X-1.4S0
G1 X-3.92S800
G1 X-1.33S0
G1 X-55.58S800
G1 X-1.19S0
G1 X-9.03S800
G1 X-1.26S0
G1 X-79.45S800
G1 X-0.91S0
G1 X-1.26S800
G1 X-0.98S0
G1 X-13.09S800
G1 X-0.98S0
G1 X-0.91S800
G1 X-0.91S0
G1 X-21.56S800
G1 X-0.98S0
G1 X-1.12S800
G1 X-0.84S0
G1 X-54.32S800
G1 X-0.84S0
G1 X-0.14S800
G1 X-0.84S0
G1 X-3.01S800
G0 X-3.125
G0 Y0.07
G0 X3.125
G1 X2.94
G1 X0.77S0
G1 X0.14S800
G1 X0.84S0
G1 X54.32S800
G1 X0.84S0
G1 X1.12S800
G1 X0.91S0
G1 X21.63S800
G1 X0.91S0
G1 X0.84S800
G1 X0.98S0
G1 X13.16S800
G1 X0.91S0
G1 X0.07S800
G1 X0.07S0
G1 X1.12S800
G1 X0.98S0
G1 X79.38S800
G1 X1.19S0
G1 X0.07S800
G1 X0.07S0
G1 X8.96S800
G1 X1.19S0
G1 X55.51S800
G1 X1.33S0
G1 X0.07S800
G1 X0.07S0
G1 X3.78S800
G1 X1.4S0
G1 X35.35S800
G1 X1.47S0
G1 X2.8S800
G1 X1.47S0
G1 X0.07S800
G1 X0.07S0
G1 X0.14S800
G0 X3.125
G0 Y0.07
G0 X-3.125
G1 X-0.49
G1 X-1.61S0
G1 X-2.73S800
G1 X-1.47S0
G1 X-35.28S800
G1 X-1.47S0
G1 X-3.85S800
G1 X-1.33S0
G1 X-55.51S800
G1 X-1.19S0
G1 X-4.9S800
G1 X-0.91S0
G1 X-3.22S800
G1 X-1.26S0
G1 X-79.38S800
G1 X-0.91S0
G1 X-1.26S800
G1 X-0.98S0
G1 X-13.09S800
G1 X-0.98S0
G1 X-0.91S800
G1 X-0.84S0
G1 X-21.63S800
G1 X-0.91S0
G1 X-1.12S800
G1 X-0.84S0
G1 X-54.25S800
G1 X-0.91S0
G1 X-0.07S800
G1 X-0.84S0
G1 X-2.8S800
G0 X-3.125
G0 Y0.07
G0 X3.125
G1 X2.59
G1 X0.84S0
G1 X0.14S800
G1 X0.84S0
G1 X54.25S800
G1 X0.84S0
G1 X1.12S800
G1 X0.91S0
G1 X21.63S800
G1 X0.91S0
G1 X0.77S800
G1 X1.05S0
G1 X13.09S800
G1 X0.98S0
G1 X1.19S800
G1 X1.05S0
G1 X79.31S800
G1 X1.19S0
G1 X3.15S800
G1 X1.61S0
G1 X4.34S800
G1 X1.19S0
G1 X55.37S800
G1 X1.4S0
G1 X3.85S800
G1 X1.4S0
G1 X35.35S800
G1 X1.47S0
G1 X2.73S800
G1 X1.54S0
G1 X0.84S800
G0 X3.125
G0 Y0.07
G0 X-3.125
G1 X-1.05
G1 X-0.07S0
G1 X-0.07S800
G1 X-1.47S0
G1 X-2.66S800
G1 X-0.07S0
G1 X-0.07S800
G1 X-1.33S0
G1 X-35.35S800
G1 X-1.47S0
G1 X-3.78S800
G1 X-1.4S0
G1 X-55.3S800
G1 X-0.07S0
G1 X-0.07S800
G1 X-1.05S0
G1 X-0.07S800
G1 X-0.07S0
G1 X-3.92S800
G1 X-1.89S0
G1 X-3.15S800
G1 X-0.07S0
G1 X-0.07S800
G1 X-1.12S0
G1 X-79.31S800
G1 X-0.98S0
G1 X-1.19S800
G1 X-0.98S0
G1 X-13.16S800
G1 X-0.98S0
G1 X-0.77S800
G1 X-0.91S0
G1 X-21.63S800
G1 X-0.84S0
G1 X-1.19S800
G1 X-0.77S0
G1 X-54.39S800
G1 X-0.77S0
G1 X-0.14S800
G1 X-0.77S0
G1 X-2.52S800
G0 X-3.125
G0 Y0.07
G0 X3.125
G1 X2.38
G1 X0.77S0
G1 X0.14S800
G1 X0.84S0
G1 X54.25S800
G1 X0.91S0
G1 X1.05S800
G1 X0.91S0
G1 X21.63S800
G1 X0.84S0
G1 X0.77S800
G1 X1.05S0
G1 X13.09S800
G1 X0.98S0
G1 X1.26S800
G1 X0.98S0
G1 X79.24S800
G1 X1.12S0
G1 X3.29S800
G1 X2.31S0
G1 X3.57S800
G1 X1.12S0
G1 X55.37S800
G1 X1.4S0
G1 X3.85S800
G1 X1.4S0
G1 X35.28S800
G1 X1.47S0
G1 X2.73S800
G1 X1.54S0
G1 X1.4S800
G0 X3.125
G0 Y0.07
G0 X-3.125
G1 X-1.75
G1 X-1.54S0
G1 X-2.66S800
G1 X-1.47S0
G1 X-35.28S800
G1 X-1.4S0
G1 X-3.85S800
G1 X-1.4S0
G1 X-55.3S800
G1 X-1.19S0
G1 X-3.08S800
G1 X-2.8S0
G1 X-3.22S800
G1 X-1.19S0
G1 X-79.17S800
G1 X-1.05S0
G1 X-1.19S800
G1 X-0.98S0
G1 X-13.09S800
G1 X-1.05S0
G1 X-0.7S800
G1 X-0.91S0
G1 X-21.63S800
G1 X-0.91S0
G1 X-1.05S800
G1 X-0.84S0
G1 X-54.32S800
G1 X-0.84S0
G1 X-0.07S800
G1 X-0.84S0
G1 X-2.17S800
G0 X-3.125
G0 Y0.07
G0 X3.125
G1 X2.03
G1 X0.84S0
G1 X0.07S800
G1 X0.84S0
G1 X54.32S800
G1 X0.84S0
G1 X1.05S800
G1 X0.91S0
G1 X21.63S800
G1 X0.91S0
G1 X0.7S800
G1 X1.05S0
G1 X13.09S800
G1 X0.98S0
G1 X1.26S800
G1 X0.98S0
G1 X79.1S800
G1 X1.19S0
G1 X3.29S800
G1 X1.12S0
G1 X0.07S800
G1 X0.07S0
G1 X0.7S800
G1 X1.12S0
G1 X2.73S800
G1 X1.19S0
G1 X55.3S800
G1 X1.33S0
G1 X3.92S800
G1 X1.33S0
G1 X35.35S800
G1 X1.4S0
G1 X2.73S800
G1 X1.47S0
G1 X2.03S800
G0 X3.125
G0 Y0.07
G0 X-3.125
G1 X-2.31
G1 X-1.54S0
G1 X-2.66S800
G1 X-1.47S0
G1 X-35.21S800
G1 X-1.4S0
G1 X-3.85S800
G1 X-1.4S0
G1 X-55.23S800
G1 X-1.19S0
G1 X-2.52S800
G1 X-0.91S0
G1 X-1.33S800
G1 X-1.12S0
G1 X-3.22S800
G1 X-1.19S0
G1 X-79.1S800
G1 X-1.05S0
G1 X-1.19S800
G1 X-0.98S0
G1 X-13.09S800
G1 X-1.05S0
G1 X-0.63S800
G1 X-0.98S0
G1 X-21.56S800
G1 X-0.91S0
G1 X-1.05S800
G1 X-0.84S0
G1 X-54.32S800
G1 X-0.84S0
G1 X-0.07S800
G1 X-0.84S0
G1 X-1.89S800
G0 X-3.125
G0 Y0.07
G0 X3.125
G1 X1.75
G1 X0.77S0
G1 X0.07S800
G1 X0.84S0
G1 X54.32S800
G1 X0.84S0
G1 X1.05S800
G1 X0.91S0
G1 X21.63S800
G1 X0.91S0
G1 X0.63S800
G1 X0.98S0
G1 X13.23S800
G1 X0.91S0
G1 X1.19S800
G1 X1.05S0
G1 X79.03S800
G1 X1.19S0
G1 X3.22S800
G1 X1.19S0
G1 X1.33S800
G1 X0.98S0
G1 X2.45S800
G1 X1.12S0
G1 X55.23S800
G1 X1.4S0
G1 X3.78S800
G1 X1.4S0
G1 X35.28S800
G1 X1.47S0
G1 X2.59S800
G1 X1.61S0
G1 X2.59S800
G0 X3.125
G0 Y0.07
G0 X-3.125
G1 X-2.87
G1 X-1.54S0
G1 X-2.59S800
G1 X-1.47S0
G1 X-35.21S800
G1 X-1.47S0
G1 X-3.85S800
G1 X-1.26S0
G1 X-55.23S800
G1 X-1.19S0
G1 X-2.38S800
G1 X-0.91S0
G1 X-1.4S800
G1 X-1.19S0
G1 X-3.22S800
G1 X-1.19S0
G1 X-79.03S800
G1 X-0.98S0
G1 X-1.26S800
G1 X-0.98S0
G1 X-13.09S800
G1 X-1.05S0
G1 X-0.63S800
G1 X-0.91S0
G1 X-21.63S800
G1 X-0.91S0
G1 X-0.98S800
G1 X-0.84S0
G1 X-54.32S800
G1 X-0.84S0
G1 X-0.07S800
G1 X-0.84S0
G1 X-1.61S800
G0 X-3.125
G0 Y0.07
G0 X3.125
G1 X1.47
G1 X0.77S0
G1 X0.14S800
G1 X0.84S0
G1 X54.25S800
G1 X0.84S0
G1 X1.05S800
G1 X0.91S0
G1 X21.56S800
G1 X0.91S0
G1 X0.63S800
G1 X0.98S0
G1 X13.23S800
G1 X0.91S0
G1 X1.19S800
G1 X1.05S0
G1 X78.96S800
G1 X1.19S0
G1 X3.22S800
G1 X1.26S0
G1 X1.4S800
G1 X0.98S0
G1 X2.24S800
G1 X1.19S0
G1 X55.16S800
G1 X1.4S0
G1 X3.78S800
G1 X1.4S0
G1 X35.21S800
G1 X1.47S0
G1 X2.59S800
G1 X1.61S0
G1 X3.15S800
G0 X3.125
G0 Y0.07
G0 X-3.125
G1 X-3.5
G1 X-1.54S0
G1 X-2.59S800
G1 X-1.54S0
G1 X-35.14S800
G1 X-1.4S0
G1 X-3.85S800
G1 X-1.33S0
G1 X-55.16S800
G1 X-1.19S0
G1 X-2.17S800
G1 X-1.05S0
G1 X-1.4S800
G1 X-1.19S0
G1 X-3.29S800
G1 X-1.19S0
G1 X-78.89S800
G1 X-0.98S0
G1 X-1.19S800
G1 X-0.98S0
G1 X-13.16S800
G1 X-1.05S0
G1 X-0.56S800
G1 X-0.91S0
G1 X-21.63S800
G1 X-0.91S0
G1 X-1.05S800
G1 X-0.84S0
G1 X-54.25S800
G1 X-1.75S0
G1 X-1.26S800
G0 X-3.125
G0 Y0.07
G0 X3.125
G1 X1.12
G1 X1.75S0
G1 X54.32S800
G1 X0.84S0
G1 X0.98S800
G1 X0.91S0
G1 X21.63S800
G1 X0.91S0
G1 X0.56S800
G1 X0.98S0
G1 X13.23S800
G1 X0.91S0
G1 X1.19S800
G1 X1.05S0
G1 X78.89S800
G1 X1.19S0
G1 X3.29S800
G1 X1.12S0
G1 X1.47S800
G1 X0.98S0
G1 X2.24S800
G1 X1.19S0
G1 X55.09S800
G1 X1.4S0
G1 X3.78S800
G1 X1.4S0
G1 X35.21S800
G1 X1.47S0
G1 X2.59S800
G1 X1.47S0
G1 X3.78S800
G0 X3.125
G0 Y0.07
G0 X-3.125
G1 X-4.06
G1 X-1.61S0
G1 X-2.52S800
G1 X-1.47S0
G1 X-35.14S800
G1 X-1.4S0
G1 X-3.85S800
G1 X-1.33S0
G1 X-55.02S800
G1 X-1.19S0
G1 X-2.17S800
G1 X-1.05S0
G1 X-1.54S800
G1 X-1.12S0
G1 X-3.29S800
G1 X-1.19S0
G1 X-78.82S800
G1 X-0.98S0
G1 X-1.19S800
G1 X-0.98S0
G1 X-13.23S800
G1 X-0.98S0
G1 X-0.56S800
G1 X-0.91S0
G1 X-21.63S800
G1 X-0.84S0
G1 X-0.98S800
G1 X-0.84S0
G1 X-54.32S800
G1 X-1.75S0
G1 X-0.98S800
G0 X-3.125
G0 Y0.07
G0 X3.125
G1 X0.84
G1 X1.68S0
G1 X54.32S800
G1 X0.84S0
G1 X0.98S800
G1 X0.91S0
G1 X21.63S800
G1 X0.84S0
G1 X0.56S800
G1 X1.05S0
G1 X13.16S800
G1 X0.98S0
G1 X1.19S800
G1 X0.98S0
G1 X78.82S800
G1 X1.12S0
G1 X3.36S800
G1 X1.05S0
G1 X1.61S800
G1 X1.05S0
G1 X2.1S800
G1 X1.19S0
G1 X54.95S800
G1 X1.4S0
G1 X0.07S800
G1 X0.07S0
G1 X3.71S800
G1 X1.33S0
G1 X35.14S800
G1 X0.07S0
G1 X0.07S800
G1 X1.4S0
G1 X2.52S800
G1 X1.54S0
G1 X4.41S800
G0 X3.125
G0 Y0.07
G0 X-3.125
G1 X-4.62
G1 X-1.61S0
G1 X-2.45S800
G1 X-1.47S0
G1 X-35.14S800
G1 X-1.4S0
G1 X-3.78S800
G1 X-1.4S0
G1 X-55.02S800
G1 X-1.19S0
G1 X-2.03S800
G1 X-1.05S0
G1 X-1.61S800
G1 X-1.05S0
G1 X-3.36S800
G1 X-1.19S0
G1 X-78.75S800
G1 X-0.98S0
G1 X-1.19S800
G1 X-0.98S0
G1 X-13.23S800
G1 X-0.98S0
G1 X-0.49S800
G1 X-0.98S0
G1 X-21.56S800
G1 X-0.91S0
G1 X-0.98S800
G1 X-0.84S0
G1 X-54.25S800
G1 X-1.75S0
G1 X-0.7S800
G0 X-3.125
G0 Y0.07
G0 X3.125
G1 X0.56
G1 X1.68S0
G1 X54.32S800
G1 X0.84S0
G1 X0.91S800
G1 X0.91S0
G1 X21.63S800
G1 X0.91S0
G1 X0.49S800
G1 X1.05S0
G1 X13.16S800
G1 X0.98S0
G1 X1.19S800
G1 X0.98S0
G1 X78.68S800
G1 X1.19S0
G1 X3.43S800
G1 X1.05S0
G1 X1.54S800
G1 X1.05S0
G1 X2.1S800
G1 X1.19S0
G1 X54.95S800
G1 X1.4S0
G1 X3.78S800
G1 X1.33S0
G1 X35.21S800
G1 X1.4S0
G1 X2.52S800
G1 X1.54S0
G1 X4.97S800
G0 X3.125
G0 Y0.07
G0 X-3.125
G1 X-5.18
G1 X-0.07S0
G1 X-0.07S800
G1 X-1.4S0
G1 X-0.07S800
G1 X-0.07S0
G1 X-2.38S800
G1 X-0.07S0
G1 X-0.07S800
G1 X-1.26S0
G1 X-0.07S800
G1 X-0.07S0
G1 X-35.14S800
G1 X-1.26S0
G1 X-0.07S800
G1 X-0.07S0
G1 X-3.78S800
G1 X-1.33S0
G1 X-54.95S800
G1 X-1.19S0
G1 X-2.03S800
G1 X-1.05S0
G1 X-1.61S800
G1 X-0.91S0
G1 X-0.07S800
G1 X-0.07S0
G1 X-3.36S800
G1 X-1.19S0
G1 X-78.68S800
G1 X-0.98S0
G1 X-1.19S800
G1 X-0.98S0
G1 X-13.23S800
G1 X-0.98S0
G1 X-0.49S800
G1 X-0.91S0
G1 X-21.56S800
G1 X-0.91S0
G1 X-0.91S800
G1 X-0.84S0
G1 X-54.32S800
G1 X-1.68S0
G1 X-0.42S800
G0 X-3.125
G0 Y0.07
G0 X3.125
G1 X0.28
G1 X1.68S0
G1 X54.32S800
G1 X0.84S0
G1 X0.91S800
G1 X0.91S0
G1 X21.56S800
G1 X0.98S0
G1 X0.42S800
G1 X1.05S0
G1 X13.16S800
G1 X0.98S0
G1 X1.19S800
G1 X0.98S0
G1 X78.61S800
G1 X1.26S0
G1 X3.36S800
G1 X1.05S0
G1 X1.61S800
G1 X1.05S0
G1 X2.03S800
G1 X1.19S0
G1 X54.88S800
G1 X1.4S0
G1 X3.78S800
G1 X1.33S0
G1 X35.14S800
G1 X1.47S0
G1 X2.45S800
G1 X1.54S0
G1 X5.53S800
G0 X3.125
G0 Y0.07
G0 X-3.125
G1 X-5.88
G1 X-1.54S0
G1 X-2.45S800
G1 X-1.4S0
G1 X-35.14S800
G1 X-1.33S0
G1 X-3.85S800
G1 X-1.33S0
G1 X-54.88S800
G1 X-1.19S0
G1 X-1.96S800
G1 X-1.12S0
G1 X-1.54S800
G1 X-1.05S0
G1 X-3.43S800
G1 X-1.19S0
G1 X-78.61S800
G1 X-0.91S0
G1 X-1.26S800
G1 X-0.98S0
G1 X-13.23S800
G1 X-0.98S0
G1 X-0.42S800
G1 X-0.98S0
G1 X-21.56S800
G1 X-0.91S0
G1 X-0.91S800
G1 X-0.84S0
G1 X-54.25S800
G1 X-1.68S0
G1 X-0.14S800
G0 X-3.125
G0 X1.61Y0.07
G0 X3.125
G1 X54.39
G1 X0.77S0
G1 X0.91S800
G1 X0.91S0
G1 X21.49S800
G1 X1.12S0
G1 X0.35S800
G1 X0.91S0
G1 X0.07S800
G1 X0.07S0
G1 X13.09S800
G1 X0.07S0
G1 X0.07S800
G1 X0.84S0
G1 X1.26S800
G1 X0.98S0
G1 X78.47S800
G1 X0.07S0
G1 X0.07S800
G1 X1.05S0
G1 X3.5S800
G1 X1.12S0
G1 X1.4S800
G1 X1.19S0
G1 X1.96S800
G1 X1.12S0
G1 X54.88S800
G1 X1.33S0
G1 X3.85S800
G1 X1.33S0
G1 X35.14S800
G1 X1.4S0
G1 X0.07S800
G1 X0.07S0
G1 X2.31S800
G1 X1.47S0
G1 X0.07S800
G1 X0.07S0
G1 X6.09S800
G0 X3.125
G0 Y0.07
G0 X-3.125
G1 X-6.44
G1 X-1.54S0
G1 X-2.38S800
G1 X-1.4S0
G1 X-35.07S800
G1 X-1.4S0
G1 X-3.85S800
G1 X-1.33S0
G1 X-54.81S800
G1 X-1.19S0
G1 X-1.96S800
G1 X-1.12S0
G1 X-1.47S800
G1 X-1.05S0
G1 X-3.57S800
G1 X-1.12S0
G1 X-78.54S800
G1 X-0.91S0
G1 X-1.19S800
G1 X-0.98S0
G1 X-13.3S800
G1 X-0.98S0
G1 X-0.21S800
G1 X-1.19S0
G1 X-21.49S800
G1 X-0.91S0
G1 X-0.84S800
G1 X-0.84S0
G1 X-54.39S800
G0 X-3.125
G0 X-0.14Y0.07
G0 X3.125
G1 X54.32
G1 X0.84S0
G1 X0.84S800
G1 X0.91S0
G1 X21.56S800
G1 X0.91S0
G1 X0.14S800
G1 X1.26S0
G1 X13.3S800
G1 X0.98S0
G1 X1.19S800
G1 X0.91S0
G1 X78.47S800
G1 X1.19S0
G1 X3.57S800
G1 X0.98S0
G1 X1.47S800
G1 X1.19S0
G1 X1.89S800
G1 X1.19S0
G1 X54.74S800
G1 X1.4S0
G1 X3.85S800
G1 X1.33S0
G1 X35.07S800
G1 X1.47S0
G1 X2.31S800
G1 X1.61S0
G1 X6.72S800
G0 X3.125
G0 Y0.07
G0 X-3.125
G1 X-7.07
G1 X-1.47S0
G1 X-2.31S800
G1 X-0.07S0
G1 X-0.07S800
G1 X-1.33S0
G1 X-35.07S800
G1 X-1.26S0
G1 X-0.07S800
G1 X-0.07S0
G1 X-3.78S800
G1 X-1.4S0
G1 X-54.74S800
G1 X-1.19S0
G1 X-1.89S800
G1 X-1.26S0
G1 X-1.26S800
G1 X-0.07S0
G1 X-0.07S800
G1 X-0.84S0
G1 X-3.64S800
G1 X-0.07S0
G1 X-0.07S800
G1 X-1.12S0
G1 X-78.4S800
G1 X-0.98S0
G1 X-1.12S800
G1 X-0.07S0
G1 X-0.07S800
G1 X-0.84S0
G1 X-13.3S800
G1 X-1.12S0
G1 X-0.28S800
G1 X-0.98S0
G1 X-21.42S800
G1 X-0.07S0
G1 X-0.07S800
G1 X-0.84S0
G1 X-0.84S800
G1 X-0.84S0
G1 X-54.32S800
G0 X-3.125
G0 X-0.14Y0.07
G0 X3.125
G1 X54.32
G1 X0.84S0
G1 X0.84S800
G1 X0.91S0
G1 X21.49S800
G1 X0.91S0
G1 X0.42S800
G1 X0.98S0
G1 X13.3S800
G1 X0.98S0
G1 X1.19S800
G1 X0.98S0
G1 X78.33S800
G1 X1.19S0
G1 X3.71S800
G1 X0.91S0
G1 X1.4S800
G1 X1.19S0
G1 X1.89S800
G1 X1.19S0
G1 X54.67S800
G1 X1.4S0
G1 X3.85S800
G1 X1.4S0
G1 X35S800
G1 X1.47S0
G1 X2.24S800
G1 X1.61S0
G1 X7.28S800
G0 X3.125
G0 Y0.07
G0 X-3.125
G1 X-7.63
G1 X-1.54S0
G1 X-2.31S800
G1 X-1.4S0
G1 X-35.07S800
G1 X-1.33S0
G1 X-3.85S800
G1 X-1.4S0
G1 X-54.67S800
G1 X-1.19S0
G1 X-1.82S800
G1 X-1.33S0
G1 X-1.26S800
G1 X-0.91S0
G1 X-3.78S800
G1 X-1.19S0
G1 X-78.26S800
G1 X-0.98S0
G1 X-1.19S800
G1 X-0.98S0
G1 X-13.23S800
G1 X-1.05S0
G1 X-0.35S800
G1 X-1.05S0
G1 X-21.42S800
G1 X-0.91S0
G1 X-0.77S800
G1 X-0.84S0
G1 X-54.39S800
G0 X-3.125
G0 X-0.14Y0.07
G0 X3.125
G1 X54.39
G1 X0.84S0
G1 X0.84S800
G1 X0.77S0
G1 X21.49S800
G1 X0.98S0
G1 X0.49S800
G1 X0.91S0
G1 X13.3S800
G1 X0.98S0
G1 X1.19S800
G1 X0.98S0
G1 X78.26S800
G1 X1.05S0
G1 X0.07S800
G1 X0.07S0
G1 X3.78S800
G1 X0.91S0
G1 X1.19S800
G1 X1.33S0
G1 X1.82S800
G1 X1.19S0
G1 X54.67S800
G1 X1.33S0
G1 X0.07S800
G1 X0.07S0
G1 X3.78S800
G1 X1.33S0
G1 X35.07S800
G1 X1.26S0
G1 X0.07S800
G1 X0.07S0
G1 X2.31S800
G1 X1.4S0
G1 X0.07S800
G1 X0.07S0
G1 X7.84S800
G0 X3.125
G0 Y0.07
G0 X-3.125
G1 X-8.19
G1 X-1.54S0
G1 X-2.24S800
G1 X-1.4S0
G1 X-35.07S800
G1 X-1.33S0
G1 X-3.85S800
G1 X-1.33S0
G1 X-54.6S800
G1 X-1.26S0
G1 X-1.89S800
G1 X-1.33S0
G1 X-1.05S800
G1 X-0.91S0
G1 X-3.92S800
G1 X-1.19S0
G1 X-78.19S800
G1 X-0.91S0
G1 X-1.26S800
G1 X-0.98S0
G1 X-13.23S800
G1 X-0.98S0
G1 X-0.42S800
G1 X-0.98S0
G1 X-21.42S800
G1 X-0.91S0
G1 X-0.84S800
G1 X-0.84S0
G1 X-54.32S800
G0 X-3.125
G0 X-0.14Y0.07
G0 X3.125
G1 X54.32
G1 X0.84S0
G1 X0.77S800
G1 X0.91S0
G1 X21.35S800
G1 X1.05S0
G1 X0.42S800
G1 X0.98S0
G1 X13.23S800
G1 X0.98S0
G1 X1.26S800
G1 X0.91S0
G1 X78.12S800
G1 X1.26S0
G1 X3.92S800
G1 X0.91S0
G1 X0.98S800
G1 X1.33S0
G1 X1.96S800
G1 X1.19S0
G1 X54.53S800
G1 X1.4S0
G1 X3.85S800
G1 X1.33S0
G1 X35S800
G1 X1.47S0
G1 X2.24S800
G1 X1.47S0
G1 X8.54S800
G0 X3.125
G0 Y0.07
G0 X-3.125
G1 X-8.75
G1 X-0.07S0
G1 X-0.07S800
G1 X-1.4S0
G1 X-2.24S800
G1 X-1.4S0
G1 X-35S800
G1 X-1.33S0
G1 X-3.85S800
G1 X-0.07S0
G1 X-0.07S800
G1 X-1.19S0
G1 X-54.53S800
G1 X-0.07S0
G1 X-0.07S800
G1 X-1.12S0
G1 X-1.89S800
G1 X-1.47S0
G1 X-0.84S800
G1 X-0.91S0
G1 X-4.06S800
G1 X-1.12S0
G1 X-78.12S800
G1 X-0.98S0
G1 X-1.19S800
G1 X-0.91S0
G1 X-13.3S800
G1 X-0.98S0
G1 X-0.49S800
G1 X-0.91S0
G1 X-21.42S800
G1 X-0.84S0
G1 X-0.77S800
G1 X-0.84S0
G1 X-54.39S800
G0 X-3.125
G0 X-0.14Y0.07
G0 X3.125
G1 X54.32
G1 X0.84S0
G1 X0.77S800
G1 X0.84S0
G1 X21.42S800
G1 X0.98S0
G1 X0.42S800
G1 X0.98S0
G1 X13.3S800
G1 X0.91S0
G1 X1.26S800
G1 X0.91S0
G1 X78.12S800
G1 X1.12S0
G1 X4.13S800
G1 X0.84S0
G1 X0.77S800
G1 X1.47S0
G1 X1.96S800
G1 X1.12S0
G1 X54.6S800
G1 X1.33S0
G1 X3.85S800
G1 X1.33S0
G1 X35S800
G1 X1.4S0
G1 X2.24S800
G1 X1.47S0
G1 X9.1S800
G0 X3.125
G0 Y0.07
G0 X-3.125
G1 X-9.38
G1 X-1.54S0
G1 X-2.17S800
G1 X-1.4S0
G1 X-35S800
G1 X-1.4S0
G1 X-3.85S800
G1 X-1.26S0
G1 X-54.53S800
G1 X-1.19S0
G1 X-2.03S800
G1 X-1.47S0
G1 X-0.56S800
G1 X-0.91S0
G1 X-4.2S800
G1 X-1.12S0
G1 X-77.98S800
G1 X-0.98S0
G1 X-1.26S800
G1 X-0.98S0
G1 X-13.23S800
G1 X-0.91S0
G1 X-0.49S800
G1 X-1.05S0
G1 X-21.28S800
G1 X-0.91S0
G1 X-0.7S800
G1 X-0.91S0
G1 X-54.25S800
G0 X-3.125
G0 Y0.07
G0 X3.125
G1 X54.18
G1 X0.84S0
G1 X0.77S800
G1 X0.91S0
G1 X21.28S800
G1 X0.98S0
G1 X0.42S800
G1 X0.98S0
G1 X13.3S800
G1 X0.98S0
G1 X1.19S800
G1 X0.91S0
G1 X77.98S800
G1 X1.19S0
G1 X4.27S800
G1 X0.84S0
G1 X0.49S800
G1 X1.47S0
G1 X2.1S800
G1 X1.19S0
G1 X54.46S800
G1 X1.33S0
G1 X3.85S800
G1 X1.4S0
G1 X34.93S800
G1 X1.4S0
G1 X2.17S800
G1 X1.47S0
G1 X9.66S800
G0 X3.125
G0 Y0.07
G0 X-3.125
G1 X-9.94
G1 X-1.47S0
G1 X-2.17S800
G1 X-1.47S0
G1 X-34.86S800
G1 X-1.4S0
G1 X-3.85S800
G1 X-1.33S0
G1 X-54.46S800
G1 X-1.19S0
G1 X-2.1S800
G1 X-1.61S0
G1 X-0.28S800
G1 X-0.84S0
G1 X-4.27S800
G1 X-1.26S0
G1 X-77.84S800
G1 X-0.98S0
G1 X-1.19S800
G1 X-0.98S0
G1 X-13.3S800
G1 X-0.91S0
G1 X-0.49S800
G1 X-1.05S0
G1 X-21.21S800
G1 X-0.91S0
G1 X-0.77S800
G1 X-0.77S0
G1 X-54.04S800
G0 X-3.125
G0 Y0.07
G0 X3.125
G1 X53.83
G1 X0.84S0
G1 X0.77S800
G1 X0.84S0
G1 X21.28S800
G1 X0.98S0
G1 X0.49S800
G1 X0.98S0
G1 X13.23S800
G1 X0.98S0
G1 X1.19S800
G1 X0.98S0
G1 X68.11S800
G1 X0.35S0
G1 X9.38S800
G1 X1.19S0
G1 X4.41S800
G1 X2.52S0
G1 X2.17S800
G1 X1.19S0
G1 X54.46S800
G1 X1.33S0
G1 X3.85S800
G1 X1.33S0
G1 X34.93S800
G1 X1.47S0
G1 X2.03S800
G1 X1.54S0
G1 X10.29S800
G0 X3.125
G0 Y0.07
G0 X-3.125
G1 X-10.5
G1 X-1.47S0
G1 X-2.1S800
G1 X-1.47S0
G1 X-34.86S800
G1 X-1.4S0
G1 X-3.85S800
G1 X-1.33S0
G1 X-54.39S800
G1 X-1.19S0
G1 X-2.24S800
G1 X-2.45S0
G1 X-4.41S800
G1 X-1.19S0
G1 X-9.17S800
G1 X-0.91S0
G1 X-67.76S800
G1 X-0.98S0
G1 X-1.19S800
G1 X-0.98S0
G1 X-13.3S800
G1 X-0.91S0
G1 X-0.49S800
G1 X-0.98S0
G1 X-21.28S800
G1 X-0.84S0
G1 X-0.77S800
G1 X-0.84S0
G1 X-53.69S800
G0 X-3.125
G0 Y0.07
G0 X3.125
G1 X53.55
G1 X0.84S0
G1 X0.7S800
G1 X0.91S0
G1 X21.21S800
G1 X0.98S0
G1 X0.49S800
G1 X0.98S0
G1 X13.23S800
G1 X0.98S0
G1 X1.26S800
G1 X0.91S0
G1 X67.13S800
G1 X1.75S0
G1 X8.89S800
G1 X1.19S0
G1 X4.55S800
G1 X2.24S0
G1 X2.31S800
G1 X1.19S0
G1 X54.39S800
G1 X1.33S0
G1 X3.85S800
G1 X1.4S0
G1 X34.86S800
G1 X1.4S0
G1 X2.1S800
G1 X1.54S0
G1 X10.78S800
G0 X3.125
G0 Y0.07
G0 X-3.125
G1 X-11.13
G1 X-1.54S0
G1 X-2.03S800
G1 X-1.4S0
G1 X-34.93S800
G1 X-1.33S0
G1 X-3.85S800
G1 X-1.33S0
G1 X-54.32S800
G1 X-1.19S0
G1 X-2.45S800
G1 X-2.03S0
G1 X-4.69S800
G1 X-1.19S0
G1 X-8.61S800
G1 X-2.17S0
G1 X-0.07S800
G1 X-0.14S0
G1 X-66.64S800
G1 X-0.98S0
G1 X-1.26S800
G1 X-0.98S0
G1 X-13.23S800
G1 X-0.91S0
G1 X-0.56S800
G1 X-0.98S0
G1 X-21.21S800
G1 X-0.84S0
G1 X-0.77S800
G1 X-0.77S0
G1 X-53.41S800
G0 X-3.125
G0 Y0.07
G0 X3.125
G1 X53.27
G1 X0.84S0
G1 X0.7S800
G1 X0.91S0
G1 X21.14S800
G1 X0.98S0
G1 X0.56S800
G1 X0.91S0
G1 X13.23S800
G1 X0.98S0
G1 X1.26S800
G1 X0.91S0
G1 X66.57S800
G1 X2.52S0
G1 X8.61S800
G1 X1.19S0
G1 X4.62S800
G1 X1.96S0
G1 X2.59S800
G1 X1.12S0
G1 X54.32S800
G1 X1.33S0
G1 X3.85S800
G1 X1.33S0
G1 X34.93S800
G1 X1.4S0
G1 X2.03S800
G1 X1.54S0
G1 X11.34S800
G0 X3.125
G0 Y0.07
G0 X-3.125
G1 X-11.69
G1 X-1.47S0
G1 X-2.03S800
G1 X-1.4S0
G1 X-34.93S800
G1 X-1.33S0
G1 X-3.85S800
G1 X-1.33S0
G1 X-54.32S800
G1 X-1.12S0
G1 X-2.66S800
G1 X-1.96S0
G1 X-4.55S800
G1 X-1.19S0
G1 X-8.47S800
G1 X-2.94S0
G1 X-66.15S800
G1 X-0.98S0
G1 X-1.26S800
G1 X-0.98S0
G1 X-13.23S800
G1 X-0.91S0
G1 X-0.56S800
G1 X-0.98S0
G1 X-21.14S800
G1 X-0.91S0
G1 X-0.7S800
G1 X-0.84S0
G1 X-53.06S800
G0 X-3.125
G0 Y0.07
G0 X3.125
G1 X52.92
G1 X0.84S0
G1 X0.7S800
G1 X0.91S0
G1 X21.07S800
G1 X0.98S0
G1 X0.56S800
G1 X0.98S0
G1 X13.16S800
G1 X0.07S0
G1 X0.07S800
G1 X0.84S0
G1 X1.26S800
G1 X0.98S0
G1 X65.94S800
G1 X0.07S0
G1 X0.07S800
G1 X3.01S0
G1 X8.47S800
G1 X1.12S0
G1 X4.41S800
G1 X1.96S0
G1 X0.14S800
G1 X0.07S0
G1 X2.59S800
G1 X1.19S0
G1 X54.25S800
G1 X0.07S0
G1 X0.07S800
G1 X1.19S0
G1 X3.85S800
G1 X1.33S0
G1 X0.07S800
G1 X0.07S0
G1 X34.79S800
G1 X1.4S0
G1 X1.96S800
G1 X1.47S0
G1 X0.07S800
G1 X0.07S0
G1 X11.9S800
G0 X3.125
G0 Y0.07
G0 X-3.125
G1 X-12.25
G1 X-1.47S0
G1 X-1.96S800
G1 X-1.33S0
G1 X-35S800
G1 X-1.33S0
G1 X-3.78S800
G1 X-1.4S0
G1 X-54.25S800
G1 X-1.12S0
G1 X-2.94S800
G1 X-1.96S0
G1 X-4.27S800
G1 X-1.19S0
G1 X-8.4S800
G1 X-3.29S0
G1 X-65.8S800
G1 X-0.98S0
G1 X-1.26S800
G1 X-0.91S0
G1 X-13.3S800
G1 X-0.91S0
G1 X-0.56S800
G1 X-0.98S0
G1 X-21.14S800
G1 X-0.84S0
G1 X-0.63S800
G1 X-0.84S0
G1 X-52.85S800
G0 X-3.125
G0 Y0.07
G0 X3.125
G1 X52.64
G1 X0.84S0
G1 X0.63S800
G1 X0.91S0
G1 X21.07S800
G1 X0.98S0
G1 X0.56S800
G1 X0.98S0
G1 X13.23S800
G1 X0.91S0
G1 X1.26S800
G1 X0.98S0
G1 X65.59S800
G1 X2.03S0
G1 X0.49S800
G1 X0.98S0
G1 X8.33S800
G1 X1.19S0
G1 X4.2S800
G1 X1.89S0
G1 X3.08S800
G1 X1.19S0
G1 X54.18S800
G1 X1.4S0
G1 X3.78S800
G1 X1.33S0
G1 X34.93S800
G1 X1.4S0
G1 X1.89S800
G1 X1.54S0
G1 X12.53S800
G0 X3.125
G0 Y0.07
G0 X-3.125
G1 X-12.74
G1 X-0.07S0
G1 X-0.07S800
G1 X-1.54S0
G1 X-1.89S800
G1 X-1.19S0
G1 X-0.07S800
G1 X-0.07S0
G1 X-34.79S800
G1 X-0.07S0
G1 X-0.07S800
G1 X-1.33S0
G1 X-3.78S800
G1 X-1.26S0
G1 X-0.07S800
G1 X-0.07S0
G1 X-54.11S800
G1 X-1.26S0
G1 X-3.22S800
G1 X-1.75S0
G1 X-0.07S800
G1 X-0.07S0
G1 X-3.99S800
G1 X-1.12S0
G1 X-0.07S800
G1 X-0.07S0
G1 X-8.26S800
G1 X-1.05S0
G1 X-0.56S800
G1 X-0.07S0
G1 X-0.07S800
G1 X-1.75S0
G1 X-0.07S800
G1 X-0.07S0
G1 X-65.45S800
G1 X-0.91S0
G1 X-1.33S800
G1 X-0.91S0
G1 X-13.23S800
G1 X-0.98S0
G1 X-0.56S800
G1 X-0.98S0
G1 X-21.07S800
G1 X-0.84S0
G1 X-0.63S800
G1 X-0.84S0
G1 X-52.5S800
G0 X-3.125
G0 Y0.07
G0 X3.125
G1 X52.36
G1 X0.84S0
G1 X0.63S800
G1 X0.91S0
G1 X21S800
G1 X0.98S0
G1 X0.63S800
G1 X0.91S0
G1 X13.23S800
G1 X0.98S0
G1 X1.19S800
G1 X0.98S0
G1 X65.38S800
G1 X1.82S0
G1 X0.84S800
G1 X0.98S0
G1 X8.33S800
G1 X1.19S0
G1 X3.99S800
G1 X2.03S0
G1 X3.15S800
G1 X1.19S0
G1 X54.18S800
G1 X1.33S0
G1 X3.78S800
G1 X1.4S0
G1 X34.86S800
G1 X1.4S0
G1 X1.89S800
G1 X1.47S0
G1 X13.09S800
G0 X3.125
G0 Y0.07
G0 X-3.125
G1 X-13.44
G1 X-1.47S0
G1 X-1.89S800
G1 X-1.33S0
G1 X-34.93S800
G1 X-1.33S0
G1 X-3.78S800
G1 X-1.33S0
G1 X-54.18S800
G1 X-1.12S0
G1 X-3.08S800
G1 X-2.24S0
G1 X-3.85S800
G1 X-1.19S0
G1 X-8.26S800
G1 X-1.05S0
G1 X-1.12S800
G1 X-1.68S0
G1 X-65.24S800
G1 X-0.91S0
G1 X-1.26S800
G1 X-0.98S0
G1 X-13.23S800
G1 X-0.91S0
G1 X-0.63S800
G1 X-0.98S0
G1 X-21S800
G1 X-0.91S0
G1 X-0.56S800
G1 X-0.84S0
G1 X-52.22S800
G0 X-3.125
G0 Y0.07
G0 X3.125
G1 X52.08
G1 X0.84S0
G1 X0.63S800
G1 X0.84S0
G1 X21S800
G1 X0.91S0
G1 X0.63S800
G1 X0.91S0
G1 X0.07S800
G1 X0.07S0
G1 X13.09S800
G1 X0.98S0
G1 X1.26S800
G1 X0.98S0
G1 X65.1S800
G1 X1.54S0
G1 X0.07S800
G1 X0.07S0
G1 X1.19S800
G1 X1.05S0
G1 X8.19S800
G1 X1.19S0
G1 X3.78S800
G1 X0.07S0
G1 X0.07S800
G1 X2.24S0
G1 X3.01S800
G1 X0.07S0
G1 X0.07S800
G1 X1.05S0
G1 X54.11S800
G1 X1.33S0
G1 X3.78S800
G1 X1.33S0
G1 X34.93S800
G1 X1.33S0
G1 X0.07S800
G1 X0.07S0
G1 X1.75S800
G1 X1.47S0
G1 X13.72S800
G0 X3.125
G0 Y0.07
G0 X-3.125
G1 X-13.93
G1 X-1.54S0
G1 X-1.75S800
G1 X-1.4S0
G1 X-34.86S800
G1 X-1.4S0
G1 X-3.78S800
G1 X-1.33S0
G1 X-54.11S800
G1 X-1.12S0
G1 X-3.01S800
G1 X-2.45S0
G1 X-3.78S800
G1 X-1.19S0
G1 X-8.12S800
G1 X-1.05S0
G1 X-1.47S800
G1 X-1.54S0
G1 X-65.03S800
G1 X-0.91S0
G1 X-1.26S800
G1 X-0.98S0
G1 X-13.16S800
G1 X-0.91S0
G1 X-0.7S800
G1 X-0.98S0
G1 X-20.93S800
G1 X-0.91S0
G1 X-0.63S800
G1 X-0.77S0
G1 X-51.94S800
G0 X-3.125
G0 Y0.07
G0 X3.125
G1 X51.8
G1 X0.77S0
G1 X0.63S800
G1 X0.84S0
G1 X20.93S800
G1 X1.05S0
G1 X0.63S800
G1 X0.91S0
G1 X13.16S800
G1 X0.98S0
G1 X1.26S800
G1 X0.98S0
G1 X64.89S800
G1 X1.47S0
G1 X1.61S800
G1 X0.98S0
G1 X8.19S800
G1 X1.19S0
G1 X3.71S800
G1 X1.47S0
G1 X0.21S800
G1 X0.91S0
G1 X2.87S800
G1 X1.19S0
G1 X54.04S800
G1 X1.33S0
G1 X3.78S800
G1 X1.4S0
G1 X34.86S800
G1 X1.4S0
G1 X1.68S800
G1 X1.54S0
G1 X14.28S800
G0 X3.125
G0 Y0.07
G0 X-3.125
G1 X-14.56
G1 X-1.4S0
G1 X-0.07S800
G1 X-0.07S0
G1 X-1.68S800
G1 X-1.4S0
G1 X-34.79S800
G1 X-0.07S0
G1 X-0.07S800
G1 X-1.19S0
G1 X-0.07S800
G1 X-0.07S0
G1 X-3.64S800
G1 X-0.07S0
G1 X-0.07S800
G1 X-1.33S0
G1 X-54.04S800
G1 X-1.05S0
G1 X-2.94S800
G1 X-0.91S0
G1 X-0.14S800
G1 X-0.07S0
G1 X-0.07S800
G1 X-1.47S0
G1 X-3.64S800
G1 X-1.19S0
G1 X-8.12S800
G1 X-0.98S0
G1 X-1.75S800
G1 X-1.47S0
G1 X-64.82S800
G1 X-0.98S0
G1 X-1.19S800
G1 X-0.98S0
G1 X-13.16S800
G1 X-0.98S0
G1 X-0.7S800
G1 X-0.91S0
G1 X-20.93S800
G1 X-0.84S0
G1 X-0.63S800
G1 X-0.77S0
G1 X-51.66S800
G0 X-3.125
G0 Y0.07
G0 X3.125
G1 X51.45
G1 X0.84S0
G1 X0.56S800
G1 X0.91S0
G1 X20.86S800
G1 X1.05S0
G1 X0.63S800
G1 X0.91S0
G1 X13.23S800
G1 X0.91S0
G1 X1.26S800
G1 X0.98S0
G1 X64.75S800
G1 X1.4S0
G1 X1.82S800
G1 X0.98S0
G1 X8.12S800
G1 X1.19S0
G1 X3.64S800
G1 X1.4S0
G1 X0.42S800
G1 X0.98S0
G1 X2.8S800
G1 X1.12S0
G1 X53.97S800
G1 X1.4S0
G1 X3.71S800
G1 X1.33S0
G1 X34.93S800
G1 X1.4S0
G1 X1.61S800
G1 X1.54S0
G1 X14.84S800
G0 X3.125
G0 Y0.07
G0 X-3.125
G1 X-15.19
G1 X-1.47S0
G1 X-1.61S800
G1 X-1.4S0
G1 X-34.93S800
G1 X-1.33S0
G1 X-3.78S800
G1 X-1.33S0
G1 X-53.97S800
G1 X-1.12S0
G1 X-2.73S800
G1 X-0.91S0
G1 X-0.63S800
G1 X-1.4S0
G1 X-3.57S800
G1 X-1.19S0
G1 X-8.05S800
G1 X-0.98S0
G1 X-1.96S800
G1 X-1.33S0
G1 X-64.68S800
G1 X-0.98S0
G1 X-1.26S800
G1 X-0.91S0
G1 X-13.23S800
G1 X-0.91S0
G1 X-0.7S800
G1 X-0.98S0
G1 X-20.86S800
G1 X-0.91S0
G1 X-0.49S800
G1 X-0.84S0
G1 X-51.31S800
G0 X-3.125
G0 Y0.07
G0 X3.125
G1 X51.17
G1 X0.91S0
G1 X0.42S800
G1 X0.98S0
G1 X20.86S800
G1 X0.84S0
G1 X0.07S800
G1 X0.07S0
G1 X0.63S800
G1 X0.98S0
G1 X13.16S800
G1 X0.91S0
G1 X1.26S800
G1 X0.98S0
G1 X64.61S800
G1 X1.26S0
G1 X2.03S800
G1 X0.98S0
G1 X8.05S800
G1 X1.12S0
G1 X3.71S800
G1 X1.33S0
G1 X0.7S800
G1 X0.91S0
G1 X2.66S800
G1 X1.19S0
G1 X53.9S800
G1 X1.26S0
G1 X0.07S800
G1 X0.07S0
G1 X3.71S800
G1 X1.33S0
G1 X34.93S800
G1 X1.33S0
G1 X1.61S800
G1 X1.47S0
G1 X0.07S800
G1 X0.07S0
G1 X15.33S800
G0 X3.125
G0 Y0.07
G0 X-3.125
G1 X-15.68
G1 X-1.54S0
G1 X-1.54S800
G1 X-1.4S0
G1 X-34.93S800
G1 X-1.33S0
G1 X-3.71S800
G1 X-1.4S0
G1 X-53.9S800
G1 X-1.12S0
G1 X-2.66S800
G1 X-0.91S0
G1 X-0.77S800
G1 X-1.33S0
G1 X-3.57S800
G1 X-1.19S0
G1 X-7.98S800
G1 X-1.05S0
G1 X-2.03S800
G1 X-1.26S0
G1 X-64.61S800
G1 X-0.98S0
G1 X-1.19S800
G1 X-0.98S0
G1 X-13.16S800
G1 X-0.91S0
G1 X-0.7S800
G1 X-0.98S0
G1 X-20.86S800
G1 X-0.84S0
G1 X-0.56S800
G1 X-0.84S0
G1 X-51.03S800
G0 X-3.125
G0 Y0.07
G0 X3.125
G1 X50.89
G1 X0.77S0
G1 X0.56S800
G1 X0.84S0
G1 X20.86S800
G1 X0.91S0
G1 X0.77S800
G1 X0.91S0
G1 X13.16S800
G1 X0.98S0
G1 X1.26S800
G1 X0.91S0
G1 X64.54S800
G1 X1.19S0
G1 X2.17S800
G1 X1.05S0
G1 X7.91S800
G1 X1.19S0
G1 X3.57S800
G1 X1.26S0
G1 X0.91S800
G1 X0.91S0
G1 X2.59S800
G1 X1.19S0
G1 X53.83S800
G1 X1.4S0
G1 X3.71S800
G1 X1.33S0
G1 X34.86S800
G1 X1.4S0
G1 X1.61S800
G1 X1.47S0
G1 X16.03S800
G0 X3.125
G0 Y0.07
G0 X-3.125
G1 X-16.17
G1 X-0.07S0
G1 X-0.07S800
G1 X-1.4S0
G1 X-1.54S800
G1 X-1.47S0
G1 X-34.79S800
G1 X-1.4S0
G1 X-3.78S800
G1 X-1.26S0
G1 X-53.83S800
G1 X-1.19S0
G1 X-2.52S800
G1 X-0.98S0
G1 X-0.98S800
G1 X-1.19S0
G1 X-3.57S800
G1 X-1.19S0
G1 X-7.91S800
G1 X-1.05S0
G1 X-2.24S800
G1 X-1.12S0
G1 X-64.54S800
G1 X-0.91S0
G1 X-1.26S800
G1 X-0.91S0
G1 X-13.23S800
G1 X-0.91S0
G1 X-0.77S800
G1 X-0.91S0
G1 X-20.79S800
G1 X-0.91S0
G1 X-0.49S800
G1 X-0.84S0
G1 X-50.75S800
G0 X-3.125
G0 Y0.07
G0 X3.125
G1 X50.61
G1 X0.84S0
G1 X0.42S800
G1 X0.91S0
G1 X20.79S800
G1 X0.98S0
G1 X0.7S800
G1 X0.98S0
G1 X13.16S800
G1 X0.91S0
G1 X1.26S800
G1 X0.98S0
G1 X64.4S800
G1 X1.19S0
G1 X2.24S800
G1 X1.05S0
G1 X7.84S800
G1 X1.19S0
G1 X3.57S800
G1 X1.26S0
G1 X0.98S800
G1 X0.98S0
G1 X2.45S800
G1 X1.19S0
G1 X53.83S800
G1 X1.33S0
G1 X3.71S800
G1 X1.4S0
G1 X34.72S800
G1 X1.68S0
G1 X1.33S800
G1 X1.47S0
G1 X16.59S800
G0 X3.125
G0 Y0.07
G0 X-3.125
G1 X-16.87
G1 X-1.54S0
G1 X-0.91S800
G1 X-2.03S0
G1 X-34.79S800
G1 X-1.33S0
G1 X-3.71S800
G1 X-1.33S0
G1 X-53.83S800
G1 X-1.12S0
G1 X-2.45S800
G1 X-0.98S0
G1 X-1.05S800
G1 X-1.26S0
G1 X-3.57S800
G1 X-1.19S0
G1 X-7.84S800
G1 X-0.98S0
G1 X-2.31S800
G1 X-1.12S0
G1 X-64.4S800
G1 X-0.98S0
G1 X-1.26S800
G1 X-0.91S0
G1 X-13.16S800
G1 X-0.98S0
G1 X-0.7S800
G1 X-0.98S0
G1 X-20.79S800
G1 X-0.84S0
G1 X-0.49S800
G1 X-0.84S0
G1 X-50.4S800
G0 X-3.125
G0 Y0.07
G0 X3.125
G1 X50.33
G1 X0.77S0
G1 X0.49S800
G1 X0.91S0
G1 X20.79S800
G1 X0.91S0
G1 X0.7S800
G1 X0.98S0
G1 X13.16S800
G1 X0.98S0
G1 X1.19S800
G1 X0.98S0
G1 X64.4S800
G1 X1.12S0
G1 X2.31S800
G1 X0.98S0
G1 X7.84S800
G1 X1.19S0
G1 X3.57S800
G1 X1.19S0
G1 X1.12S800
G1 X1.05S0
G1 X2.38S800
G1 X1.12S0
G1 X53.76S800
G1 X1.26S0
G1 X3.78S800
G1 X1.4S0
G1 X34.72S800
G1 X2.31S0
G1 X0.63S800
G1 X1.54S0
G1 X17.08S800
G0 X3.125
G0 Y0.07
G0 X-3.125
G1 X-17.43
G1 X-1.54S0
G1 X-0.21S800
G1 X-0.49S0
G1 X-0.7S800
G1 X-1.54S0
G1 X-34.65S800
G1 X-1.4S0
G1 X-3.71S800
G1 X-1.33S0
G1 X-53.69S800
G1 X-1.19S0
G1 X-2.38S800
G1 X-0.98S0
G1 X-1.19S800
G1 X-1.12S0
G1 X-3.64S800
G1 X-1.12S0
G1 X-7.84S800
G1 X-0.98S0
G1 X-2.31S800
G1 X-1.19S0
G1 X-64.33S800
G1 X-0.98S0
G1 X-1.19S800
G1 X-0.98S0
G1 X-13.16S800
G1 X-0.98S0
G1 X-0.7S800
G1 X-0.91S0
G1 X-20.79S800
G1 X-0.84S0
G1 X-0.49S800
G1 X-0.77S0
G1 X-50.19S800
G0 X-3.125
G0 Y0.07
G0 X3.125
G1 X49.98
G1 X0.84S0
G1 X0.42S800
G1 X0.91S0
G1 X20.72S800
G1 X0.91S0
G1 X0.77S800
G1 X0.91S0
G1 X13.16S800
G1 X0.98S0
G1 X1.26S800
G1 X0.91S0
G1 X64.4S800
G1 X1.05S0
G1 X2.38S800
G1 X1.05S0
G1 X7.7S800
G1 X1.19S0
G1 X3.57S800
G1 X1.12S0
G1 X1.26S800
G1 X0.98S0
G1 X2.31S800
G1 X1.19S0
G1 X53.69S800
G1 X1.33S0
G1 X3.71S800
G1 X1.33S0
G1 X34.65S800
G1 X1.54S0
G1 X1.12S800
G1 X1.89S0
G1 X17.71S800
G0 X3.125
G0 Y0.07
G0 X-3.125
G1 X-17.99
G1 X-1.54S0
G1 X-1.4S800
G1 X-1.54S0
G1 X-34.58S800
G1 X-1.4S0
G1 X-3.71S800
G1 X-1.33S0
G1 X-53.69S800
G1 X-1.12S0
G1 X-2.31S800
G1 X-0.98S0
G1 X-1.26S800
G1 X-1.12S0
G1 X-3.64S800
G1 X-1.12S0
G1 X-7.77S800
G1 X-0.98S0
G1 X-2.38S800
G1 X-1.12S0
G1 X-64.33S800
G1 X-0.98S0
G1 X-1.19S800
G1 X-0.91S0
G1 X-13.23S800
G1 X-0.91S0
G1 X-0.7S800
G1 X-0.98S0
G1 X-20.72S800
G1 X-0.91S0
G1 X-0.42S800
G1 X-0.84S0
G1 X-49.84S800
G0 X-3.125
G0 Y0.07
G0 X3.125
G1 X49.7
G1 X0.84S0
G1 X0.35S800
G1 X0.91S0
G1 X20.72S800
G1 X0.98S0
G1 X0.7S800
G1 X0.98S0
G1 X13.16S800
G1 X0.91S0
G1 X1.26S800
G1 X0.91S0
G1 X64.33S800
G1 X1.05S0
G1 X2.38S800
G1 X1.12S0
G1 X7.63S800
G1 X1.19S0
G1 X3.57S800
G1 X1.12S0
G1 X1.26S800
G1 X1.05S0
G1 X2.31S800
G1 X1.12S0
G1 X53.62S800
G1 X1.33S0
G1 X3.71S800
G1 X1.33S0
G1 X34.58S800
G1 X1.54S0
G1 X1.54S800
G1 X1.47S0
G1 X18.27S800
G0 X3.125
G0 Y0.07
G0 X-3.125
G1 X-18.62
G1 X-1.4S0
G1 X-1.54S800
G1 X-1.54S0
G1 X-34.58S800
G1 X-1.33S0
G1 X-3.71S800
G1 X-1.33S0
G1 X-53.48S800
G1 X-0.07S0
G1 X-0.07S800
G1 X-1.19S0
G1 X-2.1S800
G1 X-1.12S0
G1 X-1.26S800
G1 X-1.05S0
G1 X-3.71S800
G1 X-1.12S0
G1 X-7.7S800
G1 X-0.98S0
G1 X-2.45S800
G1 X-0.98S0
G1 X-0.07S800
G1 X-0.07S0
G1 X-64.19S800
G1 X-0.98S0
G1 X-1.26S800
G1 X-0.91S0
G1 X-13.16S800
G1 X-0.98S0
G1 X-0.7S800
G1 X-0.98S0
G1 X-20.72S800
G1 X-0.84S0
G1 X-0.42S800
G1 X-0.77S0
G1 X-49.56S800
G0 X-3.125
G0 Y0.07
G0 X3.125
G1 X49.42
G1 X0.84S0
G1 X0.35S800
G1 X0.91S0
G1 X20.65S800
G1 X0.98S0
G1 X0.7S800
G1 X0.98S0
G1 X13.16S800
G1 X0.98S0
G1 X1.19S800
G1 X0.91S0
G1 X64.26S800
G1 X1.12S0
G1 X2.38S800
G1 X1.05S0
G1 X7.7S800
G1 X1.12S0
G1 X3.64S800
G1 X1.12S0
G1 X1.26S800
G1 X1.05S0
G1 X2.17S800
G1 X1.19S0
G1 X53.62S800
G1 X1.26S0
G1 X3.78S800
G1 X1.33S0
G1 X34.51S800
G1 X1.54S0
G1 X1.47S800
G1 X1.47S0
G1 X18.83S800
G0 X3.125
G0 Y0.07
G0 X-3.125
G1 X-19.18
G1 X-1.47S0
G1 X-1.54S800
G1 X-1.47S0
G1 X-34.51S800
G1 X-1.26S0
G1 X-3.78S800
G1 X-1.26S0
G1 X-53.62S800
G1 X-1.12S0
G1 X-2.17S800
G1 X-1.12S0
G1 X-1.26S800
G1 X-0.98S0
G1 X-3.78S800
G1 X-1.12S0
G1 X-7.63S800
G1 X-0.98S0
G1 X-2.45S800
G1 X-1.12S0
G1 X-64.19S800
G1 X-0.98S0
G1 X-1.19S800
G1 X-0.98S0
G1 X-13.16S800
G1 X-0.98S0
G1 X-0.7S800
G1 X-0.98S0
G1 X-20.58S800
G1 X-0.91S0
G1 X-0.42S800
G1 X-0.77S0
G1 X-49.28S800
G0 X-3.125
G0 Y0.07
G0 X3.125
G1 X49.14
G1 X0.77S0
G1 X0.35S800
G1 X0.91S0
G1 X20.58S800
G1 X0.07S0
G1 X0.07S800
G1 X0.84S0
G1 X0.77S800
G1 X0.98S0
G1 X13.16S800
G1 X0.91S0
G1 X1.19S800
G1 X0.07S0
G1 X0.07S800
G1 X0.84S0
G1 X64.12S800
G1 X0.07S0
G1 X0.07S800
G1 X0.98S0
G1 X2.45S800
G1 X1.05S0
G1 X7.56S800
G1 X0.07S0
G1 X0.07S800
G1 X1.05S0
G1 X3.71S800
G1 X1.05S0
G1 X1.19S800
G1 X1.19S0
G1 X2.1S800
G1 X0.07S0
G1 X0.07S800
G1 X1.05S0
G1 X53.55S800
G1 X1.26S0
G1 X3.78S800
G1 X1.26S0
G1 X34.44S800
G1 X0.07S0
G1 X0.07S800
G1 X1.4S0
G1 X1.54S800
G1 X0.07S0
G1 X0.07S800
G1 X1.33S0
G1 X19.46S800
G0 X3.125
G0 X-0.21Y0.07
G0 X-3.125
G1 X-19.46
G1 X-1.47S0
G1 X-1.54S800
G1 X-1.54S0
G1 X-34.44S800
G1 X-1.26S0
G1 X-3.71S800
G1 X-1.33S0
G1 X-53.48S800
G1 X-1.19S0
G1 X-2.17S800
G1 X-1.12S0
G1 X-1.26S800
G1 X-0.91S0
G1 X-3.78S800
G1 X-1.19S0
G1 X-7.56S800
G1 X-1.05S0
G1 X-2.45S800
G1 X-1.05S0
G1 X-64.19S800
G1 X-0.91S0
G1 X-1.26S800
G1 X-0.91S0
G1 X-13.23S800
G1 X-0.91S0
G1 X-0.77S800
G1 X-0.91S0
G1 X-20.65S800
G1 X-0.91S0
G1 X-0.28S800
G1 X-0.84S0
G1 X-49S800
G0 X-3.125
G0 Y0.07
G0 X3.125
G1 X48.79
G1 X0.84S0
G1 X0.35S800
G1 X0.84S0
G1 X20.65S800
G1 X0.91S0
G1 X0.77S800
G1 X0.91S0
G1 X13.23S800
G1 X0.91S0
G1 X1.26S800
G1 X0.91S0
G1 X64.12S800
G1 X1.05S0
G1 X2.52S800
G1 X1.05S0
G1 X7.49S800
G1 X1.19S0
G1 X3.78S800
G1 X1.05S0
G1 X1.12S800
G1 X1.19S0
G1 X2.1S800
G1 X1.19S0
G1 X53.48S800
G1 X1.33S0
G1 X3.71S800
G1 X1.26S0
G1 X34.44S800
G1 X1.47S0
G1 X1.54S800
G1 X1.47S0
G1 X19.46S800
G0 X3.125
G0 X-0.28Y0.07
G0 X-3.125
G1 X-19.32
G1 X-0.07S0
G1 X-0.07S800
G1 X-1.4S0
G1 X-1.47S800
G1 X-0.07S0
G1 X-0.07S800
G1 X-1.47S0
G1 X-34.37S800
G1 X-1.19S0
G1 X-0.07S800
G1 X-0.07S0
G1 X-3.71S800
G1 X-1.19S0
G1 X-0.07S800
G1 X-0.07S0
G1 X-53.48S800
G1 X-1.12S0
G1 X-2.1S800
G1 X-1.19S0
G1 X-1.12S800
G1 X-0.91S0
G1 X-0.07S800
G1 X-0.07S0
G1 X-3.71S800
G1 X-0.07S0
G1 X-0.07S800
G1 X-1.12S0
G1 X-7.49S800
G1 X-1.05S0
G1 X-2.45S800
G1 X-1.12S0
G1 X-64.05S800
G1 X-0.98S0
G1 X-1.26S800
G1 X-0.91S0
G1 X-13.16S800
G1 X-0.84S0
G1 X-0.07S800
G1 X-0.07S0
G1 X-0.63S800
G1 X-0.07S0
G1 X-0.07S800
G1 X-0.91S0
G1 X-20.51S800
G1 X-0.07S0
G1 X-0.07S800
G1 X-0.84S0
G1 X-0.28S800
G1 X-0.77S0
G1 X-48.72S800
G0 X-3.125
G0 Y0.07
G0 X3.125
G1 X48.58
G1 X0.77S0
G1 X0.28S800
G1 X0.91S0
G1 X20.58S800
G1 X0.98S0
G1 X0.77S800
G1 X0.91S0
G1 X13.16S800
G1 X0.98S0
G1 X1.26S800
G1 X0.84S0
G1 X64.12S800
G1 X1.05S0
G1 X2.52S800
G1 X1.05S0
G1 X7.49S800
G1 X1.12S0
G1 X3.92S800
G1 X0.98S0
G1 X0.98S800
G1 X1.26S0
G1 X2.17S800
G1 X1.12S0
G1 X53.48S800
G1 X1.26S0
G1 X3.71S800
G1 X1.33S0
G1 X34.3S800
G1 X1.47S0
G1 X1.61S800
G1 X1.47S0
G1 X19.46S800
G0 X3.125
G0 X-0.35Y0.07
G0 X-3.125
G1 X-19.46
G1 X-1.47S0
G1 X-1.54S800
G1 X-1.54S0
G1 X-34.23S800
G1 X-1.33S0
G1 X-3.71S800
G1 X-1.33S0
G1 X-53.41S800
G1 X-1.12S0
G1 X-2.17S800
G1 X-1.26S0
G1 X-0.91S800
G1 X-0.98S0
G1 X-3.92S800
G1 X-1.19S0
G1 X-7.42S800
G1 X-1.05S0
G1 X-2.52S800
G1 X-1.12S0
G1 X-63.98S800
G1 X-0.91S0
G1 X-1.26S800
G1 X-0.98S0
G1 X-13.16S800
G1 X-0.91S0
G1 X-0.77S800
G1 X-0.98S0
G1 X-20.51S800
G1 X-0.91S0
G1 X-0.28S800
G1 X-0.84S0
G1 X-48.37S800
G0 X-3.125
G0 Y0.07
G0 X3.125
G1 X48.3
G1 X0.77S0
G1 X0.28S800
G1 X0.84S0
G1 X20.58S800
G1 X0.91S0
G1 X0.84S800
G1 X0.84S0
G1 X0.07S800
G1 X0.07S0
G1 X13.09S800
G1 X0.91S0
G1 X1.33S800
G1 X0.91S0
G1 X63.98S800
G1 X1.05S0
G1 X2.59S800
G1 X0.91S0
G1 X0.07S800
G1 X0.07S0
G1 X7.35S800
G1 X1.12S0
G1 X0.07S800
G1 X0.07S0
G1 X3.92S800
G1 X0.91S0
G1 X0.84S800
G1 X1.33S0
G1 X2.1S800
G1 X1.26S0
G1 X53.34S800
G1 X1.33S0
G1 X3.64S800
G1 X0.07S0
G1 X0.07S800
G1 X1.19S0
G1 X34.23S800
G1 X1.47S0
G1 X0.07S800
G1 X0.07S0
G1 X1.54S800
G1 X1.4S0
G1 X0.07S800
G1 X0.07S0
G1 X19.25S800
G1 X0.07S0
G1 X0.07S800
G1 X1.4S0
G1 X0.07S800
G1 X0.07S0
G1 X0.07S800
G0 X3.125
G0 Y0.07
G0 X-3.125
G1 X-0.42
G1 X-1.54S0
G1 X-19.39S800
G1 X-1.47S0
G1 X-1.61S800
G1 X-1.47S0
G1 X-34.23S800
G1 X-1.26S0
G1 X-3.78S800
G1 X-1.26S0
G1 X-53.41S800
G1 X-1.12S0
G1 X-2.17S800
G1 X-1.33S0
G1 X-0.77S800
G1 X-0.91S0
G1 X-4.13S800
G1 X-1.12S0
G1 X-7.42S800
G1 X-0.98S0
G1 X-2.59S800
G1 X-1.05S0
G1 X-63.98S800
G1 X-0.91S0
G1 X-1.26S800
G1 X-0.98S0
G1 X-13.09S800
G1 X-0.98S0
G1 X-0.77S800
G1 X-0.91S0
G1 X-20.58S800
G1 X-0.84S0
G1 X-0.28S800
G1 X-0.77S0
G1 X-48.16S800
G0 X-3.125
G0 Y0.07
G0 X3.125
G1 X47.95
G1 X0.84S0
G1 X0.21S800
G1 X0.84S0
G1 X20.58S800
G1 X0.91S0
G1 X0.77S800
G1 X0.98S0
G1 X13.16S800
G1 X0.91S0
G1 X1.26S800
G1 X0.91S0
G1 X63.98S800
G1 X1.05S0
G1 X2.59S800
G1 X0.98S0
G1 X7.42S800
G1 X1.12S0
G1 X4.13S800
G1 X0.91S0
G1 X0.63S800
G1 X1.4S0
G1 X2.24S800
G1 X1.12S0
G1 X53.34S800
G1 X1.26S0
G1 X3.78S800
G1 X1.26S0
G1 X34.16S800
G1 X1.54S0
G1 X1.54S800
G1 X1.47S0
G1 X19.39S800
G1 X1.54S0
G1 X0.77S800
G0 X3.125
G0 Y0.07
G0 X-3.125
G1 X-1.05
G1 X-1.54S0
G1 X-19.32S800
G1 X-1.54S0
G1 X-1.61S800
G1 X-1.47S0
G1 X-34.02S800
G1 X-0.07S0
G1 X-0.07S800
G1 X-1.26S0
G1 X-3.71S800
G1 X-1.26S0
G1 X-53.27S800
G1 X-1.26S0
G1 X-2.17S800
G1 X-1.47S0
G1 X-0.49S800
G1 X-0.91S0
G1 X-4.2S800
G1 X-1.12S0
G1 X-7.42S800
G1 X-0.98S0
G1 X-2.59S800
G1 X-0.98S0
G1 X-63.98S800
G1 X-0.91S0
G1 X-1.26S800
G1 X-0.91S0
G1 X-13.16S800
G1 X-0.98S0
G1 X-0.7S800
G1 X-0.07S0
G1 X-0.07S800
G1 X-0.84S0
G1 X-20.58S800
G1 X-0.84S0
G1 X-0.21S800
G1 X-0.84S0
G1 X-47.81S800
G0 X-3.125
G0 Y0.07
G0 X3.125
G1 X47.67
G1 X0.84S0
G1 X0.14S800
G1 X0.91S0
G1 X20.51S800
G1 X0.98S0
G1 X0.77S800
G1 X0.91S0
G1 X13.16S800
G1 X0.91S0
G1 X1.33S800
G1 X0.91S0
G1 X63.84S800
G1 X1.12S0
G1 X2.52S800
G1 X1.05S0
G1 X7.35S800
G1 X1.12S0
G1 X4.2S800
G1 X0.91S0
G1 X0.49S800
G1 X1.4S0
G1 X2.24S800
G1 X1.19S0
G1 X53.27S800
G1 X1.33S0
G1 X3.71S800
G1 X1.33S0
G1 X34.02S800
G1 X1.54S0
G1 X1.61S800
G1 X1.47S0
G1 X19.32S800
G1 X1.61S0
G1 X1.26S800
G0 X3.125
G0 Y0.07
G0 X-3.125
G1 X-1.68
G1 X-1.47S0
G1 X-19.39S800
G1 X-1.47S0
G1 X-1.61S800
G1 X-1.54S0
G1 X-34.02S800
G1 X-1.26S0
G1 X-3.71S800
G1 X-1.26S0
G1 X-53.34S800
G1 X-1.12S0
G1 X-2.31S800
G1 X-1.54S0
G1 X-0.21S800
G1 X-0.98S0
G1 X-4.2S800
G1 X-1.19S0
G1 X-7.28S800
G1 X-1.05S0
G1 X-2.59S800
G1 X-1.05S0
G1 X-63.84S800
G1 X-0.91S0
G1 X-1.26S800
G1 X-0.98S0
G1 X-13.16S800
G1 X-0.91S0
G1 X-0.77S800
G1 X-0.98S0
G1 X-20.44S800
G1 X-0.91S0
G1 X-0.21S800
G1 X-0.77S0
G1 X-47.53S800
G0 X-3.125
G0 Y0.07
G0 X3.125
G1 X47.39
G1 X0.84S0
G1 X0.14S800
G1 X0.91S0
G1 X20.44S800
G1 X0.98S0
G1 X0.77S800
G1 X0.91S0
G1 X13.16S800
G1 X0.91S0
G1 X1.33S800
G1 X0.91S0
G1 X63.84S800
G1 X1.05S0
G1 X2.59S800
G1 X1.05S0
G1 X7.28S800
G1 X1.12S0
G1 X4.34S800
G1 X0.91S0
G1 X0.14S800
G1 X1.47S0
G1 X2.38S800
G1 X1.19S0
G1 X53.27S800
G1 X1.19S0
G1 X0.07S800
G1 X0.07S0
G1 X3.64S800
G1 X1.33S0
G1 X33.95S800
G1 X1.47S0
G1 X1.68S800
G1 X1.4S0
G1 X0.07S800
G1 X0.07S0
G1 X19.32S800
G1 X1.4S0
G1 X0.07S800
G1 X0.07S0
G1 X1.82S800
G0 X3.125
G0 Y0.07
G0 X-3.125
G1 X-2.17
G1 X-1.54S0
G1 X-19.32S800
G1 X-1.47S0
G1 X-1.61S800
G1 X-1.54S0
G1 X-33.95S800
G1 X-1.33S0
G1 X-3.64S800
G1 X-1.33S0
G1 X-53.2S800
G1 X-1.19S0
G1 X-2.38S800
G1 X-2.45S0
G1 X-4.41S800
G1 X-1.19S0
G1 X-7.21S800
G1 X-1.05S0
G1 X-2.59S800
G1 X-1.05S0
G1 X-63.77S800
G1 X-0.98S0
G1 X-1.26S800
G1 X-0.98S0
G1 X-13.09S800
G1 X-0.98S0
G1 X-0.77S800
G1 X-0.98S0
G1 X-20.44S800
G1 X-0.84S0
G1 X-0.21S800
G1 X-0.77S0
G1 X-47.25S800
G0 X-3.125
G0 Y0.07
G0 X3.125
G1 X47.11
G1 X0.77S0
G1 X0.14S800
G1 X0.91S0
G1 X20.37S800
G1 X0.98S0
G1 X0.84S800
G1 X0.91S0
G1 X13.09S800
G1 X0.98S0
G1 X1.33S800
G1 X0.91S0
G1 X63.7S800
G1 X1.05S0
G1 X2.66S800
G1 X0.98S0
G1 X7.28S800
G1 X1.12S0
G1 X4.48S800
G1 X2.31S0
G1 X2.45S800
G1 X1.19S0
G1 X53.2S800
G1 X1.33S0
G1 X3.64S800
G1 X1.33S0
G1 X33.88S800
G1 X1.47S0
G1 X1.68S800
G1 X1.47S0
G1 X19.39S800
G1 X1.47S0
G1 X2.38S800
G0 X3.125
G0 X-0.21Y0.07
G0 X-3.125
G1 X-2.45
G1 X-1.4S0
G1 X-19.39S800
G1 X-1.47S0
G1 X-1.61S800
G1 X-0.07S0
G1 X-0.07S800
G1 X-1.4S0
G1 X-33.88S800
G1 X-1.26S0
G1 X-3.78S800
G1 X-1.19S0
G1 X-53.27S800
G1 X-1.12S0
G1 X-2.59S800
G1 X-2.17S0
G1 X-4.48S800
G1 X-1.19S0
G1 X-7.21S800
G1 X-0.98S0
G1 X-2.66S800
G1 X-1.05S0
G1 X-63.7S800
G1 X-0.98S0
G1 X-1.26S800
G1 X-0.91S0
G1 X-13.16S800
G1 X-0.98S0
G1 X-0.77S800
G1 X-0.91S0
G1 X-20.44S800
G1 X-0.91S0
G1 X-0.07S800
G1 X-0.84S0
G1 X-46.97S800
G0 X-3.125
G0 Y0.07
G0 X3.125
G1 X46.83
G1 X0.77S0
G1 X0.14S800
G1 X0.84S0
G1 X20.44S800
G1 X0.91S0
G1 X0.84S800
G1 X0.91S0
G1 X13.16S800
G1 X0.91S0
G1 X1.33S800
G1 X0.91S0
G1 X63.7S800
G1 X1.05S0
G1 X2.66S800
G1 X0.98S0
G1 X7.21S800
G1 X1.19S0
G1 X4.55S800
G1 X1.96S0
G1 X2.73S800
G1 X1.12S0
G1 X53.2S800
G1 X1.33S0
G1 X3.64S800
G1 X1.26S0
G1 X33.81S800
G1 X1.54S0
G1 X1.68S800
G1 X1.47S0
G1 X19.32S800
G1 X1.47S0
G1 X2.38S800
G0 X3.125
G0 X-0.35Y0.07
G0 X-3.125
G1 X-2.31
G1 X-1.47S0
G1 X-19.39S800
G1 X-1.47S0
G1 X-1.68S800
G1 X-1.47S0
G1 X-33.81S800
G1 X-1.26S0
G1 X-3.71S800
G1 X-1.26S0
G1 X-53.2S800
G1 X-1.12S0
G1 X-2.8S800
G1 X-1.82S0
G1 X-4.62S800
G1 X-1.19S0
G1 X-7.07S800
G1 X-1.05S0
G1 X-2.66S800
G1 X-1.12S0
G1 X-63.56S800
G1 X-0.98S0
G1 X-1.33S800
G1 X-0.91S0
G1 X-13.09S800
G1 X-0.98S0
G1 X-0.84S800
G1 X-0.91S0
G1 X-20.37S800
G1 X-0.91S0
G1 X-0.07S800
G1 X-0.84S0
G1 X-46.62S800
G0 X-3.125
G0 Y0.07
G0 X3.125
G1 X46.48
G1 X0.91S0
G1 X0.07S800
G1 X0.84S0
G1 X20.37S800
G1 X0.98S0
G1 X0.77S800
G1 X0.91S0
G1 X13.16S800
G1 X0.98S0
G1 X1.26S800
G1 X0.91S0
G1 X63.63S800
G1 X1.12S0
G1 X2.66S800
G1 X0.98S0
G1 X7.14S800
G1 X1.12S0
G1 X4.62S800
G1 X1.82S0
G1 X2.87S800
G1 X1.12S0
G1 X53.2S800
G1 X1.26S0
G1 X3.64S800
G1 X1.33S0
G1 X33.74S800
G1 X1.47S0
G1 X1.68S800
G1 X1.47S0
G1 X19.39S800
G1 X1.47S0
G1 X2.31S800
G0 X3.125
G0 X1.26Y0.07
G0 X-3.125
G1 X-0.07
G1 X-1.54S0
G1 X-2.31S800
G1 X-1.47S0
G1 X-19.32S800
G1 X-1.54S0
G1 X-1.68S800
G1 X-1.47S0
G1 X-33.67S800
G1 X-1.33S0
G1 X-3.64S800
G1 X-1.26S0
G1 X-53.13S800
G1 X-1.12S0
G1 X-3.01S800
G1 X-1.75S0
G1 X-4.55S800
G1 X-1.12S0
G1 X-7.14S800
G1 X-0.98S0
G1 X-2.73S800
G1 X-1.05S0
G1 X-63.56S800
G1 X-0.98S0
G1 X-1.26S800
G1 X-0.91S0
G1 X-13.16S800
G1 X-0.98S0
G1 X-0.77S800
G1 X-0.98S0
G1 X-20.3S800
G1 X-0.91S0
G1 X-0.07S800
G1 X-0.84S0
G1 X-46.34S800
G0 X-3.125
G0 Y0.07
G0 X3.125
G1 X46.2
G1 X0.77S0
G1 X0.07S800
G1 X0.91S0
G1 X20.3S800
G1 X0.98S0
G1 X0.84S800
G1 X0.91S0
G1 X13.16S800
G1 X0.91S0
G1 X1.26S800
G1 X0.98S0
G1 X63.56S800
G1 X1.05S0
G1 X2.73S800
G1 X0.98S0
G1 X7.07S800
G1 X1.19S0
G1 X4.48S800
G1 X1.54S0
G1 X3.22S800
G1 X1.12S0
G1 X53.13S800
G1 X1.26S0
G1 X3.64S800
G1 X1.33S0
G1 X33.6S800
G1 X1.54S0
G1 X1.68S800
G1 X1.47S0
G1 X19.32S800
G1 X1.54S0
G1 X2.24S800
G1 X1.61S0
G1 X0.35S800
G0 X3.125
G0 Y0.07
G0 X-3.125
G1 X-0.63
G1 X-1.54S0
G1 X-2.24S800
G1 X-1.47S0
G1 X-19.39S800
G1 X-1.47S0
G1 X-1.68S800
G1 X-1.54S0
G1 X-33.6S800
G1 X-1.33S0
G1 X-3.64S800
G1 X-1.26S0
G1 X-53.06S800
G1 X-1.12S0
G1 X-3.29S800
G1 X-1.47S0
G1 X-4.55S800
G1 X-1.19S0
G1 X-7S800
G1 X-0.98S0
G1 X-2.73S800
G1 X-1.05S0
G1 X-63.56S800
G1 X-0.91S0
G1 X-1.33S800
G1 X-0.91S0
G1 X-13.16S800
G1 X-0.91S0
G1 X-0.84S800
G1 X-0.91S0
G1 X-20.37S800
G1 X-0.84S0
G1 X-0.07S800
G1 X-0.84S0
G1 X-46.06S800
G0 X-3.125
G0 Y0.07
G0 X3.125
G1 X45.92
G1 X1.68S0
G1 X20.37S800
G1 X0.91S0
G1 X0.84S800
G1 X0.91S0
G1 X13.16S800
G1 X0.91S0
G1 X1.33S800
G1 X0.91S0
G1 X63.49S800
G1 X1.12S0
G1 X2.66S800
G1 X1.05S0
G1 X7S800
G1 X1.12S0
G1 X4.55S800
G1 X1.33S0
G1 X3.43S800
G1 X1.12S0
G1 X53.06S800
G1 X1.26S0
G1 X3.64S800
G1 X1.33S0
G1 X33.53S800
G1 X1.54S0
G1 X1.68S800
G1 X1.54S0
G1 X19.32S800
G1 X1.47S0
G1 X2.24S800
G1 X1.61S0
G1 X0.91S800
G0 X3.125
G0 Y0.07
G0 X-3.125
G1 X-1.26
G1 X-1.54S0
G1 X-2.24S800
G1 X-1.4S0
G1 X-0.07S800
G1 X-0.07S0
G1 X-19.32S800
G1 X-1.47S0
G1 X-1.61S800
G1 X-0.07S0
G1 X-0.07S800
G1 X-1.4S0
G1 X-0.07S800
G1 X-0.07S0
G1 X-33.32S800
G1 X-0.07S0
G1 X-0.07S800
G1 X-1.33S0
G1 X-3.5S800
G1 X-0.07S0
G1 X-0.07S800
G1 X-1.12S0
G1 X-0.07S800
G1 X-0.07S0
G1 X-52.99S800
G1 X-1.12S0
G1 X-3.43S800
G1 X-1.4S0
G1 X-4.48S800
G1 X-1.12S0
G1 X-7S800
G1 X-0.84S0
G1 X-2.94S800
G1 X-1.05S0
G1 X-63.49S800
G1 X-0.91S0
G1 X-1.33S800
G1 X-0.84S0
G1 X-13.16S800
G1 X-0.91S0
G1 X-0.91S800
G1 X-0.91S0
G1 X-20.3S800
G1 X-1.68S0
G1 X-45.78S800
G0 X-3.125
G0 Y0.07
G0 X3.125
G1 X45.64
G1 X1.68S0
G1 X20.3S800
G1 X0.98S0
G1 X0.84S800
G1 X0.91S0
G1 X13.16S800
G1 X0.91S0
G1 X1.33S800
G1 X0.91S0
G1 X63.42S800
G1 X1.05S0
G1 X3.15S800
G1 X0.7S0
G1 X6.86S800
G1 X1.19S0
G1 X4.41S800
G1 X1.47S0
G1 X3.36S800
G1 X1.19S0
G1 X52.99S800
G1 X1.26S0
G1 X3.64S800
G1 X1.33S0
G1 X33.39S800
G1 X1.54S0
G1 X1.75S800
G1 X1.47S0
G1 X19.39S800
G1 X1.47S0
G1 X2.17S800
G1 X1.61S0
G1 X1.47S800
G0 X3.125
G0 Y0.07
G0 X-3.125
G1 X-1.82
G1 X-1.54S0
G1 X-2.24S800
G1 X-1.47S0
G1 X-19.39S800
G1 X-1.47S0
G1 X-1.75S800
G1 X-1.47S0
G1 X-33.46S800
G1 X-1.26S0
G1 X-3.64S800
G1 X-1.33S0
G1 X-52.92S800
G1 X-1.12S0
G1 X-3.43S800
G1 X-1.4S0
G1 X-4.48S800
G1 X-1.19S0
G1 X-6.51S800
G1 X-0.63S0
G1 X-3.5S800
G1 X-1.05S0
G1 X-63.42S800
G1 X-0.91S0
G1 X-1.33S800
G1 X-0.91S0
G1 X-13.16S800
G1 X-0.91S0
G1 X-0.84S800
G1 X-0.98S0
G1 X-20.23S800
G1 X-1.68S0
G1 X-45.5S800
G0 X-3.125
G0 Y0.07
G0 X3.125
G1 X45.36
G1 X1.61S0
G1 X20.3S800
G1 X0.91S0
G1 X0.91S800
G1 X0.84S0
G1 X13.23S800
G1 X0.84S0
G1 X1.33S800
G1 X0.91S0
G1 X63.35S800
G1 X0.07S0
G1 X0.07S800
G1 X0.91S0
G1 X0.07S800
G1 X0.07S0
G1 X3.78S800
G1 X0.56S0
G1 X6.23S800
G1 X1.19S0
G1 X4.41S800
G1 X1.47S0
G1 X3.36S800
G1 X0.07S0
G1 X0.07S800
G1 X1.05S0
G1 X52.85S800
G1 X0.07S0
G1 X0.07S800
G1 X1.19S0
G1 X3.64S800
G1 X1.26S0
G1 X0.07S800
G1 X0.07S0
G1 X33.32S800
G1 X1.47S0
G1 X1.75S800
G1 X0.07S0
G1 X0.07S800
G1 X1.33S0
G1 X19.32S800
G1 X0.07S0
G1 X0.07S800
G1 X1.33S0
G1 X0.07S800
G1 X0.07S0
G1 X2.1S800
G1 X0.07S0
G1 X0.07S800
G1 X1.4S0
G1 X2.17S800
G0 X3.125
G0 Y0.07
G0 X-3.125
G1 X-2.38
G1 X-1.54S0
G1 X-2.17S800
G1 X-1.47S0
G1 X-19.39S800
G1 X-1.47S0
G1 X-1.75S800
G1 X-1.54S0
G1 X-33.32S800
G1 X-1.33S0
G1 X-3.57S800
G1 X-1.33S0
G1 X-52.85S800
G1 X-1.19S0
G1 X-3.36S800
G1 X-1.54S0
G1 X-4.41S800
G1 X-1.12S0
G1 X-6.02S800
G1 X-0.56S0
G1 X-4.13S800
G1 X-1.05S0
G1 X-63.28S800
G1 X-0.98S0
G1 X-1.26S800
G1 X-0.98S0
G1 X-13.09S800
G1 X-0.91S0
G1 X-0.91S800
G1 X-0.91S0
G1 X-20.23S800
G1 X-1.68S0
G1 X-45.22S800
G0 X-3.125
G0 Y0.07
G0 X3.125
G1 X45.01
G1 X1.68S0
G1 X20.23S800
G1 X0.91S0
G1 X0.91S800
G1 X0.91S0
G1 X13.16S800
G1 X0.91S0
G1 X1.33S800
G1 X0.91S0
G1 X63.28S800
G1 X1.05S0
G1 X4.41S800
G1 X0.63S0
G1 X5.6S800
G1 X1.19S0
G1 X4.34S800
G1 X1.61S0
G1 X3.36S800
G1 X1.12S0
G1 X52.85S800
G1 X1.33S0
G1 X3.57S800
G1 X1.33S0
G1 X33.25S800
G1 X1.54S0
G1 X1.75S800
G1 X1.47S0
G1 X19.39S800
G1 X1.47S0
G1 X2.17S800
G1 X1.54S0
G1 X2.73S800
G0 X3.125
G0 Y0.07
G0 X-3.125
G1 X-3.01
G1 X-1.47S0
G1 X-0.07S800
G1 X-0.07S0
G1 X-2.03S800
G1 X-0.07S0
G1 X-0.07S800
G1 X-1.33S0
G1 X-0.07S800
G1 X-0.07S0
G1 X-19.18S800
G1 X-0.07S0
G1 X-0.07S800
G1 X-1.47S0
G1 X-1.82S800
G1 X-1.47S0
G1 X-33.25S800
G1 X-1.26S0
G1 X-3.64S800
G1 X-1.26S0
G1 X-52.92S800
G1 X-1.12S0
G1 X-3.29S800
G1 X-1.54S0
G1 X-0.07S800
G1 X-0.07S0
G1 X-4.34S800
G1 X-1.12S0
G1 X-5.32S800
G1 X-0.63S0
G1 X-4.69S800
G1 X-1.05S0
G1 X-63.28S800
G1 X-0.91S0
G1 X-1.33S800
G1 X-0.91S0
G1 X-13.09S800
G1 X-0.91S0
G1 X-0.91S800
G1 X-0.91S0
G1 X-20.23S800
G1 X-1.61S0
G1 X-44.94S800
G0 X-3.125
G0 Y0.07
G0 X3.125
G1 X44.8
G1 X1.61S0
G1 X20.16S800
G1 X0.91S0
G1 X0.98S800
G1 X0.91S0
G1 X13.09S800
G1 X0.91S0
G1 X1.33S800
G1 X0.91S0
G1 X63.21S800
G1 X1.12S0
G1 X4.97S800
G1 X0.56S0
G1 X5.04S800
G1 X1.19S0
G1 X4.34S800
G1 X1.68S0
G1 X3.29S800
G1 X1.12S0
G1 X52.85S800
G1 X1.26S0
G1 X3.64S800
G1 X1.26S0
G1 X33.25S800
G1 X1.47S0
G1 X1.82S800
G1 X1.47S0
G1 X19.32S800
G1 X1.54S0
G1 X2.1S800
G1 X1.54S0
G1 X3.29S800
G0 X3.125
G0 Y0.07
G0 X-3.125
G1 X-3.57
G1 X-1.61S0
G1 X-2.1S800
G1 X-1.54S0
G1 X-19.32S800
G1 X-1.47S0
G1 X-1.75S800
G1 X-1.54S0
G1 X-33.18S800
G1 X-1.26S0
G1 X-3.64S800
G1 X-1.26S0
G1 X-52.85S800
G1 X-1.12S0
G1 X-3.29S800
G1 X-1.68S0
G1 X-4.27S800
G1 X-1.19S0
G1 X-4.69S800
G1 X-0.56S0
G1 X-5.39S800
G1 X-1.05S0
G1 X-63.21S800
G1 X-0.91S0
G1 X-1.26S800
G1 X-0.98S0
G1 X-13.09S800
G1 X-0.91S0
G1 X-0.91S800
G1 X-0.98S0
G1 X-20.16S800
G1 X-1.61S0
G1 X-44.59S800
G0 X-3.125
G0 Y0.07
G0 X3.125
G1 X44.52
G1 X1.47S0
G1 X0.07S800
G1 X0.07S0
G1 X20.16S800
G1 X0.84S0
G1 X0.98S800
G1 X0.91S0
G1 X13.16S800
G1 X0.84S0
G1 X1.33S800
G1 X0.91S0
G1 X63.21S800
G1 X0.98S0
G1 X5.6S800
G1 X0.63S0
G1 X4.41S800
G1 X1.12S0
G1 X4.27S800
G1 X1.82S0
G1 X3.29S800
G1 X1.12S0
G1 X52.78S800
G1 X1.26S0
G1 X3.64S800
G1 X1.19S0
G1 X0.07S800
G1 X0.07S0
G1 X33.04S800
G1 X1.4S0
G1 X0.07S800
G1 X0.07S0
G1 X1.75S800
G1 X1.47S0
G1 X0.07S800
G1 X0.07S0
G1 X19.18S800
G1 X1.54S0
G1 X2.17S800
G1 X1.54S0
G1 X3.85S800
G0 X3.125
G0 Y0.07
G0 X-3.125
G1 X-4.13
G1 X-1.61S0
G1 X-2.03S800
G1 X-1.54S0
G1 X-19.32S800
G1 X-1.47S0
G1 X-1.82S800
G1 X-1.54S0
G1 X-33.04S800
G1 X-1.33S0
G1 X-3.57S800
G1 X-1.26S0
G1 X-52.78S800
G1 X-1.12S0
G1 X-3.29S800
G1 X-1.82S0
G1 X-4.27S800
G1 X-1.12S0
G1 X-4.06S800
G1 X-0.63S0
G1 X-5.88S800
G1 X-1.05S0
G1 X-63.14S800
G1 X-0.98S0
G1 X-1.26S800
G1 X-0.91S0
G1 X-13.16S800
G1 X-0.84S0
G1 X-0.98S800
G1 X-0.91S0
G1 X-20.16S800
G1 X-1.54S0
G1 X-44.38S800
G0 X-3.125
G0 Y0.07
G0 X3.125
G1 X44.17
G1 X1.61S0
G1 X20.09S800
G1 X0.91S0
G1 X0.98S800
G1 X0.91S0
G1 X13.09S800
G1 X0.91S0
G1 X1.26S800
G1 X0.98S0
G1 X63.07S800
G1 X1.12S0
G1 X6.23S800
G1 X0.56S0
G1 X3.78S800
G1 X1.12S0
G1 X4.2S800
G1 X1.89S0
G1 X3.22S800
G1 X1.12S0
G1 X52.78S800
G1 X1.26S0
G1 X3.57S800
G1 X1.33S0
G1 X32.97S800
G1 X1.54S0
G1 X1.82S800
G1 X1.47S0
G1 X19.32S800
G1 X1.54S0
G1 X2.1S800
G1 X1.54S0
G1 X4.48S800
G0 X3.125
G0 Y0.07
G0 X-3.125
G1 X-4.69
G1 X-0.07S0
G1 X-0.07S800
G1 X-1.47S0
G1 X-2.1S800
G1 X-1.47S0
G1 X-19.25S800
G1 X-0.07S0
G1 X-0.07S800
G1 X-1.47S0
G1 X-1.82S800
G1 X-1.47S0
G1 X-32.97S800
G1 X-1.4S0
G1 X-3.43S800
G1 X-0.07S0
G1 X-0.07S800
G1 X-1.19S0
G1 X-52.71S800
G1 X-1.12S0
G1 X-3.29S800
G1 X-1.82S0
G1 X-4.27S800
G1 X-1.12S0
G1 X-3.5S800
G1 X-0.56S0
G1 X-6.51S800
G1 X-1.05S0
G1 X-63.07S800
G1 X-0.98S0
G1 X-1.26S800
G1 X-0.91S0
G1 X-13.09S800
G1 X-0.91S0
G1 X-0.98S800
G1 X-0.84S0
G1 X-20.16S800
G1 X-1.54S0
G1 X-44.1S800
G0 X-3.125
G0 Y0.07
G0 X3.125
G1 X43.96
G1 X1.47S0
G1 X20.16S800
G1 X0.91S0
G1 X0.91S800
G1 X0.98S0
G1 X13.09S800
G1 X0.91S0
G1 X1.26S800
G1 X0.91S0
G1 X63.07S800
G1 X1.05S0
G1 X6.79S800
G1 X0.56S0
G1 X3.15S800
G1 X1.19S0
G1 X4.2S800
G1 X1.96S0
G1 X3.15S800
G1 X1.19S0
G1 X52.64S800
G1 X1.33S0
G1 X3.5S800
G1 X1.33S0
G1 X32.97S800
G1 X1.54S0
G1 X1.82S800
G1 X1.47S0
G1 X19.32S800
G1 X1.47S0
G1 X2.1S800
G1 X1.54S0
G1 X5.04S800
G0 X3.125
G0 Y0.07
G0 X-3.125
G1 X-5.25
G1 X-1.68S0
G1 X-2.03S800
G1 X-1.54S0
G1 X-19.32S800
G1 X-1.4S0
G1 X-1.96S800
G1 X-1.47S0
G1 X-32.9S800
G1 X-1.33S0
G1 X-3.5S800
G1 X-1.33S0
G1 X-52.64S800
G1 X-1.19S0
G1 X-3.08S800
G1 X-2.03S0
G1 X-4.2S800
G1 X-1.12S0
G1 X-2.87S800
G1 X-0.56S0
G1 X-7.07S800
G1 X-1.05S0
G1 X-63S800
G1 X-0.98S0
G1 X-1.26S800
G1 X-0.91S0
G1 X-13.09S800
G1 X-0.91S0
G1 X-0.98S800
G1 X-0.91S0
G1 X-20.09S800
G1 X-1.54S0
G1 X-43.75S800
G0 X-3.125
G0 Y0.07
G0 X3.125
G1 X43.68
G1 X1.47S0
G1 X20.09S800
G1 X0.98S0
G1 X0.91S800
G1 X0.91S0
G1 X13.09S800
G1 X0.91S0
G1 X1.33S800
G1 X0.84S0
G1 X63.07S800
G1 X0.98S0
G1 X7.35S800
G1 X0.63S0
G1 X2.59S800
G1 X1.12S0
G1 X4.13S800
G1 X2.03S0
G1 X3.15S800
G1 X1.19S0
G1 X52.64S800
G1 X1.26S0
G1 X3.5S800
G1 X1.33S0
G1 X32.9S800
G1 X1.4S0
G1 X0.07S800
G1 X0.07S0
G1 X1.89S800
G1 X1.33S0
G1 X19.39S800
G1 X1.47S0
G1 X2.1S800
G1 X1.96S0
G1 X5.18S800
G0 X3.125
G0 Y0.07
G0 X-3.125
G1 X-5.25
G1 X-0.35S0
G1 X-0.35S800
G1 X-1.54S0
G1 X-2.03S800
G1 X-1.47S0
G1 X-19.32S800
G1 X-1.47S0
G1 X-1.89S800
G1 X-1.54S0
G1 X-32.83S800
G1 X-1.26S0
G1 X-3.57S800
G1 X-1.26S0
G1 X-52.64S800
G1 X-1.12S0
G1 X-3.08S800
G1 X-2.1S0
G1 X-4.13S800
G1 X-1.19S0
G1 X-2.24S800
G1 X-0.56S0
G1 X-7.7S800
G1 X-1.05S0
G1 X-62.93S800
G1 X-0.91S0
G1 X-1.33S800
G1 X-0.91S0
G1 X-13.09S800
G1 X-0.84S0
G1 X-0.98S800
G1 X-0.91S0
G1 X-20.09S800
G1 X-1.47S0
G1 X-43.54S800
G0 X-3.125
G0 Y0.07
G0 X3.125
G1 X43.33
G1 X1.47S0
G1 X20.09S800
G1 X0.91S0
G1 X0.98S800
G1 X0.91S0
G1 X13.09S800
G1 X0.91S0
G1 X1.26S800
G1 X0.91S0
G1 X62.93S800
G1 X1.05S0
G1 X7.98S800
G1 X0.56S0
G1 X1.89S800
G1 X1.19S0
G1 X4.13S800
G1 X2.1S0
G1 X3.08S800
G1 X1.19S0
G1 X52.57S800
G1 X1.26S0
G1 X3.5S800
G1 X1.33S0
G1 X32.83S800
G1 X1.47S0
G1 X1.89S800
G1 X1.47S0
G1 X19.32S800
G1 X1.54S0
G1 X2.03S800
G1 X1.54S0
G1 X0.63S800
G1 X0.42S0
G1 X5.18S800
G0 X3.125
G0 Y0.07
G0 X-3.125
G1 X-5.25
G1 X-0.35S0
G1 X-0.84S800
G1 X-1.61S0
G1 X-1.96S800
G1 X-1.54S0
G1 X-19.32S800
G1 X-1.4S0
G1 X-1.96S800
G1 X-1.47S0
G1 X-32.76S800
G1 X-1.33S0
G1 X-3.57S800
G1 X-1.26S0
G1 X-52.57S800
G1 X-1.12S0
G1 X-3.08S800
G1 X-2.1S0
G1 X-4.13S800
G1 X-1.19S0
G1 X-1.68S800
G1 X-0.49S0
G1 X-8.26S800
G1 X-1.05S0
G1 X-62.93S800
G1 X-0.91S0
G1 X-1.26S800
G1 X-0.98S0
G1 X-13.02S800
G1 X-0.91S0
G1 X-0.98S800
G1 X-0.91S0
G1 X-20.09S800
G1 X-1.4S0
G1 X-43.26S800
G0 X-3.125
G0 Y0.07
G0 X3.125
G1 X43.12
G1 X1.4S0
G1 X20.02S800
G1 X0.98S0
G1 X0.98S800
G1 X0.84S0
G1 X13.09S800
G1 X0.91S0
G1 X1.33S800
G1 X0.84S0
G1 X62.93S800
G1 X1.05S0
G1 X8.47S800
G1 X0.56S0
G1 X1.4S800
G1 X1.12S0
G1 X4.13S800
G1 X2.17S0
G1 X3.08S800
G1 X1.12S0
G1 X52.5S800
G1 X1.26S0
G1 X3.57S800
G1 X1.33S0
G1 X32.69S800
G1 X1.47S0
G1 X1.96S800
G1 X1.47S0
G1 X19.32S800
G1 X1.47S0
G1 X2.03S800
G1 X1.54S0
G1 X1.19S800
G1 X0.35S0
G1 X5.25S800
G0 X3.125
G0 Y0.07
G0 X-3.125
G1 X-5.32
G1 X-0.35S0
G1 X-1.47S800
G1 X-1.54S0
G1 X-1.96S800
G1 X-1.54S0
G1 X-19.25S800
G1 X-1.54S0
G1 X-1.89S800
G1 X-1.54S0
G1 X-32.62S800
G1 X-1.33S0
G1 X-3.5S800
G1 X-1.33S0
G1 X-52.43S800
G1 X-1.19S0
G1 X-3.01S800
G1 X-2.24S0
G1 X-4.06S800
G1 X-1.19S0
G1 X-1.05S800
G1 X-0.49S0
G1 X-8.89S800
G1 X-1.05S0
G1 X-62.79S800
G1 X-0.91S0
G1 X-1.33S800
G1 X-0.91S0
G1 X-12.95S800
G1 X-0.07S0
G1 X-0.07S800
G1 X-0.84S0
G1 X-0.98S800
G1 X-0.98S0
G1 X-20.02S800
G1 X-1.4S0
G1 X-42.91S800
G0 X-3.125
G0 Y0.07
G0 X3.125
G1 X42.77
G1 X1.47S0
G1 X19.95S800
G1 X0.98S0
G1 X0.98S800
G1 X0.91S0
G1 X13.02S800
G1 X0.91S0
G1 X1.33S800
G1 X0.91S0
G1 X62.86S800
G1 X1.05S0
G1 X9.03S800
G1 X0.49S0
G1 X0.84S800
G1 X1.12S0
G1 X4.13S800
G1 X2.24S0
G1 X3.01S800
G1 X1.12S0
G1 X52.5S800
G1 X1.26S0
G1 X3.5S800
G1 X1.33S0
G1 X32.62S800
G1 X1.54S0
G1 X1.96S800
G1 X1.47S0
G1 X19.25S800
G1 X1.54S0
G1 X1.96S800
G1 X1.54S0
G1 X1.61S800
G1 X0.42S0
G1 X5.32S800
G0 X3.125
G0 Y0.07
G0 X-3.125
G1 X-5.32
G1 X-0.42S0
G1 X-1.96S800
G1 X-1.54S0
G1 X-1.96S800
G1 X-1.54S0
G1 X-19.25S800
G1 X-1.4S0
G1 X-2.03S800
G1 X-1.54S0
G1 X-32.55S800
G1 X-1.33S0
G1 X-3.5S800
G1 X-1.26S0
G1 X-52.5S800
G1 X-1.12S0
G1 X-3.01S800
G1 X-2.24S0
G1 X-4.06S800
G1 X-1.19S0
G1 X-0.49S800
G1 X-0.49S0
G1 X-9.38S800
G1 X-1.05S0
G1 X-62.79S800
G1 X-0.91S0
G1 X-1.26S800
G1 X-0.98S0
G1 X-13.02S800
G1 X-0.91S0
G1 X-0.98S800
G1 X-0.98S0
G1 X-19.95S800
G1 X-1.4S0
G1 X-42.63S800
G0 X-3.125
G0 Y0.07
G0 X3.125
G1 X42.49
G1 X1.4S0
G1 X19.95S800
G1 X0.91S0
G1 X1.05S800
G1 X0.91S0
G1 X13.02S800
G1 X0.91S0
G1 X1.33S800
G1 X0.84S0
G1 X62.79S800
G1 X1.05S0
G1 X9.66S800
G1 X0.56S0
G1 X0.14S800
G1 X1.19S0
G1 X3.99S800
G1 X2.31S0
G1 X3.01S800
G1 X1.12S0
G1 X52.5S800
G1 X1.19S0
G1 X3.5S800
G1 X0.07S0
G1 X0.07S800
G1 X1.19S0
G1 X32.48S800
G1 X0.07S0
G1 X0.07S800
G1 X1.4S0
G1 X0.07S800
G1 X0.07S0
G1 X1.89S800
G1 X1.47S0
G1 X19.25S800
G1 X1.54S0
G1 X1.89S800
G1 X1.54S0
G1 X0.07S800
G1 X0.07S0
G1 X2.1S800
G1 X0.42S0
G1 X5.39S800
G0 X3.125
G0 Y0.07
G0 X-3.125
G1 X-5.46
G1 X-0.42S0
G1 X-2.38S800
G1 X-1.47S0
G1 X-1.96S800
G1 X-1.54S0
G1 X-19.25S800
G1 X-1.47S0
G1 X-2.03S800
G1 X-1.54S0
G1 X-32.41S800
G1 X-1.33S0
G1 X-3.5S800
G1 X-1.26S0
G1 X-52.43S800
G1 X-1.19S0
G1 X-2.94S800
G1 X-2.38S0
G1 X-3.99S800
G1 X-1.61S0
G1 X-9.87S800
G1 X-1.05S0
G1 X-62.72S800
G1 X-0.98S0
G1 X-1.26S800
G1 X-0.91S0
G1 X-13.02S800
G1 X-0.91S0
G1 X-1.05S800
G1 X-0.91S0
G1 X-19.95S800
G1 X-1.4S0
G1 X-42.35S800
G0 X-3.125
G0 Y0.07
G0 X3.125
G1 X42.21
G1 X1.4S0
G1 X19.88S800
G1 X0.91S0
G1 X1.05S800
G1 X0.91S0
G1 X13.02S800
G1 X0.91S0
G1 X1.33S800
G1 X0.91S0
G1 X62.72S800
G1 X1.05S0
G1 X10.22S800
G1 X1.19S0
G1 X4.06S800
G1 X1.19S0
G1 X0.07S800
G1 X1.12S0
G1 X2.94S800
G1 X1.12S0
G1 X52.43S800
G1 X1.26S0
G1 X3.5S800
G1 X1.33S0
G1 X32.41S800
G1 X1.47S0
G1 X2.1S800
G1 X1.47S0
G1 X19.18S800
G1 X1.54S0
G1 X1.96S800
G1 X1.54S0
G1 X2.59S800
G1 X0.49S0
G1 X5.46S800
G0 X3.125
G0 Y0.07
G0 X-3.125
G1 X-5.53
G1 X-0.49S0
G1 X-2.73S800
G1 X-0.07S0
G1 X-0.07S800
G1 X-1.54S0
G1 X-1.96S800
G1 X-1.33S0
G1 X-0.07S800
G1 X-0.07S0
G1 X-19.25S800
G1 X-1.47S0
G1 X-2.03S800
G1 X-1.47S0
G1 X-32.41S800
G1 X-1.33S0
G1 X-3.5S800
G1 X-1.19S0
G1 X-52.43S800
G1 X-1.12S0
G1 X-2.94S800
G1 X-1.12S0
G1 X-0.07S800
G1 X-1.26S0
G1 X-3.99S800
G1 X-1.12S0
G1 X-10.36S800
G1 X-0.98S0
G1 X-62.72S800
G1 X-0.91S0
G1 X-1.33S800
G1 X-0.77S0
G1 X-0.07S800
G1 X-0.07S0
G1 X-13.02S800
G1 X-0.84S0
G1 X-1.05S800
G1 X-0.84S0
G1 X-0.07S800
G1 X-0.07S0
G1 X-19.88S800
G1 X-1.33S0
G1 X-42.07S800
G0 X-3.125
G0 Y0.07
G0 X3.125
G1 X41.93
G1 X1.33S0
G1 X19.95S800
G1 X0.91S0
G1 X1.05S800
G1 X0.91S0
G1 X13.02S800
G1 X0.91S0
G1 X1.26S800
G1 X0.91S0
G1 X62.65S800
G1 X1.05S0
G1 X10.29S800
G1 X1.19S0
G1 X3.99S800
G1 X1.19S0
G1 X0.14S800
G1 X1.12S0
G1 X2.87S800
G1 X1.19S0
G1 X52.36S800
G1 X1.26S0
G1 X3.43S800
G1 X1.33S0
G1 X32.34S800
G1 X1.54S0
G1 X2.03S800
G1 X1.47S0
G1 X19.25S800
G1 X1.54S0
G1 X1.89S800
G1 X1.54S0
G1 X2.94S800
G1 X0.56S0
G1 X5.6S800
G0 X3.125
G0 Y0.07
G0 X-3.125
G1 X-5.67
G1 X-0.63S0
