; LightBurn Pro 2.0.05
; GRBL-LPC device profile, absolute coords
; Bounds: X17.82 Y13.3 to X283.47 Y198.4
G00 G17 G40 G21 G54
G90
M4
; Image @ 1500 мм/мин, 100% power
M8
G0 X189.824Y63.399
; Layer C00
G91
G1 X.625F7000S0
X.7F1500S1000
X43.7F7000S0
X1.1F1500S1000
X1.9F7000S0
X1.1F1500S1000
X.9F7000S0
X.9F1500S1000
X1.3F7000S0
X1F1500S1000
X.6F7000S0
X1F1500S1000
X.4F7000S0
X.8F1500S1000
X.5F7000S0
X.8F1500S1000
X.6F7000S0
X.8F1500S1000
X1.3F7000S0
X.9F1500S1000
X.7F7000S0
X.7F1500S1000
X.9F7000S0
X.7F1500S1000
X1.4F7000S0
X.5F1500S1000
X1.1F7000S0
X.8F1500S1000
X2F7000S0
X.7F1500S1000
X1.8F7000S0
X.8F1500S1000
X1.2F7000S0
X.8F1500S1000
X1.7F7000S0
X.7F1500S1000
X.5F7000S0
X.8F1500S1000
X.5F7000S0
X.9F1500S1000
X.6F7000S0
X.7F1500S1000
X1.8F7000S0
X.8F1500S1000
X2.3F7000S0
X.7F1500S1000
X1F7000S0
X.9F1500S1000
X1.1F7000S0
X.9F1500S1000
X1.1F7000S0
X1.1F1500S1000
X1.8F7000S0
X1F1500S1000
X1.4F7000S0
X.5F1500S1000
X.625F7000S0
X.1Y.1
X-.625
X-.7F1500S1000
X-1.4F7000S0
X-1F1500S1000
X-1.8F7000S0
X-1.1F1500S1000
X-1F7000S0
X-1F1500S1000
X-1F7000S0
X-1F1500S1000
X-.9F7000S0
X-.7F1500S1000
X-2.3F7000S0
X-.9F1500S1000
X-1.7F7000S0
X-.7F1500S1000
X-.7F7000S0
X-.8F1500S1000
X-.6F7000S0
X-.7F1500S1000
X-.5F7000S0
X-.7F1500S1000
X-1.7F7000S0
X-.8F1500S1000
X-1.2F7000S0
X-.8F1500S1000
X-1.8F7000S0
X-.6F1500S1000
X-2F7000S0
X-.8F1500S1000
X-1.2F7000S0
X-.5F1500S1000
X-1.4F7000S0
X-.7F1500S1000
X-.8F7000S0
X-.8F1500S1000
X-.7F7000S0
X-.9F1500S1000
X-1.3F7000S0
X-.8F1500S1000
X-.6F7000S0
X-.8F1500S1000
X-.4F7000S0
X-.9F1500S1000
X-.4F7000S0
X-1F1500S1000
X-.5F7000S0
X-1.1F1500S1000
X-1.2F7000S0
X-.9F1500S1000
X-1F7000S0
X-1.1F1500S1000
X-1.9F7000S0
X-1.1F1500S1000
X-30F7000S0
X-.1F1500S1000
X-.2F7000S0
X-.1F1500S1000
X-.2F7000S0
X-.1F1500S1000
X-12.6F7000S0
X-1.5F1500S1000
X-156.5F7000S0
X-.1F1500S1000
X-.2F7000S0
X-.1F1500S1000
X-.625F7000S0
X-.2Y.1
X.625
X1F1500S1000
X155.9F7000S0
X1.9F1500S1000
X11.9F7000S0
X1.6F1500S1000
X.1F7000S0
X.1F1500S1000
X29.4F7000S0
X1.3F1500S1000
X1.7F7000S0
X1.2F1500S1000
X.9F7000S0
X.9F1500S1000
X1.3F7000S0
X1F1500S1000
X.6F7000S0
X.9F1500S1000
X.5F7000S0
X.8F1500S1000
X.5F7000S0
X.8F1500S1000
X.6F7000S0
X.8F1500S1000
X1.3F7000S0
X.8F1500S1000
X.8F7000S0
X.7F1500S1000
X.8F7000S0
X.7F1500S1000
X1.4F7000S0
X.5F1500S1000
X1.1F7000S0
X.9F1500S1000
X1.9F7000S0
X.7F1500S1000
X1.8F7000S0
X.8F1500S1000
X1.1F7000S0
X.9F1500S1000
X1.7F7000S0
X.7F1500S1000
X.5F7000S0
X.8F1500S1000
X.5F7000S0
X.8F1500S1000
X.7F7000S0
X.7F1500S1000
X1.7F7000S0
X.8F1500S1000
X2.4F7000S0
X.6F1500S1000
X.9F7000S0
X1.1F1500S1000
X1F7000S0
X1F1500S1000
X1F7000S0
X1.1F1500S1000
X1.8F7000S0
X.9F1500S1000
X1.4F7000S0
X.8F1500S1000
X.625F7000S0
Y.1
X-.625
X-.8F1500S1000
X-1.5F7000S0
X-.9F1500S1000
X-1.8F7000S0
X-1.1F1500S1000
X-1F7000S0
X-1F1500S1000
X-1F7000S0
X-1F1500S1000
X-.9F7000S0
X-.7F1500S1000
X-2.3F7000S0
X-.8F1500S1000
X-1.8F7000S0
X-.6F1500S1000
X-.7F7000S0
X-.9F1500S1000
X-.5F7000S0
X-.8F1500S1000
X-.4F7000S0
X-.7F1500S1000
X-1.8F7000S0
X-.7F1500S1000
X-1.2F7000S0
X-.8F1500S1000
X-1.8F7000S0
X-.7F1500S1000
X-1.9F7000S0
X-.8F1500S1000
X-1.3F7000S0
X-.3F1500S1000
X-1.5F7000S0
X-.7F1500S1000
X-.8F7000S0
X-.7F1500S1000
X-.7F7000S0
X-.9F1500S1000
X-1.3F7000S0
X-.8F1500S1000
X-.6F7000S0
X-.8F1500S1000
X-.5F7000S0
X-.8F1500S1000
X-.4F7000S0
X-.9F1500S1000
X-.7F7000S0
X-.9F1500S1000
X-1.3F7000S0
X-.9F1500S1000
X-1F7000S0
X-1.1F1500S1000
X-1.8F7000S0
X-1.1F1500S1000
X-29.4F7000S0
X-2.4F1500S1000
X-11.3F7000S0
X-2.3F1500S1000
X-155.7F7000S0
X-1.2F1500S1000
X-.625F7000S0
X-.1Y.1
X.625
X1.5F1500S1000
X145.5F7000S0
X.4F1500S1000
X9.5F7000S0
X2.5F1500S1000
X10.9F7000S0
X3F1500S1000
X29.1F7000S0
X1.1F1500S1000
X1.9F7000S0
X1F1500S1000
X1F7000S0
X.9F1500S1000
X1.3F7000S0
X1F1500S1000
X.6F7000S0
X.9F1500S1000
X.4F7000S0
X.9F1500S1000
X.4F7000S0
X.9F1500S1000
X.5F7000S0
X.8F1500S1000
X1.3F7000S0
X.9F1500S1000
X.8F7000S0
X.6F1500S1000
X.8F7000S0
X.8F1500S1000
X1.3F7000S0
X.5F1500S1000
X1.1F7000S0
X.9F1500S1000
X2F7000S0
X.6F1500S1000
X1.8F7000S0
X.8F1500S1000
X1.1F7000S0
X.8F1500S1000
X1.8F7000S0
X.7F1500S1000
X.4F7000S0
X.9F1500S1000
X.5F7000S0
X.8F1500S1000
X.7F7000S0
X.6F1500S1000
X1.8F7000S0
X.8F1500S1000
X2.3F7000S0
X.6F1500S1000
X1F7000S0
X.9F1500S1000
X1F7000S0
X1.1F1500S1000
X1F7000S0
X1.1F1500S1000
X1.9F7000S0
X.8F1500S1000
X1.4F7000S0
X.9F1500S1000
X.625F7000S0
Y.1
X-.625
X-.9F1500S1000
X-1.5F7000S0
X-.8F1500S1000
X-1.9F7000S0
X-1.1F1500S1000
X-1F7000S0
X-.9F1500S1000
X-1.1F7000S0
X-1F1500S1000
X-.9F7000S0
X-.6F1500S1000
X-2.4F7000S0
X-.7F1500S1000
X-1.8F7000S0
X-.7F1500S1000
X-.7F7000S0
X-.7F1500S1000
X-.6F7000S0
X-.8F1500S1000
X-.5F7000S0
X-.7F1500S1000
X-1.7F7000S0
X-.7F1500S1000
X-1.2F7000S0
X-.8F1500S1000
X-1.8F7000S0
X-.6F1500S1000
X-2F7000S0
X-.8F1500S1000
X-1.2F7000S0
X-.5F1500S1000
X-1.3F7000S0
X-.7F1500S1000
X-.8F7000S0
X-.7F1500S1000
X-.8F7000S0
X-.8F1500S1000
X-1.3F7000S0
X-.9F1500S1000
X-.6F7000S0
X-.7F1500S1000
X-.5F7000S0
X-.8F1500S1000
X-.4F7000S0
X-.9F1500S1000
X-.7F7000S0
X-1F1500S1000
X-1.2F7000S0
X-.9F1500S1000
X-1F7000S0
X-1.1F1500S1000
X-1.8F7000S0
X-1.2F1500S1000
X-28.9F7000S0
X-3.4F1500S1000
X-10.5F7000S0
X-2.8F1500S1000
X-8.8F7000S0
X-1.5F1500S1000
X-144.9F7000S0
X-1.6F1500S1000
X-.625F7000S0
X-.2Y.1
X.625
X.5F1500S1000
X.8F7000S0
X.6F1500S1000
X144.4F7000S0
X2.2F1500S1000
X8.4F7000S0
X3F1500S1000
X10.2F7000S0
X3.8F1500S1000
X28.8F7000S0
X1.2F1500S1000
X1.8F7000S0
X1F1500S1000
X1F7000S0
X.9F1500S1000
X1.3F7000S0
X.9F1500S1000
X.7F7000S0
X.9F1500S1000
X.5F7000S0
X.7F1500S1000
X.5F7000S0
X.8F1500S1000
X.6F7000S0
X.8F1500S1000
X1.3F7000S0
X.8F1500S1000
X.8F7000S0
X.6F1500S1000
X.9F7000S0
X.7F1500S1000
X1.4F7000S0
X.4F1500S1000
X1.2F7000S0
X.8F1500S1000
X2F7000S0
X.6F1500S1000
X1.8F7000S0
X.8F1500S1000
X1.1F7000S0
X.8F1500S1000
X1.8F7000S0
X.6F1500S1000
X.5F7000S0
X.8F1500S1000
X.5F7000S0
X.8F1500S1000
X.7F7000S0
X.6F1500S1000
X1.8F7000S0
X.8F1500S1000
X2.4F7000S0
X.6F1500S1000
X.9F7000S0
X1F1500S1000
X1F7000S0
X1F1500S1000
X1F7000S0
X1.1F1500S1000
X1.8F7000S0
X.9F1500S1000
X1.4F7000S0
X1F1500S1000
X.625F7000S0
Y.1
X-.625
X-1.1F1500S1000
X-1.4F7000S0
X-.8F1500S1000
X-1.9F7000S0
X-1.1F1500S1000
X-1F7000S0
X-.9F1500S1000
X-1F7000S0
X-1F1500S1000
X-1F7000S0
X-.6F1500S1000
X-2.3F7000S0
X-.8F1500S1000
X-1.8F7000S0
X-.6F1500S1000
X-.7F7000S0
X-.8F1500S1000
X-.5F7000S0
X-.8F1500S1000
X-.5F7000S0
X-.6F1500S1000
X-1.8F7000S0
X-.7F1500S1000
X-1.2F7000S0
X-.8F1500S1000
X-1.8F7000S0
X-.5F1500S1000
X-2.1F7000S0
X-.8F1500S1000
X-1.2F7000S0
X-.4F1500S1000
X-1.4F7000S0
X-.7F1500S1000
X-.8F7000S0
X-.7F1500S1000
X-.7F7000S0
X-.9F1500S1000
X-1.3F7000S0
X-.8F1500S1000
X-.6F7000S0
X-.7F1500S1000
X-.5F7000S0
X-.8F1500S1000
X-.5F7000S0
X-.9F1500S1000
X-.6F7000S0
X-1F1500S1000
X-1.2F7000S0
X-.9F1500S1000
X-1F7000S0
X-1F1500S1000
X-1.9F7000S0
X-1.1F1500S1000
X-28.7F7000S0
X-4.2F1500S1000
X-.1F7000S0
X-.1F1500S1000
X-9.7F7000S0
X-3.3F1500S1000
X-7.9F7000S0
X-2.7F1500S1000
X-.1F7000S0
X-.1F1500S1000
X-144F7000S0
X-.7F1500S1000
X-.9F7000S0
X-.3F1500S1000
X-.625F7000S0
X-.2Y.1
X.625
X.4F1500S1000
X.8F7000S0
X1F1500S1000
X143.7F7000S0
X3.3F1500S1000
X7.6F7000S0
X3.5F1500S1000
X9.4F7000S0
X4.8F1500S1000
X28.5F7000S0
X1.1F1500S1000
X2F7000S0
X1F1500S1000
X1F7000S0
X.8F1500S1000
X1.2F7000S0
X1F1500S1000
X.6F7000S0
X1F1500S1000
X.5F7000S0
X.7F1500S1000
X.5F7000S0
X.8F1500S1000
X.5F7000S0
X.9F1500S1000
X1.2F7000S0
X.9F1500S1000
X.8F7000S0
X.6F1500S1000
X.8F7000S0
X.7F1500S1000
X1.4F7000S0
X.5F1500S1000
X1.2F7000S0
X.7F1500S1000
X2F7000S0
X.6F1500S1000
X1.8F7000S0
X.8F1500S1000
X1.2F7000S0
X.7F1500S1000
X1.7F7000S0
X.7F1500S1000
X.5F7000S0
X.8F1500S1000
X.5F7000S0
X.8F1500S1000
X.7F7000S0
X.6F1500S1000
X1.8F7000S0
X.7F1500S1000
X2.4F7000S0
X.5F1500S1000
X1F7000S0
X1F1500S1000
X1.1F7000S0
X.8F1500S1000
X1F7000S0
X1.2F1500S1000
X1.8F7000S0
X.9F1500S1000
X1.4F7000S0
X1.1F1500S1000
X.625F7000S0
Y.1
X-.625
X-1.2F1500S1000
X-1.4F7000S0
X-.8F1500S1000
X-1.9F7000S0
X-1.1F1500S1000
X-1F7000S0
X-.9F1500S1000
X-1F7000S0
X-1F1500S1000
X-1F7000S0
X-.6F1500S1000
X-2.3F7000S0
X-.7F1500S1000
X-1.9F7000S0
X-.5F1500S1000
X-.7F7000S0
X-.8F1500S1000
X-.5F7000S0
X-.9F1500S1000
X-.4F7000S0
X-.7F1500S1000
X-1.7F7000S0
X-.8F1500S1000
X-1.2F7000S0
X-.7F1500S1000
X-1.8F7000S0
X-.6F1500S1000
X-1.9F7000S0
X-.9F1500S1000
X-1.2F7000S0
X-.4F1500S1000
X-1.4F7000S0
X-.6F1500S1000
X-1F7000S0
X-.5F1500S1000
X-.8F7000S0
X-.8F1500S1000
X-1.3F7000S0
X-.8F1500S1000
X-.7F7000S0
X-.6F1500S1000
X-.6F7000S0
X-.7F1500S1000
X-.4F7000S0
X-1F1500S1000
X-.6F7000S0
X-1F1500S1000
X-1.3F7000S0
X-.8F1500S1000
X-1F7000S0
X-1F1500S1000
X-1.9F7000S0
X-1.1F1500S1000
X-28.5F7000S0
X-5F1500S1000
X-9.2F7000S0
X-3.6F1500S1000
X-7.4F7000S0
X-3.7F1500S1000
X-143.4F7000S0
X-.6F1500S1000
X-.1F7000S0
X-.6F1500S1000
X-.7F7000S0
X-.3F1500S1000
X-.625F7000S0
X-.1Y.1
X.625
X.3F1500S1000
X.7F7000S0
X.5F1500S1000
X.3F7000S0
X.6F1500S1000
X143.2F7000S0
X4F1500S1000
X7.2F7000S0
X3.8F1500S1000
X8.9F7000S0
X5.4F1500S1000
X28.4F7000S0
X1.1F1500S1000
X1.8F7000S0
X1.1F1500S1000
X1F7000S0
X.8F1500S1000
X1.2F7000S0
X1F1500S1000
X.6F7000S0
X1F1500S1000
X.5F7000S0
X.7F1500S1000
X.5F7000S0
X.7F1500S1000
X.6F7000S0
X.8F1500S1000
X1.3F7000S0
X.8F1500S1000
X.8F7000S0
X.6F1500S1000
X.9F7000S0
X.7F1500S1000
X1.4F7000S0
X.3F1500S1000
X1.2F7000S0
X.9F1500S1000
X1.9F7000S0
X.6F1500S1000
X1.8F7000S0
X.8F1500S1000
X1.2F7000S0
X.7F1500S1000
X1.7F7000S0
X.7F1500S1000
X.4F7000S0
X.8F1500S1000
X.6F7000S0
X.7F1500S1000
X.7F7000S0
X.6F1500S1000
X1.8F7000S0
X.8F1500S1000
X2.3F7000S0
X.5F1500S1000
X1F7000S0
X1F1500S1000
X1.1F7000S0
X.9F1500S1000
X1F7000S0
X1.1F1500S1000
X1.8F7000S0
X.9F1500S1000
X1.4F7000S0
X1.2F1500S1000
X.625F7000S0
X-.2Y.1
X-.625
X-1.1F1500S1000
X-1.4F7000S0
X-.8F1500S1000
X-1.9F7000S0
X-1.1F1500S1000
X-1F7000S0
X-.9F1500S1000
X-1F7000S0
X-1F1500S1000
X-1F7000S0
X-.5F1500S1000
X-2.4F7000S0
X-.7F1500S1000
X-1.8F7000S0
X-.6F1500S1000
X-.6F7000S0
X-.8F1500S1000
X-.6F7000S0
X-.8F1500S1000
X-.5F7000S0
X-.6F1500S1000
X-1.7F7000S0
X-.8F1500S1000
X-1.1F7000S0
X-.8F1500S1000
X-1.8F7000S0
X-.6F1500S1000
X-1.9F7000S0
X-.8F1500S1000
X-1.2F7000S0
X-.4F1500S1000
X-1.4F7000S0
X-.7F1500S1000
X-.8F7000S0
X-.7F1500S1000
X-.7F7000S0
X-.9F1500S1000
X-1.2F7000S0
X-.9F1500S1000
X-.6F7000S0
X-.7F1500S1000
X-.6F7000S0
X-.6F1500S1000
X-.5F7000S0
X-.9F1500S1000
X-.7F7000S0
X-.9F1500S1000
X-1.3F7000S0
X-.8F1500S1000
X-1F7000S0
X-1F1500S1000
X-1.9F7000S0
X-1.1F1500S1000
X-28.3F7000S0
X-5.6F1500S1000
X-8.7F7000S0
X-4F1500S1000
X-6.9F7000S0
X-4.3F1500S1000
X-143.1F7000S0
X-.6F1500S1000
X-.5F7000S0
X-.5F1500S1000
X-.6F7000S0
X-.2F1500S1000
X-.625F7000S0
Y.1
X.625
X.2F1500S1000
X.4F7000S0
X.6F1500S1000
X.4F7000S0
X.9F1500S1000
X142.8F7000S0
X4.6F1500S1000
X6.6F7000S0
X4.2F1500S1000
X8.5F7000S0
X6F1500S1000
X26.3F7000S0
X.1F1500S1000
X1.8F7000S0
X1.1F1500S1000
X1.9F7000S0
X1F1500S1000
X1F7000S0
X.8F1500S1000
X1.3F7000S0
X.9F1500S1000
X.6F7000S0
X.9F1500S1000
X.6F7000S0
X.6F1500S1000
X.5F7000S0
X.8F1500S1000
X.6F7000S0
X.8F1500S1000
X1.2F7000S0
X.9F1500S1000
X.8F7000S0
X.5F1500S1000
X.9F7000S0
X.7F1500S1000
X1.4F7000S0
X.3F1500S1000
X1.3F7000S0
X.8F1500S1000
X1.9F7000S0
X.6F1500S1000
X1.8F7000S0
X.8F1500S1000
X1.2F7000S0
X.7F1500S1000
X1.7F7000S0
X.6F1500S1000
X.5F7000S0
X.8F1500S1000
X.5F7000S0
X.8F1500S1000
X.7F7000S0
X.6F1500S1000
X1.7F7000S0
X.8F1500S1000
X2.4F7000S0
X.5F1500S1000
X1F7000S0
X1F1500S1000
X1F7000S0
X.9F1500S1000
X1F7000S0
X1.1F1500S1000
X1.8F7000S0
X.8F1500S1000
X1.4F7000S0
X1.2F1500S1000
X.625F7000S0
X-.1Y.1
X-.625
X-1.1F1500S1000
X-1.5F7000S0
X-.7F1500S1000
X-1.9F7000S0
X-1F1500S1000
X-1F7000S0
X-1F1500S1000
X-1F7000S0
X-.9F1500S1000
X-1F7000S0
X-.6F1500S1000
X-2.3F7000S0
X-.8F1500S1000
X-1.8F7000S0
X-.5F1500S1000
X-.7F7000S0
X-.8F1500S1000
X-.5F7000S0
X-.8F1500S1000
X-.5F7000S0
X-.6F1500S1000
X-1.7F7000S0
X-.7F1500S1000
X-1.3F7000S0
X-.7F1500S1000
X-1.8F7000S0
X-.5F1500S1000
X-2F7000S0
X-.8F1500S1000
X-1.2F7000S0
X-.4F1500S1000
X-1.4F7000S0
X-.7F1500S1000
X-.9F7000S0
X-.5F1500S1000
X-.8F7000S0
X-.8F1500S1000
X-1.3F7000S0
X-.8F1500S1000
X-.6F7000S0
X-.7F1500S1000
X-.6F7000S0
X-.7F1500S1000
X-.4F7000S0
X-.9F1500S1000
X-.7F7000S0
X-.9F1500S1000
X-1.3F7000S0
X-.7F1500S1000
X-1.1F7000S0
X-1F1500S1000
X-1.9F7000S0
X-1.1F1500S1000
X-1.6F7000S0
X-.3F1500S1000
X-26.2F7000S0
X-6.4F1500S1000
X-6.1F7000S0
X-.1F1500S1000
X-1.8F7000S0
X-4.4F1500S1000
X-6.4F7000S0
X-5.1F1500S1000
X-142.5F7000S0
X-.5F1500S1000
X-.1F7000S0
X-.5F1500S1000
X-.4F7000S0
X-.5F1500S1000
X-.4F7000S0
X-.2F1500S1000
X-.625F7000S0
Y.1
X.625
X.2F1500S1000
X.3F7000S0
X.5F1500S1000
X.3F7000S0
X.5F1500S1000
X.4F7000S0
X.5F1500S1000
X142.2F7000S0
X5.4F1500S1000
X6.2F7000S0
X4.6F1500S1000
X1.7F7000S0
X.2F1500S1000
X5.8F7000S0
X6.7F1500S1000
X26.1F7000S0
X.3F1500S1000
X1.7F7000S0
X1.1F1500S1000
X1.9F7000S0
X.9F1500S1000
X1.1F7000S0
X.8F1500S1000
X1.3F7000S0
X.8F1500S1000
X.7F7000S0
X.9F1500S1000
X.5F7000S0
X.6F1500S1000
X.6F7000S0
X.7F1500S1000
X.7F7000S0
X.7F1500S1000
X1.3F7000S0
X.8F1500S1000
X.8F7000S0
X.6F1500S1000
X.9F7000S0
X.6F1500S1000
X1.4F7000S0
X.4F1500S1000
X1.2F7000S0
X.8F1500S1000
X1.9F7000S0
X.6F1500S1000
X1.8F7000S0
X.7F1500S1000
X1.2F7000S0
X.7F1500S1000
X1.8F7000S0
X.6F1500S1000
X.5F7000S0
X.8F1500S1000
X.5F7000S0
X.8F1500S1000
X.7F7000S0
X.5F1500S1000
X1.8F7000S0
X.8F1500S1000
X2.3F7000S0
X.5F1500S1000
X1F7000S0
X.9F1500S1000
X1.1F7000S0
X.9F1500S1000
X1F7000S0
X1.1F1500S1000
X1.8F7000S0
X.8F1500S1000
X1.4F7000S0
X1.1F1500S1000
X.625F7000S0
Y.1
X-.625
X-1.1F1500S1000
X-1.5F7000S0
X-.7F1500S1000
X-1.9F7000S0
X-1F1500S1000
X-1F7000S0
X-1F1500S1000
X-1F7000S0
X-.9F1500S1000
X-1F7000S0
X-.5F1500S1000
X-2.4F7000S0
X-.7F1500S1000
X-1.8F7000S0
X-.6F1500S1000
X-.7F7000S0
X-.7F1500S1000
X-.6F7000S0
X-.8F1500S1000
X-.4F7000S0
X-.6F1500S1000
X-1.8F7000S0
X-.6F1500S1000
X-1.3F7000S0
X-.7F1500S1000
X-1.8F7000S0
X-.6F1500S1000
X-1.9F7000S0
X-.8F1500S1000
X-1.2F7000S0
X-.3F1500S1000
X-1.5F7000S0
X-.6F1500S1000
X-.9F7000S0
X-.6F1500S1000
X-.7F7000S0
X-.9F1500S1000
X-1.3F7000S0
X-.7F1500S1000
X-.6F7000S0
X-.8F1500S1000
X-.5F7000S0
X-.6F1500S1000
X-.5F7000S0
X-.9F1500S1000
X-.7F7000S0
X-.9F1500S1000
X-1.3F7000S0
X-.8F1500S1000
X-1F7000S0
X-1F1500S1000
X-1.8F7000S0
X-1.2F1500S1000
X-1.7F7000S0
X-.3F1500S1000
X-25.9F7000S0
X-7F1500S1000
X-5.6F7000S0
X-.2F1500S1000
X-1.7F7000S0
X-4.8F1500S1000
X-5.9F7000S0
X-5.7F1500S1000
X-142.1F7000S0
X-.4F1500S1000
X-.5F7000S0
X-.7F1500S1000
X-.3F7000S0
X-.3F1500S1000
X-.3F7000S0
X-.2F1500S1000
X-.625F7000S0
X-.1Y.1
X.625
X.2F1500S1000
X.4F7000S0
X.2F1500S1000
X.4F7000S0
X.5F1500S1000
X.6F7000S0
X.5F1500S1000
X141.9F7000S0
X6F1500S1000
X5.7F7000S0
X5F1500S1000
X1.7F7000S0
X.2F1500S1000
X5.4F7000S0
X7.2F1500S1000
X25.8F7000S0
X.4F1500S1000
X1.7F7000S0
X1.1F1500S1000
X1.9F7000S0
X.9F1500S1000
X1.1F7000S0
X.8F1500S1000
X1.3F7000S0
X.8F1500S1000
X.7F7000S0
X.9F1500S1000
X.5F7000S0
X.6F1500S1000
X.6F7000S0
X.7F1500S1000
X.6F7000S0
X.8F1500S1000
X1.3F7000S0
X.8F1500S1000
X.7F7000S0
X.6F1500S1000
X.9F7000S0
X.6F1500S1000
X1.5F7000S0
X.3F1500S1000
X1.2F7000S0
X.8F1500S1000
X1.9F7000S0
X.6F1500S1000
X1.8F7000S0
X.7F1500S1000
X1.2F7000S0
X.8F1500S1000
X1.7F7000S0
X.6F1500S1000
X.4F7000S0
X.8F1500S1000
X.6F7000S0
X.8F1500S1000
X.6F7000S0
X.5F1500S1000
X1.8F7000S0
X.8F1500S1000
X2.4F7000S0
X.4F1500S1000
X1.1F7000S0
X.9F1500S1000
X1F7000S0
X.9F1500S1000
X1F7000S0
X1F1500S1000
X1.9F7000S0
X.7F1500S1000
X1.6F7000S0
X1.1F1500S1000
X.625F7000S0
X-.1Y.1
X-.625
X-1.1F1500S1000
X-1.5F7000S0
X-.7F1500S1000
X-1.9F7000S0
X-1F1500S1000
X-1F7000S0
X-1F1500S1000
X-1F7000S0
X-.9F1500S1000
X-1F7000S0
X-.5F1500S1000
X-2.3F7000S0
X-.8F1500S1000
X-1.7F7000S0
X-.6F1500S1000
X-.7F7000S0
X-.7F1500S1000
X-.6F7000S0
X-.8F1500S1000
X-.5F7000S0
X-.5F1500S1000
X-1.8F7000S0
X-.6F1500S1000
X-1.3F7000S0
X-.7F1500S1000
X-1.8F7000S0
X-.6F1500S1000
X-1.9F7000S0
X-.8F1500S1000
X-1.2F7000S0
X-.3F1500S1000
X-1.4F7000S0
X-.7F1500S1000
X-.9F7000S0
X-.5F1500S1000
X-.8F7000S0
X-.8F1500S1000
X-1.3F7000S0
X-.7F1500S1000
X-.7F7000S0
X-.7F1500S1000
X-.5F7000S0
X-.7F1500S1000
X-.5F7000S0
X-.8F1500S1000
X-.7F7000S0
X-.9F1500S1000
X-1.3F7000S0
X-.7F1500S1000
X-1.1F7000S0
X-1F1500S1000
X-1.8F7000S0
X-1.2F1500S1000
X-1.6F7000S0
X-.5F1500S1000
X-25.8F7000S0
X-7.4F1500S1000
X-5.1F7000S0
X-.2F1500S1000
X-1.8F7000S0
X-5.1F1500S1000
X-5.5F7000S0
X-6.2F1500S1000
X-9.7F7000S0
X-.6F1500S1000
X-131.4F7000S0
X-.7F1500S1000
X-.7F7000S0
X-.5F1500S1000
X-.8F7000S0
X-.2F1500S1000
X-.625F7000S0
X-.1Y.1
X.625
X.2F1500S1000
X.7F7000S0
X.5F1500S1000
X.7F7000S0
X.8F1500S1000
X131.6F7000S0
X1.3F1500S1000
X.1F7000S0
X.1F1500S1000
X8.5F7000S0
X6.5F1500S1000
X5.4F7000S0
X5.2F1500S1000
X1.7F7000S0
X.4F1500S1000
X4.6F7000S0
X7.9F1500S1000
X25.6F7000S0
X.6F1500S1000
X1.7F7000S0
X1F1500S1000
X1.9F7000S0
X1F1500S1000
X1F7000S0
X.7F1500S1000
X1.3F7000S0
X.9F1500S1000
X.7F7000S0
X.9F1500S1000
X.5F7000S0
X.6F1500S1000
X.6F7000S0
X.6F1500S1000
X.7F7000S0
X.7F1500S1000
X1.4F7000S0
X.7F1500S1000
X.8F7000S0
X.5F1500S1000
X1F7000S0
X.5F1500S1000
X1.5F7000S0
X.4F1500S1000
X1.1F7000S0
X.8F1500S1000
X1.9F7000S0
X.6F1500S1000
X1.8F7000S0
X.7F1500S1000
X1.3F7000S0
X.6F1500S1000
X1.8F7000S0
X.5F1500S1000
X.5F7000S0
X.8F1500S1000
X.5F7000S0
X.8F1500S1000
X.7F7000S0
X.5F1500S1000
X1.8F7000S0
X.7F1500S1000
X2.4F7000S0
X.4F1500S1000
X1.1F7000S0
X.9F1500S1000
X1.1F7000S0
X.8F1500S1000
X1F7000S0
X1F1500S1000
X1.9F7000S0
X.8F1500S1000
X1.4F7000S0
X1.1F1500S1000
X.625F7000S0
X-.1Y.1
X-.625
X-1.1F1500S1000
X-1.4F7000S0
X-.7F1500S1000
X-1.9F7000S0
X-1.1F1500S1000
X-1F7000S0
X-.8F1500S1000
X-1.1F7000S0
X-.9F1500S1000
X-1F7000S0
X-.4F1500S1000
X-2.4F7000S0
X-.8F1500S1000
X-1.8F7000S0
X-.4F1500S1000
X-.7F7000S0
X-.8F1500S1000
X-.6F7000S0
X-.6F1500S1000
X-.6F7000S0
X-.5F1500S1000
X-1.7F7000S0
X-.8F1500S1000
X-1.2F7000S0
X-.7F1500S1000
X-1.8F7000S0
X-.5F1500S1000
X-2F7000S0
X-.7F1500S1000
X-1.3F7000S0
X-.2F1500S1000
X-1.5F7000S0
X-.7F1500S1000
X-.8F7000S0
X-.5F1500S1000
X-.9F7000S0
X-.7F1500S1000
X-1.4F7000S0
X-.6F1500S1000
X-.7F7000S0
X-.7F1500S1000
X-.6F7000S0
X-.5F1500S1000
X-.6F7000S0
X-.9F1500S1000
X-.6F7000S0
X-1F1500S1000
X-1.2F7000S0
X-.7F1500S1000
X-1.1F7000S0
X-.9F1500S1000
X-1.9F7000S0
X-1.1F1500S1000
X-1.7F7000S0
X-.6F1500S1000
X-25.5F7000S0
X-8.1F1500S1000
X-4.4F7000S0
X-.4F1500S1000
X-1.7F7000S0
X-5.4F1500S1000
X-5.1F7000S0
X-6.9F1500S1000
X-8F7000S0
X-1.6F1500S1000
X-131.7F7000S0
X-.4F1500S1000
X-.1F7000S0
X-.1F1500S1000
X-.1F7000S0
X-.4F1500S1000
X-.8F7000S0
X-.3F1500S1000
X-.5F7000S0
X-.3F1500S1000
X-.625F7000S0
Y.1
X.625
X.2F1500S1000
X1.5F7000S0
X.4F1500S1000
X.5F7000S0
X.4F1500S1000
X131.8F7000S0
X1.7F1500S1000
X7.6F7000S0
X7.2F1500S1000
X4.9F7000S0
X5.6F1500S1000
X1.7F7000S0
X.4F1500S1000
X4.1F7000S0
X8.4F1500S1000
X25.4F7000S0
X.7F1500S1000
X1.7F7000S0
X1F1500S1000
X1.9F7000S0
X1F1500S1000
X1.1F7000S0
X.7F1500S1000
X1.2F7000S0
X.9F1500S1000
X.7F7000S0
X.9F1500S1000
X.5F7000S0
X.5F1500S1000
X.7F7000S0
X.6F1500S1000
X.7F7000S0
X.7F1500S1000
X1.3F7000S0
X.8F1500S1000
X.8F7000S0
X.5F1500S1000
X.9F7000S0
X.6F1500S1000
X1.5F7000S0
X.2F1500S1000
X1.3F7000S0
X.8F1500S1000
X1.8F7000S0
X.6F1500S1000
X1.8F7000S0
X.7F1500S1000
X1.3F7000S0
X.6F1500S1000
X1.7F7000S0
X.6F1500S1000
X.5F7000S0
X.7F1500S1000
X.6F7000S0
X.8F1500S1000
X.7F7000S0
X.5F1500S1000
X1.7F7000S0
X.7F1500S1000
X2.5F7000S0
X.3F1500S1000
X1.1F7000S0
X.9F1500S1000
X1.1F7000S0
X.8F1500S1000
X1F7000S0
X1F1500S1000
X1.9F7000S0
X.7F1500S1000
X1.5F7000S0
X1F1500S1000
X.625F7000S0
X-.1Y.1
X-.625
X-1F1500S1000
X-1.4F7000S0
X-.7F1500S1000
X-1.9F7000S0
X-1.1F1500S1000
X-1F7000S0
X-.8F1500S1000
X-1F7000S0
X-1F1500S1000
X-1F7000S0
X-.3F1500S1000
X-2.5F7000S0
X-.7F1500S1000
X-1.8F7000S0
X-.5F1500S1000
X-.6F7000S0
X-.8F1500S1000
X-.6F7000S0
X-.8F1500S1000
X-.4F7000S0
X-.6F1500S1000
X-1.7F7000S0
X-.6F1500S1000
X-1.3F7000S0
X-.7F1500S1000
X-1.8F7000S0
X-.6F1500S1000
X-1.8F7000S0
X-.8F1500S1000
X-1.2F7000S0
X-.3F1500S1000
X-1.5F7000S0
X-.6F1500S1000
X-.9F7000S0
X-.5F1500S1000
X-.8F7000S0
X-.8F1500S1000
X-1.3F7000S0
X-.8F1500S1000
X-.5F7000S0
X-.7F1500S1000
X-.6F7000S0
X-.5F1500S1000
X-.6F7000S0
X-.9F1500S1000
X-.7F7000S0
X-.9F1500S1000
X-1.2F7000S0
X-.7F1500S1000
X-1.1F7000S0
X-.9F1500S1000
X-1.9F7000S0
X-1.1F1500S1000
X-1.7F7000S0
X-.7F1500S1000
X-25.3F7000S0
X-8.7F1500S1000
X-3.7F7000S0
X-.6F1500S1000
X-1.6F7000S0
X-5.8F1500S1000
X-4.7F7000S0
X-7.5F1500S1000
X-7.2F7000S0
X-1.8F1500S1000
X-131.9F7000S0
X-.4F1500S1000
X-.7F7000S0
X-.5F1500S1000
X-1.2F7000S0
X-.2F1500S1000
X-.625F7000S0
Y.1
X.625
X.2F1500S1000
X1F7000S0
X.6F1500S1000
X.7F7000S0
X.5F1500S1000
X132F7000S0
X1.9F1500S1000
X6.8F7000S0
X7.8F1500S1000
X4.6F7000S0
X5.9F1500S1000
X1.6F7000S0
X.6F1500S1000
X3.4F7000S0
X8.9F1500S1000
X25.3F7000S0
X.8F1500S1000
X1.7F7000S0
X1.1F1500S1000
X1.8F7000S0
X1F1500S1000
X1F7000S0
X.7F1500S1000
X1.3F7000S0
X.9F1500S1000
X.6F7000S0
X.9F1500S1000
X.6F7000S0
X.5F1500S1000
X.7F7000S0
X.6F1500S1000
X.6F7000S0
X.7F1500S1000
X1.4F7000S0
X.7F1500S1000
X.8F7000S0
X.5F1500S1000
X.9F7000S0
X.6F1500S1000
X1.5F7000S0
X.3F1500S1000
X1.2F7000S0
X.8F1500S1000
X1.8F7000S0
X.6F1500S1000
X1.8F7000S0
X.7F1500S1000
X1.2F7000S0
X.7F1500S1000
X1.7F7000S0
X.5F1500S1000
X.6F7000S0
X.7F1500S1000
X.6F7000S0
X.7F1500S1000
X.7F7000S0
X.5F1500S1000
X1.8F7000S0
X.7F1500S1000
X2.4F7000S0
X.3F1500S1000
X1.1F7000S0
X1F1500S1000
X1F7000S0
X.8F1500S1000
X1F7000S0
X1F1500S1000
X2F7000S0
X.6F1500S1000
X1.4F7000S0
X1.1F1500S1000
X.625F7000S0
Y.1
X-.625
X-1.1F1500S1000
X-1.4F7000S0
X-.7F1500S1000
X-1.9F7000S0
X-1F1500S1000
X-1F7000S0
X-.9F1500S1000
X-1F7000S0
X-.9F1500S1000
X-1.1F7000S0
X-.3F1500S1000
X-2.5F7000S0
X-.7F1500S1000
X-1.7F7000S0
X-.4F1500S1000
X-.8F7000S0
X-.7F1500S1000
X-.6F7000S0
X-.8F1500S1000
X-.4F7000S0
X-.6F1500S1000
X-1.6F7000S0
X-.8F1500S1000
X-1.2F7000S0
X-.7F1500S1000
X-1.8F7000S0
X-.6F1500S1000
X-1.8F7000S0
X-.8F1500S1000
X-1.2F7000S0
X-.3F1500S1000
X-1.4F7000S0
X-.7F1500S1000
X-.9F7000S0
X-.4F1500S1000
X-.9F7000S0
X-.7F1500S1000
X-1.3F7000S0
X-.7F1500S1000
X-.7F7000S0
X-.6F1500S1000
X-.7F7000S0
X-.5F1500S1000
X-.5F7000S0
X-.9F1500S1000
X-.7F7000S0
X-.8F1500S1000
X-1.4F7000S0
X-.6F1500S1000
X-1F7000S0
X-1F1500S1000
X-1.9F7000S0
X-1.1F1500S1000
X-1.7F7000S0
X-.8F1500S1000
X-25.1F7000S0
X-9.2F1500S1000
X-3.1F7000S0
X-.7F1500S1000
X-1.7F7000S0
X-6F1500S1000
X-4.3F7000S0
X-8.1F1500S1000
X-6.5F7000S0
X-1.9F1500S1000
X-132.2F7000S0
X-.7F1500S1000
X-.6F7000S0
X-.6F1500S1000
X-.9F7000S0
X-.2F1500S1000
X-.625F7000S0
Y.1
X.625
X.2F1500S1000
X.8F7000S0
X.4F1500S1000
X.7F7000S0
X.8F1500S1000
X132.4F7000S0
X2.1F1500S1000
X6F7000S0
X8.3F1500S1000
X4.2F7000S0
X6.2F1500S1000
X1.7F7000S0
X.8F1500S1000
X2.6F7000S0
X9.6F1500S1000
X25F7000S0
X.9F1500S1000
X1.7F7000S0
X1.1F1500S1000
X1.9F7000S0
X.9F1500S1000
X1F7000S0
X.7F1500S1000
X1.3F7000S0
X.8F1500S1000
X.7F7000S0
X.9F1500S1000
X.6F7000S0
X.5F1500S1000
X.6F7000S0
X.6F1500S1000
X.7F7000S0
X.7F1500S1000
X1.3F7000S0
X.7F1500S1000
X.9F7000S0
X.5F1500S1000
X.8F7000S0
X.6F1500S1000
X1.5F7000S0
X.3F1500S1000
X1.2F7000S0
X.7F1500S1000
X2F7000S0
X.5F1500S1000
X1.8F7000S0
X.7F1500S1000
X1.2F7000S0
X.7F1500S1000
X1.7F7000S0
X.5F1500S1000
X.5F7000S0
X.8F1500S1000
X.5F7000S0
X.8F1500S1000
X.7F7000S0
X.5F1500S1000
X1.7F7000S0
X.7F1500S1000
X2.4F7000S0
X.3F1500S1000
X1.1F7000S0
X.9F1500S1000
X1.1F7000S0
X.8F1500S1000
X1F7000S0
X1F1500S1000
X2F7000S0
X.6F1500S1000
X1.5F7000S0
X1F1500S1000
X.625F7000S0
X-.1Y.1
X-.625
X-1F1500S1000
X-1.5F7000S0
X-.6F1500S1000
X-1.9F7000S0
X-1F1500S1000
X-1F7000S0
X-.9F1500S1000
X-1F7000S0
X-.9F1500S1000
X-1F7000S0
X-.4F1500S1000
X-2.4F7000S0
X-.7F1500S1000
X-1.8F7000S0
X-.4F1500S1000
X-.7F7000S0
X-.8F1500S1000
X-.6F7000S0
X-.6F1500S1000
X-.6F7000S0
X-.5F1500S1000
X-1.7F7000S0
X-.7F1500S1000
X-1.2F7000S0
X-.7F1500S1000
X-1.8F7000S0
X-.5F1500S1000
X-1.9F7000S0
X-.8F1500S1000
X-1.2F7000S0
X-.2F1500S1000
X-1.6F7000S0
X-.5F1500S1000
X-.9F7000S0
X-.4F1500S1000
X-.9F7000S0
X-.7F1500S1000
X-1.4F7000S0
X-.7F1500S1000
X-.6F7000S0
X-.6F1500S1000
X-.7F7000S0
X-.5F1500S1000
X-.5F7000S0
X-.9F1500S1000
X-.7F7000S0
X-.8F1500S1000
X-1.4F7000S0
X-.6F1500S1000
X-1.1F7000S0
X-.9F1500S1000
X-1.9F7000S0
X-1.1F1500S1000
X-1.7F7000S0
X-.9F1500S1000
X-24.9F7000S0
X-10F1500S1000
X-2.1F7000S0
X-1F1500S1000
X-1.6F7000S0
X-6.3F1500S1000
X-4F7000S0
X-8.7F1500S1000
X-5.7F7000S0
X-2F1500S1000
X-132.5F7000S0
X-1F1500S1000
X-.8F7000S0
X-.3F1500S1000
X-.7F7000S0
X-.3F1500S1000
X-.625F7000S0
Y.1
X.625
X.3F1500S1000
X1.6F7000S0
X.4F1500S1000
X.4F7000S0
X.4F1500S1000
X132.6F7000S0
X2.1F1500S1000
X5.3F7000S0
X9F1500S1000
X3.8F7000S0
X6.5F1500S1000
X1.6F7000S0
X1.3F1500S1000
X1.4F7000S0
X10.4F1500S1000
X24.8F7000S0
X1F1500S1000
X1.7F7000S0
X1F1500S1000
X2F7000S0
X.9F1500S1000
X1F7000S0
X.7F1500S1000
X1.3F7000S0
X.8F1500S1000
X.7F7000S0
X.9F1500S1000
X.6F7000S0
X.5F1500S1000
X.5F7000S0
X.6F1500S1000
X.7F7000S0
X.8F1500S1000
X1.3F7000S0
X.7F1500S1000
X.9F7000S0
X.4F1500S1000
X.9F7000S0
X.6F1500S1000
X1.4F7000S0
X.3F1500S1000
X1.3F7000S0
X.7F1500S1000
X1.9F7000S0
X.5F1500S1000
X1.8F7000S0
X.7F1500S1000
X1.2F7000S0
X.8F1500S1000
X1.6F7000S0
X.5F1500S1000
X.5F7000S0
X.7F1500S1000
X.6F7000S0
X.7F1500S1000
X.8F7000S0
X.4F1500S1000
X1.8F7000S0
X.6F1500S1000
X2.5F7000S0
X.3F1500S1000
X1.1F7000S0
X.9F1500S1000
X1F7000S0
X.9F1500S1000
X1F7000S0
X.9F1500S1000
X2F7000S0
X.5F1500S1000
X1.6F7000S0
X1F1500S1000
X.625F7000S0
X-.1Y.1
X-.625
X-1F1500S1000
X-1.5F7000S0
X-.6F1500S1000
X-1.9F7000S0
X-1F1500S1000
X-1F7000S0
X-.9F1500S1000
X-1F7000S0
X-.8F1500S1000
X-1.2F7000S0
X-.2F1500S1000
X-2.5F7000S0
X-.6F1500S1000
X-1.8F7000S0
X-.5F1500S1000
X-.7F7000S0
X-.7F1500S1000
X-.6F7000S0
X-.8F1500S1000
X-.3F7000S0
X-.6F1500S1000
X-1.7F7000S0
X-.7F1500S1000
X-1.2F7000S0
X-.7F1500S1000
X-1.8F7000S0
X-.5F1500S1000
X-1.9F7000S0
X-.7F1500S1000
X-1.3F7000S0
X-.2F1500S1000
X-1.5F7000S0
X-.6F1500S1000
X-.9F7000S0
X-.4F1500S1000
X-.9F7000S0
X-.7F1500S1000
X-1.3F7000S0
X-.7F1500S1000
X-.7F7000S0
X-.6F1500S1000
X-.6F7000S0
X-.5F1500S1000
X-.6F7000S0
X-.8F1500S1000
X-.8F7000S0
X-.7F1500S1000
X-1.4F7000S0
X-.6F1500S1000
X-1.1F7000S0
X-.9F1500S1000
X-1.9F7000S0
X-1F1500S1000
X-1.7F7000S0
X-1.1F1500S1000
X-24.8F7000S0
X-11F1500S1000
X-.3F7000S0
X-1.7F1500S1000
X-1.7F7000S0
X-6.6F1500S1000
X-3.5F7000S0
X-9.4F1500S1000
X-4.9F7000S0
X-2.1F1500S1000
X-132.8F7000S0
X-.4F1500S1000
X-.5F7000S0
X-.5F1500S1000
X-1.5F7000S0
X-.2F1500S1000
X-.625F7000S0
Y.1
X.625
X.2F1500S1000
X1.3F7000S0
X.5F1500S1000
X.6F7000S0
X.5F1500S1000
X33.5F7000S0
X.5F1500S1000
X98.9F7000S0
X2.2F1500S1000
X4.4F7000S0
X9.7F1500S1000
X3.4F7000S0
X6.8F1500S1000
X1.7F7000S0
X13.1F1500S1000
X24.6F7000S0
X1.1F1500S1000
X1.7F7000S0
X1.1F1500S1000
X1.9F7000S0
X.9F1500S1000
X1F7000S0
X.7F1500S1000
X1.3F7000S0
X.8F1500S1000
X.7F7000S0
X.9F1500S1000
X.6F7000S0
X.4F1500S1000
X.7F7000S0
X.5F1500S1000
X.7F7000S0
X.7F1500S1000
X1.3F7000S0
X.7F1500S1000
X.9F7000S0
X.4F1500S1000
X.9F7000S0
X.6F1500S1000
X1.5F7000S0
X.2F1500S1000
X1.3F7000S0
X.7F1500S1000
X1.9F7000S0
X.5F1500S1000
X1.8F7000S0
X.7F1500S1000
X1.2F7000S0
X.6F1500S1000
X1.8F7000S0
X.4F1500S1000
X.6F7000S0
X.7F1500S1000
X.6F7000S0
X.7F1500S1000
X.8F7000S0
X.3F1500S1000
X1.8F7000S0
X.7F1500S1000
X2.4F7000S0
X.3F1500S1000
X1.1F7000S0
X.9F1500S1000
X1F7000S0
X.9F1500S1000
X1F7000S0
X.9F1500S1000
X2F7000S0
X.5F1500S1000
X1.5F7000S0
X1F1500S1000
X.625F7000S0
Y.1
X-.625
X-1F1500S1000
X-1.5F7000S0
X-.6F1500S1000
X-1.9F7000S0
X-1F1500S1000
X-1F7000S0
X-.9F1500S1000
X-1F7000S0
X-.8F1500S1000
X-1.2F7000S0
X-.2F1500S1000
X-2.4F7000S0
X-.7F1500S1000
X-1.8F7000S0
X-.4F1500S1000
X-.7F7000S0
X-.8F1500S1000
X-.5F7000S0
X-.7F1500S1000
X-.5F7000S0
X-.5F1500S1000
X-1.7F7000S0
X-.7F1500S1000
X-1.2F7000S0
X-.7F1500S1000
X-1.8F7000S0
X-.5F1500S1000
X-2F7000S0
X-.6F1500S1000
X-1.2F7000S0
X-.3F1500S1000
X-1.5F7000S0
X-.6F1500S1000
X-.8F7000S0
X-.5F1500S1000
X-.9F7000S0
X-.6F1500S1000
X-1.3F7000S0
X-.7F1500S1000
X-.7F7000S0
X-.6F1500S1000
X-.7F7000S0
X-.4F1500S1000
X-.6F7000S0
X-.9F1500S1000
X-.7F7000S0
X-.8F1500S1000
X-1.3F7000S0
X-.6F1500S1000
X-1.1F7000S0
X-.8F1500S1000
X-2F7000S0
X-1F1500S1000
X-1.7F7000S0
X-1.2F1500S1000
X-24.5F7000S0
X-13.1F1500S1000
X-1.7F7000S0
X-7F1500S1000
X-3.2F7000S0
X-9.9F1500S1000
X-4.1F7000S0
X-2.3F1500S1000
X-98.7F7000S0
X-1.1F1500S1000
X-33.3F7000S0
X-.6F1500S1000
X-.6F7000S0
X-.5F1500S1000
X-1.1F7000S0
X-.3F1500S1000
X-.625F7000S0
Y.1
X.625
X.3F1500S1000
X1F7000S0
X.4F1500S1000
X.6F7000S0
X.1F1500S1000
X.1F7000S0
X.6F1500S1000
X33.1F7000S0
X.1F1500S1000
X.1F7000S0
X.3F1500S1000
X.1F7000S0
X.9F1500S1000
X98.7F7000S0
X2.4F1500S1000
X3.4F7000S0
X10.6F1500S1000
X2.8F7000S0
X7.2F1500S1000
X1.7F7000S0
X13F1500S1000
X24.6F7000S0
X1.2F1500S1000
X1.6F7000S0
X1.1F1500S1000
X1.9F7000S0
X.9F1500S1000
X1.1F7000S0
X.6F1500S1000
X1.3F7000S0
X.8F1500S1000
X.7F7000S0
X.8F1500S1000
X.7F7000S0
X.3F1500S1000
X.7F7000S0
X.6F1500S1000
X.7F7000S0
X.7F1500S1000
X1.3F7000S0
X.7F1500S1000
X.9F7000S0
X.4F1500S1000
X.9F7000S0
X.5F1500S1000
X1.5F7000S0
X.3F1500S1000
X1.2F7000S0
X.7F1500S1000
X1.9F7000S0
X.5F1500S1000
X1.8F7000S0
X.7F1500S1000
X1.2F7000S0
X.6F1500S1000
X1.8F7000S0
X.4F1500S1000
X.5F7000S0
X.7F1500S1000
X.6F7000S0
X.7F1500S1000
X.8F7000S0
X.4F1500S1000
X1.8F7000S0
X.6F1500S1000
X2.5F7000S0
X.2F1500S1000
X1.1F7000S0
X.9F1500S1000
X1F7000S0
X.8F1500S1000
X1F7000S0
X1F1500S1000
X2F7000S0
X.5F1500S1000
X1.5F7000S0
X1F1500S1000
X.625F7000S0
Y.1
X-.625
X-1.1F1500S1000
X-1.4F7000S0
X-.6F1500S1000
X-1.9F7000S0
X-1F1500S1000
X-1F7000S0
X-.8F1500S1000
X-1.1F7000S0
X-.8F1500S1000
X-1.1F7000S0
X-.3F1500S1000
X-2.4F7000S0
X-.7F1500S1000
X-1.8F7000S0
X-.3F1500S1000
X-.8F7000S0
X-.7F1500S1000
X-.6F7000S0
X-.6F1500S1000
X-.6F7000S0
X-.4F1500S1000
X-1.7F7000S0
X-.7F1500S1000
X-1.2F7000S0
X-.7F1500S1000
X-1.8F7000S0
X-.5F1500S1000
X-1.8F7000S0
X-.8F1500S1000
X-1.2F7000S0
X-.2F1500S1000
X-1.5F7000S0
X-.6F1500S1000
X-.9F7000S0
X-.5F1500S1000
X-.8F7000S0
X-.7F1500S1000
X-1.3F7000S0
X-.6F1500S1000
X-.8F7000S0
X-.5F1500S1000
X-.8F7000S0
X-.3F1500S1000
X-.6F7000S0
X-.8F1500S1000
X-.8F7000S0
X-.8F1500S1000
X-1.2F7000S0
X-.6F1500S1000
X-1.1F7000S0
X-1F1500S1000
X-1.8F7000S0
X-1.1F1500S1000
X-1.6F7000S0
X-1.3F1500S1000
X-24.5F7000S0
X-12.9F1500S1000
X-1.8F7000S0
X-7.4F1500S1000
X-2.7F7000S0
X-10.8F1500S1000
X-3F7000S0
X-2.4F1500S1000
X-98.9F7000S0
X-.9F1500S1000
X-.2F7000S0
X-.5F1500S1000
X-33F7000S0
X-.9F1500S1000
X-.7F7000S0
X-.2F1500S1000
X-1.1F7000S0
X-.2F1500S1000
X-.625F7000S0
X-.1Y.1
X.625
X.3F1500S1000
X1.8F7000S0
X.5F1500S1000
X.2F7000S0
X.3F1500S1000
X33.1F7000S0
X.4F1500S1000
X.2F7000S0
X.4F1500S1000
X.2F7000S0
X.5F1500S1000
X98.8F7000S0
X2.6F1500S1000
X2.5F7000S0
X11.3F1500S1000
X2.4F7000S0
X7.5F1500S1000
X1.9F7000S0
X12.9F1500S1000
X24.5F7000S0
X1.2F1500S1000
X1.7F7000S0
X1F1500S1000
X1.9F7000S0
X.9F1500S1000
X1.1F7000S0
X.6F1500S1000
X1.2F7000S0
X.9F1500S1000
X.7F7000S0
X.8F1500S1000
X.6F7000S0
X.4F1500S1000
X.7F7000S0
X.6F1500S1000
X.7F7000S0
X.7F1500S1000
X1.2F7000S0
X.7F1500S1000
X.9F7000S0
X.4F1500S1000
X.9F7000S0
X.6F1500S1000
X1.4F7000S0
X.3F1500S1000
X1.2F7000S0
X.7F1500S1000
X1.9F7000S0
X.5F1500S1000
X1.8F7000S0
X.6F1500S1000
X1.3F7000S0
X.6F1500S1000
X1.8F7000S0
X.5F1500S1000
X.5F7000S0
X.7F1500S1000
X.5F7000S0
X.7F1500S1000
X.8F7000S0
X.3F1500S1000
X1.8F7000S0
X.7F1500S1000
X2.4F7000S0
X.2F1500S1000
X1.2F7000S0
X.8F1500S1000
X1F7000S0
X.8F1500S1000
X1F7000S0
X1F1500S1000
X2F7000S0
X.5F1500S1000
X1.4F7000S0
X1.1F1500S1000
X.625F7000S0
Y.1
X-.625
X-1.1F1500S1000
X-1.5F7000S0
X-.5F1500S1000
X-1.9F7000S0
X-1F1500S1000
X-1F7000S0
X-.8F1500S1000
X-1F7000S0
X-.9F1500S1000
X-1.1F7000S0
X-.2F1500S1000
X-2.5F7000S0
X-.6F1500S1000
X-1.8F7000S0
X-.3F1500S1000
X-.8F7000S0
X-.7F1500S1000
X-.6F7000S0
X-.7F1500S1000
X-.5F7000S0
X-.5F1500S1000
X-1.6F7000S0
X-.7F1500S1000
X-1.3F7000S0
X-.6F1500S1000
X-1.8F7000S0
X-.5F1500S1000
X-1.8F7000S0
X-.8F1500S1000
X-1.2F7000S0
X-.2F1500S1000
X-1.5F7000S0
X-.6F1500S1000
X-.9F7000S0
X-.4F1500S1000
X-.9F7000S0
X-.6F1500S1000
X-1.3F7000S0
X-.7F1500S1000
X-.7F7000S0
X-.5F1500S1000
X-.8F7000S0
X-.3F1500S1000
X-.7F7000S0
X-.8F1500S1000
X-.7F7000S0
X-.8F1500S1000
X-1.3F7000S0
X-.5F1500S1000
X-1.1F7000S0
X-1F1500S1000
X-1.8F7000S0
X-1.1F1500S1000
X-1.7F7000S0
X-1.1F1500S1000
X-24.5F7000S0
X-12.8F1500S1000
X-2F7000S0
X-7.7F1500S1000
X-2.2F7000S0
X-11.7F1500S1000
X-1.9F7000S0
X-2.7F1500S1000
X-98.9F7000S0
X-.6F1500S1000
X-.3F7000S0
X-.4F1500S1000
X-.2F7000S0
X-.4F1500S1000
X-33F7000S0
X-.4F1500S1000
X-.3F7000S0
X-.5F1500S1000
X-1.6F7000S0
X-.3F1500S1000
X-.625F7000S0
X-.1Y.1
X.625
X.3F1500S1000
X1.6F7000S0
X.4F1500S1000
X.6F7000S0
X.2F1500S1000
X33F7000S0
X.4F1500S1000
X.3F7000S0
X.2F1500S1000
X.4F7000S0
X.8F1500S1000
X98.9F7000S0
X2.9F1500S1000
X1.1F7000S0
X12.4F1500S1000
X1.9F7000S0
X7.9F1500S1000
X2.1F7000S0
X2F1500S1000
X1.5F7000S0
X9.2F1500S1000
X24.4F7000S0
X1.2F1500S1000
X1.7F7000S0
X1F1500S1000
X1.9F7000S0
X.9F1500S1000
X1.1F7000S0
X.6F1500S1000
X1.3F7000S0
X.7F1500S1000
X.8F7000S0
X.8F1500S1000
X.6F7000S0
X.4F1500S1000
X.7F7000S0
X.5F1500S1000
X.8F7000S0
X.6F1500S1000
X1.3F7000S0
X.6F1500S1000
X1F7000S0
X.4F1500S1000
X.8F7000S0
X.6F1500S1000
X1.5F7000S0
X.2F1500S1000
X1.2F7000S0
X.7F1500S1000
X1.9F7000S0
X.5F1500S1000
X1.8F7000S0
X.6F1500S1000
X1.3F7000S0
X.7F1500S1000
X1.6F7000S0
X.5F1500S1000
X.5F7000S0
X.7F1500S1000
X.6F7000S0
X.7F1500S1000
X.7F7000S0
X.4F1500S1000
X1.7F7000S0
X.7F1500S1000
X2.4F7000S0
X.2F1500S1000
X1.2F7000S0
X.8F1500S1000
X1.1F7000S0
X.7F1500S1000
X1F7000S0
X1F1500S1000
X2F7000S0
X.5F1500S1000
X1.5F7000S0
X1F1500S1000
X1.4F7000S0
X.2F1500S1000
X.625F7000S0
Y.1
X-.625
X-.2F1500S1000
X-1.5F7000S0
X-1F1500S1000
X-1.5F7000S0
X-.5F1500S1000
X-1.9F7000S0
X-1F1500S1000
X-1F7000S0
X-.8F1500S1000
X-1F7000S0
X-.8F1500S1000
X-1.2F7000S0
X-.1F1500S1000
X-2.5F7000S0
X-.7F1500S1000
X-1.8F7000S0
X-.3F1500S1000
X-.8F7000S0
X-.7F1500S1000
X-.5F7000S0
X-.7F1500S1000
X-.6F7000S0
X-.3F1500S1000
X-1.8F7000S0
X-.6F1500S1000
X-1.3F7000S0
X-.6F1500S1000
X-1.8F7000S0
X-.5F1500S1000
X-1.8F7000S0
X-.7F1500S1000
X-1.3F7000S0
X-.2F1500S1000
X-1.5F7000S0
X-.5F1500S1000
X-.9F7000S0
X-.4F1500S1000
X-.9F7000S0
X-.6F1500S1000
X-1.4F7000S0
X-.6F1500S1000
X-.8F7000S0
X-.5F1500S1000
X-.7F7000S0
X-.3F1500S1000
X-.6F7000S0
X-.9F1500S1000
X-.7F7000S0
X-.8F1500S1000
X-1.3F7000S0
X-.5F1500S1000
X-1.2F7000S0
X-.8F1500S1000
X-1.9F7000S0
X-1F1500S1000
X-1.7F7000S0
X-1.3F1500S1000
X-24.3F7000S0
X-8.9F1500S1000
X-2.5F7000S0
X-.1F1500S1000
X-.1F7000S0
X-.2F1500S1000
X-.1F7000S0
X-.2F1500S1000
X-.1F7000S0
X-.2F1500S1000
X-2.3F7000S0
X-8.3F1500S1000
X-1.5F7000S0
X-16.3F1500S1000
X-99.1F7000S0
X-.5F1500S1000
X-.2F7000S0
X-.3F1500S1000
X-.4F7000S0
X-.3F1500S1000
X-.1F7000S0
X-.5F1500S1000
X-32.9F7000S0
X-.3F1500S1000
X-.6F7000S0
X-.5F1500S1000
X-1.4F7000S0
X-.3F1500S1000
X-.625F7000S0
X-.1Y.1
X.625
X.4F1500S1000
X1.3F7000S0
X.4F1500S1000
X.8F7000S0
X.2F1500S1000
X33F7000S0
X.5F1500S1000
X.1F7000S0
X.2F1500S1000
X.3F7000S0
X.4F1500S1000
X.4F7000S0
X.4F1500S1000
X99.3F7000S0
X16.3F1500S1000
X1.1F7000S0
X8.5F1500S1000
X6F7000S0
X8.7F1500S1000
X24.4F7000S0
X1.2F1500S1000
X1.7F7000S0
X1F1500S1000
X2F7000S0
X.8F1500S1000
X1.1F7000S0
X.5F1500S1000
X1.4F7000S0
X.7F1500S1000
X.7F7000S0
X.9F1500S1000
X.6F7000S0
X.3F1500S1000
X.8F7000S0
X.5F1500S1000
X.7F7000S0
X.6F1500S1000
X1.4F7000S0
X.6F1500S1000
X.9F7000S0
X.4F1500S1000
X.9F7000S0
X.6F1500S1000
X1.4F7000S0
X.2F1500S1000
X1.3F7000S0
X.7F1500S1000
X1.8F7000S0
X.6F1500S1000
X1.7F7000S0
X.6F1500S1000
X1.2F7000S0
X.8F1500S1000
X1.6F7000S0
X.5F1500S1000
X.5F7000S0
X.6F1500S1000
X.7F7000S0
X.6F1500S1000
X.8F7000S0
X.3F1500S1000
X1.8F7000S0
X.6F1500S1000
X2.5F7000S0
X.1F1500S1000
X1.2F7000S0
X.9F1500S1000
X1F7000S0
X.8F1500S1000
X1F7000S0
X.9F1500S1000
X2F7000S0
X.5F1500S1000
X1.4F7000S0
X1F1500S1000
X1.5F7000S0
X.3F1500S1000
X.625F7000S0
Y.1
X-.625
X-.4F1500S1000
X-1.5F7000S0
X-.9F1500S1000
X-1.5F7000S0
X-.5F1500S1000
X-1.9F7000S0
X-1F1500S1000
X-1F7000S0
X-.8F1500S1000
X-1F7000S0
X-.8F1500S1000
X-1.2F7000S0
X-.1F1500S1000
X-2.5F7000S0
X-.7F1500S1000
X-1.7F7000S0
X-.3F1500S1000
X-.8F7000S0
X-.7F1500S1000
X-.5F7000S0
X-.7F1500S1000
X-.5F7000S0
X-.5F1500S1000
X-1.7F7000S0
X-.6F1500S1000
X-1.3F7000S0
X-.6F1500S1000
X-1.8F7000S0
X-.5F1500S1000
X-1.9F7000S0
X-.6F1500S1000
X-1.3F7000S0
X-.2F1500S1000
X-1.4F7000S0
X-.6F1500S1000
X-1F7000S0
X-.2F1500S1000
X-1F7000S0
X-.6F1500S1000
X-1.3F7000S0
X-.7F1500S1000
X-.7F7000S0
X-.4F1500S1000
X-.9F7000S0
X-.2F1500S1000
X-.7F7000S0
X-.8F1500S1000
X-.8F7000S0
X-.7F1500S1000
X-1.3F7000S0
X-.5F1500S1000
X-1.2F7000S0
X-.7F1500S1000
X-2F7000S0
X-1F1500S1000
X-1.7F7000S0
X-1.2F1500S1000
X-24.4F7000S0
X-8.7F1500S1000
X-6F7000S0
X-8.9F1500S1000
X-.5F7000S0
X-16.5F1500S1000
X-99.4F7000S0
X-.5F1500S1000
X-.4F7000S0
X-.4F1500S1000
X-.2F7000S0
X-.9F1500S1000
X-32.9F7000S0
X-.3F1500S1000
X-.8F7000S0
X-.5F1500S1000
X-1.2F7000S0
X-.4F1500S1000
X-.625F7000S0
X-.1Y.1
X.625
X.5F1500S1000
X1F7000S0
X.6F1500S1000
X.8F7000S0
X.3F1500S1000
X33F7000S0
X.8F1500S1000
X.2F7000S0
X.4F1500S1000
X.5F7000S0
X.5F1500S1000
X99.6F7000S0
X25.8F1500S1000
X6.1F7000S0
X8.6F1500S1000
X24.4F7000S0
X1.1F1500S1000
X1.7F7000S0
X1F1500S1000
X2F7000S0
X.8F1500S1000
X1.1F7000S0
X.5F1500S1000
X1.4F7000S0
X.7F1500S1000
X.7F7000S0
X.9F1500S1000
X.6F7000S0
X.3F1500S1000
X.8F7000S0
X.5F1500S1000
X.7F7000S0
X.6F1500S1000
X1.3F7000S0
X.7F1500S1000
X.9F7000S0
X.3F1500S1000
X1F7000S0
X.5F1500S1000
X1.4F7000S0
X.2F1500S1000
X1.3F7000S0
X.7F1500S1000
X1.8F7000S0
X.5F1500S1000
X1.8F7000S0
X.6F1500S1000
X1.3F7000S0
X.6F1500S1000
X1.8F7000S0
X.3F1500S1000
X.6F7000S0
X.7F1500S1000
X.6F7000S0
X.6F1500S1000
X.8F7000S0
X.2F1500S1000
X1.8F7000S0
X.7F1500S1000
X2.4F7000S0
X.1F1500S1000
X1.2F7000S0
X.9F1500S1000
X1F7000S0
X.8F1500S1000
X1F7000S0
X.9F1500S1000
X2F7000S0
X.5F1500S1000
X1.4F7000S0
X1F1500S1000
X1.5F7000S0
X.4F1500S1000
X.625F7000S0
Y.1
X-.625
X-.5F1500S1000
X-1.5F7000S0
X-.9F1500S1000
X-1.5F7000S0
X-.5F1500S1000
X-1.9F7000S0
X-1F1500S1000
X-1F7000S0
X-.7F1500S1000
X-1F7000S0
X-.9F1500S1000
X-3.8F7000S0
X-.6F1500S1000
X-1.7F7000S0
X-.4F1500S1000
X-.8F7000S0
X-.6F1500S1000
X-.6F7000S0
X-.7F1500S1000
X-.5F7000S0
X-.4F1500S1000
X-1.7F7000S0
X-.6F1500S1000
X-1.3F7000S0
X-.6F1500S1000
X-1.8F7000S0
X-.5F1500S1000
X-1.8F7000S0
X-.7F1500S1000
X-1.2F7000S0
X-.2F1500S1000
X-1.5F7000S0
X-.5F1500S1000
X-.9F7000S0
X-.4F1500S1000
X-.9F7000S0
X-.6F1500S1000
X-1.4F7000S0
X-.6F1500S1000
X-.7F7000S0
X-.5F1500S1000
X-.8F7000S0
X-.2F1500S1000
X-.7F7000S0
X-.8F1500S1000
X-.8F7000S0
X-.7F1500S1000
X-1.3F7000S0
X-.5F1500S1000
X-1.2F7000S0
X-.8F1500S1000
X-1.9F7000S0
X-1F1500S1000
X-1.7F7000S0
X-1.2F1500S1000
X-24.3F7000S0
X-8.7F1500S1000
X-6.1F7000S0
X-25.6F1500S1000
X-99.7F7000S0
X-.7F1500S1000
X-.6F7000S0
X-.2F1500S1000
X-.3F7000S0
X-.8F1500S1000
X-32.9F7000S0
X-.4F1500S1000
X-.9F7000S0
X-.4F1500S1000
X-1.1F7000S0
X-.6F1500S1000
X-.625F7000S0
X-.1Y.1
X.625
X.7F1500S1000
X1F7000S0
X.3F1500S1000
X.9F7000S0
X.5F1500S1000
X33F7000S0
X.7F1500S1000
X.3F7000S0
X.2F1500S1000
X.5F7000S0
X.4F1500S1000
X.1F7000S0
X.4F1500S1000
X99.9F7000S0
X25.5F1500S1000
X6F7000S0
X8.8F1500S1000
X24.3F7000S0
X1.2F1500S1000
X1.6F7000S0
X1.1F1500S1000
X1.9F7000S0
X.8F1500S1000
X1.1F7000S0
X.5F1500S1000
X1.4F7000S0
X.7F1500S1000
X.7F7000S0
X.8F1500S1000
X.7F7000S0
X.2F1500S1000
X.8F7000S0
X.5F1500S1000
X.7F7000S0
X.6F1500S1000
X1.4F7000S0
X.6F1500S1000
X.9F7000S0
X.3F1500S1000
X1F7000S0
X.5F1500S1000
X1.5F7000S0
X.2F1500S1000
X1.2F7000S0
X.7F1500S1000
X1.9F7000S0
X.4F1500S1000
X1.8F7000S0
X.6F1500S1000
X1.3F7000S0
X.6F1500S1000
X1.7F7000S0
X.4F1500S1000
X.5F7000S0
X.7F1500S1000
X.6F7000S0
X.6F1500S1000
X.8F7000S0
X.3F1500S1000
X1.8F7000S0
X.6F1500S1000
X3.7F7000S0
X.9F1500S1000
X1F7000S0
X.8F1500S1000
X1F7000S0
X.9F1500S1000
X2F7000S0
X.4F1500S1000
X1.5F7000S0
X1F1500S1000
X1.5F7000S0
X.5F1500S1000
X.625F7000S0
Y.1
X-.625
X-.6F1500S1000
X-1.5F7000S0
X-.9F1500S1000
X-1.6F7000S0
X-.3F1500S1000
X-2F7000S0
X-1F1500S1000
X-1F7000S0
X-.7F1500S1000
X-1F7000S0
X-.8F1500S1000
X-3.8F7000S0
X-.7F1500S1000
X-1.7F7000S0
X-.3F1500S1000
X-.7F7000S0
X-.7F1500S1000
X-.6F7000S0
X-.7F1500S1000
X-.5F7000S0
X-.3F1500S1000
X-1.8F7000S0
X-.6F1500S1000
X-1.3F7000S0
X-.6F1500S1000
X-1.8F7000S0
X-.4F1500S1000
X-1.9F7000S0
X-.8F1500S1000
X-1.1F7000S0
X-.2F1500S1000
X-1.5F7000S0
X-.5F1500S1000
X-.9F7000S0
X-.3F1500S1000
X-1F7000S0
X-.6F1500S1000
X-1.3F7000S0
X-.6F1500S1000
X-.7F7000S0
X-.5F1500S1000
X-.8F7000S0
X-.2F1500S1000
X-.7F7000S0
X-.8F1500S1000
X-.8F7000S0
X-.7F1500S1000
X-1.3F7000S0
X-.5F1500S1000
X-1.1F7000S0
X-.9F1500S1000
X-1.9F7000S0
X-1F1500S1000
X-1.7F7000S0
X-1.1F1500S1000
X-24.3F7000S0
X-8.8F1500S1000
X-5.9F7000S0
X-25.4F1500S1000
X-100.2F7000S0
X-.3F1500S1000
X-.3F7000S0
X-.4F1500S1000
X-.5F7000S0
X-.2F1500S1000
X-.3F7000S0
X-.6F1500S1000
X-33F7000S0
X-.7F1500S1000
X-.8F7000S0
X-.4F1500S1000
X-.9F7000S0
X-.8F1500S1000
X-.625F7000S0
X-.1Y.1
X.625
X.8F1500S1000
X.9F7000S0
X.3F1500S1000
X.8F7000S0
X.9F1500S1000
X32.9F7000S0
X.6F1500S1000
X.3F7000S0
X.2F1500S1000
X.5F7000S0
X.3F1500S1000
X.4F7000S0
X.4F1500S1000
X100.6F7000S0
X3.4F1500S1000
X.8F7000S0
X20.9F1500S1000
X5.8F7000S0
X8.9F1500S1000
X24.2F7000S0
X1.2F1500S1000
X1.7F7000S0
X1F1500S1000
X1.9F7000S0
X.8F1500S1000
X1.2F7000S0
X.4F1500S1000
X1.3F7000S0
X.7F1500S1000
X.8F7000S0
X.8F1500S1000
X.7F7000S0
X.2F1500S1000
X.8F7000S0
X.5F1500S1000
X.7F7000S0
X.6F1500S1000
X1.4F7000S0
X.5F1500S1000
X1F7000S0
X.3F1500S1000
X.9F7000S0
X.6F1500S1000
X1.4F7000S0
X.2F1500S1000
X1.2F7000S0
X.7F1500S1000
X1.9F7000S0
X.4F1500S1000
X1.8F7000S0
X.6F1500S1000
X1.3F7000S0
X.6F1500S1000
X1.7F7000S0
X.4F1500S1000
X.5F7000S0
X.7F1500S1000
X.6F7000S0
X.6F1500S1000
X.8F7000S0
X.3F1500S1000
X1.7F7000S0
X.6F1500S1000
X3.8F7000S0
X.8F1500S1000
X1F7000S0
X.8F1500S1000
X1F7000S0
X.9F1500S1000
X2F7000S0
X.4F1500S1000
X1.5F7000S0
X.9F1500S1000
X1.5F7000S0
X.7F1500S1000
X.625F7000S0
Y.1
X-.625
X-.8F1500S1000
X-1.4F7000S0
X-1F1500S1000
X-1.5F7000S0
X-.3F1500S1000
X-2F7000S0
X-1F1500S1000
X-1F7000S0
X-.8F1500S1000
X-1F7000S0
X-.7F1500S1000
X-3.8F7000S0
X-.6F1500S1000
X-1.8F7000S0
X-.2F1500S1000
X-.8F7000S0
X-.6F1500S1000
X-.6F7000S0
X-.7F1500S1000
X-.5F7000S0
X-.4F1500S1000
X-1.7F7000S0
X-.7F1500S1000
X-1.2F7000S0
X-.6F1500S1000
X-1.8F7000S0
X-.4F1500S1000
X-1.8F7000S0
X-.7F1500S1000
X-1.3F7000S0
X-.2F1500S1000
X-1.4F7000S0
X-.5F1500S1000
X-1F7000S0
X-.3F1500S1000
X-.9F7000S0
X-.6F1500S1000
X-1.4F7000S0
X-.6F1500S1000
X-.8F7000S0
X-.4F1500S1000
X-.7F7000S0
X-.3F1500S1000
X-.7F7000S0
X-.7F1500S1000
X-.8F7000S0
X-.8F1500S1000
X-1.2F7000S0
X-.5F1500S1000
X-1.1F7000S0
X-.8F1500S1000
X-1.9F7000S0
X-1.1F1500S1000
X-1.7F7000S0
X-1.1F1500S1000
X-24.3F7000S0
X-8.9F1500S1000
X-5.8F7000S0
X-20.5F1500S1000
X-1.9F7000S0
X-2.2F1500S1000
X-101.1F7000S0
X-.4F1500S1000
X-.5F7000S0
X-.3F1500S1000
X-.5F7000S0
X-.2F1500S1000
X-.2F7000S0
X-.6F1500S1000
X-32.9F7000S0
X-1F1500S1000
X-2F7000S0
X-.8F1500S1000
X-.625F7000S0
X-.1Y.1
X.625
X.8F1500S1000
X1.9F7000S0
X.5F1500S1000
X.3F7000S0
X.4F1500S1000
X33F7000S0
X.4F1500S1000
X.9F7000S0
X.2F1500S1000
X.5F7000S0
X.6F1500S1000
X101.9F7000S0
X.4F1500S1000
X3.2F7000S0
X20.3F1500S1000
X5.7F7000S0
X9F1500S1000
X24.2F7000S0
X1.2F1500S1000
X1.7F7000S0
X.9F1500S1000
X2F7000S0
X.8F1500S1000
X1.1F7000S0
X.5F1500S1000
X1.3F7000S0
X.7F1500S1000
X.8F7000S0
X.8F1500S1000
X.7F7000S0
X.2F1500S1000
X.8F7000S0
X.4F1500S1000
X.8F7000S0
X.6F1500S1000
X1.3F7000S0
X.6F1500S1000
X1F7000S0
X.2F1500S1000
X1F7000S0
X.5F1500S1000
X1.5F7000S0
X.1F1500S1000
X1.2F7000S0
X.7F1500S1000
X1.9F7000S0
X.4F1500S1000
X1.8F7000S0
X.6F1500S1000
X1.2F7000S0
X.7F1500S1000
X1.7F7000S0
X.4F1500S1000
X.5F7000S0
X.6F1500S1000
X.6F7000S0
X.6F1500S1000
X.8F7000S0
X.3F1500S1000
X1.8F7000S0
X.5F1500S1000
X3.8F7000S0
X.8F1500S1000
X1F7000S0
X.8F1500S1000
X1F7000S0
X.9F1500S1000
X2F7000S0
X.4F1500S1000
X1.5F7000S0
X.9F1500S1000
X1.5F7000S0
X.8F1500S1000
X.625F7000S0
Y.1
X-.625
X-.9F1500S1000
X-1.4F7000S0
X-1F1500S1000
X-1.5F7000S0
X-.3F1500S1000
X-2F7000S0
X-1F1500S1000
X-1F7000S0
X-.7F1500S1000
X-1F7000S0
X-.8F1500S1000
X-3.7F7000S0
X-.7F1500S1000
X-1.7F7000S0
X-.3F1500S1000
X-.7F7000S0
X-.6F1500S1000
X-.7F7000S0
X-.7F1500S1000
X-.5F7000S0
X-.4F1500S1000
X-1.6F7000S0
X-.7F1500S1000
X-1.2F7000S0
X-.6F1500S1000
X-1.7F7000S0
X-.5F1500S1000
X-1.9F7000S0
X-.6F1500S1000
X-1.3F7000S0
X-.1F1500S1000
X-1.5F7000S0
X-.6F1500S1000
X-.9F7000S0
X-.2F1500S1000
X-1F7000S0
X-.5F1500S1000
X-1.4F7000S0
X-.6F1500S1000
X-.7F7000S0
X-.5F1500S1000
X-.8F7000S0
X-.2F1500S1000
X-.7F7000S0
X-.7F1500S1000
X-.9F7000S0
X-.6F1500S1000
X-1.3F7000S0
X-.5F1500S1000
X-1.2F7000S0
X-.7F1500S1000
X-2F7000S0
X-1F1500S1000
X-1.6F7000S0
X-1.2F1500S1000
X-24.2F7000S0
X-9.1F1500S1000
X-5.5F7000S0
X-10.1F1500S1000
X-.9F7000S0
X-9.3F1500S1000
X-105.5F7000S0
X-.8F1500S1000
X-.6F7000S0
X-.2F1500S1000
X-.8F7000S0
X-.5F1500S1000
X-32.9F7000S0
X-.4F1500S1000
X-.5F7000S0
X-.4F1500S1000
X-1.9F7000S0
X-.8F1500S1000
X-.625F7000S0
X-.1Y.1
X.625
X.6F1500S1000
X2F7000S0
X.4F1500S1000
X.7F7000S0
X.4F1500S1000
X32.9F7000S0
X.5F1500S1000
X.7F7000S0
X.2F1500S1000
X.5F7000S0
X.4F1500S1000
X.1F7000S0
X.7F1500S1000
X105.4F7000S0
X8.9F1500S1000
X1.4F7000S0
X9.9F1500S1000
X5.5F7000S0
X9.2F1500S1000
X24.2F7000S0
X1.2F1500S1000
X1.6F7000S0
X1F1500S1000
X1.9F7000S0
X.8F1500S1000
X1.2F7000S0
X.4F1500S1000
X1.3F7000S0
X.7F1500S1000
X.7F7000S0
X.9F1500S1000
X.7F7000S0
X.1F1500S1000
X.9F7000S0
X.4F1500S1000
X.7F7000S0
X.6F1500S1000
X1.4F7000S0
X.5F1500S1000
X1F7000S0
X.3F1500S1000
X.9F7000S0
X.5F1500S1000
X1.5F7000S0
X.2F1500S1000
X1.2F7000S0
X.7F1500S1000
X1.8F7000S0
X.4F1500S1000
X1.8F7000S0
X.6F1500S1000
X1.2F7000S0
X.7F1500S1000
X1.7F7000S0
X.3F1500S1000
X.5F7000S0
X.7F1500S1000
X.6F7000S0
X.7F1500S1000
X.7F7000S0
X.2F1500S1000
X1.8F7000S0
X.6F1500S1000
X3.8F7000S0
X.7F1500S1000
X1.1F7000S0
X.7F1500S1000
X1F7000S0
X.9F1500S1000
X2F7000S0
X.4F1500S1000
X1.4F7000S0
X1F1500S1000
X1.5F7000S0
X.9F1500S1000
X.625F7000S0
Y.1
X-.625
X-1F1500S1000
X-1.5F7000S0
X-.9F1500S1000
X-1.5F7000S0
X-.4F1500S1000
X-1.9F7000S0
X-1F1500S1000
X-.9F7000S0
X-.8F1500S1000
X-1F7000S0
X-.8F1500S1000
X-3.7F7000S0
X-.6F1500S1000
X-1.8F7000S0
X-.2F1500S1000
X-.8F7000S0
X-.6F1500S1000
X-.6F7000S0
X-.7F1500S1000
X-.5F7000S0
X-.3F1500S1000
X-1.8F7000S0
X-.6F1500S1000
X-1.2F7000S0
X-.6F1500S1000
X-1.8F7000S0
X-.4F1500S1000
X-1.9F7000S0
X-.7F1500S1000
X-1.1F7000S0
X-.2F1500S1000
X-1.4F7000S0
X-.6F1500S1000
X-.9F7000S0
X-.3F1500S1000
X-.9F7000S0
X-.6F1500S1000
X-1.3F7000S0
X-.6F1500S1000
X-.8F7000S0
X-.4F1500S1000
X-.8F7000S0
X-.1F1500S1000
X-.8F7000S0
X-.8F1500S1000
X-.7F7000S0
X-.7F1500S1000
X-1.4F7000S0
X-.4F1500S1000
X-1.2F7000S0
X-.7F1500S1000
X-1.9F7000S0
X-1F1500S1000
X-1.7F7000S0
X-1.1F1500S1000
X-18.8F7000S0
X-.1F1500S1000
X-5.3F7000S0
X-9.3F1500S1000
X-5.3F7000S0
X-9.8F1500S1000
X-2F7000S0
X-8.5F1500S1000
X-105.1F7000S0
X-1F1500S1000
X-.3F7000S0
X-.5F1500S1000
X-1.2F7000S0
X-.6F1500S1000
X-32.8F7000S0
X-.5F1500S1000
X-.8F7000S0
X-.4F1500S1000
X-1.9F7000S0
X-.6F1500S1000
X-.625F7000S0
Y.1
X.625
X.4F1500S1000
X1.9F7000S0
X.5F1500S1000
X.7F7000S0
X.8F1500S1000
X32.8F7000S0
X.4F1500S1000
X1.3F7000S0
X.3F1500S1000
X.4F7000S0
X1.4F1500S1000
X32F7000S0
X1.4F1500S1000
X13.5F7000S0
X1.5F1500S1000
X13.5F7000S0
X1.3F1500S1000
X41.7F7000S0
X8.3F1500S1000
X2.2F7000S0
X9.8F1500S1000
X5.2F7000S0
X9.4F1500S1000
X5.1F7000S0
X.1F1500S1000
X18.9F7000S0
X1.2F1500S1000
X1.6F7000S0
X1F1500S1000
X1.9F7000S0
X.8F1500S1000
X1.2F7000S0
X.4F1500S1000
X1.3F7000S0
X.7F1500S1000
X.8F7000S0
X.7F1500S1000
X.8F7000S0
X.1F1500S1000
X.9F7000S0
X.3F1500S1000
X.8F7000S0
X.6F1500S1000
X1.3F7000S0
X.5F1500S1000
X1.1F7000S0
X.2F1500S1000
X.9F7000S0
X.6F1500S1000
X1.5F7000S0
X.1F1500S1000
X1.2F7000S0
X.6F1500S1000
X1.9F7000S0
X.5F1500S1000
X1.7F7000S0
X.6F1500S1000
X1.2F7000S0
X.7F1500S1000
X1.6F7000S0
X.4F1500S1000
X.5F7000S0
X.6F1500S1000
X.7F7000S0
X.6F1500S1000
X.8F7000S0
X.2F1500S1000
X1.8F7000S0
X.6F1500S1000
X3.7F7000S0
X.8F1500S1000
X1F7000S0
X.7F1500S1000
X1F7000S0
X.9F1500S1000
X2F7000S0
X.3F1500S1000
X1.5F7000S0
X1F1500S1000
X1.5F7000S0
X1F1500S1000
X.625F7000S0
Y.1
X-.625
X-1.1F1500S1000
X-1.5F7000S0
X-.9F1500S1000
X-1.5F7000S0
X-.3F1500S1000
X-2.1F7000S0
X-.8F1500S1000
X-1F7000S0
X-.7F1500S1000
X-1.1F7000S0
X-.8F1500S1000
X-3.7F7000S0
X-.6F1500S1000
X-1.7F7000S0
X-.3F1500S1000
X-.7F7000S0
X-.6F1500S1000
X-.7F7000S0
X-.6F1500S1000
X-.5F7000S0
X-.3F1500S1000
X-1.8F7000S0
X-.6F1500S1000
X-1.2F7000S0
X-.6F1500S1000
X-1.7F7000S0
X-.5F1500S1000
X-1.8F7000S0
X-.7F1500S1000
X-1.2F7000S0
X-.1F1500S1000
X-1.5F7000S0
X-.5F1500S1000
X-1F7000S0
X-.2F1500S1000
X-1F7000S0
X-.6F1500S1000
X-1.3F7000S0
X-.5F1500S1000
X-.8F7000S0
X-.4F1500S1000
X-1.7F7000S0
X-.8F1500S1000
X-.8F7000S0
X-.6F1500S1000
X-1.4F7000S0
X-.4F1500S1000
X-1.2F7000S0
X-.7F1500S1000
X-1.9F7000S0
X-1F1500S1000
X-1.6F7000S0
X-1.2F1500S1000
X-19F7000S0
X-.1F1500S1000
X-5F7000S0
X-9.6F1500S1000
X-5F7000S0
X-9.7F1500S1000
X-2.5F7000S0
X-8.1F1500S1000
X-41.4F7000S0
X-2.1F1500S1000
X-12.8F7000S0
X-2.1F1500S1000
X-12.8F7000S0
X-2.2F1500S1000
X-31.5F7000S0
X-.8F1500S1000
X-.3F7000S0
X-.4F1500S1000
X-.6F7000S0
X-.2F1500S1000
X-1.2F7000S0
X-.4F1500S1000
X-32.7F7000S0
X-1.1F1500S1000
X-.7F7000S0
X-.4F1500S1000
X-1.9F7000S0
X-.4F1500S1000
X-.625F7000S0
Y.1
X.625
X.3F1500S1000
X1.8F7000S0
X.4F1500S1000
X.7F7000S0
X.6F1500S1000
X.3F7000S0
X.4F1500S1000
X32.6F7000S0
X.5F1500S1000
X1.1F7000S0
X.3F1500S1000
X.5F7000S0
X.4F1500S1000
X.5F7000S0
X.8F1500S1000
X31.1F7000S0
X2.7F1500S1000
X12.3F7000S0
X2.6F1500S1000
X12.3F7000S0
X2.7F1500S1000
X41.2F7000S0
X7.9F1500S1000
X2.7F7000S0
X9.7F1500S1000
X4.9F7000S0
X9.7F1500S1000
X4.9F7000S0
X.1F1500S1000
X19.1F7000S0
X1.1F1500S1000
X1.7F7000S0
X.9F1500S1000
X2F7000S0
X.7F1500S1000
X1.2F7000S0
X.4F1500S1000
X1.3F7000S0
X.7F1500S1000
X.7F7000S0
X.8F1500S1000
X.8F7000S0
X.1F1500S1000
X.8F7000S0
X.4F1500S1000
X.8F7000S0
X.6F1500S1000
X1.3F7000S0
X.5F1500S1000
X1F7000S0
X.2F1500S1000
X.9F7000S0
X.5F1500S1000
X1.6F7000S0
X.1F1500S1000
X1.2F7000S0
X.7F1500S1000
X1.8F7000S0
X.5F1500S1000
X1.7F7000S0
X.5F1500S1000
X1.3F7000S0
X.6F1500S1000
X1.8F7000S0
X.2F1500S1000
X.6F7000S0
X.6F1500S1000
X.7F7000S0
X.6F1500S1000
X.7F7000S0
X.2F1500S1000
X1.8F7000S0
X.6F1500S1000
X3.7F7000S0
X.8F1500S1000
X1F7000S0
X.7F1500S1000
X1F7000S0
X.9F1500S1000
X2F7000S0
X.3F1500S1000
X1.5F7000S0
X.9F1500S1000
X1.5F7000S0
X1.2F1500S1000
X.625F7000S0
X-.1Y.1
X-.625
X-1.1F1500S1000
X-1.5F7000S0
X-1F1500S1000
X-1.4F7000S0
X-.3F1500S1000
X-2.1F7000S0
X-.9F1500S1000
X-.9F7000S0
X-.7F1500S1000
X-1F7000S0
X-.8F1500S1000
X-3.8F7000S0
X-.5F1500S1000
X-1.8F7000S0
X-.2F1500S1000
X-.8F7000S0
X-.6F1500S1000
X-.6F7000S0
X-.7F1500S1000
X-.5F7000S0
X-.3F1500S1000
X-1.7F7000S0
X-.6F1500S1000
X-1.3F7000S0
X-.5F1500S1000
X-1.7F7000S0
X-.5F1500S1000
X-1.8F7000S0
X-.6F1500S1000
X-1.3F7000S0
X-.1F1500S1000
X-1.5F7000S0
X-.5F1500S1000
X-.9F7000S0
X-.2F1500S1000
X-1F7000S0
X-.6F1500S1000
X-1.3F7000S0
X-.5F1500S1000
X-.9F7000S0
X-.3F1500S1000
X-1.7F7000S0
X-.8F1500S1000
X-.8F7000S0
X-.6F1500S1000
X-1.4F7000S0
X-.4F1500S1000
X-1.2F7000S0
X-.7F1500S1000
X-1.9F7000S0
X-1F1500S1000
X-1.7F7000S0
X-1.1F1500S1000
X-19.1F7000S0
X-.2F1500S1000
X-4.7F7000S0
X-9.8F1500S1000
X-4.8F7000S0
X-9.7F1500S1000
X-2.9F7000S0
X-7.8F1500S1000
X-40.9F7000S0
X-3.2F1500S1000
X-11.7F7000S0
X-3.3F1500S1000
X-11.8F7000S0
X-3.2F1500S1000
X-30.5F7000S0
X-1F1500S1000
X-.7F7000S0
X-.5F1500S1000
X-.4F7000S0
X-.2F1500S1000
X-1.1F7000S0
X-.4F1500S1000
X-32.6F7000S0
X-.5F1500S1000
X-.5F7000S0
X-.5F1500S1000
X-.7F7000S0
X-.4F1500S1000
X-1.7F7000S0
X-.4F1500S1000
X-.625F7000S0
X.1Y.1
X.625
X.2F1500S1000
X1.7F7000S0
X.3F1500S1000
X.8F7000S0
X.4F1500S1000
X.7F7000S0
X.6F1500S1000
X15.7F7000S0
X.5F1500S1000
X16.2F7000S0
X.5F1500S1000
X1.6F7000S0
X.3F1500S1000
X.1F7000S0
X.1F1500S1000
X.7F7000S0
X1.3F1500S1000
X30F7000S0
X3.7F1500S1000
X11.2F7000S0
X3.8F1500S1000
X11.2F7000S0
X3.8F1500S1000
X40.8F7000S0
X7.5F1500S1000
X3.2F7000S0
X9.8F1500S1000
X4.5F7000S0
X10F1500S1000
X4.6F7000S0
X.1F1500S1000
X19.3F7000S0
X1.1F1500S1000
X1.6F7000S0
X1F1500S1000
X2F7000S0
X.8F1500S1000
X1.1F7000S0
X.4F1500S1000
X1.3F7000S0
X.6F1500S1000
X.8F7000S0
X.8F1500S1000
X1.7F7000S0
X.4F1500S1000
X.8F7000S0
X.5F1500S1000
X1.4F7000S0
X.4F1500S1000
X1F7000S0
X.3F1500S1000
X.9F7000S0
X.5F1500S1000
X2.8F7000S0
X.7F1500S1000
X1.8F7000S0
X.5F1500S1000
X1.7F7000S0
X.5F1500S1000
X1.3F7000S0
X.6F1500S1000
X1.8F7000S0
X.2F1500S1000
X.5F7000S0
X.7F1500S1000
X.6F7000S0
X.6F1500S1000
X.8F7000S0
X.2F1500S1000
X1.7F7000S0
X.6F1500S1000
X3.7F7000S0
X.8F1500S1000
X1F7000S0
X.7F1500S1000
X1F7000S0
X.9F1500S1000
X2F7000S0
X.3F1500S1000
X1.5F7000S0
X.9F1500S1000
X1.5F7000S0
X1.1F1500S1000
X.625F7000S0
X-.1Y.1
X-.625
X-1.1F1500S1000
X-1.5F7000S0
X-.8F1500S1000
X-1.5F7000S0
X-.3F1500S1000
X-2.1F7000S0
X-.8F1500S1000
X-1F7000S0
X-.8F1500S1000
X-.9F7000S0
X-.8F1500S1000
X-3.7F7000S0
X-.6F1500S1000
X-1.8F7000S0
X-.1F1500S1000
X-.8F7000S0
X-.6F1500S1000
X-.7F7000S0
X-.6F1500S1000
X-.5F7000S0
X-.2F1500S1000
X-1.8F7000S0
X-.6F1500S1000
X-1.3F7000S0
X-.5F1500S1000
X-1.7F7000S0
X-.5F1500S1000
X-1.8F7000S0
X-.7F1500S1000
X-2.7F7000S0
X-.6F1500S1000
X-.9F7000S0
X-.2F1500S1000
X-1F7000S0
X-.5F1500S1000
X-1.3F7000S0
X-.7F1500S1000
X-.7F7000S0
X-.3F1500S1000
X-1.8F7000S0
X-.7F1500S1000
X-.8F7000S0
X-.6F1500S1000
X-1.4F7000S0
X-.3F1500S1000
X-1.2F7000S0
X-.7F1500S1000
X-2F7000S0
X-1F1500S1000
X-1.6F7000S0
X-1.1F1500S1000
X-19.4F7000S0
X-.2F1500S1000
X-4.4F7000S0
X-10.1F1500S1000
X-4.3F7000S0
X-9.9F1500S1000
X-3.3F7000S0
X-7.5F1500S1000
X-40.6F7000S0
X-4.3F1500S1000
X-10.6F7000S0
X-4.4F1500S1000
X-10.7F7000S0
X-4.1F1500S1000
X-29.7F7000S0
X-.8F1500S1000
X-.2F7000S0
X-.5F1500S1000
X-.9F7000S0
X-.3F1500S1000
X-1.5F7000S0
X-.4F1500S1000
X-16.2F7000S0
X-.8F1500S1000
X-15.5F7000S0
X-.8F1500S1000
X-.6F7000S0
X-.6F1500S1000
X-2.6F7000S0
X-.2F1500S1000
X-.625F7000S0
Y.1
X.625
X.2F1500S1000
X2.5F7000S0
X.5F1500S1000
X.6F7000S0
X1.1F1500S1000
X15.3F7000S0
X1.1F1500S1000
X16F7000S0
X.4F1500S1000
X1.4F7000S0
X.3F1500S1000
X.8F7000S0
X.5F1500S1000
X.5F7000S0
X.9F1500S1000
X29.3F7000S0
X4.4F1500S1000
X10.5F7000S0
X4.6F1500S1000
X10.4F7000S0
X4.5F1500S1000
X40.5F7000S0
X7.4F1500S1000
X3.5F7000S0
X9.9F1500S1000
X4.1F7000S0
X10.3F1500S1000
X4.3F7000S0
X.1F1500S1000
X19.5F7000S0
X1.1F1500S1000
X1.7F7000S0
X.9F1500S1000
X2F7000S0
X.7F1500S1000
X1.2F7000S0
X.4F1500S1000
X1.2F7000S0
X.7F1500S1000
X.8F7000S0
X.8F1500S1000
X1.7F7000S0
X.3F1500S1000
X.8F7000S0
X.5F1500S1000
X1.4F7000S0
X.5F1500S1000
X1F7000S0
X.2F1500S1000
X1F7000S0
X.4F1500S1000
X2.9F7000S0
X.6F1500S1000
X1.8F7000S0
X.5F1500S1000
X1.7F7000S0
X.5F1500S1000
X1.3F7000S0
X.6F1500S1000
X1.7F7000S0
X.3F1500S1000
X.5F7000S0
X.6F1500S1000
X.7F7000S0
X.6F1500S1000
X.8F7000S0
X.1F1500S1000
X1.8F7000S0
X.5F1500S1000
X3.7F7000S0
X.8F1500S1000
X1F7000S0
X.7F1500S1000
X1F7000S0
X.9F1500S1000
X2F7000S0
X.3F1500S1000
X1.5F7000S0
X.8F1500S1000
X1.5F7000S0
X1.2F1500S1000
X.625F7000S0
X-.1Y.1
X-.625
X-1.1F1500S1000
X-1.5F7000S0
X-.8F1500S1000
X-1.6F7000S0
X-.2F1500S1000
X-2F7000S0
X-.9F1500S1000
X-1F7000S0
X-.7F1500S1000
X-1F7000S0
X-.8F1500S1000
X-3.7F7000S0
X-.5F1500S1000
X-1.8F7000S0
X-.2F1500S1000
X-.8F7000S0
X-.5F1500S1000
X-.7F7000S0
X-.6F1500S1000
X-.5F7000S0
X-.2F1500S1000
X-1.8F7000S0
X-.6F1500S1000
X-1.3F7000S0
X-.5F1500S1000
X-1.7F7000S0
X-.5F1500S1000
X-1.8F7000S0
X-.7F1500S1000
X-2.8F7000S0
X-.5F1500S1000
X-.9F7000S0
X-.2F1500S1000
X-1F7000S0
X-.5F1500S1000
X-1.3F7000S0
X-.5F1500S1000
X-.8F7000S0
X-.4F1500S1000
X-1.7F7000S0
X-.7F1500S1000
X-.9F7000S0
X-.6F1500S1000
X-1.3F7000S0
X-.3F1500S1000
X-1.2F7000S0
X-.7F1500S1000
X-2F7000S0
X-1F1500S1000
X-1.6F7000S0
X-1.1F1500S1000
X-19.6F7000S0
X-.2F1500S1000
X-4.1F7000S0
X-10.5F1500S1000
X-3.8F7000S0
X-10F1500S1000
X-3.7F7000S0
X-7.3F1500S1000
X-40.3F7000S0
X-4.9F1500S1000
X-10.1F7000S0
X-4.9F1500S1000
X-10.1F7000S0
X-4.9F1500S1000
X-29F7000S0
X-.9F1500S1000
X-.6F7000S0
X-.4F1500S1000
X-2.4F7000S0
X-.5F1500S1000
X-15.9F7000S0
X-1.4F1500S1000
X-15.1F7000S0
X-.3F1500S1000
X-.4F7000S0
X-.5F1500S1000
X-.7F7000S0
X-.4F1500S1000
X-2.4F7000S0
X-.2F1500S1000
X-.625F7000S0
Y.1
X.625
X.1F1500S1000
X2.5F7000S0
X.3F1500S1000
X.6F7000S0
X.5F1500S1000
X.6F7000S0
X.4F1500S1000
X15F7000S0
X1.5F1500S1000
X15.8F7000S0
X.5F1500S1000
X2.3F7000S0
X.3F1500S1000
X.7F7000S0
X1.1F1500S1000
X28.7F7000S0
X5.3F1500S1000
X9.7F7000S0
X5.2F1500S1000
X9.7F7000S0
X5.3F1500S1000
X40.3F7000S0
X7.1F1500S1000
X3.8F7000S0
X10.2F1500S1000
X3.5F7000S0
X10.7F1500S1000
X4F7000S0
X.2F1500S1000
X19.6F7000S0
X1.1F1500S1000
X1.7F7000S0
X1F1500S1000
X1.9F7000S0
X.7F1500S1000
X1.2F7000S0
X.4F1500S1000
X1.3F7000S0
X.6F1500S1000
X.8F7000S0
X.8F1500S1000
X1.6F7000S0
X.4F1500S1000
X.8F7000S0
X.5F1500S1000
X1.4F7000S0
X.4F1500S1000
X1.1F7000S0
X.1F1500S1000
X1F7000S0
X.5F1500S1000
X2.8F7000S0
X.6F1500S1000
X1.8F7000S0
X.5F1500S1000
X1.7F7000S0
X.5F1500S1000
X1.3F7000S0
X.6F1500S1000
X1.7F7000S0
X.2F1500S1000
X.6F7000S0
X.6F1500S1000
X.6F7000S0
X.6F1500S1000
X2.7F7000S0
X.6F1500S1000
X3.7F7000S0
X.7F1500S1000
X1F7000S0
X.7F1500S1000
X1F7000S0
X.9F1500S1000
X2F7000S0
X.3F1500S1000
X1.5F7000S0
X.8F1500S1000
X1.5F7000S0
X1.1F1500S1000
X.625F7000S0
X-.1Y.1
X-.625
X-1F1500S1000
X-1.6F7000S0
X-.8F1500S1000
X-1.5F7000S0
X-.2F1500S1000
X-2.1F7000S0
X-.8F1500S1000
X-1F7000S0
X-.7F1500S1000
X-1F7000S0
X-.8F1500S1000
X-3.7F7000S0
X-.5F1500S1000
X-1.8F7000S0
X-.1F1500S1000
X-.8F7000S0
X-.6F1500S1000
X-.6F7000S0
X-.7F1500S1000
X-.5F7000S0
X-.2F1500S1000
X-1.7F7000S0
X-.6F1500S1000
X-1.3F7000S0
X-.5F1500S1000
X-1.7F7000S0
X-.4F1500S1000
X-1.9F7000S0
X-.6F1500S1000
X-2.8F7000S0
X-.5F1500S1000
X-.9F7000S0
X-.2F1500S1000
X-1F7000S0
X-.5F1500S1000
X-1.4F7000S0
X-.5F1500S1000
X-.8F7000S0
X-.3F1500S1000
X-1.7F7000S0
X-.7F1500S1000
X-.9F7000S0
X-.6F1500S1000
X-1.3F7000S0
X-.3F1500S1000
X-1.2F7000S0
X-.7F1500S1000
X-2F7000S0
X-.9F1500S1000
X-1.7F7000S0
X-1.1F1500S1000
X-19.8F7000S0
X-.2F1500S1000
X-3.8F7000S0
X-11F1500S1000
X-3.2F7000S0
X-10.2F1500S1000
X-3.9F7000S0
X-7.1F1500S1000
X-3.5F7000S0
X-.7F1500S1000
X-36F7000S0
X-5.6F1500S1000
X-9.4F7000S0
X-5.5F1500S1000
X-9.4F7000S0
X-5.6F1500S1000
X-28.4F7000S0
X-.6F1500S1000
X-.4F7000S0
X-.3F1500S1000
X-.7F7000S0
X-.4F1500S1000
X-2.1F7000S0
X-.5F1500S1000
X-15.6F7000S0
X-2F1500S1000
X-14.8F7000S0
X-.3F1500S1000
X-.7F7000S0
X-.5F1500S1000
X-.7F7000S0
X-.1F1500S1000
X-2.5F7000S0
X-.2F1500S1000
X-.625F7000S0
X.1Y.1
X.625
X.2F1500S1000
X3F7000S0
X.5F1500S1000
X.8F7000S0
X.5F1500S1000
X14.6F7000S0
X.9F1500S1000
X.4F7000S0
X1F1500S1000
X15.5F7000S0
X.5F1500S1000
X2F7000S0
X.3F1500S1000
X.6F7000S0
X.4F1500S1000
X.6F7000S0
X.6F1500S1000
X28F7000S0
X2.7F1500S1000
X.1F7000S0
X.1F1500S1000
X.3F7000S0
X.1F1500S1000
X.6F7000S0
X.1F1500S1000
X.1F7000S0
X1.9F1500S1000
X9F7000S0
X2.7F1500S1000
X.2F7000S0
X.1F1500S1000
X.8F7000S0
X.1F1500S1000
X.1F7000S0
X2F1500S1000
X8.9F7000S0
X2.6F1500S1000
X.1F7000S0
X.1F1500S1000
X.2F7000S0
X.1F1500S1000
X.2F7000S0
X.1F1500S1000
X.4F7000S0
X.1F1500S1000
X.1F7000S0
X2F1500S1000
X35.8F7000S0
X.9F1500S1000
X3.4F7000S0
X7F1500S1000
X4F7000S0
X10.6F1500S1000
X2.6F7000S0
X11.3F1500S1000
X3.6F7000S0
X.3F1500S1000
X18F7000S0
X.2F1500S1000
X1.7F7000S0
X1.1F1500S1000
X1.6F7000S0
X1F1500S1000
X1.9F7000S0
X.7F1500S1000
X1.2F7000S0
X.3F1500S1000
X1.4F7000S0
X.6F1500S1000
X.8F7000S0
X.7F1500S1000
X1.7F7000S0
X.4F1500S1000
X.8F7000S0
X.5F1500S1000
X1.3F7000S0
X.5F1500S1000
X1F7000S0
X.2F1500S1000
X.9F7000S0
X.5F1500S1000
X2.8F7000S0
X.7F1500S1000
X1.8F7000S0
X.4F1500S1000
X1.7F7000S0
X.5F1500S1000
X1.3F7000S0
X.6F1500S1000
X1.7F7000S0
X.3F1500S1000
X.4F7000S0
X.6F1500S1000
X.7F7000S0
X.6F1500S1000
X.8F7000S0
X.1F1500S1000
X1.8F7000S0
X.5F1500S1000
X3.7F7000S0
X.8F1500S1000
X.9F7000S0
X.7F1500S1000
X1F7000S0
X.9F1500S1000
X2.1F7000S0
X.1F1500S1000
X1.5F7000S0
X.9F1500S1000
X1.5F7000S0
X1.1F1500S1000
X.625F7000S0
X-.2Y.1
X-.625
X-1F1500S1000
X-1.4F7000S0
X-.9F1500S1000
X-1.5F7000S0
X-.2F1500S1000
X-2.1F7000S0
X-.8F1500S1000
X-1F7000S0
X-.6F1500S1000
X-1.1F7000S0
X-.7F1500S1000
X-3.7F7000S0
X-.6F1500S1000
X-1.7F7000S0
X-.1F1500S1000
X-.9F7000S0
X-.5F1500S1000
X-.7F7000S0
X-.6F1500S1000
X-.5F7000S0
X-.2F1500S1000
X-1.7F7000S0
X-.6F1500S1000
X-1.3F7000S0
X-.5F1500S1000
X-1.7F7000S0
X-.4F1500S1000
X-1.8F7000S0
X-.7F1500S1000
X-2.8F7000S0
X-.4F1500S1000
X-1F7000S0
X-.1F1500S1000
X-1.1F7000S0
X-.4F1500S1000
X-1.4F7000S0
X-.5F1500S1000
X-.8F7000S0
X-.3F1500S1000
X-1.7F7000S0
X-.8F1500S1000
X-.8F7000S0
X-.6F1500S1000
X-1.3F7000S0
X-.3F1500S1000
X-1.2F7000S0
X-.7F1500S1000
X-2F7000S0
X-.9F1500S1000
X-1.7F7000S0
X-1.1F1500S1000
X-1.6F7000S0
X-.3F1500S1000
X-18F7000S0
X-.3F1500S1000
X-3.4F7000S0
X-11.7F1500S1000
X-2.1F7000S0
X-10.8F1500S1000
X-4.2F7000S0
X-6.9F1500S1000
X-3.3F7000S0
X-1.2F1500S1000
X-35.5F7000S0
X-1.8F1500S1000
X-1.9F7000S0
X-2.5F1500S1000
X-8.7F7000S0
X-1.8F1500S1000
X-1.9F7000S0
X-2.6F1500S1000
X-8.6F7000S0
X-1.9F1500S1000
X-1.9F7000S0
X-2.5F1500S1000
X-27.8F7000S0
X-.8F1500S1000
X-.6F7000S0
X-.3F1500S1000
X-.8F7000S0
X-.2F1500S1000
X-2F7000S0
X-.4F1500S1000
X-15.4F7000S0
X-1F1500S1000
X-.6F7000S0
X-1F1500S1000
X-14.4F7000S0
X-.8F1500S1000
X-.7F7000S0
X-.5F1500S1000
X-2.9F7000S0
X-.1F1500S1000
X-.625F7000S0
X-.1Y.1
X.625
X.2F1500S1000
X2.8F7000S0
X.4F1500S1000
X.7F7000S0
X1F1500S1000
X14.3F7000S0
X.9F1500S1000
X.9F7000S0
X1.1F1500S1000
X15.2F7000S0
X.5F1500S1000
X1.9F7000S0
X.1F1500S1000
X.7F7000S0
X.4F1500S1000
X.7F7000S0
X.9F1500S1000
X27.5F7000S0
X2.4F1500S1000
X2.5F7000S0
X1.7F1500S1000
X8.3F7000S0
X2.5F1500S1000
X2.4F7000S0
X1.7F1500S1000
X8.4F7000S0
X2.4F1500S1000
X2.4F7000S0
X1.7F1500S1000
X35.4F7000S0
X1.4F1500S1000
X3.1F7000S0
X6.9F1500S1000
X4.3F7000S0
X11.1F1500S1000
X1.3F7000S0
X12.2F1500S1000
X3.2F7000S0
X.4F1500S1000
X18F7000S0
X.3F1500S1000
X1.8F7000S0
X1F1500S1000
X1.7F7000S0
X.9F1500S1000
X1.9F7000S0
X.7F1500S1000
X1.3F7000S0
X.2F1500S1000
X1.4F7000S0
X.5F1500S1000
X.9F7000S0
X.7F1500S1000
X1.7F7000S0
X.2F1500S1000
X.9F7000S0
X.5F1500S1000
X1.4F7000S0
X.4F1500S1000
X1.1F7000S0
X.1F1500S1000
X1F7000S0
X.4F1500S1000
X2.8F7000S0
X.7F1500S1000
X1.8F7000S0
X.4F1500S1000
X1.7F7000S0
X.5F1500S1000
X1.3F7000S0
X.6F1500S1000
X1.7F7000S0
X.2F1500S1000
X.6F7000S0
X.5F1500S1000
X.7F7000S0
X.5F1500S1000
X.9F7000S0
X.1F1500S1000
X1.7F7000S0
X.5F1500S1000
X3.8F7000S0
X.6F1500S1000
X1.1F7000S0
X.6F1500S1000
X1.1F7000S0
X.8F1500S1000
X2F7000S0
X.2F1500S1000
X1.5F7000S0
X.9F1500S1000
X1.5F7000S0
X1F1500S1000
X.625F7000S0
X-.1Y.1
X-.625
X-1F1500S1000
X-1.5F7000S0
X-.8F1500S1000
X-1.6F7000S0
X-.1F1500S1000
X-2.1F7000S0
X-.8F1500S1000
X-1F7000S0
X-.7F1500S1000
X-.9F7000S0
X-.8F1500S1000
X-3.7F7000S0
X-.5F1500S1000
X-2.7F7000S0
X-.5F1500S1000
X-.7F7000S0
X-.6F1500S1000
X-.5F7000S0
X-.2F1500S1000
X-1.8F7000S0
X-.5F1500S1000
X-1.3F7000S0
X-.5F1500S1000
X-1.7F7000S0
X-.4F1500S1000
X-1.8F7000S0
X-.7F1500S1000
X-2.8F7000S0
X-.4F1500S1000
X-.9F7000S0
X-.2F1500S1000
X-1F7000S0
X-.5F1500S1000
X-1.4F7000S0
X-.4F1500S1000
X-.8F7000S0
X-.4F1500S1000
X-1.7F7000S0
X-.7F1500S1000
X-.8F7000S0
X-.6F1500S1000
X-1.4F7000S0
X-.2F1500S1000
X-1.2F7000S0
X-.7F1500S1000
X-1.9F7000S0
X-1F1500S1000
X-1.6F7000S0
X-1.2F1500S1000
X-1.7F7000S0
X-.3F1500S1000
X-18.1F7000S0
X-.4F1500S1000
X-3F7000S0
X-24.7F1500S1000
X-4.4F7000S0
X-6.8F1500S1000
X-3F7000S0
X-1.5F1500S1000
X-35.3F7000S0
X-1.5F1500S1000
X-2.9F7000S0
X-2.4F1500S1000
X-8.1F7000S0
X-1.6F1500S1000
X-2.9F7000S0
X-2.3F1500S1000
X-8.2F7000S0
X-1.6F1500S1000
X-2.8F7000S0
X-2.3F1500S1000
X-27.4F7000S0
X-1.1F1500S1000
X-.7F7000S0
X-.3F1500S1000
X-2.5F7000S0
X-.5F1500S1000
X-15.2F7000S0
X-1F1500S1000
X-1.2F7000S0
X-1F1500S1000
X-14.1F7000S0
X-.3F1500S1000
X-.3F7000S0
X-.6F1500S1000
X-.6F7000S0
X-.4F1500S1000
X-2.7F7000S0
X-.1F1500S1000
X-.625F7000S0
Y.1
X.625
X.2F1500S1000
X2.6F7000S0
X.1F1500S1000
X.8F7000S0
X.6F1500S1000
X.4F7000S0
X.2F1500S1000
X14.1F7000S0
X1F1500S1000
X1.4F7000S0
X1F1500S1000
X15.1F7000S0
X.5F1500S1000
X2.4F7000S0
X.3F1500S1000
X.8F7000S0
X.3F1500S1000
X.3F7000S0
X.6F1500S1000
X27.1F7000S0
X2.3F1500S1000
X3.2F7000S0
X1.5F1500S1000
X7.9F7000S0
X2.4F1500S1000
X3.2F7000S0
X1.5F1500S1000
X7.8F7000S0
X2.4F1500S1000
X3.2F7000S0
X1.5F1500S1000
X35F7000S0
X1.8F1500S1000
X2.9F7000S0
X6.7F1500S1000
X4.6F7000S0
X24.8F1500S1000
X2.7F7000S0
X.5F1500S1000
X18.1F7000S0
X.4F1500S1000
X1.8F7000S0
X1F1500S1000
X1.6F7000S0
X1F1500S1000
X2F7000S0
X.6F1500S1000
X1.3F7000S0
X.2F1500S1000
X1.4F7000S0
X.5F1500S1000
X.9F7000S0
X.7F1500S1000
X1.7F7000S0
X.2F1500S1000
X.9F7000S0
X.5F1500S1000
X1.4F7000S0
X.4F1500S1000
X1F7000S0
X.2F1500S1000
X.9F7000S0
X.5F1500S1000
X2.8F7000S0
X.6F1500S1000
X1.8F7000S0
X.4F1500S1000
X1.7F7000S0
X.5F1500S1000
X1.2F7000S0
X.6F1500S1000
X1.8F7000S0
X.2F1500S1000
X.5F7000S0
X.6F1500S1000
X.6F7000S0
X.6F1500S1000
X2.6F7000S0
X.6F1500S1000
X3.7F7000S0
X.7F1500S1000
X1F7000S0
X.7F1500S1000
X.9F7000S0
X.9F1500S1000
X2.1F7000S0
X.1F1500S1000
X1.5F7000S0
X.9F1500S1000
X1.4F7000S0
X1.1F1500S1000
X.625F7000S0
X-.1Y.1
X-.625
X-1F1500S1000
X-1.5F7000S0
X-.8F1500S1000
X-1.6F7000S0
X-.1F1500S1000
X-2.1F7000S0
X-.8F1500S1000
X-1F7000S0
X-.6F1500S1000
X-1F7000S0
X-.8F1500S1000
X-3.7F7000S0
X-.4F1500S1000
X-2.7F7000S0
X-.6F1500S1000
X-.7F7000S0
X-.6F1500S1000
X-.4F7000S0
X-.2F1500S1000
X-1.8F7000S0
X-.6F1500S1000
X-1.2F7000S0
X-.5F1500S1000
X-1.7F7000S0
X-.4F1500S1000
X-1.8F7000S0
X-.6F1500S1000
X-2.8F7000S0
X-.5F1500S1000
X-.9F7000S0
X-.1F1500S1000
X-1.1F7000S0
X-.4F1500S1000
X-1.4F7000S0
X-.5F1500S1000
X-.8F7000S0
X-.3F1500S1000
X-1.7F7000S0
X-.7F1500S1000
X-.8F7000S0
X-.6F1500S1000
X-1.3F7000S0
X-.3F1500S1000
X-1.2F7000S0
X-.7F1500S1000
X-1.9F7000S0
X-1F1500S1000
X-1.6F7000S0
X-1.1F1500S1000
X-1.7F7000S0
X-.5F1500S1000
X-18.1F7000S0
X-.5F1500S1000
X-2.6F7000S0
X-24.9F1500S1000
X-4.6F7000S0
X-6.7F1500S1000
X-2.8F7000S0
X-1.9F1500S1000
X-34.9F7000S0
X-1.3F1500S1000
X-3.8F7000S0
X-2.3F1500S1000
X-7.6F7000S0
X-1.4F1500S1000
X-3.7F7000S0
X-2.3F1500S1000
X-7.5F7000S0
X-1.5F1500S1000
X-3.6F7000S0
X-2.3F1500S1000
X-26.8F7000S0
X-.5F1500S1000
X-.5F7000S0
X-.4F1500S1000
X-.7F7000S0
X-.3F1500S1000
X-2.2F7000S0
X-.5F1500S1000
X-15F7000S0
X-1F1500S1000
X-1.8F7000S0
X-1F1500S1000
X-13.9F7000S0
X-.2F1500S1000
X-.7F7000S0
X-.6F1500S1000
X-3.3F7000S0
X-.2F1500S1000
X-.625F7000S0
X.1Y.1
X.625
X.1F1500S1000
X3.1F7000S0
X.6F1500S1000
X.8F7000S0
X.3F1500S1000
X13.7F7000S0
X1.1F1500S1000
X2.1F7000S0
X.9F1500S1000
X15F7000S0
X.5F1500S1000
X1.9F7000S0
X.4F1500S1000
X.6F7000S0
X.5F1500S1000
X.6F7000S0
X.6F1500S1000
X26.4F7000S0
X2.3F1500S1000
X4.1F7000S0
X1.4F1500S1000
X7.2F7000S0
X2.2F1500S1000
X4.2F7000S0
X1.3F1500S1000
X7.3F7000S0
X2.2F1500S1000
X4.1F7000S0
X1.4F1500S1000
X34.7F7000S0
X2.1F1500S1000
X2.7F7000S0
X6.6F1500S1000
X4.8F7000S0
X25F1500S1000
X2.2F7000S0
X.6F1500S1000
X18.2F7000S0
X.6F1500S1000
X1.7F7000S0
X1F1500S1000
X1.7F7000S0
X.9F1500S1000
X2F7000S0
X.7F1500S1000
X1.2F7000S0
X.2F1500S1000
X1.4F7000S0
X.5F1500S1000
X.8F7000S0
X.8F1500S1000
X1.7F7000S0
X.2F1500S1000
X.9F7000S0
X.4F1500S1000
X1.4F7000S0
X.4F1500S1000
X1.1F7000S0
X.1F1500S1000
X1F7000S0
X.4F1500S1000
X2.8F7000S0
X.6F1500S1000
X1.8F7000S0
X.4F1500S1000
X1.7F7000S0
X.5F1500S1000
X1.2F7000S0
X.6F1500S1000
X1.8F7000S0
X.1F1500S1000
X.6F7000S0
X.6F1500S1000
X.6F7000S0
X.5F1500S1000
X2.7F7000S0
X.5F1500S1000
X3.7F7000S0
X.7F1500S1000
X1F7000S0
X.7F1500S1000
X.9F7000S0
X.9F1500S1000
X2.1F7000S0
X.1F1500S1000
X1.5F7000S0
X.8F1500S1000
X1.5F7000S0
X1F1500S1000
X.9F7000S0
X.2F1500S1000
X.625F7000S0
Y.1
X-.625
X-.3F1500S1000
X-.9F7000S0
X-.9F1500S1000
X-1.5F7000S0
X-.8F1500S1000
X-1.6F7000S0
X-.1F1500S1000
X-2F7000S0
X-.9F1500S1000
X-1F7000S0
X-.6F1500S1000
X-1F7000S0
X-.7F1500S1000
X-3.7F7000S0
X-.5F1500S1000
X-2.7F7000S0
X-.5F1500S1000
X-.7F7000S0
X-.6F1500S1000
X-.4F7000S0
X-.2F1500S1000
X-1.8F7000S0
X-.6F1500S1000
X-1.2F7000S0
X-.5F1500S1000
X-1.7F7000S0
X-.4F1500S1000
X-1.8F7000S0
X-.6F1500S1000
X-2.8F7000S0
X-.4F1500S1000
X-2.1F7000S0
X-.5F1500S1000
X-1.3F7000S0
X-.5F1500S1000
X-.9F7000S0
X-.2F1500S1000
X-1.7F7000S0
X-.7F1500S1000
X-.9F7000S0
X-.5F1500S1000
X-1.3F7000S0
X-.3F1500S1000
X-1.2F7000S0
X-.6F1500S1000
X-2.1F7000S0
X-.8F1500S1000
X-1.7F7000S0
X-1F1500S1000
X-1.7F7000S0
X-.7F1500S1000
X-18.2F7000S0
X-.7F1500S1000
X-1.9F7000S0
X-25.1F1500S1000
X-4.9F7000S0
X-6.6F1500S1000
X-2.6F7000S0
X-2.2F1500S1000
X-34.6F7000S0
X-1.3F1500S1000
X-4.5F7000S0
X-2.1F1500S1000
X-7.1F7000S0
X-1.3F1500S1000
X-4.4F7000S0
X-2.2F1500S1000
X-7.1F7000S0
X-1.4F1500S1000
X-4.3F7000S0
X-2.2F1500S1000
X-26.3F7000S0
X-.5F1500S1000
X-.9F7000S0
X-.4F1500S1000
X-.7F7000S0
X-.3F1500S1000
X-1.8F7000S0
X-.5F1500S1000
X-14.8F7000S0
X-1F1500S1000
X-2.4F7000S0
X-1F1500S1000
X-13.6F7000S0
X-.4F1500S1000
X-.9F7000S0
X-.4F1500S1000
X-3F7000S0
X-.2F1500S1000
X-.625F7000S0
X-.1Y.1
X.625
X.2F1500S1000
X3F7000S0
X.3F1500S1000
X.9F7000S0
X.6F1500S1000
X13.5F7000S0
X1F1500S1000
X2.7F7000S0
X.9F1500S1000
X14.8F7000S0
X.5F1500S1000
X1.6F7000S0
X.3F1500S1000
X.6F7000S0
X.4F1500S1000
X1F7000S0
X.7F1500S1000
X26.1F7000S0
X2.2F1500S1000
X4.5F7000S0
X1.4F1500S1000
X6.8F7000S0
X2.2F1500S1000
X4.7F7000S0
X1.3F1500S1000
X6.8F7000S0
X2.2F1500S1000
X4.6F7000S0
X1.3F1500S1000
X34.5F7000S0
X2.3F1500S1000
X2.6F7000S0
X6.6F1500S1000
X4.9F7000S0
X25.3F1500S1000
X1.5F7000S0
X.9F1500S1000
X18.2F7000S0
X.7F1500S1000
X1.7F7000S0
X1.1F1500S1000
X1.6F7000S0
X.9F1500S1000
X2F7000S0
X.6F1500S1000
X1.2F7000S0
X.3F1500S1000
X1.4F7000S0
X.5F1500S1000
X.8F7000S0
X.8F1500S1000
X1.7F7000S0
X.1F1500S1000
X1F7000S0
X.4F1500S1000
X1.4F7000S0
X.4F1500S1000
X2.1F7000S0
X.4F1500S1000
X2.8F7000S0
X.6F1500S1000
X1.8F7000S0
X.4F1500S1000
X1.7F7000S0
X.5F1500S1000
X1.2F7000S0
X.6F1500S1000
X1.8F7000S0
X.2F1500S1000
X.5F7000S0
X.5F1500S1000
X.7F7000S0
X.5F1500S1000
X2.7F7000S0
X.5F1500S1000
X3.6F7000S0
X.7F1500S1000
X1F7000S0
X.7F1500S1000
X1F7000S0
X.8F1500S1000
X2.1F7000S0
X.1F1500S1000
X1.5F7000S0
X.8F1500S1000
X1.5F7000S0
X.9F1500S1000
X1F7000S0
X.3F1500S1000
X.625F7000S0
Y.1
X-.625
X-.4F1500S1000
X-.9F7000S0
X-1F1500S1000
X-1.4F7000S0
X-.9F1500S1000
X-3.7F7000S0
X-.8F1500S1000
X-1F7000S0
X-.6F1500S1000
X-1F7000S0
X-.7F1500S1000
X-3.7F7000S0
X-.5F1500S1000
X-2.6F7000S0
X-.6F1500S1000
X-.6F7000S0
X-.5F1500S1000
X-.6F7000S0
X-.2F1500S1000
X-1.7F7000S0
X-.6F1500S1000
X-1.2F7000S0
X-.5F1500S1000
X-1.7F7000S0
X-.4F1500S1000
X-1.8F7000S0
X-.6F1500S1000
X-2.8F7000S0
X-.4F1500S1000
X-2.1F7000S0
X-.4F1500S1000
X-1.4F7000S0
X-.4F1500S1000
X-.9F7000S0
X-.2F1500S1000
X-1.7F7000S0
X-.7F1500S1000
X-.9F7000S0
X-.5F1500S1000
X-1.4F7000S0
X-.2F1500S1000
X-1.2F7000S0
X-.7F1500S1000
X-1.9F7000S0
X-.9F1500S1000
X-1.7F7000S0
X-1F1500S1000
X-1.7F7000S0
X-.8F1500S1000
X-18.3F7000S0
X-.9F1500S1000
X-1.2F7000S0
X-25.4F1500S1000
X-5.1F7000S0
X-6.6F1500S1000
X-2.4F7000S0
X-2.4F1500S1000
X-34.4F7000S0
X-1.3F1500S1000
X-4.9F7000S0
X-2.1F1500S1000
X-6.6F7000S0
X-1.3F1500S1000
X-5.1F7000S0
X-2F1500S1000
X-6.6F7000S0
X-1.3F1500S1000
X-5F7000S0
X-2.1F1500S1000
X-25.9F7000S0
X-.8F1500S1000
X-1F7000S0
X-.3F1500S1000
X-.7F7000S0
X-.2F1500S1000
X-1.5F7000S0
X-.6F1500S1000
X-14.6F7000S0
X-1F1500S1000
X-3F7000S0
X-1F1500S1000
X-13.3F7000S0
X-.8F1500S1000
X-.9F7000S0
X-.1F1500S1000
X-3F7000S0
X-.2F1500S1000
X-.625F7000S0
X-.1Y.1
X.625
X.3F1500S1000
X3.8F7000S0
X1F1500S1000
X13.2F7000S0
X1F1500S1000
X3.3F7000S0
X.9F1500S1000
X14.5F7000S0
X.7F1500S1000
X1.3F7000S0
X.2F1500S1000
X.6F7000S0
X.4F1500S1000
X.9F7000S0
X1.1F1500S1000
X25.7F7000S0
X2F1500S1000
X5.3F7000S0
X1.2F1500S1000
X6.4F7000S0
X2.1F1500S1000
X5.3F7000S0
X1.2F1500S1000
X6.4F7000S0
X2.1F1500S1000
X5.2F7000S0
X1.3F1500S1000
X34.2F7000S0
X2.6F1500S1000
X2.3F7000S0
X6.5F1500S1000
X5.2F7000S0
X8.7F1500S1000
X1.5F7000S0
X15.6F1500S1000
X.1F7000S0
X.1F1500S1000
X.2F7000S0
X1.3F1500S1000
X18.3F7000S0
X.9F1500S1000
X1.6F7000S0
X1.1F1500S1000
X1.6F7000S0
X.9F1500S1000
X2F7000S0
X.6F1500S1000
X1.3F7000S0
X.2F1500S1000
X1.3F7000S0
X.6F1500S1000
X.8F7000S0
X.7F1500S1000
X1.7F7000S0
X.2F1500S1000
X.9F7000S0
X.5F1500S1000
X1.3F7000S0
X.4F1500S1000
X2.2F7000S0
X.4F1500S1000
X2.7F7000S0
X.7F1500S1000
X1.7F7000S0
X.4F1500S1000
X1.7F7000S0
X.5F1500S1000
X1.2F7000S0
X.6F1500S1000
X1.7F7000S0
X.1F1500S1000
X.6F7000S0
X.6F1500S1000
X.6F7000S0
X.6F1500S1000
X2.6F7000S0
X.5F1500S1000
X3.6F7000S0
X.8F1500S1000
X.9F7000S0
X.7F1500S1000
X1F7000S0
X.8F1500S1000
X3.7F7000S0
X.7F1500S1000
X1.6F7000S0
X.9F1500S1000
X1F7000S0
X.4F1500S1000
X.625F7000S0
Y.1
X-.625
X-.5F1500S1000
X-1F7000S0
X-.9F1500S1000
X-1.5F7000S0
X-.8F1500S1000
X-3.7F7000S0
X-.8F1500S1000
X-1F7000S0
X-.6F1500S1000
X-1F7000S0
X-.7F1500S1000
X-3.7F7000S0
X-.4F1500S1000
X-2.7F7000S0
X-.4F1500S1000
X-.7F7000S0
X-.6F1500S1000
X-.5F7000S0
X-.2F1500S1000
X-1.7F7000S0
X-.6F1500S1000
X-1.3F7000S0
X-.4F1500S1000
X-1.7F7000S0
X-.4F1500S1000
X-1.7F7000S0
X-.7F1500S1000
X-2.7F7000S0
X-.4F1500S1000
X-2.2F7000S0
X-.4F1500S1000
X-1.3F7000S0
X-.5F1500S1000
X-.8F7000S0
X-.2F1500S1000
X-1.7F7000S0
X-.7F1500S1000
X-.9F7000S0
X-.5F1500S1000
X-1.4F7000S0
X-.1F1500S1000
X-1.3F7000S0
X-.6F1500S1000
X-2F7000S0
X-.9F1500S1000
X-1.6F7000S0
X-1.1F1500S1000
X-1.7F7000S0
X-.9F1500S1000
X-18.4F7000S0
X-16.8F1500S1000
X-2.2F7000S0
X-8.4F1500S1000
X-5.2F7000S0
X-6.5F1500S1000
X-2.2F7000S0
X-2.8F1500S1000
X-34.1F7000S0
X-1.1F1500S1000
X-5.7F7000S0
X-2.1F1500S1000
X-6.1F7000S0
X-1.2F1500S1000
X-5.6F7000S0
X-2.1F1500S1000
X-6F7000S0
X-1.2F1500S1000
X-5.6F7000S0
X-2.1F1500S1000
X-25.4F7000S0
X-.5F1500S1000
X-.3F7000S0
X-.4F1500S1000
X-.9F7000S0
X-.4F1500S1000
X-.6F7000S0
X-.1F1500S1000
X-1.2F7000S0
X-.7F1500S1000
X-14.4F7000S0
X-1F1500S1000
X-3.6F7000S0
X-1F1500S1000
X-12.8F7000S0
X-.5F1500S1000
X-.3F7000S0
X-.7F1500S1000
X-3.4F7000S0
X-.5F1500S1000
X-.625F7000S0
X-.1Y.1
X.625
X.6F1500S1000
X3.3F7000S0
X.5F1500S1000
X.7F7000S0
X.7F1500S1000
X12.4F7000S0
X.9F1500S1000
X4F7000S0
X1F1500S1000
X14.3F7000S0
X.7F1500S1000
X1.6F7000S0
X.4F1500S1000
X1F7000S0
X.3F1500S1000
X.5F7000S0
X.6F1500S1000
X25.1F7000S0
X2.1F1500S1000
X5.9F7000S0
X1.1F1500S1000
X5.9F7000S0
X2.1F1500S1000
X5.9F7000S0
X1.1F1500S1000
X5.9F7000S0
X2.1F1500S1000
X5.8F7000S0
X1.2F1500S1000
X34F7000S0
X2.9F1500S1000
X2F7000S0
X6.5F1500S1000
X5.3F7000S0
X8.1F1500S1000
X2.7F7000S0
X16.6F1500S1000
X18.4F7000S0
X1F1500S1000
X1.7F7000S0
X1F1500S1000
X1.6F7000S0
X1F1500S1000
X1.9F7000S0
X.6F1500S1000
X1.3F7000S0
X.2F1500S1000
X1.3F7000S0
X.5F1500S1000
X.9F7000S0
X.7F1500S1000
X1.7F7000S0
X.2F1500S1000
X.9F7000S0
X.4F1500S1000
X1.4F7000S0
X.4F1500S1000
X2.1F7000S0
X.4F1500S1000
X2.8F7000S0
X.6F1500S1000
X1.7F7000S0
X.4F1500S1000
X1.7F7000S0
X.4F1500S1000
X1.3F7000S0
X.6F1500S1000
X1.7F7000S0
X.2F1500S1000
X.5F7000S0
X.5F1500S1000
X.7F7000S0
X.6F1500S1000
X2.6F7000S0
X.4F1500S1000
X3.7F7000S0
X.6F1500S1000
X1.1F7000S0
X.5F1500S1000
X1.1F7000S0
X.8F1500S1000
X3.6F7000S0
X.8F1500S1000
X1.5F7000S0
X1F1500S1000
X1F7000S0
X.5F1500S1000
X.625F7000S0
Y.1
X-.625
X-.6F1500S1000
X-1F7000S0
X-.9F1500S1000
X-1.6F7000S0
X-.7F1500S1000
X-3.7F7000S0
X-.8F1500S1000
X-1F7000S0
X-.6F1500S1000
X-1F7000S0
X-.7F1500S1000
X-3.6F7000S0
X-.5F1500S1000
X-2.6F7000S0
X-.5F1500S1000
X-.6F7000S0
X-.6F1500S1000
X-.6F7000S0
X-.1F1500S1000
X-1.7F7000S0
X-.6F1500S1000
X-1.2F7000S0
X-.5F1500S1000
X-1.7F7000S0
X-.4F1500S1000
X-1.7F7000S0
X-.6F1500S1000
X-2.8F7000S0
X-.4F1500S1000
X-2.2F7000S0
X-.3F1500S1000
X-1.3F7000S0
X-.5F1500S1000
X-.9F7000S0
X-.2F1500S1000
X-1.7F7000S0
X-.6F1500S1000
X-1F7000S0
X-.4F1500S1000
X-1.4F7000S0
X-.1F1500S1000
X-1.3F7000S0
X-.6F1500S1000
X-2F7000S0
X-.9F1500S1000
X-1.7F7000S0
X-1F1500S1000
X-1.7F7000S0
X-1F1500S1000
X-18.5F7000S0
X-16.3F1500S1000
X-3F7000S0
X-7.9F1500S1000
X-5.5F7000S0
X-6.4F1500S1000
X-1.8F7000S0
X-3.1F1500S1000
X-33.9F7000S0
X-1.2F1500S1000
X-6.1F7000S0
X-2.1F1500S1000
X-5.6F7000S0
X-1.2F1500S1000
X-6.1F7000S0
X-2.1F1500S1000
X-5.7F7000S0
X-1.1F1500S1000
X-6F7000S0
X-2.2F1500S1000
X-24.9F7000S0
X-.6F1500S1000
X-.6F7000S0
X-.4F1500S1000
X-.9F7000S0
X-.4F1500S1000
X-1.3F7000S0
X-.8F1500S1000
X-14.3F7000S0
X-1F1500S1000
X-4.2F7000S0
X-1F1500S1000
X-12.1F7000S0
X-1F1500S1000
X-.7F7000S0
X-.5F1500S1000
X-3.1F7000S0
X-.7F1500S1000
X-.625F7000S0
X-.2Y.1
X.625
X.9F1500S1000
X2.9F7000S0
X.5F1500S1000
X.9F7000S0
X1.1F1500S1000
X11.9F7000S0
X.9F1500S1000
X4.6F7000S0
X1F1500S1000
X14.2F7000S0
X.7F1500S1000
X1.2F7000S0
X.3F1500S1000
X.9F7000S0
X.5F1500S1000
X.6F7000S0
X.7F1500S1000
X24.8F7000S0
X2F1500S1000
X6.4F7000S0
X1.1F1500S1000
X5.5F7000S0
X2.1F1500S1000
X6.3F7000S0
X1.1F1500S1000
X5.5F7000S0
X2F1500S1000
X6.4F7000S0
X1.1F1500S1000
X33.8F7000S0
X3.3F1500S1000
X1.7F7000S0
X6.4F1500S1000
X5.5F7000S0
X7.7F1500S1000
X3.3F7000S0
X16.2F1500S1000
X18.5F7000S0
X1.1F1500S1000
X1.7F7000S0
X1F1500S1000
X1.6F7000S0
X1F1500S1000
X1.9F7000S0
X.6F1500S1000
X1.3F7000S0
X.2F1500S1000
X1.3F7000S0
X.5F1500S1000
X.9F7000S0
X.7F1500S1000
X1.6F7000S0
X.3F1500S1000
X.8F7000S0
X.5F1500S1000
X1.3F7000S0
X.4F1500S1000
X2.2F7000S0
X.3F1500S1000
X2.8F7000S0
X.6F1500S1000
X1.7F7000S0
X.4F1500S1000
X1.7F7000S0
X.4F1500S1000
X1.3F7000S0
X.5F1500S1000
X1.8F7000S0
X.1F1500S1000
X.6F7000S0
X.5F1500S1000
X.7F7000S0
X.5F1500S1000
X2.6F7000S0
X.4F1500S1000
X3.7F7000S0
X.7F1500S1000
X1F7000S0
X.6F1500S1000
X.5F7000S0
X1.3F1500S1000
X3.6F7000S0
X.8F1500S1000
X1.5F7000S0
X.9F1500S1000
X1.1F7000S0
X.6F1500S1000
X.625F7000S0
Y.1
X-.625
X-.7F1500S1000
X-1.1F7000S0
X-.9F1500S1000
X-1.5F7000S0
X-.7F1500S1000
X-3.7F7000S0
X-2.4F1500S1000
X-1F7000S0
X-.6F1500S1000
X-3.7F7000S0
X-.4F1500S1000
X-2.6F7000S0
X-.5F1500S1000
X-.7F7000S0
X-.5F1500S1000
X-.6F7000S0
X-.1F1500S1000
X-1.8F7000S0
X-.5F1500S1000
X-1.3F7000S0
X-.4F1500S1000
X-1.7F7000S0
X-.3F1500S1000
X-1.8F7000S0
X-.6F1500S1000
X-2.7F7000S0
X-.4F1500S1000
X-2.2F7000S0
X-.3F1500S1000
X-1.4F7000S0
X-.4F1500S1000
X-.9F7000S0
X-.2F1500S1000
X-1.7F7000S0
X-.7F1500S1000
X-.9F7000S0
X-.4F1500S1000
X-1.4F7000S0
X-.1F1500S1000
X-1.3F7000S0
X-.6F1500S1000
X-2F7000S0
X-.9F1500S1000
X-1.6F7000S0
X-1F1500S1000
X-1.7F7000S0
X-1.2F1500S1000
X-18.5F7000S0
X-16F1500S1000
X-3.6F7000S0
X-7.6F1500S1000
X-5.6F7000S0
X-6.4F1500S1000
X-1.5F7000S0
X-3.5F1500S1000
X-33.7F7000S0
X-1.1F1500S1000
X-6.5F7000S0
X-2.1F1500S1000
X-5.3F7000S0
X-1.1F1500S1000
X-6.5F7000S0
X-2.1F1500S1000
X-5.2F7000S0
X-1.1F1500S1000
X-6.6F7000S0
X-2.1F1500S1000
X-24.5F7000S0
X-.9F1500S1000
X-.6F7000S0
X-.5F1500S1000
X-.9F7000S0
X-.2F1500S1000
X-1F7000S0
X-.8F1500S1000
X-14.3F7000S0
X-.9F1500S1000
X-4.8F7000S0
X-1F1500S1000
X-11.5F7000S0
X-.7F1500S1000
X-.4F7000S0
X-.4F1500S1000
X-.9F7000S0
X-.3F1500S1000
X-2.9F7000S0
X-1.1F1500S1000
X-.625F7000S0
X-.2Y.1
X.625
X.9F1500S1000
X.1F7000S0
X.3F1500S1000
X3.9F7000S0
X.4F1500S1000
X.7F7000S0
X.6F1500S1000
X11.4F7000S0
X1F1500S1000
X5.1F7000S0
X1F1500S1000
X14.1F7000S0
X.9F1500S1000
X.6F7000S0
X.3F1500S1000
X.9F7000S0
X.4F1500S1000
X.7F7000S0
X1F1500S1000
X24.4F7000S0
X2F1500S1000
X6.8F7000S0
X1.1F1500S1000
X5.1F7000S0
X2F1500S1000
X6.8F7000S0
X1.1F1500S1000
X5.1F7000S0
X2F1500S1000
X6.7F7000S0
X1.1F1500S1000
X33.7F7000S0
X3.6F1500S1000
X1.3F7000S0
X6.5F1500S1000
X5.7F7000S0
X7.4F1500S1000
X3.8F7000S0
X15.9F1500S1000
X18.5F7000S0
X1.3F1500S1000
X1.6F7000S0
X1F1500S1000
X1.7F7000S0
X.8F1500S1000
X2.1F7000S0
X.5F1500S1000
X1.3F7000S0
X.1F1500S1000
X1.4F7000S0
X.5F1500S1000
X.9F7000S0
X.6F1500S1000
X1.8F7000S0
X.1F1500S1000
X.9F7000S0
X.4F1500S1000
X1.4F7000S0
X.3F1500S1000
X2.1F7000S0
X.5F1500S1000
X2.7F7000S0
X.6F1500S1000
X1.8F7000S0
X.3F1500S1000
X1.7F7000S0
X.5F1500S1000
X1.2F7000S0
X.5F1500S1000
X1.8F7000S0
X.1F1500S1000
X.5F7000S0
X.6F1500S1000
X.7F7000S0
X.4F1500S1000
X2.6F7000S0
X.5F1500S1000
X3.6F7000S0
X.7F1500S1000
X1F7000S0
X2.4F1500S1000
X3.6F7000S0
X.8F1500S1000
X1.5F7000S0
X.9F1500S1000
X1F7000S0
X.8F1500S1000
X.625F7000S0
Y.1
X-.625
X-.8F1500S1000
X-1.1F7000S0
X-.9F1500S1000
X-1.5F7000S0
X-.8F1500S1000
X-3.6F7000S0
X-2.7F1500S1000
X-.6F7000S0
X-.7F1500S1000
X-3.7F7000S0
X-.4F1500S1000
X-2.5F7000S0
X-.6F1500S1000
X-.6F7000S0
X-.6F1500S1000
X-.5F7000S0
X-.1F1500S1000
X-1.8F7000S0
X-.5F1500S1000
X-1.3F7000S0
X-.4F1500S1000
X-1.7F7000S0
X-.4F1500S1000
X-1.7F7000S0
X-.6F1500S1000
X-2.7F7000S0
X-.4F1500S1000
X-2.1F7000S0
X-.3F1500S1000
X-1.5F7000S0
X-.4F1500S1000
X-.8F7000S0
X-.2F1500S1000
X-1.7F7000S0
X-.7F1500S1000
X-.9F7000S0
X-.4F1500S1000
X-1.4F7000S0
X-.1F1500S1000
X-1.3F7000S0
X-.5F1500S1000
X-2.1F7000S0
X-.8F1500S1000
X-1.7F7000S0
X-1F1500S1000
X-1.7F7000S0
X-1.2F1500S1000
X-18.7F7000S0
X-15.6F1500S1000
X-4.2F7000S0
X-7.2F1500S1000
X-5.7F7000S0
X-6.6F1500S1000
X-1F7000S0
X-3.9F1500S1000
X-33.5F7000S0
X-1.1F1500S1000
X-7.1F7000S0
X-1.9F1500S1000
X-4.9F7000S0
X-1F1500S1000
X-7.2F7000S0
X-1.9F1500S1000
X-4.9F7000S0
X-1F1500S1000
X-7.2F7000S0
X-1.9F1500S1000
X-24.2F7000S0
X-.5F1500S1000
X-.2F7000S0
X-.4F1500S1000
X-.8F7000S0
X-.4F1500S1000
X-1.5F7000S0
X-.9F1500S1000
X-14.1F7000S0
X-.9F1500S1000
X-5.5F7000S0
X-1F1500S1000
X-10.9F7000S0
X-.9F1500S1000
X-.8F7000S0
X-.5F1500S1000
X-3.7F7000S0
X-.2F1500S1000
X-.4F7000S0
X-.7F1500S1000
X-.625F7000S0
X-.1Y.1
X.625
X.5F1500S1000
X.7F7000S0
X.2F1500S1000
X3.6F7000S0
X.3F1500S1000
X1F7000S0
X1F1500S1000
X10.7F7000S0
X1.1F1500S1000
X5.7F7000S0
X.9F1500S1000
X14F7000S0
X1.1F1500S1000
X1.2F7000S0
X.4F1500S1000
X.7F7000S0
X.5F1500S1000
X.3F7000S0
X.6F1500S1000
X23.9F7000S0
X2F1500S1000
X7.4F7000S0
X1F1500S1000
X4.6F7000S0
X2F1500S1000
X7.3F7000S0
X1.1F1500S1000
X4.6F7000S0
X2F1500S1000
X7.3F7000S0
X1F1500S1000
X33.5F7000S0
X4F1500S1000
X.8F7000S0
X6.6F1500S1000
X5.8F7000S0
X7.2F1500S1000
X4.3F7000S0
X15.5F1500S1000
X18.7F7000S0
X1.4F1500S1000
X1.6F7000S0
X1F1500S1000
X1.6F7000S0
X.9F1500S1000
X2F7000S0
X.6F1500S1000
X1.2F7000S0
X.1F1500S1000
X1.4F7000S0
X.5F1500S1000
X.8F7000S0
X.7F1500S1000
X1.7F7000S0
X.2F1500S1000
X.9F7000S0
X.4F1500S1000
X1.4F7000S0
X.3F1500S1000
X2.1F7000S0
X.4F1500S1000
X2.7F7000S0
X.6F1500S1000
X1.8F7000S0
X.3F1500S1000
X1.7F7000S0
X.4F1500S1000
X1.3F7000S0
X.5F1500S1000
X1.8F7000S0
X.1F1500S1000
X.5F7000S0
X.6F1500S1000
X.7F7000S0
X.4F1500S1000
X2.6F7000S0
X.4F1500S1000
X3.7F7000S0
X.6F1500S1000
X.2F7000S0
X3.3F1500S1000
X3.5F7000S0
X.8F1500S1000
X1.4F7000S0
X.9F1500S1000
X1.1F7000S0
X.9F1500S1000
X.625F7000S0
Y.1
X-.625
X-.9F1500S1000
X-1.2F7000S0
X-.8F1500S1000
X-1.5F7000S0
X-.8F1500S1000
X-3.4F7000S0
X-.6F1500S1000
X-.4F7000S0
X-3.2F1500S1000
X-3.6F7000S0
X-.5F1500S1000
X-2.5F7000S0
X-.4F1500S1000
X-.8F7000S0
X-.5F1500S1000
X-2.4F7000S0
X-.5F1500S1000
X-1.2F7000S0
X-.5F1500S1000
X-1.7F7000S0
X-.3F1500S1000
X-1.7F7000S0
X-.7F1500S1000
X-2.7F7000S0
X-.4F1500S1000
X-2.1F7000S0
X-.3F1500S1000
X-1.4F7000S0
X-.4F1500S1000
X-.9F7000S0
X-.1F1500S1000
X-1.7F7000S0
X-.7F1500S1000
X-.9F7000S0
X-.4F1500S1000
X-1.4F7000S0
X-.2F1500S1000
X-1.2F7000S0
X-.6F1500S1000
X-2F7000S0
X-.8F1500S1000
X-1.6F7000S0
X-1.1F1500S1000
X-1.7F7000S0
X-1.2F1500S1000
X-18.8F7000S0
X-6.6F1500S1000
X-1.1F7000S0
X-7.7F1500S1000
X-4.6F7000S0
X-6.9F1500S1000
X-5.9F7000S0
X-6.7F1500S1000
X-.5F7000S0
X-1.5F1500S1000
X-.7F7000S0
X-2.1F1500S1000
X-33.4F7000S0
X-1F1500S1000
X-7.5F7000S0
X-2F1500S1000
X-4.4F7000S0
X-1F1500S1000
X-7.6F7000S0
X-2F1500S1000
X-4.4F7000S0
X-1F1500S1000
X-7.6F7000S0
X-2F1500S1000
X-23.7F7000S0
X-.5F1500S1000
X-.6F7000S0
X-.4F1500S1000
X-.7F7000S0
X-.4F1500S1000
X-1F7000S0
X-.6F1500S1000
X-.1F7000S0
X-.5F1500S1000
X-13.8F7000S0
X-.9F1500S1000
X-6.1F7000S0
X-1F1500S1000
X-10.5F7000S0
X-1.2F1500S1000
X-1F7000S0
X-.4F1500S1000
X-3.4F7000S0
X-.1F1500S1000
X-1F7000S0
X-.4F1500S1000
X-.625F7000S0
X-.1Y.1
X.625
X.4F1500S1000
X1.1F7000S0
X.1F1500S1000
X3.3F7000S0
X.4F1500S1000
X.9F7000S0
X.5F1500S1000
X.4F7000S0
X.5F1500S1000
X10.4F7000S0
X1F1500S1000
X6.3F7000S0
X1F1500S1000
X13.6F7000S0
X.4F1500S1000
X.4F7000S0
X.5F1500S1000
X.8F7000S0
X.3F1500S1000
X.8F7000S0
X.4F1500S1000
X.7F7000S0
X.6F1500S1000
X23.5F7000S0
X2F1500S1000
X7.7F7000S0
X1.1F1500S1000
X4.2F7000S0
X2F1500S1000
X7.7F7000S0
X1F1500S1000
X4.3F7000S0
X2F1500S1000
X7.6F7000S0
X1.1F1500S1000
X33.2F7000S0
X1.9F1500S1000
X1.3F7000S0
X8.3F1500S1000
X6F7000S0
X6.9F1500S1000
X4.7F7000S0
X7.2F1500S1000
X1.8F7000S0
X6.2F1500S1000
X19F7000S0
X1.3F1500S1000
X1.6F7000S0
X1F1500S1000
X1.6F7000S0
X.9F1500S1000
X2F7000S0
X.5F1500S1000
X1.3F7000S0
X.1F1500S1000
X1.4F7000S0
X.5F1500S1000
X.8F7000S0
X.7F1500S1000
X1.7F7000S0
X.2F1500S1000
X.8F7000S0
X.4F1500S1000
X1.4F7000S0
X.3F1500S1000
X2.2F7000S0
X.3F1500S1000
X2.8F7000S0
X.6F1500S1000
X1.7F7000S0
X.3F1500S1000
X1.7F7000S0
X.4F1500S1000
X1.3F7000S0
X.5F1500S1000
X2.4F7000S0
X.5F1500S1000
X.7F7000S0
X.5F1500S1000
X2.5F7000S0
X.4F1500S1000
X3.7F7000S0
X2.8F1500S1000
X.8F7000S0
X.5F1500S1000
X3.5F7000S0
X.7F1500S1000
X1.5F7000S0
X.9F1500S1000
X1.1F7000S0
X1F1500S1000
X.625F7000S0
Y.1
X-.625
X-1.1F1500S1000
X-1.1F7000S0
X-.9F1500S1000
X-1.4F7000S0
X-.8F1500S1000
X-3.4F7000S0
X-.5F1500S1000
X-1.3F7000S0
X-2.7F1500S1000
X-3.3F7000S0
X-.4F1500S1000
X-2.5F7000S0
X-.5F1500S1000
X-.7F7000S0
X-.5F1500S1000
X-2.4F7000S0
X-.5F1500S1000
X-1.3F7000S0
X-.4F1500S1000
X-1.7F7000S0
X-.3F1500S1000
X-1.7F7000S0
X-.6F1500S1000
X-2.7F7000S0
X-.5F1500S1000
X-2.1F7000S0
X-.2F1500S1000
X-1.4F7000S0
X-.4F1500S1000
X-2.8F7000S0
X-.6F1500S1000
X-.9F7000S0
X-.5F1500S1000
X-2.7F7000S0
X-.5F1500S1000
X-2.1F7000S0
X-.8F1500S1000
X-1.7F7000S0
X-.9F1500S1000
X-1.7F7000S0
X-1.3F1500S1000
X-19F7000S0
X-5.9F1500S1000
X-2.4F7000S0
X-6.8F1500S1000
X-4.9F7000S0
X-6.8F1500S1000
X-6F7000S0
X-8.1F1500S1000
X-1.7F7000S0
X-1.7F1500S1000
X-33.2F7000S0
X-1F1500S1000
X-8F7000S0
X-1.9F1500S1000
X-4.1F7000S0
X-1F1500S1000
X-8F7000S0
X-1.9F1500S1000
X-4F7000S0
X-1F1500S1000
X-8F7000S0
X-1.9F1500S1000
X-23.4F7000S0
X-.5F1500S1000
X-.9F7000S0
X-.4F1500S1000
X-.8F7000S0
X-.4F1500S1000
X-.5F7000S0
X-.2F1500S1000
X-.8F7000S0
X-.4F1500S1000
X-13.5F7000S0
X-1F1500S1000
X-6.6F7000S0
X-.9F1500S1000
X-10.2F7000S0
X-.5F1500S1000
X-.7F7000S0
X-.5F1500S1000
X-.8F7000S0
X-.4F1500S1000
X-3.2F7000S0
X-.1F1500S1000
X-1.2F7000S0
X-.4F1500S1000
X-.625F7000S0
X-.1Y.1
X.625
X.4F1500S1000
X1.3F7000S0
X.1F1500S1000
X3.2F7000S0
X.1F1500S1000
X.9F7000S0
X.5F1500S1000
X.9F7000S0
X.6F1500S1000
X9.9F7000S0
X.9F1500S1000
X7F7000S0
X1F1500S1000
X13.3F7000S0
X.4F1500S1000
X1.4F7000S0
X.3F1500S1000
X.8F7000S0
X.4F1500S1000
X1F7000S0
X.5F1500S1000
X23.2F7000S0
X2F1500S1000
X8.2F7000S0
X1F1500S1000
X3.8F7000S0
X2F1500S1000
X8.2F7000S0
X1F1500S1000
X3.8F7000S0
X2F1500S1000
X8.1F7000S0
X1F1500S1000
X33.1F7000S0
X1.5F1500S1000
X2F7000S0
X8F1500S1000
X6.1F7000S0
X6.7F1500S1000
X1.7F7000S0
X.1F1500S1000
X3.3F7000S0
X6.5F1500S1000
X2.8F7000S0
X5.6F1500S1000
X19.2F7000S0
X1.3F1500S1000
X1.6F7000S0
X1F1500S1000
X1.6F7000S0
X.9F1500S1000
X2F7000S0
X.5F1500S1000
X1.3F7000S0
X.1F1500S1000
X1.4F7000S0
X.4F1500S1000
X1F7000S0
X.6F1500S1000
X1.7F7000S0
X.1F1500S1000
X.9F7000S0
X.4F1500S1000
X1.4F7000S0
X.3F1500S1000
X2.1F7000S0
X.4F1500S1000
X2.7F7000S0
X.6F1500S1000
X1.6F7000S0
X.4F1500S1000
X1.7F7000S0
X.5F1500S1000
X1.2F7000S0
X.5F1500S1000
X2.4F7000S0
X.5F1500S1000
X.7F7000S0
X.4F1500S1000
X2.6F7000S0
X.4F1500S1000
X2.5F7000S0
X.1F1500S1000
X.1F7000S0
X2.5F1500S1000
X.2F7000S0
X.1F1500S1000
X1.8F7000S0
X.6F1500S1000
X3.3F7000S0
X.7F1500S1000
X1.5F7000S0
X.8F1500S1000
X1.2F7000S0
X.9F1500S1000
X.625F7000S0
X-.1Y.1
X-.625
X-.9F1500S1000
X-1.2F7000S0
X-.8F1500S1000
X-1.5F7000S0
X-.7F1500S1000
X-3.3F7000S0
X-.5F1500S1000
X-2.5F7000S0
X-2.7F1500S1000
X-2.1F7000S0
X-.5F1500S1000
X-2.5F7000S0
X-.4F1500S1000
X-.8F7000S0
X-.5F1500S1000
X-2.3F7000S0
X-.5F1500S1000
X-1.3F7000S0
X-.4F1500S1000
X-1.7F7000S0
X-.3F1500S1000
X-1.7F7000S0
X-.6F1500S1000
X-2.7F7000S0
X-.4F1500S1000
X-2.1F7000S0
X-.3F1500S1000
X-1.4F7000S0
X-.3F1500S1000
X-1F7000S0
X-.1F1500S1000
X-1.6F7000S0
X-.7F1500S1000
X-.9F7000S0
X-.5F1500S1000
X-2.7F7000S0
X-.5F1500S1000
X-2F7000S0
X-.9F1500S1000
X-1.6F7000S0
X-1F1500S1000
X-1.6F7000S0
X-1.3F1500S1000
X-19.4F7000S0
X-5.3F1500S1000
X-3.2F7000S0
X-6.2F1500S1000
X-3.3F7000S0
X-.4F1500S1000
X-1.6F7000S0
X-6.6F1500S1000
X-6.2F7000S0
X-7.6F1500S1000
X-2.4F7000S0
X-1.4F1500S1000
X-33F7000S0
X-1F1500S1000
X-8.4F7000S0
X-1.9F1500S1000
X-3.7F7000S0
X-1F1500S1000
X-8.4F7000S0
X-1.9F1500S1000
X-3.7F7000S0
X-.9F1500S1000
X-8.5F7000S0
X-1.9F1500S1000
X-23F7000S0
X-.8F1500S1000
X-1F7000S0
X-.3F1500S1000
X-.8F7000S0
X-.2F1500S1000
X-1.5F7000S0
X-.3F1500S1000
X-13.1F7000S0
X-1F1500S1000
X-7.3F7000S0
X-1F1500S1000
X-9.7F7000S0
X-.7F1500S1000
X-1F7000S0
X-.5F1500S1000
X-5.5F7000S0
X-.3F1500S1000
X-.625F7000S0
Y.1
X.625
X.2F1500S1000
X5.4F7000S0
X.5F1500S1000
X1F7000S0
X1F1500S1000
X9.5F7000S0
X.9F1500S1000
X7.6F7000S0
X1F1500S1000
X13F7000S0
X.4F1500S1000
X2.3F7000S0
X.3F1500S1000
X1F7000S0
X1F1500S1000
X22.8F7000S0
X1.8F1500S1000
X8.6F7000S0
X1.1F1500S1000
X3.4F7000S0
X1.9F1500S1000
X8.7F7000S0
X.9F1500S1000
X3.5F7000S0
X1.9F1500S1000
X8.6F7000S0
X1F1500S1000
X32.9F7000S0
X1.3F1500S1000
X2.7F7000S0
X7.5F1500S1000
X6.3F7000S0
X6.4F1500S1000
X1.5F7000S0
X.7F1500S1000
X3.3F7000S0
X5.9F1500S1000
X3.4F7000S0
X5.3F1500S1000
X19.5F7000S0
X1.2F1500S1000
X1.7F7000S0
X.9F1500S1000
X1.6F7000S0
X.9F1500S1000
X2F7000S0
X.5F1500S1000
X2.8F7000S0
X.4F1500S1000
X.9F7000S0
X.7F1500S1000
X1.7F7000S0
X.1F1500S1000
X.9F7000S0
X.3F1500S1000
X1.5F7000S0
X.2F1500S1000
X2.1F7000S0
X.4F1500S1000
X2.7F7000S0
X.6F1500S1000
X1.7F7000S0
X.3F1500S1000
X1.7F7000S0
X.4F1500S1000
X1.3F7000S0
X.5F1500S1000
X2.3F7000S0
X.5F1500S1000
X.8F7000S0
X.4F1500S1000
X2.5F7000S0
X.4F1500S1000
X1.8F7000S0
X2.7F1500S1000
X3F7000S0
X.4F1500S1000
X3.3F7000S0
X.6F1500S1000
X1.6F7000S0
X.7F1500S1000
X1.2F7000S0
X1F1500S1000
X.625F7000S0
X-.1Y.1
X-.625
X-.9F1500S1000
X-1.2F7000S0
X-.8F1500S1000
X-1.5F7000S0
X-.7F1500S1000
X-3.1F7000S0
X-.6F1500S1000
X-3.3F7000S0
X-2.8F1500S1000
X-1.3F7000S0
X-.4F1500S1000
X-2.5F7000S0
X-.5F1500S1000
X-.7F7000S0
X-.5F1500S1000
X-2.4F7000S0
X-.5F1500S1000
X-1.1F7000S0
X-.5F1500S1000
X-1.7F7000S0
X-.3F1500S1000
X-1.7F7000S0
X-.6F1500S1000
X-2.7F7000S0
X-.4F1500S1000
X-2.1F7000S0
X-.3F1500S1000
X-1.3F7000S0
X-.4F1500S1000
X-.9F7000S0
X-.1F1500S1000
X-1.7F7000S0
X-.6F1500S1000
X-1F7000S0
X-.4F1500S1000
X-2.7F7000S0
X-.5F1500S1000
X-2F7000S0
X-.9F1500S1000
X-1.6F7000S0
X-.9F1500S1000
X-1.7F7000S0
X-1.2F1500S1000
X-19.7F7000S0
X-5F1500S1000
X-3.7F7000S0
X-5.7F1500S1000
X-3.4F7000S0
X-.9F1500S1000
X-1.4F7000S0
X-6.3F1500S1000
X-6.4F7000S0
X-7.3F1500S1000
X-2.9F7000S0
X-1.3F1500S1000
X-3.3F7000S0
X-.4F1500S1000
X-29.1F7000S0
X-1F1500S1000
X-8.8F7000S0
X-1.8F1500S1000
X-3.3F7000S0
X-1.1F1500S1000
X-8.7F7000S0
X-1.8F1500S1000
X-3.4F7000S0
X-1F1500S1000
X-8.8F7000S0
X-1.8F1500S1000
X-22.8F7000S0
X-1F1500S1000
X-1F7000S0
X-.4F1500S1000
X-2.1F7000S0
X-.4F1500S1000
X-12.9F7000S0
X-1F1500S1000
X-7.8F7000S0
X-1F1500S1000
X-9.3F7000S0
X-.5F1500S1000
X-.2F7000S0
X-.4F1500S1000
X-1F7000S0
X-.5F1500S1000
X-5.4F7000S0
X-.2F1500S1000
X-.625F7000S0
Y.1
X.625
X.2F1500S1000
X5.3F7000S0
X.4F1500S1000
X.9F7000S0
X.5F1500S1000
X.6F7000S0
X.4F1500S1000
X9.1F7000S0
X1F1500S1000
X8.1F7000S0
X1F1500S1000
X12.7F7000S0
X.3F1500S1000
X2.1F7000S0
X.3F1500S1000
X1.1F7000S0
X.4F1500S1000
X.2F7000S0
X.5F1500S1000
X22.6F7000S0
X1.8F1500S1000
X9F7000S0
X1F1500S1000
X3.2F7000S0
X1.9F1500S1000
X8.9F7000S0
X1F1500S1000
X3.2F7000S0
X1.9F1500S1000
X8.8F7000S0
X1F1500S1000
X28.8F7000S0
X1F1500S1000
X3F7000S0
X1.2F1500S1000
X3.1F7000S0
X7.2F1500S1000
X6.4F7000S0
X6.3F1500S1000
X1.2F7000S0
X1.2F1500S1000
X3.3F7000S0
X5.5F1500S1000
X4F7000S0
X4.9F1500S1000
X19.7F7000S0
X1.3F1500S1000
X1.6F7000S0
X1F1500S1000
X1.6F7000S0
X.8F1500S1000
X2.1F7000S0
X.4F1500S1000
X2.8F7000S0
X.4F1500S1000
X.9F7000S0
X.6F1500S1000
X2.8F7000S0
X.3F1500S1000
X1.4F7000S0
X.3F1500S1000
X2.1F7000S0
X.4F1500S1000
X2.6F7000S0
X.6F1500S1000
X1.7F7000S0
X.3F1500S1000
X1.7F7000S0
X.4F1500S1000
X1.2F7000S0
X.5F1500S1000
X2.4F7000S0
X.5F1500S1000
X.7F7000S0
X.4F1500S1000
X2.6F7000S0
X.3F1500S1000
X1F7000S0
X2.7F1500S1000
X3.8F7000S0
X.5F1500S1000
X3.2F7000S0
X.7F1500S1000
X1.5F7000S0
X.7F1500S1000
X1.2F7000S0
X.9F1500S1000
X.625F7000S0
X-.1Y.1
X-.625
X-.8F1500S1000
X-1.3F7000S0
X-.8F1500S1000
X-1.5F7000S0
X-.6F1500S1000
X-3.1F7000S0
X-.5F1500S1000
X-4.3F7000S0
X-.2F1500S1000
X-.1F7000S0
X-2.3F1500S1000
X-.1F7000S0
X-.1F1500S1000
X-.4F7000S0
X-.4F1500S1000
X-2.5F7000S0
X-.4F1500S1000
X-.7F7000S0
X-.5F1500S1000
X-2.3F7000S0
X-.6F1500S1000
X-1.2F7000S0
X-.4F1500S1000
X-1.7F7000S0
X-.4F1500S1000
X-1.6F7000S0
X-.6F1500S1000
X-2.7F7000S0
X-.3F1500S1000
X-2.1F7000S0
X-.3F1500S1000
X-1.4F7000S0
X-.3F1500S1000
X-2.7F7000S0
X-.7F1500S1000
X-.9F7000S0
X-.4F1500S1000
X-2.7F7000S0
X-.5F1500S1000
X-2F7000S0
X-.9F1500S1000
X-1.6F7000S0
X-.9F1500S1000
X-1.7F7000S0
X-1.2F1500S1000
X-19.9F7000S0
X-4.7F1500S1000
X-4.2F7000S0
X-5.3F1500S1000
X-3.3F7000S0
X-1.6F1500S1000
X-1F7000S0
X-6.2F1500S1000
X-6.5F7000S0
X-7F1500S1000
X-3.4F7000S0
X-1.1F1500S1000
X-2.5F7000S0
X-1.6F1500S1000
X-28.6F7000S0
X-.9F1500S1000
X-9.1F7000S0
X-1.9F1500S1000
X-3F7000S0
X-1F1500S1000
X-9.1F7000S0
X-1.9F1500S1000
X-3F7000S0
X-1F1500S1000
X-9.1F7000S0
X-1.9F1500S1000
X-22.3F7000S0
X-.6F1500S1000
X-.4F7000S0
X-.4F1500S1000
X-1F7000S0
X-.2F1500S1000
X-2F7000S0
X-.4F1500S1000
X-12.6F7000S0
X-1F1500S1000
X-8.4F7000S0
X-1F1500S1000
X-8.9F7000S0
X-.5F1500S1000
X-.7F7000S0
X-.4F1500S1000
X-1F7000S0
X-.4F1500S1000
X-5.2F7000S0
X-.1F1500S1000
X-.625F7000S0
Y.1
X.625
X.2F1500S1000
X4.9F7000S0
X.4F1500S1000
X1F7000S0
X.4F1500S1000
X.9F7000S0
X.5F1500S1000
X8.7F7000S0
X1.1F1500S1000
X8.7F7000S0
X1F1500S1000
X12.4F7000S0
X.4F1500S1000
X2.9F7000S0
X.5F1500S1000
X.5F7000S0
X.6F1500S1000
X22.2F7000S0
X1.9F1500S1000
X9.4F7000S0
X.9F1500S1000
X2.8F7000S0
X1.9F1500S1000
X9.3F7000S0
X1F1500S1000
X2.8F7000S0
X1.9F1500S1000
X9.3F7000S0
X1F1500S1000
X28.4F7000S0
X1.9F1500S1000
X2.1F7000S0
X1.1F1500S1000
X3.8F7000S0
X6.8F1500S1000
X6.5F7000S0
X6.1F1500S1000
X.9F7000S0
X2F1500S1000
X3.2F7000S0
X5F1500S1000
X4.5F7000S0
X4.6F1500S1000
X20F7000S0
X1.2F1500S1000
X1.6F7000S0
X1F1500S1000
X1.6F7000S0
X.8F1500S1000
X2.1F7000S0
X.5F1500S1000
X2.7F7000S0
X.3F1500S1000
X1F7000S0
X.6F1500S1000
X2.7F7000S0
X.4F1500S1000
X1.3F7000S0
X.3F1500S1000
X2.1F7000S0
X.4F1500S1000
X2.7F7000S0
X.5F1500S1000
X1.7F7000S0
X.3F1500S1000
X1.7F7000S0
X.4F1500S1000
X1.2F7000S0
X.5F1500S1000
X2.4F7000S0
X.5F1500S1000
X.7F7000S0
X.4F1500S1000
X2.5F7000S0
X2.9F1500S1000
X5.1F7000S0
X.5F1500S1000
X2.9F7000S0
X.7F1500S1000
X1.5F7000S0
X.8F1500S1000
X1.2F7000S0
X.8F1500S1000
X.625F7000S0
X-.2Y.1
X-.625
X-.6F1500S1000
X-1.3F7000S0
X-.8F1500S1000
X-1.5F7000S0
X-.7F1500S1000
X-2.9F7000S0
X-.5F1500S1000
X-5.5F7000S0
X-2.7F1500S1000
X-2.2F7000S0
X-.4F1500S1000
X-.8F7000S0
X-.5F1500S1000
X-2.3F7000S0
X-.5F1500S1000
X-1.2F7000S0
X-.4F1500S1000
X-1.7F7000S0
X-.3F1500S1000
X-1.6F7000S0
X-.6F1500S1000
X-2.8F7000S0
X-.3F1500S1000
X-2.1F7000S0
X-.2F1500S1000
X-1.4F7000S0
X-.3F1500S1000
X-2.8F7000S0
X-.6F1500S1000
X-.9F7000S0
X-.4F1500S1000
X-2.7F7000S0
X-.5F1500S1000
X-2F7000S0
X-.8F1500S1000
X-1.6F7000S0
X-1F1500S1000
X-1.6F7000S0
X-1.3F1500S1000
X-20.1F7000S0
X-4.3F1500S1000
X-4.8F7000S0
X-4.8F1500S1000
X-3.3F7000S0
X-.7F1500S1000
X-.2F7000S0
X-1.3F1500S1000
X-.7F7000S0
X-6.1F1500S1000
X-6.6F7000S0
X-6.7F1500S1000
X-3.9F7000S0
X-1.1F1500S1000
X-1.7F7000S0
X-2.3F1500S1000
X-28.3F7000S0
X-1.1F1500S1000
X-9.4F7000S0
X-1.9F1500S1000
X-2.6F7000S0
X-1F1500S1000
X-9.5F7000S0
X-1.8F1500S1000
X-2.6F7000S0
X-1.1F1500S1000
X-9.5F7000S0
X-1.8F1500S1000
X-22.1F7000S0
X-.5F1500S1000
X-.8F7000S0
X-.3F1500S1000
X-3F7000S0
X-.2F1500S1000
X-12.4F7000S0
X-.9F1500S1000
X-9.1F7000S0
X-1F1500S1000
X-8.5F7000S0
X-.6F1500S1000
X-1F7000S0
X-.5F1500S1000
X-.9F7000S0
X-.5F1500S1000
X-4.8F7000S0
X-.1F1500S1000
X-.625F7000S0
X-.1Y.1
X.625
X.3F1500S1000
X4.7F7000S0
X.2F1500S1000
X1.1F7000S0
X.4F1500S1000
X1F7000S0
X.7F1500S1000
X8.5F7000S0
X1F1500S1000
X9.3F7000S0
X1F1500S1000
X12.1F7000S0
X.4F1500S1000
X2.8F7000S0
X.2F1500S1000
X.6F7000S0
X.2F1500S1000
X.1F7000S0
X.6F1500S1000
X21.9F7000S0
X1.9F1500S1000
X9.6F7000S0
X1F1500S1000
X2.5F7000S0
X1.9F1500S1000
X9.7F7000S0
X.9F1500S1000
X2.5F7000S0
X1.8F1500S1000
X9.7F7000S0
X1F1500S1000
X28.2F7000S0
X2.6F1500S1000
X1.4F7000S0
X1F1500S1000
X4.1F7000S0
X6.7F1500S1000
X6.6F7000S0
X6F1500S1000
X.5F7000S0
X1.5F1500S1000
X.4F7000S0
X.6F1500S1000
X3.3F7000S0
X4.7F1500S1000
X4.9F7000S0
X4.2F1500S1000
X20.3F7000S0
X1.2F1500S1000
X1.7F7000S0
X.9F1500S1000
X1.6F7000S0
X.8F1500S1000
X2F7000S0
X.6F1500S1000
X2.7F7000S0
X.3F1500S1000
X1F7000S0
X.6F1500S1000
X2.6F7000S0
X.4F1500S1000
X1.4F7000S0
X.3F1500S1000
X2F7000S0
X.4F1500S1000
X2.7F7000S0
X.5F1500S1000
X1.7F7000S0
X.3F1500S1000
X1.7F7000S0
X.4F1500S1000
X1.2F7000S0
X.5F1500S1000
X2.3F7000S0
X.5F1500S1000
X.8F7000S0
X.3F1500S1000
X1.9F7000S0
X2.7F1500S1000
X5.9F7000S0
X.5F1500S1000
X2.9F7000S0
X.7F1500S1000
X1.4F7000S0
X.8F1500S1000
X1.3F7000S0
X.7F1500S1000
X.625F7000S0
X-.1Y.1
X-.625
X-.7F1500S1000
X-1.3F7000S0
X-.6F1500S1000
X-1.6F7000S0
X-.7F1500S1000
X-2.7F7000S0
X-.6F1500S1000
X-6.3F7000S0
X-2.7F1500S1000
X-1.5F7000S0
X-.4F1500S1000
X-.7F7000S0
X-.5F1500S1000
X-2.3F7000S0
X-.5F1500S1000
X-1.3F7000S0
X-.3F1500S1000
X-1.7F7000S0
X-.3F1500S1000
X-1.6F7000S0
X-.7F1500S1000
X-2.6F7000S0
X-.3F1500S1000
X-2.1F7000S0
X-.3F1500S1000
X-1.3F7000S0
X-.4F1500S1000
X-2.7F7000S0
X-.6F1500S1000
X-.9F7000S0
X-.4F1500S1000
X-2.7F7000S0
X-.5F1500S1000
X-2F7000S0
X-.8F1500S1000
X-1.7F7000S0
X-.9F1500S1000
X-1.6F7000S0
X-1.2F1500S1000
X-20.4F7000S0
X-4.2F1500S1000
X-5F7000S0
X-4.5F1500S1000
X-3.3F7000S0
X-.7F1500S1000
X-.7F7000S0
X-1.4F1500S1000
X-.4F7000S0
X-5.9F1500S1000
X-6.7F7000S0
X-6.5F1500S1000
X-4.3F7000S0
X-1.1F1500S1000
X-.9F7000S0
X-3F1500S1000
X-28.1F7000S0
X-1F1500S1000
X-9.9F7000S0
X-1.8F1500S1000
X-2.3F7000S0
X-1F1500S1000
X-9.8F7000S0
X-1.9F1500S1000
X-2.2F7000S0
X-1F1500S1000
X-9.8F7000S0
X-1.9F1500S1000
X-21.8F7000S0
X-1F1500S1000
X-3.5F7000S0
X-.4F1500S1000
X-12F7000S0
X-.9F1500S1000
X-9.7F7000S0
X-1F1500S1000
X-8.2F7000S0
X-.4F1500S1000
X-.2F7000S0
X-.4F1500S1000
X-1F7000S0
X-.4F1500S1000
X-1F7000S0
X-.2F1500S1000
X-4.7F7000S0
X-.2F1500S1000
X-.625F7000S0
Y.1
X.625
X.2F1500S1000
X5.8F7000S0
X.3F1500S1000
X1F7000S0
X.5F1500S1000
X.4F7000S0
X.3F1500S1000
X8.1F7000S0
X1F1500S1000
X9.9F7000S0
X1F1500S1000
X11.8F7000S0
X.3F1500S1000
X3.4F7000S0
X.5F1500S1000
X.1F7000S0
X.5F1500S1000
X21.8F7000S0
X1.8F1500S1000
X9.9F7000S0
X1.1F1500S1000
X2.2F7000S0
X1.8F1500S1000
X9.9F7000S0
X1F1500S1000
X2.3F7000S0
X1.7F1500S1000
X9.9F7000S0
X1.1F1500S1000
X28.1F7000S0
X4.8F1500S1000
X4.7F7000S0
X6.3F1500S1000
X6.7F7000S0
X5.9F1500S1000
X.2F7000S0
X1.4F1500S1000
X.9F7000S0
X.8F1500S1000
X3.2F7000S0
X4.4F1500S1000
X5.2F7000S0
X4F1500S1000
X20.6F7000S0
X1.2F1500S1000
X1.6F7000S0
X.9F1500S1000
X1.6F7000S0
X.9F1500S1000
X2F7000S0
X.4F1500S1000
X2.7F7000S0
X.4F1500S1000
X.9F7000S0
X.7F1500S1000
X2.7F7000S0
X.3F1500S1000
X1.4F7000S0
X.2F1500S1000
X2.1F7000S0
X.3F1500S1000
X2.7F7000S0
X.6F1500S1000
X1.7F7000S0
X.3F1500S1000
X1.6F7000S0
X.4F1500S1000
X1.2F7000S0
X.6F1500S1000
X2.2F7000S0
X.5F1500S1000
X.7F7000S0
X.4F1500S1000
X1F7000S0
X2.7F1500S1000
X6.9F7000S0
X.4F1500S1000
X2.8F7000S0
X.6F1500S1000
X1.6F7000S0
X.7F1500S1000
X1.3F7000S0
X.7F1500S1000
X.625F7000S0
X-.2Y.1
X-.625
X-.6F1500S1000
X-1.3F7000S0
X-.7F1500S1000
X-1.5F7000S0
X-.7F1500S1000
X-2.7F7000S0
X-.5F1500S1000
X-7.2F7000S0
X-.2F1500S1000
X-.1F7000S0
X-2.5F1500S1000
X-.1F7000S0
X-.2F1500S1000
X-.2F7000S0
X-.4F1500S1000
X-.8F7000S0
X-.4F1500S1000
X-2.3F7000S0
X-.5F1500S1000
X-1.3F7000S0
X-.3F1500S1000
X-1.6F7000S0
X-.4F1500S1000
X-1.7F7000S0
X-.5F1500S1000
X-2.7F7000S0
X-.3F1500S1000
X-2.1F7000S0
X-.2F1500S1000
X-1.4F7000S0
X-.3F1500S1000
X-2.7F7000S0
X-.6F1500S1000
X-1F7000S0
X-.3F1500S1000
X-2.7F7000S0
X-.4F1500S1000
X-2.1F7000S0
X-.8F1500S1000
X-1.6F7000S0
X-1F1500S1000
X-1.5F7000S0
X-1.2F1500S1000
X-20.8F7000S0
X-3.8F1500S1000
X-5.5F7000S0
X-4.1F1500S1000
X-3.3F7000S0
X-.7F1500S1000
X-1.3F7000S0
X-7.2F1500S1000
X-6.8F7000S0
X-6.2F1500S1000
X-4.8F7000S0
X-4.8F1500S1000
X-28F7000S0
X-1F1500S1000
X-9.9F7000S0
X-1.8F1500S1000
X-2.3F7000S0
X-.9F1500S1000
X-9.9F7000S0
X-1.8F1500S1000
X-2.4F7000S0
X-1F1500S1000
X-9.8F7000S0
X-1.8F1500S1000
X-21.9F7000S0
X-.5F1500S1000
X-.4F7000S0
X-.4F1500S1000
X-3.1F7000S0
X-.4F1500S1000
X-11.7F7000S0
X-1F1500S1000
X-10.3F7000S0
X-.9F1500S1000
X-7.9F7000S0
X-.3F1500S1000
X-.6F7000S0
X-.4F1500S1000
X-1F7000S0
X-.5F1500S1000
X-5.5F7000S0
X-.1F1500S1000
X-.625F7000S0
Y.1
X.625
X.1F1500S1000
X5.3F7000S0
X.4F1500S1000
X1.1F7000S0
X.5F1500S1000
X.7F7000S0
X.3F1500S1000
X7.8F7000S0
X.9F1500S1000
X10.6F7000S0
X1F1500S1000
X11.5F7000S0
X.4F1500S1000
X3F7000S0
X.3F1500S1000
X.5F7000S0
X.6F1500S1000
X22.1F7000S0
X1.8F1500S1000
X9.7F7000S0
X1F1500S1000
X2.4F7000S0
X1.8F1500S1000
X.4F7000S0
X3F1500S1000
X.1F7000S0
X7.2F1500S1000
X.1F7000S0
X.1F1500S1000
X.1F7000S0
X.2F1500S1000
X.1F7000S0
X3.9F1500S1000
X.1F7000S0
X.2F1500S1000
X.1F7000S0
X.2F1500S1000
X.1F7000S0
X.7F1500S1000
X8.1F7000S0
X1F1500S1000
X28F7000S0
X4.6F1500S1000
X5.1F7000S0
X6F1500S1000
X6.9F7000S0
X7F1500S1000
X1.6F7000S0
X.8F1500S1000
X3.1F7000S0
X4.1F1500S1000
X5.6F7000S0
X3.6F1500S1000
X20.9F7000S0
X1.2F1500S1000
X1.6F7000S0
X1F1500S1000
X1.6F7000S0
X.8F1500S1000
X2F7000S0
X.5F1500S1000
