; LightBurn Pro 2.0.05
; GRBL-LPC device profile, absolute coords
; Bounds: X25.79 Y21.6 to X283.83 Y183.3
G00 G17 G40 G21 G54
G90
M4
; Image @ 7000 мм/мин, 70% power
M8
G0 X35.895Y71.699
; Layer C00
G91
G1 X2.916F7000S0
X2S700
X28S0
X2S700
X28S0
X2S700
X28S0
X2S700
X28S0
X2S700
X28S0
X2S700
X28S0
X2S700
X28.1S0
X1.9S700
X28.1S0
X2S700
X2.917S0
X.7Y.1
X-2.917
X-3.3S700
X-26.9S0
X-3S700
X-.1S0
X-.1S700
X-26.8S0
X-3.1S700
X-.1S0
X-.1S700
X-26.7S0
X-3.1S700
X-.1S0
X-.1S700
X-26.7S0
X-3.1S700
X-.1S0
X-.1S700
X-26.7S0
X-3.1S700
X-.1S0
X-.1S700
X-26.7S0
X-3S700
X-.1S0
X-.1S700
X-26.8S0
X-3.1S700
X-.1S0
X-.1S700
X-26.7S0
X-3.1S700
X-.1S0
X-.1S700
X-2.916S0
X-.2Y.1
X2.916
X1.6S700
X.1S0
X.1S700
X.1S0
X.1S700
X.1S0
X1.7S700
X26.2S0
X1.7S700
X.1S0
X.1S700
X.1S0
X.1S700
X.1S0
X1.7S700
X26.1S0
X1.7S700
X.1S0
X.1S700
X.1S0
X.1S700
X.1S0
X1.7S700
X26.1S0
X1.6S700
X.1S0
X.1S700
X.1S0
X.1S700
X.1S0
X1.8S700
X26.1S0
X1.7S700
X.1S0
X.1S700
X.1S0
X.1S700
X.1S0
X1.7S700
X26S0
X1.8S700
X.1S0
X.1S700
X.1S0
X.1S700
X.1S0
X1.7S700
X26S0
X1.7S700
X.1S0
X.1S700
X.1S0
X.1S700
X.1S0
X1.8S700
X26.1S0
X1.7S700
X.2S0
X.1S700
X.2S0
X1.7S700
X26.2S0
X1.7S700
X.1S0
X.1S700
X.1S0
X.1S700
X.1S0
X1.7S700
X2.917S0
X.2Y.1
X-2.917
X-1.2S700
X-1.9S0
X-1.3S700
X-25.6S0
X-1.3S700
X-1.9S0
X-1.2S700
X-25.7S0
X-1.2S700
X-2S0
X-1.2S700
X-25.6S0
X-1.2S700
X-2S0
X-1.2S700
X-25.5S0
X-1.2S700
X-2.1S0
X-1.2S700
X-25.6S0
X-1.2S700
X-2S0
X-1.2S700
X-25.5S0
X-1.2S700
X-2S0
X-1.2S700
X-25.6S0
X-1.2S700
X-2.1S0
X-1.1S700
X-25.7S0
X-1.2S700
X-2S0
X-1.2S700
X-2.916S0
X-.2Y.1
X2.916
X1S700
X2.8S0
X1S700
X25.2S0
X1S700
X2.8S0
X1.1S700
X25.1S0
X1S700
X2.9S0
X1S700
X25.1S0
X.9S700
X2.9S0
X1.1S700
X25.1S0
X.9S700
X2.9S0
X1S700
X25.2S0
X.9S700
X2.9S0
X1S700
X25.2S0
X.9S700
X2.9S0
X1S700
X25.3S0
X.9S700
X2.9S0
X.9S700
X25.4S0
X.9S700
X2.9S0
X.9S700
X2.917S0
X.2Y.1
X-2.917
X-.8S700
X-3.5S0
X-.9S700
X-24.8S0
X-.9S700
X-3.5S0
X-.9S700
X-24.8S0
X-.8S700
X-3.5S0
X-.9S700
X-24.8S0
X-.8S700
X-3.5S0
X-.9S700
X-24.8S0
X-.8S700
X-3.5S0
X-.9S700
X-24.8S0
X-.8S700
X-3.5S0
X-.9S700
X-24.8S0
X-.8S700
X-3.5S0
X-.9S700
X-24.8S0
X-.8S700
X-3.5S0
X-.9S700
X-24.8S0
X-.9S700
X-3.4S0
X-.9S700
X-2.916S0
X-.2Y.1
X2.916
X.8S700
X4S0
X.9S700
X24.3S0
X.8S700
X4.1S0
X.7S700
X24.4S0
X.8S700
X4.1S0
X.7S700
X24.4S0
X.8S700
X4.1S0
X.7S700
X24.4S0
X.8S700
X4.1S0
X.8S700
X24.3S0
X.8S700
X4.1S0
X.8S700
X24.3S0
X.8S700
X4.1S0
X.7S700
X24.4S0
X.8S700
X4S0
X.1S700
X.1S0
X.7S700
X24.4S0
X.8S700
X4S0
X.1S700
X.1S0
X.6S700
X2.917S0
X.3Y.1
X-2.917
X-.8S700
X-4.6S0
X-.7S700
X-24S0
X-.7S700
X-4.7S0
X-.7S700
X-24S0
X-.7S700
X-4.5S0
X-.1S700
X-.1S0
X-.6S700
X-23.9S0
X-.8S700
X-4.6S0
X-.7S700
X-23.9S0
X-.8S700
X-4.5S0
X-.1S700
X-.1S0
X-.6S700
X-24S0
X-.7S700
X-4.6S0
X-.7S700
X-23.9S0
X-.7S700
X-4.7S0
X-.6S700
X-24S0
X-.7S700
X-4.7S0
X-.7S700
X-24S0
X-.7S700
X-4.6S0
X-.7S700
X-2.916S0
X-.2Y.1
X2.916
X.7S700
X5S0
X.7S700
X23.7S0
X.6S700
X5.1S0
X.6S700
X23.7S0
X.7S700
X5S0
X.6S700
X23.7S0
X.6S700
X5S0
X.7S700
X23.7S0
X.6S700
X5.1S0
X.6S700
X23.7S0
X.6S700
X5S0
X.7S700
X23.7S0
X.6S700
X5S0
X.7S700
X23.7S0
X.6S700
X5.1S0
X.7S700
X23.6S0
X.7S700
X5.1S0
X.6S700
X2.917S0
X.2Y.1
X-2.917
X-.7S700
X-5.4S0
X-.6S700
X-23.4S0
X-.6S700
X-5.5S0
X-.5S700
X-23.4S0
X-.7S700
X-5.4S0
X-.6S700
X-23.3S0
X-.7S700
X-5.4S0
X-.6S700
X-23.3S0
X-.6S700
X-5.4S0
X-.7S700
X-23.3S0
X-.7S700
X-5.4S0
X-.6S700
X-23.3S0
X-.6S700
X-5.4S0
X-.7S700
X-23.3S0
X-.6S700
X-5.4S0
X-.7S700
X-23.3S0
X-.7S700
X-5.4S0
X-.6S700
X-2.916S0
X-.2Y.1
X2.916
X.6S700
X5.8S0
X.6S700
X23.1S0
X.6S700
X5.7S0
X.6S700
X23.1S0
X.6S700
X5.8S0
X.5S700
X23.1S0
X.5S700
X5.8S0
X.6S700
X23.1S0
X.6S700
X5.7S0
X.6S700
X23.1S0
X.6S700
X5.7S0
X.6S700
X23.1S0
X.5S700
X5.8S0
X.6S700
X23.1S0
X.6S700
X5.7S0
X.7S700
X23.1S0
X.5S700
X5.8S0
X.6S700
X2.917S0
X.1Y.1
X-2.917
X-.6S700
X-6S0
X-.5S700
X-23S0
X-.6S700
X-5.9S0
X-.6S700
X-23S0
X-.5S700
X-6S0
X-.6S700
X-22.8S0
X-.5S700
X-6.1S0
X-.6S700
X-22.8S0
X-.5S700
X-6.1S0
X-.6S700
X-22.8S0
X-.6S700
X-6S0
X-.6S700
X-22.7S0
X-.7S700
X-6S0
X-.5S700
X-22.8S0
X-.6S700
X-6.1S0
X-.6S700
X-22.8S0
X-.6S700
X-6S0
X-.6S700
X-2.916S0
X-.2Y.1
X2.916
X.6S700
X6.4S0
X.5S700
X22.6S0
X.6S700
X6.3S0
X.6S700
X22.5S0
X.6S700
X6.4S0
X.5S700
X22.5S0
X.5S700
X6.4S0
X.6S700
X22.5S0
X.6S700
X6.3S0
X.6S700
X22.5S0
X.5S700
X6.3S0
X.1S700
X.1S0
X.4S700
X22.6S0
X.5S700
X6.4S0
X.6S700
X22.5S0
X.6S700
X6.4S0
X.5S700
X22.6S0
X.6S700
X6.3S0
X.6S700
X2.917S0
X.1Y.1
X-2.917
X-.5S700
X-6.7S0
X-.5S700
X-22.4S0
X-.5S700
X-6.7S0
X-.5S700
X-22.3S0
X-.5S700
X-6.8S0
X-.5S700
X-22.2S0
X-.5S700
X-6.7S0
X-.5S700
X-22.3S0
X-.5S700
X-6.7S0
X-.5S700
X-22.3S0
X-.5S700
X-6.8S0
X-.5S700
X-22.2S0
X-.5S700
X-6.7S0
X-.5S700
X-22.3S0
X-.5S700
X-6.7S0
X-.5S700
X-22.3S0
X-.5S700
X-6.8S0
X-.5S700
X-2.916S0
X-.1Y.1
X2.916
X.5S700
X7S0
X.5S700
X22.1S0
X.4S700
X7S0
X.5S700
X22.1S0
X.5S700
X7S0
X.5S700
X21.9S0
X.5S700
X7S0
X.5S700
X22.1S0
X.4S700
X7S0
X.5S700
X22S0
X.5S700
X6.9S0
X.6S700
X22S0
X.5S700
X6.9S0
X.5S700
X22.2S0
X.5S700
X6.9S0
X.5S700
X22.2S0
X.5S700
X6.9S0
X.5S700
X2.917S0
X.1Y.1
X-2.917
X-.5S700
X-2.4S0
X-2.3S700
X-2.4S0
X-.5S700
X-22S0
X-.5S700
X-2.4S0
X-2.2S700
X-2.5S0
X-.5S700
X-21.9S0
X-.5S700
X-2.4S0
X-2.3S700
X-2.5S0
X-.5S700
X-21.9S0
X-.4S700
X-2.4S0
X-2.3S700
X-2.5S0
X-.5S700
X-21.9S0
X-.4S700
X-2.4S0
X-2.3S700
X-2.5S0
X-.4S700
X-22S0
X-.4S700
X-2.4S0
X-2.3S700
X-2.5S0
X-.5S700
X-21.8S0
X-.5S700
X-2.4S0
X-2.3S700
X-2.5S0
X-.4S700
X-21.9S0
X-.4S700
X-2.5S0
X-2.3S700
X-2.5S0
X-.4S700
X-21.9S0
X-.6S700
X-2.4S0
X-2.2S700
X-2.5S0
X-.5S700
X-2.916S0
X-.1Y.1
X2.916
X.5S700
X1.8S0
X3.8S700
X1.8S0
X.5S700
X21.7S0
X.5S700
X1.7S0
X3.8S700
X1.8S0
X.5S700
X21.7S0
X.4S700
X1.9S0
X3.8S700
X1.7S0
X.5S700
X21.6S0
X.5S700
X1.8S0
X3.8S700
X1.8S0
X.5S700
X21.7S0
X.4S700
X1.8S0
X3.8S700
X1.8S0
X.5S700
X21.6S0
X.5S700
X1.8S0
X3.8S700
X1.8S0
X.5S700
X21.6S0
X.5S700
X1.8S0
X3.8S700
X1.8S0
X.4S700
X21.8S0
X.5S700
X1.8S0
X3.7S700
X1.9S0
X.4S700
X21.8S0
X.4S700
X1.9S0
X3.7S700
X1.8S0
X.5S700
X2.917S0
X.1Y.1
X-2.917
X-.4S700
X-1.5S0
X-4.9S700
X-1.3S0
X-.4S700
X-21.5S0
X-.5S700
X-1.4S0
X-4.9S700
X-1.4S0
X-.4S700
X-21.6S0
X-.4S700
X-1.1S0
X-.1S700
X-.2S0
X-4.9S700
X-1.3S0
X-.5S700
X-21.4S0
X-.5S700
X-1.2S0
X-.1S700
X-.1S0
X-4.8S700
X-1.4S0
X-.5S700
X-21.4S0
X-.5S700
X-1.1S0
X-.1S700
X-.2S0
X-4.7S700
X-1.5S0
X-.5S700
X-21.5S0
X-.4S700
X-1.4S0
X-4.8S700
X-1.4S0
X-.5S700
X-21.3S0
X-.5S700
X-1.2S0
X-.1S700
X-.2S0
X-4.7S700
X-1.4S0
X-.5S700
X-21.5S0
X-.4S700
X-1.3S0
X-.1S700
X-.1S0
X-4.7S700
X-1.5S0
X-.4S700
X-21.6S0
X-.3S700
X-1.5S0
X-4.8S700
X-.1S0
X-.1S700
X-1.3S0
X-.4S700
X-2.916S0
X-.1Y.1
X2.916
X.4S700
X1.1S0
X5.8S700
X1S0
X.5S700
X21.3S0
X.4S700
X1S0
X5.8S700
X1.1S0
X.4S700
X21.3S0
X.4S700
X1S0
X.1S700
X.1S0
X5.6S700
X1.1S0
X.4S700
X21.2S0
X.4S700
X1S0
X5.9S700
X1.1S0
X.4S700
X21.3S0
X.4S700
X.9S0
X.1S700
X.1S0
X5.6S700
X1.2S0
X.4S700
X21.2S0
X.5S700
X.9S0
X5.9S700
X1S0
X.5S700
X21.2S0
X.4S700
X1S0
X5.8S700
X1.1S0
X.5S700
X21.3S0
X.4S700
X1S0
X.1S700
X.1S0
X5.7S700
X1S0
X.4S700
X21.4S0
X.4S700
X1S0
X5.8S700
X1.1S0
X.4S700
X2.917S0
X.1Y.1
X-2.917
X-.4S700
X-.9S0
X-6.3S700
X-.9S0
X-.4S700
X-21.2S0
X-.4S700
X-.9S0
X-6.3S700
X-.9S0
X-.4S700
X-21.1S0
X-.5S700
X-.9S0
X-6.3S700
X-.8S0
X-.5S700
X-21S0
X-.5S700
X-.9S0
X-6.3S700
X-.8S0
X-.5S700
X-21S0
X-.5S700
X-.9S0
X-6.2S700
X-.9S0
X-.4S700
X-21.1S0
X-.5S700
X-.9S0
X-6.2S700
X-.9S0
X-.5S700
X-20.9S0
X-.5S700
X-.9S0
X-6.2S700
X-1S0
X-.4S700
X-21.1S0
X-.5S700
X-.9S0
X-6.2S700
X-.9S0
X-.4S700
X-21.1S0
X-.4S700
X-1S0
X-6.2S700
X-1S0
X-.4S700
X-2.916S0
X-.1Y.1
X2.916
X.5S700
X.9S0
X6.4S700
X.9S0
X.5S700
X20.9S0
X.4S700
X.9S0
X6.5S700
X.8S0
X.5S700
X20.9S0
X.4S700
X.9S0
X6.5S700
X.9S0
X.4S700
X20.9S0
X.4S700
X.9S0
X6.4S700
X.9S0
X.5S700
X20.9S0
X.4S700
X.9S0
X6.5S700
X.8S0
X.5S700
X20.9S0
X.4S700
X.9S0
X6.5S700
X.8S0
X.4S700
X20.9S0
X.5S700
X.9S0
X6.4S700
X.9S0
X.4S700
X21S0
X.5S700
X.9S0
X6.4S700
X.9S0
X.5S700
X20.9S0
X.4S700
X.9S0
X6.4S700
X1S0
X.4S700
X2.917S0
X.1Y.1
X-2.917
X-.4S700
X-1S0
X-6.5S700
X-1S0
X-.4S700
X-20.8S0
X-.4S700
X-1S0
X-6.5S700
X-.9S0
X-.5S700
X-20.8S0
X-.4S700
X-.9S0
X-6.5S700
X-1S0
X-.4S700
X-20.7S0
X-.5S700
X-.9S0
X-6.5S700
X-1S0
X-.4S700
X-20.8S0
X-.4S700
X-.9S0
X-6.6S700
X-.9S0
X-.4S700
X-20.8S0
X-.4S700
X-.9S0
X-6.5S700
X-1S0
X-.4S700
X-20.7S0
X-.4S700
X-1S0
X-6.5S700
X-1S0
X-.4S700
X-20.7S0
X-.5S700
X-.9S0
X-6.5S700
X-.9S0
X-.5S700
X-20.7S0
X-.5S700
X-1S0
X-6.4S700
X-1S0
X-.5S700
X-2.916S0
Y.1
X2.916
X.4S700
X1.1S0
X6.4S700
X1.1S0
X.4S700
X20.6S0
X.4S700
X1.2S0
X6.4S700
X1.1S0
X.3S700
X20.6S0
X.5S700
X1.1S0
X6.4S700
X1S0
X.5S700
X20.5S0
X.4S700
X1.1S0
X6.4S700
X1.2S0
X.4S700
X20.5S0
X.4S700
X1.1S0
X6.5S700
X1S0
X.5S700
X20.5S0
X.4S700
X1.1S0
X6.4S700
X1.1S0
X.4S700
X20.6S0
X.4S700
X1S0
X6.5S700
X1.1S0
X.5S700
X20.6S0
X.4S700
X1S0
X6.5S700
X1.1S0
X.4S700
X20.7S0
X.3S700
X1.1S0
X6.5S700
X1S0
X.4S700
X2.917S0
X.2Y.1
X-2.917
X-.5S700
X-1.1S0
X-.5S700
X-.2S0
X-4.9S700
X-.1S0
X-.1S700
X-.2S0
X-.4S700
X-1.2S0
X-.5S700
X-20.5S0
X-.3S700
X-1.2S0
X-.5S700
X-.2S0
X-5.1S700
X-.1S0
X-.5S700
X-1.2S0
X-.4S700
X-20.5S0
X-.4S700
X-1.2S0
X-.5S700
X-.2S0
X-4.9S700
X-.3S0
X-.5S700
X-1.2S0
X-.4S700
X-20.4S0
X-.3S700
X-1.3S0
X-.5S700
X-.2S0
X-4.9S700
X-.2S0
X-.6S700
X-1.2S0
X-.4S700
X-20.4S0
X-.4S700
X-1.2S0
X-.5S700
X-.2S0
X-4.9S700
X-.2S0
X-.5S700
X-1.3S0
X-.4S700
X-20.4S0
X-.4S700
X-1.2S0
X-.5S700
X-.2S0
X-4.9S700
X-.2S0
X-.6S700
X-1.2S0
X-.4S700
X-20.3S0
X-.5S700
X-1.1S0
X-.6S700
X-.1S0
X-5S700
X-.2S0
X-.5S700
X-1.2S0
X-.4S700
X-20.4S0
X-.5S700
X-1.2S0
X-.5S700
X-.2S0
X-4.9S700
X-.2S0
X-.6S700
X-1.1S0
X-.4S700
X-20.5S0
X-.4S700
X-1.2S0
X-.5S700
X-.2S0
X-5S700
X-.1S0
X-.6S700
X-1.2S0
X-.4S700
X-2.916S0
X-.1Y.1
X2.916
X.4S700
X1.4S0
X.5S700
X.7S0
X.1S700
X.1S0
X.1S700
X.1S0
X3.2S700
X.1S0
X.1S700
X.1S0
X.1S700
X.6S0
X.5S700
X1.3S0
X.4S700
X20.3S0
X.4S700
X1.3S0
X.5S700
X.7S0
X.1S700
X.2S0
X3.4S700
X.1S0
X.2S700
X.6S0
X.5S700
X1.3S0
X.4S700
X20.3S0
X.4S700
X1.3S0
X.5S700
X.7S0
X.1S700
X.1S0
X.1S700
X.1S0
X3.3S700
X.1S0
X.1S700
X.1S0
X.1S700
X.5S0
X.5S700
X1.4S0
X.3S700
X20.3S0
X.3S700
X1.4S0
X.5S700
X.7S0
X.1S700
X.1S0
X3.4S700
X.1S0
X.2S700
X.7S0
X.5S700
X1.3S0
X.4S700
X20.3S0
X.4S700
X1.2S0
X.6S700
X.7S0
X.1S700
X.1S0
X3.5S700
X.1S0
X.2S700
X.6S0
X.5S700
X1.3S0
X.4S700
X20.2S0
X.4S700
X1.3S0
X.5S700
X.8S0
X.1S700
X.2S0
X3.4S700
X.1S0
X.1S700
X.1S0
X.1S700
X.5S0
X.5S700
X1.3S0
X.4S700
X20.2S0
X.4S700
X1.4S0
X.5S700
X.7S0
X.1S700
X.2S0
X3.3S700
X.1S0
X.1S700
X.1S0
X.1S700
X.5S0
X.6S700
X1.3S0
X.4S700
X20.3S0
X.4S700
X1.3S0
X.5S700
X.7S0
X.1S700
X.1S0
X3.5S700
X.1S0
X.2S700
X.6S0
X.5S700
X1.3S0
X.5S700
X20.3S0
X.4S700
X1.3S0
X.5S700
X.7S0
X.1S700
X.1S0
X.1S700
X.1S0
X3.3S700
X.1S0
X.1S700
X.7S0
X.5S700
X1.3S0
X.4S700
X2.917S0
X.1Y.1
X-2.917
X-.4S700
X-1.4S0
X-.5S700
X-2.1S0
X-1.1S700
X-2.1S0
X-.5S700
X-1.4S0
X-.4S700
X-20.2S0
X-.4S700
X-1.4S0
X-.5S700
X-1.6S0
X-.1S700
X-.4S0
X-1.1S700
X-2.1S0
X-.5S700
X-1.4S0
X-.4S700
X-20.1S0
X-.5S700
X-1.4S0
X-.5S700
X-2.1S0
X-1S700
X-2.2S0
X-.5S700
X-1.4S0
X-.3S700
X-20.1S0
X-.5S700
X-1.4S0
X-.5S700
X-1.2S0
X-.1S700
X-.2S0
X-.1S700
X-.2S0
X-.1S700
X-.2S0
X-1S700
X-2.1S0
X-.5S700
X-1.4S0
X-.4S700
X-20.1S0
X-.4S700
X-1.4S0
X-.6S700
X-1.4S0
X-.1S700
X-.3S0
X-.1S700
X-.2S0
X-1S700
X-2.1S0
X-.5S700
X-1.4S0
X-.4S700
X-20.1S0
X-.5S700
X-1.4S0
X-.5S700
X-1.4S0
X-.1S700
X-.6S0
X-1S700
X-2.1S0
X-.6S700
X-1.4S0
X-.3S700
X-20.1S0
X-.4S700
X-1.4S0
X-.5S700
X-1.4S0
X-.1S700
X-.6S0
X-1.1S700
X-2S0
X-.6S700
X-1.4S0
X-.4S700
X-20.1S0
X-.4S700
X-1.4S0
X-.6S700
X-1.4S0
X-.1S700
X-.3S0
X-.1S700
X-.2S0
X-1S700
X-2.1S0
X-.5S700
X-1.4S0
X-.4S700
X-20.2S0
X-.3S700
X-1.5S0
X-.5S700
X-2.1S0
X-1S700
X-2.1S0
X-.5S700
X-1.5S0
X-.3S700
X-2.916S0
X-.1Y.1
X2.916
X.4S700
X1.4S0
X.6S700
X5.2S0
X.5S700
X1.6S0
X.3S700
X20.1S0
X.3S700
X1.5S0
X.6S700
X5.1S0
X.5S700
X1.6S0
X.4S700
X20S0
X.3S700
X1.5S0
X.5S700
X5.2S0
X.6S700
X1.5S0
X.4S700
X19.9S0
X.4S700
X1.5S0
X.5S700
X5.2S0
X.5S700
X1.6S0
X.3S700
X20S0
X.4S700
X1.5S0
X.5S700
X5.2S0
X.5S700
X1.5S0
X.5S700
X19.9S0
X.4S700
X1.5S0
X.5S700
X5.2S0
X.5S700
X1.6S0
X.3S700
X20S0
X.4S700
X1.5S0
X.5S700
X5.2S0
X.5S700
X1.5S0
X.4S700
X20.1S0
X.4S700
X1.5S0
X.5S700
X5.2S0
X.5S700
X1.5S0
X.4S700
X20S0
X.4S700
X1.5S0
X.5S700
X5.3S0
X.5S700
X1.4S0
X.4S700
X2.917S0
X.1Y.1
X-2.917
X-.4S700
X-1.6S0
X-.5S700
X-5.1S0
X-.5S700
X-1.6S0
X-.4S700
X-20S0
X-.4S700
X-1.5S0
X-.6S700
X-5.1S0
X-.5S700
X-1.6S0
X-.4S700
X-19.9S0
X-.4S700
X-1.6S0
X-.5S700
X-5.2S0
X-.5S700
X-1.6S0
X-.3S700
X-19.9S0
X-.4S700
X-1.6S0
X-.5S700
X-5.1S0
X-.6S700
X-1.6S0
X-.3S700
X-19.9S0
X-.4S700
X-1.6S0
X-.5S700
X-5.1S0
X-.6S700
X-1.6S0
X-.3S700
X-19.9S0
X-.4S700
X-1.6S0
X-.5S700
X-5.2S0
X-.5S700
X-1.6S0
X-.3S700
X-19.8S0
X-.5S700
X-1.6S0
X-.5S700
X-5.1S0
X-.5S700
X-1.6S0
X-.4S700
X-19.9S0
X-.4S700
X-1.6S0
X-.5S700
X-5.2S0
X-.4S700
X-1.7S0
X-.3S700
X-19.9S0
X-.4S700
X-1.6S0
X-.5S700
X-5.1S0
X-.6S700
X-1.6S0
X-.4S700
X-2.916S0
Y.1
X2.916
X.4S700
X1.7S0
X.5S700
X5S0
X.6S700
X1.6S0
X.4S700
X19.8S0
X.4S700
X1.7S0
X.5S700
X5.1S0
X.5S700
X1.7S0
X.4S700
X19.7S0
X.4S700
X1.7S0
X.6S700
X5S0
X.5S700
X1.7S0
X.4S700
X19.7S0
X.4S700
X1.7S0
X.5S700
X5S0
X.6S700
X1.6S0
X.5S700
X19.7S0
X.4S700
X1.7S0
X.5S700
X5.1S0
X.5S700
X1.7S0
X.4S700
X19.7S0
X.4S700
X1.7S0
X.5S700
X5S0
X.6S700
X1.7S0
X.4S700
X19.7S0
X.3S700
X1.7S0
X.6S700
X5S0
X.5S700
X1.8S0
X.3S700
X19.8S0
X.4S700
X1.7S0
X.5S700
X5.1S0
X.5S700
X1.7S0
X.4S700
X19.8S0
X.4S700
X1.7S0
X.5S700
X5.1S0
X.5S700
X1.7S0
X.4S700
X2.917S0
Y.1
X-2.917
X-.4S700
X-1.7S0
X-.9S700
X-.1S0
X-.1S700
X-4S0
X-.1S700
X-.1S0
X-.8S700
X-1.8S0
X-.3S700
X-19.8S0
X-.3S700
X-1.8S0
X-.7S700
X-.1S0
X-.1S700
X-.1S0
X-.1S700
X-4S0
X-.1S700
X-.1S0
X-.7S700
X-1.8S0
X-.4S700
X-19.7S0
X-.4S700
X-1.8S0
X-.8S700
X-.1S0
X-.1S700
X-4.1S0
X-.1S700
X-.1S0
X-.7S700
X-1.8S0
X-.4S700
X-19.6S0
X-.4S700
X-1.8S0
X-.7S700
X-.2S0
X-.1S700
X-4S0
X-.1S700
X-.1S0
X-.1S700
X-.1S0
X-.6S700
X-1.8S0
X-.4S700
X-19.6S0
X-.3S700
X-1.9S0
X-.7S700
X-.2S0
X-.1S700
X-4S0
X-.1S700
X-.1S0
X-.1S700
X-.1S0
X-.6S700
X-1.8S0
X-.3S700
X-19.7S0
X-.4S700
X-1.8S0
X-.8S700
X-.1S0
X-.1S700
X-4S0
X-.1S700
X-.2S0
X-.7S700
X-1.8S0
X-.4S700
X-19.6S0
X-.3S700
X-1.8S0
X-.7S700
X-.2S0
X-.1S700
X-4S0
X-.1S700
X-.2S0
X-.1S700
X-.1S0
X-.6S700
X-1.7S0
X-.4S700
X-19.7S0
X-.3S700
X-1.9S0
X-.6S700
X-.1S0
X-.1S700
X-.1S0
X-.1S700
X-4S0
X-.1S700
X-.2S0
X-.7S700
X-1.8S0
X-.3S700
X-19.7S0
X-.4S700
X-1.7S0
X-.8S700
X-.2S0
X-.1S700
X-4S0
X-.1S700
X-.2S0
X-.7S700
X-1.8S0
X-.4S700
X-2.916S0
Y.1
X2.916
X.3S700
X1.9S0
X1.8S700
X2.4S0
X1.8S700
X1.9S0
X.3S700
X19.6S0
X.4S700
X1.8S0
X1.9S700
X2.3S0
X1.9S700
X1.8S0
X.4S700
X19.5S0
X.4S700
X1.9S0
X1.8S700
X2.3S0
X1.8S700
X1.9S0
X.4S700
X19.5S0
X.4S700
X1.8S0
X1.9S700
X2.3S0
X1.8S700
X1.9S0
X.3S700
X19.5S0
X.5S700
X1.8S0
X1.9S700
X2.3S0
X1.8S700
X1.9S0
X.4S700
X19.4S0
X.5S700
X1.8S0
X1.9S700
X2.3S0
X1.8S700
X1.9S0
X.3S700
X19.5S0
X.5S700
X1.8S0
X1.8S700
X2.3S0
X1.9S700
X1.9S0
X.3S700
X19.6S0
X.4S700
X1.9S0
X1.8S700
X2.3S0
X1.8S700
X2S0
X.3S700
X19.6S0
X.3S700
X1.9S0
X1.9S700
X2.3S0
X1.8S700
X1.9S0
X.4S700
X2.917S0
Y.1
X-2.917
X-.3S700
X-2S0
X-5.9S700
X-2S0
X-.4S700
X-19.4S0
X-.4S700
X-2S0
X-5.9S700
X-2S0
X-.3S700
X-19.5S0
X-.4S700
X-1.9S0
X-6S700
X-1.9S0
X-.4S700
X-19.4S0
X-.3S700
X-2S0
X-6S700
X-1.9S0
X-.4S700
X-19.4S0
X-.3S700
X-1.9S0
X-6.1S700
X-1.9S0
X-.4S700
X-19.4S0
X-.3S700
X-2S0
X-6S700
X-1.9S0
X-.4S700
X-19.4S0
X-.3S700
X-1.9S0
X-6S700
X-1.9S0
X-.5S700
X-19.4S0
X-.3S700
X-2S0
X-5.9S700
X-2S0
X-.4S700
X-19.4S0
X-.4S700
X-1.9S0
X-6S700
X-1.9S0
X-.4S700
X-2.916S0
Y.1
X2.916
X.3S700
X2S0
X6S700
X2S0
X.4S700
X19.3S0
X.4S700
X2S0
X5.9S700
X2S0
X.4S700
X19.3S0
X.4S700
X2S0
X5.9S700
X2.1S0
X.3S700
X19.2S0
X.4S700
X2S0
X6S700
X2S0
X.3S700
X19.4S0
X.4S700
X2S0
X5.9S700
X2S0
X.4S700
X19.2S0
X.5S700
X2S0
X5.9S700
X2S0
X.3S700
X19.3S0
X.4S700
X2S0
X5.9S700
X2.1S0
X.3S700
X19.4S0
X.4S700
X2S0
X5.9S700
X2.1S0
X.3S700
X19.4S0
X.4S700
X2S0
X5.9S700
X2S0
X.4S700
X2.917S0
Y.1
X-2.917
X-.3S700
X-2.2S0
X-.4S700
X-.2S0
X-4.6S700
X-.1S0
X-.5S700
X-2.1S0
X-.4S700
X-19.2S0
X-.4S700
X-2.1S0
X-.5S700
X-.2S0
X-4.6S700
X-.1S0
X-.4S700
X-2.2S0
X-.3S700
X-19.3S0
X-.3S700
X-2.1S0
X-.6S700
X-.1S0
X-4.6S700
X-.2S0
X-.4S700
X-2.1S0
X-.4S700
X-19.2S0
X-.3S700
X-2.2S0
X-.4S700
X-.2S0
X-4.6S700
X-.2S0
X-.4S700
X-2.1S0
X-.4S700
X-19.2S0
X-.3S700
X-2.2S0
X-.4S700
X-.2S0
X-4.6S700
X-.2S0
X-.4S700
X-2.1S0
X-.4S700
X-19.2S0
X-.3S700
X-2.1S0
X-.5S700
X-.2S0
X-4.6S700
X-.2S0
X-.4S700
X-2.1S0
X-.3S700
X-19.3S0
X-.3S700
X-2.1S0
X-.5S700
X-.1S0
X-4.7S700
X-.1S0
X-.5S700
X-2.1S0
X-.3S700
X-19.3S0
X-.3S700
X-2.1S0
X-.4S700
X-.2S0
X-4.7S700
X-.2S0
X-.4S700
X-2.1S0
X-.4S700
X-19.2S0
X-.4S700
X-2S0
X-.5S700
X-.2S0
X-4.7S700
X-.1S0
X-.4S700
X-2.1S0
X-.4S700
X-2.916S0
Y.1
X2.916
X.3S700
X2.2S0
X.4S700
X.6S0
X.1S700
X.1S0
X.1S700
X.1S0
X.1S700
X.1S0
X3S700
X.1S0
X.1S700
X.6S0
X.5S700
X2.1S0
X.3S700
X19.2S0
X.4S700
X2.1S0
X.4S700
X.6S0
X.2S700
X.1S0
X.1S700
X.1S0
X.1S700
X.1S0
X2.6S700
X.1S0
X.2S700
X.1S0
X.1S700
X.6S0
X.5S700
X2.1S0
X.4S700
X19.1S0
X.4S700
X2.1S0
X.4S700
X.7S0
X.1S700
X.1S0
X.1S700
X.1S0
X.1S700
X.1S0
X2.7S700
X.1S0
X.2S700
X.1S0
X.1S700
X.6S0
X.4S700
X2.2S0
X.3S700
X19.1S0
X.3S700
X2.2S0
X.4S700
X.6S0
X.1S700
X.2S0
X.1S700
X.2S0
X2.8S700
X.1S0
X.2S700
X.7S0
X.4S700
X2.2S0
X.4S700
X19.1S0
X.4S700
X2.1S0
X.4S700
X.6S0
X.1S700
X.1S0
X.1S700
X.1S0
X.1S700
X.2S0
X2.6S700
X.1S0
X.2S700
X.1S0
X.1S700
X.6S0
X.5S700
X2.1S0
X.4S700
X19.1S0
X.3S700
X2.2S0
X.4S700
X.6S0
X.2S700
X.1S0
X.1S700
X.1S0
X.1S700
X.1S0
X2.5S700
X.1S0
X.1S700
X.1S0
X.1S700
X.1S0
X.1S700
X.6S0
X.5S700
X2.1S0
X.3S700
X19.2S0
X.3S700
X2.2S0
X.4S700
X.6S0
X.2S700
X.1S0
X.1S700
X.1S0
X2.8S700
X.1S0
X.2S700
X.1S0
X.1S700
X.6S0
X.4S700
X2.2S0
X.3S700
X19.2S0
X.4S700
X2.1S0
X.5S700
X.6S0
X.1S700
X.1S0
X.1S700
X.2S0
X2.7S700
X.1S0
X.2S700
X.1S0
X.1S700
X.7S0
X.4S700
X2.1S0
X.4S700
X19.2S0
X.4S700
X2.1S0
X.5S700
X.6S0
X.2S700
X.1S0
X.1S700
X.1S0
X2.8S700
X.1S0
X.2S700
X.1S0
X.1S700
X.6S0
X.4S700
X2.1S0
X.4S700
X2.917S0
Y.1
X-2.917
X-.3S700
X-2.2S0
X-.4S700
X-1.5S0
X-.1S700
X-.1S0
X-.1S700
X-.1S0
X-.1S700
X-.1S0
X-.1S700
X-.2S0
X-.1S700
X-.2S0
X-.1S700
X-.1S0
X-.1S700
X-.1S0
X-.1S700
X-.2S0
X-.1S700
X-1.6S0
X-.4S700
X-2.2S0
X-.4S700
X-19.1S0
X-.3S700
X-2.1S0
X-.5S700
X-1.5S0
X-.1S700
X-.1S0
X-.1S700
X-.1S0
X-.1S700
X-.1S0
X-.1S700
X-.1S0
X-.1S700
X-.1S0
X-.1S700
X-.1S0
X-.1S700
X-.1S0
X-.1S700
X-.1S0
X-.1S700
X-.1S0
X-.1S700
X-1.7S0
X-.4S700
X-2.2S0
X-.3S700
X-19.1S0
X-.4S700
X-2.2S0
X-.4S700
X-1.5S0
X-.1S700
X-.1S0
X-.1S700
X-.1S0
X-.1S700
X-.1S0
X-.1S700
X-.1S0
X-.1S700
X-.2S0
X-.1S700
X-.2S0
X-.1S700
X-.1S0
X-.1S700
X-.2S0
X-.1S700
X-1.5S0
X-.5S700
X-2.2S0
X-.3S700
X-19S0
X-.4S700
X-2.2S0
X-.4S700
X-1.6S0
X-.1S700
X-.1S0
X-.1S700
X-.1S0
X-.1S700
X-.1S0
X-.1S700
X-.1S0
X-.1S700
X-.1S0
X-.1S700
X-.1S0
X-.1S700
X-.1S0
X-.1S700
X-.1S0
X-.1S700
X-.2S0
X-.1S700
X-1.4S0
X-.4S700
X-2.2S0
X-.4S700
X-19S0
X-.3S700
X-2.2S0
X-.5S700
X-1.5S0
X-.1S700
X-.1S0
X-.1S700
X-.1S0
X-.1S700
X-.1S0
X-.1S700
X-.1S0
X-.1S700
X-.2S0
X-.1S700
X-.1S0
X-.1S700
X-.1S0
X-.1S700
X-.2S0
X-.1S700
X-1.6S0
X-.4S700
X-2.2S0
X-.3S700
X-19.1S0
X-.3S700
X-2.2S0
X-.5S700
X-1.5S0
X-.1S700
X-.1S0
X-.1S700
X-.1S0
X-.1S700
X-.1S0
X-.1S700
X-.1S0
X-.1S700
X-.1S0
X-.1S700
X-.2S0
X-.1S700
X-.1S0
X-.1S700
X-.2S0
X-.1S700
X-1.6S0
X-.5S700
X-2.1S0
X-.4S700
X-18.9S0
X-.4S700
X-2.2S0
X-.4S700
X-1.5S0
X-.1S700
X-.1S0
X-.1S700
X-.1S0
X-.1S700
X-.1S0
X-.1S700
X-.1S0
X-.1S700
X-.2S0
X-.1S700
X-.2S0
X-.1S700
X-.1S0
X-.1S700
X-.2S0
X-.1S700
X-1.6S0
X-.4S700
X-2.2S0
X-.3S700
X-19.1S0
X-.3S700
X-2.2S0
X-.4S700
X-1.6S0
X-.1S700
X-.1S0
X-.1S700
X-.1S0
X-.1S700
X-.1S0
X-.1S700
X-.2S0
X-.1S700
X-.2S0
X-.1S700
X-.2S0
X-.1S700
X-.2S0
X-.1S700
X-1.5S0
X-.5S700
X-2.2S0
X-.3S700
X-19.1S0
X-.4S700
X-2.2S0
X-.3S700
X-1.4S0
X-.1S700
X-.1S0
X-.2S700
X-.1S0
X-.1S700
X-.1S0
X-.1S700
X-.1S0
X-.1S700
X-.1S0
X-.1S700
X-.1S0
X-.1S700
X-.1S0
X-.1S700
X-.1S0
X-.1S700
X-.1S0
X-.1S700
X-.1S0
X-.1S700
X-1.5S0
X-.5S700
X-2.1S0
X-.4S700
X-2.916S0
Y.1
X2.916
X.3S700
X2.2S0
X.4S700
X5.1S0
X.5S700
X2.2S0
X.3S700
X19S0
X.3S700
X2.2S0
X.5S700
X5S0
X.5S700
X2.2S0
X.4S700
X18.9S0
X.4S700
X2.2S0
X.4S700
X5.1S0
X.5S700
X2.1S0
X.4S700
X18.9S0
X.3S700
X2.2S0
X.5S700
X5.1S0
X.4S700
X2.2S0
X.4S700
X18.9S0
X.3S700
X2.2S0
X.5S700
X5S0
X.5S700
X2.2S0
X.4S700
X18.9S0
X.3S700
X2.2S0
X.5S700
X5S0
X.5S700
X2.2S0
X.4S700
X18.9S0
X.3S700
X2.2S0
X.5S700
X5S0
X.5S700
X2.2S0
X.3S700
X19.1S0
X.3S700
X2.2S0
X.4S700
X5.1S0
X.4S700
X2.2S0
X.4S700
X19S0
X.4S700
X2.2S0
X.4S700
X5.1S0
X.4S700
X2.2S0
X.4S700
X2.917S0
Y.1
X-2.917
X-.3S700
X-2.3S0
X-.4S700
X-5.1S0
X-.4S700
X-2.3S0
X-.3S700
X-18.9S0
X-.4S700
X-2.3S0
X-.4S700
X-5.1S0
X-.4S700
X-2.3S0
X-.3S700
X-18.9S0
X-.4S700
X-2.2S0
X-.5S700
X-5.1S0
X-.4S700
X-2.2S0
X-.4S700
X-18.8S0
X-.4S700
X-2.2S0
X-.4S700
X-5.2S0
X-.4S700
X-2.2S0
X-.3S700
X-18.9S0
X-.4S700
X-2.2S0
X-.4S700
X-5.1S0
X-.5S700
X-2.2S0
X-.3S700
X-18.9S0
X-.4S700
X-2.2S0
X-.5S700
X-5S0
X-.5S700
X-2.2S0
X-.4S700
X-18.8S0
X-.3S700
X-2.3S0
X-.4S700
X-5S0
X-.5S700
X-2.3S0
X-.3S700
X-18.9S0
X-.4S700
X-2.1S0
X-.5S700
X-5.1S0
X-.5S700
X-2.2S0
X-.3S700
X-18.9S0
X-.3S700
X-2.3S0
X-.4S700
X-5.1S0
X-.5S700
X-2.2S0
X-.4S700
X-2.916S0
Y.1
X2.916
X.4S700
X2.2S0
X.5S700
X5S0
X.5S700
X2.3S0
X.3S700
X18.8S0
X.4S700
X2.2S0
X.5S700
X5S0
X.5S700
X2.3S0
X.4S700
X18.8S0
X.3S700
X2.2S0
X.5S700
X5S0
X.5S700
X2.3S0
X.4S700
X18.7S0
X.3S700
X2.3S0
X.5S700
X4.9S0
X.6S700
X2.2S0
X.4S700
X18.8S0
X.3S700
X2.3S0
X.5S700
X5S0
X.5S700
X2.3S0
X.4S700
X18.7S0
X.3S700
X2.3S0
X.5S700
X5S0
X.5S700
X2.3S0
X.3S700
X18.8S0
X.3S700
X2.3S0
X.5S700
X5S0
X.5S700
X2.2S0
X.4S700
X18.9S0
X.3S700
X2.3S0
X.5S700
X4.9S0
X.5S700
X2.3S0
X.3S700
X18.9S0
X.4S700
X2.3S0
X.5S700
X4.9S0
X.5S700
X2.3S0
X.3S700
X2.917S0
X.1Y.1
X-2.917
X-.4S700
X-2.2S0
X-.9S700
X-4.3S0
X-.9S700
X-2.2S0
X-.4S700
X-18.8S0
X-.3S700
X-2.3S0
X-.9S700
X-4.2S0
X-1S700
X-2.2S0
X-.4S700
X-18.7S0
X-.4S700
X-2.3S0
X-.9S700
X-4.2S0
X-.9S700
X-2.3S0
X-.3S700
X-18.7S0
X-.4S700
X-2.3S0
X-.9S700
X-4.2S0
X-.9S700
X-2.3S0
X-.3S700
X-18.7S0
X-.4S700
X-2.3S0
X-.9S700
X-4.2S0
X-.9S700
X-2.2S0
X-.4S700
X-18.7S0
X-.4S700
X-2.3S0
X-.9S700
X-4.2S0
X-.9S700
X-2.2S0
X-.4S700
X-18.7S0
X-.3S700
X-2.3S0
X-.9S700
X-4.2S0
X-1S700
X-2.3S0
X-.3S700
X-18.7S0
X-.4S700
X-2.3S0
X-.9S700
X-4.2S0
X-.9S700
X-2.3S0
X-.3S700
X-18.7S0
X-.4S700
X-2.3S0
X-.9S700
X-4.2S0
X-.9S700
X-2.3S0
X-.3S700
X-2.916S0
X-.1Y.1
X2.916
X.4S700
X2.2S0
X1.6S700
X.1S0
X.1S700
X.2S0
X.1S700
X.2S0
X.1S700
X.2S0
X.1S700
X.2S0
X.1S700
X.2S0
X.1S700
X.2S0
X.1S700
X.2S0
X.1S700
X.2S0
X.1S700
X.3S0
X1.7S700
X2.2S0
X.4S700
X18.7S0
X.3S700
X2.3S0
X1.6S700
X.1S0
X.1S700
X.2S0
X.1S700
X.1S0
X.1S700
X.1S0
X.1S700
X.1S0
X.1S700
X.1S0
X.1S700
X.1S0
X.1S700
X.1S0
X.1S700
X.1S0
X.1S700
X.2S0
X.1S700
X.2S0
X.1S700
X.1S0
X.1S700
X.2S0
X1.6S700
X2.3S0
X.3S700
X18.7S0
X.4S700
X2.2S0
X1.6S700
X.1S0
X.1S700
X.2S0
X.1S700
X.1S0
X.1S700
X.1S0
X.1S700
X.1S0
X.1S700
X.1S0
X.1S700
X.1S0
X.1S700
X.1S0
X.1S700
X.1S0
X.1S700
X.2S0
X.1S700
X.2S0
X.1S700
X.2S0
X.1S700
X.1S0
X1.6S700
X2.3S0
X.4S700
X18.5S0
X.4S700
X2.2S0
X1.7S700
X.1S0
X.1S700
X.1S0
X.1S700
X.1S0
X.1S700
X.1S0
X.1S700
X.1S0
X.1S700
X.1S0
X.1S700
X.1S0
X.1S700
X.2S0
X.1S700
X.2S0
X.1S700
X.2S0
X.1S700
X.1S0
X.1S700
X.1S0
X.1S700
X.1S0
X1.7S700
X2.2S0
X.4S700
X18.6S0
X.4S700
X2.3S0
X1.6S700
X.1S0
X.1S700
X.1S0
X.1S700
X.1S0
X.1S700
X.1S0
X.1S700
X.1S0
X.1S700
X.2S0
X.1S700
X.1S0
X.1S700
X.1S0
X.1S700
X.2S0
X.1S700
X.2S0
X.1S700
X.1S0
X.1S700
X.2S0
X.1S700
X.1S0
X1.6S700
X2.3S0
X.3S700
X18.6S0
X.4S700
X2.3S0
X1.6S700
X.1S0
X.1S700
X.1S0
X.1S700
X.1S0
X.1S700
X.1S0
X.1S700
X.2S0
X.1S700
X.2S0
X.1S700
X.2S0
X.1S700
X.2S0
X.1S700
X.2S0
X.1S700
X.1S0
X.1S700
X.1S0
X.1S700
X.1S0
X1.7S700
X2.3S0
X.3S700
X18.6S0
X.4S700
X2.2S0
X1.6S700
X.2S0
X.1S700
X.2S0
X.1S700
X.2S0
X.1S700
X.1S0
X.1S700
X.1S0
X.1S700
X.1S0
X.1S700
X.1S0
X.1S700
X.1S0
X.1S700
X.2S0
X.1S700
X.2S0
X.1S700
X.1S0
X.1S700
X.2S0
X1.6S700
X2.3S0
X.4S700
X18.7S0
X.3S700
X2.3S0
X1.6S700
X.1S0
X.1S700
X.2S0
X.1S700
X.1S0
X.1S700
X.2S0
X.1S700
X.2S0
X.1S700
X.2S0
X.1S700
X.2S0
X.1S700
X.2S0
X.1S700
X.2S0
X.1S700
X.2S0
X.1S700
X.1S0
X1.6S700
X2.3S0
X.4S700
X18.7S0
X.3S700
X2.3S0
X1.6S700
X.2S0
X.1S700
X.2S0
X.1S700
X.1S0
X.1S700
X.1S0
X.1S700
X.2S0
X.1S700
X.1S0
X.1S700
X.1S0
X.1S700
X.1S0
X.1S700
X.1S0
X.1S700
X.2S0
X.1S700
X.2S0
X.1S700
X.1S0
X1.7S700
X2.3S0
X.3S700
X2.917S0
X.1Y.1
X-2.917
X-.4S700
X-2.3S0
X-6.1S700
X-2.3S0
X-.4S700
X-18.6S0
X-.3S700
X-2.4S0
X-6.1S700
X-2.3S0
X-.3S700
X-18.7S0
X-.3S700
X-2.4S0
X-6.1S700
X-2.3S0
X-.3S700
X-18.6S0
X-.3S700
X-2.3S0
X-6.2S700
X-2.2S0
X-.4S700
X-18.6S0
X-.3S700
X-2.3S0
X-6.1S700
X-2.3S0
X-.4S700
X-18.6S0
X-.3S700
X-2.4S0
X-6.1S700
X-2.2S0
X-.4S700
X-18.6S0
X-.3S700
X-2.3S0
X-6.1S700
X-2.3S0
X-.4S700
X-18.5S0
X-.4S700
X-2.3S0
X-6.1S700
X-2.3S0
X-.4S700
X-18.6S0
X-.3S700
X-2.4S0
X-6S700
X-2.3S0
X-.4S700
X-2.916S0
X-.1Y.1
X2.916
X.4S700
X2.3S0
X6.2S700
X2.3S0
X.4S700
X18.5S0
X.4S700
X2.2S0
X6.2S700
X2.3S0
X.3S700
X18.6S0
X.4S700
X2.3S0
X6.1S700
X2.4S0
X.3S700
X18.4S0
X.4S700
X2.4S0
X6.1S700
X2.3S0
X.3S700
X18.6S0
X.3S700
X2.3S0
X6.2S700
X2.3S0
X.4S700
X18.5S0
X.3S700
X2.3S0
X6.2S700
X2.3S0
X.4S700
X18.4S0
X.4S700
X2.3S0
X6.2S700
X2.3S0
X.3S700
X18.6S0
X.4S700
X2.3S0
X6.2S700
X2.3S0
X.3S700
X18.6S0
X.3S700
X2.4S0
X6.1S700
X2.4S0
X.3S700
X2.917S0
Y.1
X-2.917
X-.3S700
X-2.3S0
X-6.3S700
X-2.3S0
X-.3S700
X-18.6S0
X-.3S700
X-2.3S0
X-6.3S700
X-2.3S0
X-.3S700
X-18.6S0
X-.3S700
X-2.3S0
X-6.2S700
X-2.3S0
X-.4S700
X-18.5S0
X-.3S700
X-2.3S0
X-6.2S700
X-2.3S0
X-.4S700
X-18.4S0
X-.3S700
X-2.4S0
X-6.2S700
X-2.3S0
X-.4S700
X-18.4S0
X-.4S700
X-2.3S0
X-6.2S700
X-2.3S0
X-.4S700
X-18.3S0
X-.4S700
X-2.3S0
X-6.3S700
X-2.3S0
X-.3S700
X-18.5S0
X-.3S700
X-2.4S0
X-6.1S700
X-2.4S0
X-.4S700
X-18.4S0
X-.4S700
X-2.3S0
X-6.2S700
X-2.3S0
X-.4S700
X-2.916S0
Y.1
X2.916
X.4S700
X2.2S0
X6.4S700
X2.2S0
X.4S700
X18.4S0
X.4S700
X2.2S0
X6.5S700
X2.2S0
X.4S700
X18.3S0
X.4S700
X2.2S0
X6.5S700
X2.2S0
X.3S700
X18.4S0
X.4S700
X2.2S0
X6.5S700
X2.2S0
X.3S700
X18.4S0
X.4S700
X2.2S0
X6.5S700
X2.2S0
X.3S700
X18.4S0
X.4S700
X2.1S0
X6.6S700
X2.2S0
X.3S700
X18.4S0
X.4S700
X2.1S0
X6.6S700
X2.2S0
X.3S700
X18.5S0
X.3S700
X2.2S0
X6.5S700
X2.3S0
X.2S700
X18.6S0
X.3S700
X2.2S0
X6.5S700
X2.2S0
X.3S700
X2.917S0
X.1Y.1
X-2.917
X-.4S700
X-2S0
X-.7S700
X-.3S0
X-4.9S700
X-.3S0
X-.7S700
X-2S0
X-.4S700
X-18.4S0
X-.3S700
X-2.1S0
X-.7S700
X-.3S0
X-4.9S700
X-.3S0
X-.7S700
X-2S0
X-.4S700
X-18.4S0
X-.3S700
X-2.1S0
X-.7S700
X-.3S0
X-4.8S700
X-.4S0
X-.6S700
X-2.1S0
X-.3S700
X-18.4S0
X-.3S700
X-2.1S0
X-.7S700
X-.2S0
X-4.9S700
X-.4S0
X-.6S700
X-2.1S0
X-.3S700
X-18.4S0
X-.3S700
X-2.1S0
X-.6S700
X-.3S0
X-4.9S700
X-.4S0
X-.6S700
X-2.1S0
X-.3S700
X-18.4S0
X-.3S700
X-2.1S0
X-.7S700
X-.3S0
X-4.7S700
X-.5S0
X-.6S700
X-2.1S0
X-.3S700
X-18.3S0
X-.4S700
X-2S0
X-.7S700
X-.3S0
X-4.8S700
X-.4S0
X-.6S700
X-2.1S0
X-.4S700
X-18.4S0
X-.3S700
X-2.1S0
X-.6S700
X-.3S0
X-4.8S700
X-.4S0
X-.7S700
X-2S0
X-.4S700
X-18.4S0
X-.3S700
X-2.1S0
X-.7S700
X-.3S0
X-4.8S700
X-.3S0
X-.7S700
X-2.1S0
X-.3S700
X-2.916S0
Y.1
X2.916
X.3S700
X2S0
X.7S700
X1S0
X.1S700
X.1S0
X.2S700
X.1S0
X2.7S700
X.1S0
X.2S700
X.1S0
X.1S700
X.9S0
X.7S700
X2S0
X.3S700
X18.4S0
X.3S700
X2S0
X.6S700
X1.1S0
X.2S700
X.1S0
X.2S700
X.1S0
X2.7S700
X.1S0
X.2S700
X.1S0
X.1S700
X.9S0
X.7S700
X2S0
X.3S700
X18.3S0
X.4S700
X1.9S0
X.6S700
X1.2S0
X.2S700
X.1S0
X.2S700
X.1S0
X2.6S700
X.1S0
X.2S700
X.1S0
X.1S700
X.9S0
X.7S700
X2S0
X.3S700
X18.2S0
X.4S700
X2S0
X.7S700
X1S0
X.2S700
X.1S0
X.2S700
X.1S0
X2.5S700
X.1S0
X.1S700
X.1S0
X.1S700
X.1S0
X.1S700
X1S0
X.7S700
X1.9S0
X.3S700
X18.4S0
X.3S700
X2S0
X.6S700
X1.1S0
X.2S700
X.1S0
X.2S700
X.1S0
X2.7S700
X.1S0
X.2S700
X1.1S0
X.7S700
X1.9S0
X.4S700
X18.3S0
X.3S700
X1.9S0
X.7S700
X1.1S0
X.2S700
X.1S0
X.2S700
X.1S0
X2.6S700
X.1S0
X.2S700
X.1S0
X.1S700
X1S0
X.7S700
X1.9S0
X.4S700
X18.2S0
X.4S700
X1.9S0
X.7S700
X1.1S0
X.2S700
X.1S0
X.2S700
X.1S0
X2.6S700
X.1S0
X.2S700
X.1S0
X.1S700
X1S0
X.6S700
X2S0
X.3S700
X18.4S0
X.4S700
X1.9S0
X.7S700
X1.1S0
X.2S700
X.1S0
X.2S700
X.1S0
X2.6S700
X.1S0
X.2S700
X.1S0
X.1S700
X.9S0
X.7S700
X2S0
X.3S700
X18.4S0
X.3S700
X2S0
X.6S700
X1.2S0
X.2S700
X.1S0
X.2S700
X.1S0
X2.5S700
X.1S0
X.1S700
X.1S0
X.2S700
X1S0
X.7S700
X2S0
X.3S700
X2.917S0
Y.1
X-2.917
X-.4S700
X-1.8S0
X-.6S700
X-2.1S0
X-.1S700
X-.7S0
X-.4S700
X-.1S0
X-.1S700
X-2.6S0
X-.6S700
X-1.9S0
X-.3S700
X-18.4S0
X-.3S700
X-1.8S0
X-.7S700
X-2.2S0
X-.1S700
X-.2S0
X-.1S700
X-.2S0
X-.4S700
X-.2S0
X-.1S700
X-.2S0
X-.1S700
X-2.3S0
X-.6S700
X-1.9S0
X-.3S700
X-18.3S0
X-.3S700
X-1.9S0
X-.7S700
X-2.2S0
X-.1S700
X-.4S0
X-.5S700
X-.6S0
X-.1S700
X-2.1S0
X-.6S700
X-1.9S0
X-.4S700
X-18.2S0
X-.3S700
X-1.9S0
X-.7S700
X-2S0
X-.1S700
X-.3S0
X-.1S700
X-.2S0
X-.5S700
X-.1S0
X-.1S700
X-2.6S0
X-.6S700
X-1.9S0
X-.4S700
X-18.2S0
X-.3S700
X-1.9S0
X-.7S700
X-1.9S0
X-.1S700
X-.3S0
X-.1S700
X-.3S0
X-.5S700
X-2.7S0
X-.8S700
X-1.8S0
X-.4S700
X-18.2S0
X-.3S700
X-1.9S0
X-.7S700
X-2S0
X-.1S700
X-.3S0
X-.1S700
X-.2S0
X-.5S700
X-2.8S0
X-.7S700
X-1.8S0
X-.3S700
X-18.3S0
X-.3S700
X-1.9S0
X-.6S700
X-1.9S0
X-.1S700
X-.3S0
X-.1S700
X-.4S0
X-.4S700
X-2.9S0
X-.6S700
X-1.8S0
X-.3S700
X-18.4S0
X-.3S700
X-1.9S0
X-.7S700
X-1.8S0
X-.1S700
X-.3S0
X-.1S700
X-.4S0
X-.5S700
X-2.7S0
X-.7S700
X-1.9S0
X-.3S700
X-18.3S0
X-.4S700
X-1.8S0
X-.7S700
X-2.2S0
X-.1S700
X-.2S0
X-.1S700
X-.2S0
X-.4S700
X-.2S0
X-.1S700
X-.2S0
X-.1S700
X-2.2S0
X-.6S700
X-1.9S0
X-.4S700
X-2.916S0
X.1Y.1
X2.916
X.3S700
X1.8S0
X.6S700
X2.9S0
X.4S700
X2.9S0
X.7S700
X1.8S0
X.3S700
X18.2S0
X.4S700
X1.8S0
X.7S700
X2.8S0
X.5S700
X2.9S0
X.6S700
X1.8S0
X.3S700
X18.3S0
X.3S700
X1.8S0
X.7S700
X2.9S0
X.4S700
X2.9S0
X.6S700
X1.8S0
X.3S700
X18.2S0
X.4S700
X1.8S0
X.6S700
X2.9S0
X.5S700
X2.8S0
X.7S700
X1.8S0
X.3S700
X18.2S0
X.4S700
X1.8S0
X.6S700
X2.9S0
X.4S700
X3S0
X.6S700
X1.8S0
X.3S700
X18.2S0
X.4S700
X1.8S0
X.6S700
X2.9S0
X.4S700
X2.9S0
X.7S700
X1.8S0
X.3S700
X18.2S0
X.4S700
X1.7S0
X.6S700
X3S0
X.4S700
X2.9S0
X.7S700
X1.8S0
X.3S700
X18.3S0
X.4S700
X1.7S0
X.6S700
X3S0
X.3S700
X3S0
X.7S700
X1.7S0
X.4S700
X18.3S0
X.3S700
X1.7S0
X.7S700
X3S0
X.3S700
X3S0
X.7S700
X1.7S0
X.3S700
X2.917S0
X.1Y.1
X-2.917
X-.4S700
X-1.7S0
X-.6S700
X-.6S0
X-.2S700
X-2.3S0
X-.3S700
X-2.3S0
X-.2S700
X-.6S0
X-.7S700
X-1.6S0
X-.4S700
X-18.2S0
X-.4S700
X-1.6S0
X-.7S700
X-.6S0
X-.2S700
X-2.3S0
X-.3S700
X-2.3S0
X-.2S700
X-.6S0
X-.6S700
X-1.7S0
X-.3S700
X-18.3S0
X-.3S700
X-1.7S0
X-.6S700
X-.7S0
X-.2S700
X-2.2S0
X-.4S700
X-2.3S0
X-.2S700
X-.5S0
X-.6S700
X-1.7S0
X-.4S700
X-18.2S0
X-.3S700
X-1.7S0
X-.6S700
X-.6S0
X-.2S700
X-2.2S0
X-.5S700
X-2.2S0
X-.2S700
X-.6S0
X-.6S700
X-1.7S0
X-.4S700
X-18.2S0
X-.3S700
X-1.7S0
X-.6S700
X-.6S0
X-.2S700
X-2.2S0
X-.5S700
X-2.2S0
X-.2S700
X-.6S0
X-.6S700
X-1.7S0
X-.3S700
X-18.3S0
X-.3S700
X-1.7S0
X-.6S700
X-.7S0
X-.1S700
X-2.3S0
X-.4S700
X-2.3S0
X-.1S700
X-.6S0
X-.6S700
X-1.7S0
X-.4S700
X-18.2S0
X-.3S700
X-1.6S0
X-.7S700
X-.6S0
X-.2S700
X-2.3S0
X-.3S700
X-2.3S0
X-.2S700
X-.5S0
X-.7S700
X-1.7S0
X-.4S700
X-18.2S0
X-.3S700
X-1.7S0
X-.6S700
X-.6S0
X-.1S700
X-2.4S0
X-.4S700
X-2.2S0
X-.1S700
X-.7S0
X-.6S700
X-1.7S0
X-.3S700
X-18.3S0
X-.3S700
X-1.7S0
X-.7S700
X-.6S0
X-.1S700
X-2.3S0
X-.4S700
X-2.3S0
X-.1S700
X-.6S0
X-.7S700
X-1.7S0
X-.3S700
X-2.916S0
Y.1
X2.916
X.3S700
X1.6S0
X.7S700
X.6S0
X.7S700
X1.8S0
X.4S700
X1.8S0
X.7S700
X.7S0
X.6S700
X1.6S0
X.3S700
X18.2S0
X.4S700
X1.6S0
X.6S700
X.7S0
X.6S700
X1.8S0
X.5S700
X1.8S0
X.7S700
X.6S0
X.6S700
X1.6S0
X.4S700
X18.1S0
X.4S700
X1.6S0
X.6S700
X.7S0
X.7S700
X1.8S0
X.4S700
X1.8S0
X.7S700
X.6S0
X.7S700
X1.6S0
X.3S700
X18.1S0
X.3S700
X1.7S0
X.6S700
X.6S0
X.7S700
X1.8S0
X.5S700
X1.8S0
X.6S700
X.7S0
X.6S700
X1.6S0
X.3S700
X18.2S0
X.4S700
X1.6S0
X.6S700
X.7S0
X.6S700
X1.8S0
X.4S700
X1.9S0
X.7S700
X.6S0
X.6S700
X1.6S0
X.3S700
X18.3S0
X.2S700
X1.7S0
X.6S700
X.6S0
X.7S700
X1.8S0
X.4S700
X1.9S0
X.6S700
X.7S0
X.6S700
X1.6S0
X.3S700
X18.2S0
X.3S700
X1.7S0
X.6S700
X.6S0
X.6S700
X1.9S0
X.5S700
X1.7S0
X.7S700
X.7S0
X.6S700
X1.6S0
X.3S700
X18.2S0
X.4S700
X1.6S0
X.6S700
X.6S0
X.7S700
X1.9S0
X.4S700
X1.8S0
X.7S700
X.7S0
X.5S700
X1.7S0
X.3S700
X18.2S0
X.3S700
X1.7S0
X.5S700
X.7S0
X.7S700
X1.9S0
X.3S700
X1.9S0
X.7S700
X.6S0
X.6S700
X1.6S0
X.4S700
X2.917S0
Y.1
X-2.917
X-.4S700
X-1.5S0
X-.5S700
X-.7S0
X-1.7S700
X-.1S0
X-.2S700
X-.1S0
X-.2S700
X-.4S0
X-.3S700
X-.5S0
X-.1S700
X-.1S0
X-.2S700
X-.1S0
X-1.7S700
X-.7S0
X-.5S700
X-1.5S0
X-.4S700
X-18.2S0
X-.4S700
X-1.4S0
X-.6S700
X-.7S0
X-1.8S700
X-.1S0
X-.1S700
X-.1S0
X-.1S700
X-.5S0
X-.3S700
X-.5S0
X-.1S700
X-.1S0
X-.1S700
X-.1S0
X-1.7S700
X-.8S0
X-.5S700
X-1.5S0
X-.4S700
X-18.2S0
X-.3S700
X-1.5S0
X-.6S700
X-.7S0
X-1.7S700
X-.1S0
X-.2S700
X-.1S0
X-.1S700
X-.4S0
X-.4S700
X-.4S0
X-.2S700
X-.1S0
X-.1S700
X-.1S0
X-1.7S700
X-.7S0
X-.5S700
X-1.6S0
X-.4S700
X-18.1S0
X-.3S700
X-1.5S0
X-.6S700
X-.7S0
X-1.6S700
X-.1S0
X-.1S700
X-.1S0
X-.1S700
X-.1S0
X-.1S700
X-.4S0
X-.4S700
X-.4S0
X-.1S700
X-.1S0
X-.2S700
X-.1S0
X-1.7S700
X-.6S0
X-.6S700
X-1.6S0
X-.3S700
X-18.1S0
X-.3S700
X-1.6S0
X-.6S700
X-.6S0
X-1.7S700
X-.1S0
X-.1S700
X-.1S0
X-.1S700
X-.1S0
X-.1S700
X-.3S0
X-.5S700
X-.3S0
X-.2S700
X-.1S0
X-.2S700
X-.1S0
X-1.7S700
X-.6S0
X-.6S700
X-1.6S0
X-.3S700
X-18.2S0
X-.3S700
X-1.5S0
X-.6S700
X-.7S0
X-1.7S700
X-.1S0
X-.1S700
X-.1S0
X-.1S700
X-.5S0
X-.4S700
X-.4S0
X-.2S700
X-.1S0
X-.1S700
X-.1S0
X-1.7S700
X-.7S0
X-.5S700
X-1.6S0
X-.3S700
X-18.1S0
X-.3S700
X-1.6S0
X-.5S700
X-.7S0
X-1.6S700
X-.1S0
X-.1S700
X-.1S0
X-.1S700
X-.1S0
X-.1S700
X-.4S0
X-.4S700
X-.5S0
X-.4S700
X-.1S0
X-1.6S700
X-.7S0
X-.6S700
X-1.5S0
X-.3S700
X-18.2S0
X-.3S700
X-1.6S0
X-.6S700
X-.6S0
X-1.7S700
X-.1S0
X-.1S700
X-.1S0
X-.1S700
X-.1S0
X-.1S700
X-.3S0
X-.5S700
X-.3S0
X-.2S700
X-.1S0
X-.2S700
X-.1S0
X-1.6S700
X-.7S0
X-.6S700
X-1.5S0
X-.4S700
X-18.2S0
X-.3S700
X-1.5S0
X-.6S700
X-.7S0
X-1.6S700
X-.1S0
X-.2S700
X-.1S0
X-.1S700
X-.5S0
X-.4S700
X-.5S0
X-.1S700
X-.1S0
X-.1S700
X-.1S0
X-1.6S700
X-.8S0
X-.5S700
X-1.6S0
X-.3S700
X-2.916S0
Y.1
X2.916
X.3S700
X1.5S0
X.5S700
X.7S0
X2.3S700
X.4S0
X.4S700
X.4S0
X2.4S700
X.6S0
X.6S700
X1.4S0
X.4S700
X18.1S0
X.3S700
X1.5S0
X.6S700
X.6S0
X2.4S700
X.3S0
X.4S700
X.4S0
X2.4S700
X.7S0
X.5S700
X1.5S0
X.3S700
X18.1S0
X.4S700
X1.4S0
X.6S700
X.6S0
X2.4S700
X.4S0
X.3S700
X.5S0
X2.3S700
X.7S0
X.5S700
X1.5S0
X.3S700
X18S0
X.4S700
X1.5S0
X.5S700
X.7S0
X2.4S700
X.3S0
X.5S700
X.3S0
X2.3S700
X.7S0
X.5S700
X1.5S0
X.3S700
X18.2S0
X.3S700
X1.5S0
X.6S700
X.6S0
X2.4S700
X.3S0
X.4S700
X.4S0
X2.4S700
X.7S0
X.5S700
X1.5S0
X.3S700
X18S0
X.4S700
X1.4S0
X.6S700
X.7S0
X2.4S700
X.3S0
X.5S700
X.3S0
X2.3S700
X.8S0
X.5S700
X1.4S0
X.4S700
X18.1S0
X.3S700
X1.4S0
X.6S700
X.7S0
X2.4S700
X.3S0
X.4S700
X.4S0
X2.3S700
X.7S0
X.5S700
X1.5S0
X.3S700
X18.2S0
X.4S700
X1.4S0
X.6S700
X.7S0
X2.3S700
X.4S0
X.3S700
X.4S0
X2.4S700
X.7S0
X.5S700
X1.5S0
X.3S700
X18.2S0
X.4S700
X1.4S0
X.5S700
X.7S0
X2.4S700
X.4S0
X.3S700
X.4S0
X2.4S700
X.7S0
X.5S700
X1.4S0
X.4S700
X2.917S0
Y.1
X-2.917
X-.3S700
X-1.4S0
X-.6S700
X-.6S0
X-2.5S700
X-.4S0
X-.3S700
X-.4S0
X-2.5S700
X-.7S0
X-.5S700
X-1.4S0
X-.3S700
X-18.2S0
X-.3S700
X-1.4S0
X-.5S700
X-.7S0
X-2.4S700
X-.4S0
X-.4S700
X-.4S0
X-2.4S700
X-.8S0
X-.5S700
X-1.4S0
X-.3S700
X-18.1S0
X-.4S700
X-1.4S0
X-.5S700
X-.7S0
X-2.4S700
X-.3S0
X-.5S700
X-.3S0
X-2.5S700
X-.7S0
X-.5S700
X-1.4S0
X-.4S700
X-18S0
X-.3S700
X-1.5S0
X-.5S700
X-.7S0
X-2.4S700
X-.4S0
X-.4S700
X-.3S0
X-2.5S700
X-.7S0
X-.5S700
X-1.4S0
X-.3S700
X-18.1S0
X-.3S700
X-1.5S0
X-.4S700
X-.7S0
X-2.5S700
X-.3S0
X-.5S700
X-.3S0
X-2.5S700
X-.6S0
X-.6S700
X-1.4S0
X-.4S700
X-18S0
X-.3S700
X-1.5S0
X-.5S700
X-.7S0
X-2.4S700
X-.4S0
X-.4S700
X-.3S0
X-2.5S700
X-.7S0
X-.5S700
X-1.4S0
X-.3S700
X-18.1S0
X-.3S700
X-1.4S0
X-.5S700
X-.7S0
X-2.4S700
X-.4S0
X-.5S700
X-.3S0
X-2.4S700
X-.7S0
X-.5S700
X-1.5S0
X-.2S700
X-18.2S0
X-.3S700
X-1.5S0
X-.4S700
X-.7S0
X-2.4S700
X-.4S0
X-.5S700
X-.3S0
X-2.4S700
X-.7S0
X-.5S700
X-1.5S0
X-.3S700
X-18.2S0
X-.2S700
X-1.5S0
X-.5S700
X-.7S0
X-2.4S700
X-.4S0
X-.4S700
X-.4S0
X-2.4S700
X-.7S0
X-.5S700
X-1.4S0
X-.4S700
X-2.916S0
X.1Y.1
X2.916
X.3S700
X1.4S0
X.4S700
X.8S0
X2.4S700
X.4S0
X.4S700
X.4S0
X2.5S700
X.7S0
X.4S700
X1.4S0
X.3S700
X18.2S0
X.3S700
X1.4S0
X.5S700
X.7S0
X2.5S700
X.3S0
X.4S700
X.5S0
X2.5S700
X.6S0
X.5S700
X1.4S0
X.3S700
X18.1S0
X.3S700
X1.4S0
X.5S700
X.7S0
X2.5S700
X.3S0
X.4S700
X.5S0
X2.5S700
X.7S0
X.4S700
X1.4S0
X.3S700
X18.1S0
X.3S700
X1.4S0
X.4S700
X.8S0
X2.4S700
X.4S0
X.5S700
X.3S0
X2.5S700
X.7S0
X.5S700
X1.4S0
X.3S700
X18.1S0
X.3S700
X1.4S0
X.5S700
X.7S0
X2.5S700
X.3S0
X.4S700
X.5S0
X2.5S700
X.6S0
X.5S700
X1.4S0
X.3S700
X18.1S0
X.3S700
X1.4S0
X.4S700
X.8S0
X2.4S700
X.4S0
X.4S700
X.5S0
X2.4S700
X.7S0
X.5S700
X1.3S0
X.4S700
X18.1S0
X.3S700
X1.4S0
X.4S700
X.7S0
X2.5S700
X.4S0
X.4S700
X.4S0
X2.5S700
X.7S0
X.5S700
X1.4S0
X.3S700
X18.1S0
X.4S700
X1.3S0
X.5S700
X.7S0
X2.5S700
X.4S0
X.4S700
X.3S0
X2.6S700
X.7S0
X.4S700
X1.4S0
X.3S700
X18.2S0
X.3S700
X1.4S0
X.4S700
X.7S0
X2.5S700
X.4S0
X.5S700
X.3S0
X2.6S700
X.7S0
X.4S700
X1.3S0
X.4S700
X2.917S0
Y.1
X-2.917
X-.3S700
X-1.3S0
X-.5S700
X-.6S0
X-2.7S700
X-.3S0
X-.4S700
X-.4S0
X-2.7S700
X-.6S0
X-.5S700
X-1.3S0
X-.3S700
X-18.2S0
X-.3S700
X-1.3S0
X-.5S700
X-.6S0
X-2.6S700
X-.4S0
X-.4S700
X-.4S0
X-2.7S700
X-.6S0
X-.5S700
X-1.2S0
X-.4S700
X-18.1S0
X-.4S700
X-1.3S0
X-.4S700
X-.7S0
X-2.6S700
X-.4S0
X-.4S700
X-.4S0
X-2.6S700
X-.6S0
X-.5S700
X-1.3S0
X-.4S700
X-18S0
X-.3S700
X-1.4S0
X-.4S700
X-.7S0
X-2.5S700
X-.4S0
X-.5S700
X-.4S0
X-2.6S700
X-.6S0
X-.5S700
X-1.3S0
X-.4S700
X-18S0
X-.4S700
X-1.3S0
X-.4S700
X-.6S0
X-2.6S700
X-.5S0
X-.4S700
X-.3S0
X-2.6S700
X-.7S0
X-.5S700
X-1.3S0
X-.3S700
X-18.1S0
X-.3S700
X-1.4S0
X-.4S700
X-.7S0
X-2.6S700
X-.4S0
X-.4S700
X-.4S0
X-2.6S700
X-.6S0
X-.5S700
X-1.3S0
X-.4S700
X-18S0
X-.3S700
X-1.3S0
X-.5S700
X-.6S0
X-2.6S700
X-.4S0
X-.5S700
X-.3S0
X-2.6S700
X-.7S0
X-.4S700
X-1.4S0
X-.3S700
X-18.1S0
X-.3S700
X-1.4S0
X-.4S700
X-.6S0
X-2.6S700
X-.4S0
X-.5S700
X-.3S0
X-2.6S700
X-.7S0
X-.5S700
X-1.3S0
X-.3S700
X-18.1S0
X-.3S700
X-1.4S0
X-.4S700
X-.7S0
X-2.6S700
X-.4S0
X-.3S700
X-.5S0
X-2.6S700
X-.6S0
X-.5S700
X-1.3S0
X-.3S700
X-2.916S0
Y.1
X2.916
X.3S700
X1.3S0
X.4S700
X.6S0
X2.7S700
X.4S0
X.5S700
X.4S0
X2.6S700
X.6S0
X.5S700
X1.3S0
X.3S700
X18S0
X.4S700
X1.3S0
X.4S700
X.7S0
X2.6S700
X.4S0
X.4S700
X.5S0
X2.7S700
X.6S0
X.4S700
X1.3S0
X.3S700
X18S0
X.4S700
X1.3S0
X.5S700
X.6S0
X2.7S700
X.3S0
X.4S700
X.5S0
X2.7S700
X.6S0
X.4S700
X1.3S0
X.3S700
X18.1S0
X.3S700
X1.3S0
X.4S700
X.6S0
X2.7S700
X.4S0
X.4S700
X.5S0
X2.6S700
X.6S0
X.5S700
X1.3S0
X.3S700
X18S0
X.4S700
X1.3S0
X.4S700
X.7S0
X2.6S700
X.4S0
X.5S700
X.4S0
X2.7S700
X.6S0
X.4S700
X1.3S0
X.3S700
X18.1S0
X.3S700
X1.3S0
X.4S700
X.7S0
X2.6S700
X.4S0
X.4S700
X.4S0
X2.7S700
X.6S0
X.5S700
X1.3S0
X.3S700
X18.1S0
X.3S700
X1.3S0
X.4S700
X.6S0
X2.7S700
X.4S0
X.5S700
X.3S0
X2.7S700
X.6S0
X.4S700
X1.4S0
X.3S700
X18.2S0
X.2S700
X1.4S0
X.4S700
X.6S0
X2.7S700
X.4S0
X.4S700
X.4S0
X2.7S700
X.6S0
X.4S700
X1.4S0
X.3S700
X18.1S0
X.3S700
X1.3S0
X.4S700
X.6S0
X2.7S700
X.4S0
X.5S700
X.4S0
X2.7S700
X.5S0
X.5S700
X1.3S0
X.3S700
X2.917S0
X.1Y.1
X-2.917
X-.4S700
X-1.3S0
X-.4S700
X-.5S0
X-2.8S700
X-.4S0
X-.5S700
X-.4S0
X-2.8S700
X-.5S0
X-.5S700
X-1.2S0
X-.3S700
X-18.1S0
X-.4S700
X-1.2S0
X-.5S700
X-.5S0
X-2.8S700
X-.4S0
X-.5S700
X-.3S0
X-2.8S700
X-.6S0
X-.4S700
X-1.3S0
X-.3S700
X-18.1S0
X-.3S700
X-1.3S0
X-.4S700
X-.6S0
X-2.7S700
X-.5S0
X-.5S700
X-.3S0
X-2.8S700
X-.6S0
X-.4S700
X-1.3S0
X-.3S700
X-18S0
X-.4S700
X-1.2S0
X-.4S700
X-.6S0
X-2.7S700
X-.5S0
X-.4S700
X-.4S0
X-2.8S700
X-.5S0
X-.4S700
X-1.3S0
X-.4S700
X-18S0
X-.3S700
X-1.3S0
X-.4S700
X-.6S0
X-2.7S700
X-.5S0
X-.4S700
X-.4S0
X-2.8S700
X-.5S0
X-.4S700
X-1.3S0
X-.3S700
X-18.1S0
X-.3S700
X-1.3S0
X-.4S700
X-.6S0
X-2.7S700
X-.4S0
X-.5S700
X-.4S0
X-2.8S700
X-.5S0
X-.4S700
X-1.3S0
X-.3S700
X-18.1S0
X-.2S700
X-1.4S0
X-.4S700
X-.5S0
X-2.8S700
X-.4S0
X-.5S700
X-.4S0
X-2.7S700
X-.6S0
X-.4S700
X-1.3S0
X-.3S700
X-18.1S0
X-.3S700
X-1.3S0
X-.4S700
X-.6S0
X-2.7S700
X-.4S0
X-.5S700
X-.4S0
X-2.8S700
X-.5S0
X-.4S700
X-1.3S0
X-.3S700
X-18.1S0
X-.3S700
X-1.3S0
X-.4S700
X-.5S0
X-2.8S700
X-.4S0
X-.6S700
X-.3S0
X-2.8S700
X-.5S0
X-.5S700
X-1.3S0
X-.2S700
X-2.916S0
X-.1Y.1
X2.916
X.3S700
X1.3S0
X.4S700
X.5S0
X2.9S700
X.4S0
X.4S700
X.5S0
X2.8S700
X.5S0
X.4S700
X1.3S0
X.3S700
X18.1S0
X.3S700
X1.3S0
X.4S700
X.5S0
X2.8S700
X.4S0
X.5S700
X.4S0
X2.9S700
X.4S0
X.5S700
X1.2S0
X.3S700
X18.1S0
X.3S700
X1.3S0
X.4S700
X.5S0
X2.8S700
X.4S0
X.5S700
X.4S0
X2.8S700
X.6S0
X.4S700
X1.2S0
X.3S700
X18S0
X.3S700
X1.3S0
X.4S700
X.5S0
X2.8S700
X.4S0
X.5S700
X.5S0
X2.8S700
X.5S0
X.4S700
X1.2S0
X.4S700
X18.1S0
X.3S700
X1.3S0
X.3S700
X.6S0
X2.8S700
X.4S0
X.5S700
X.4S0
X2.8S700
X.5S0
X.5S700
X1.2S0
X.3S700
X18.1S0
X.3S700
X1.2S0
X.4S700
X.5S0
X2.9S700
X.3S0
X.6S700
X.4S0
X2.8S700
X.5S0
X.5S700
X1.2S0
X.3S700
X18.1S0
X.2S700
X1.3S0
X.4S700
X.5S0
X2.8S700
X.4S0
X.5S700
X.4S0
X2.9S700
X.5S0
X.4S700
X1.2S0
X.4S700
X18.1S0
X.3S700
X1.3S0
X.4S700
X.5S0
X2.8S700
X.4S0
X.5S700
X.4S0
X2.8S700
X.5S0
X.5S700
X1.2S0
X.4S700
X18.1S0
X.2S700
X1.3S0
X.5S700
X.5S0
X2.8S700
X.4S0
X.5S700
X.4S0
X2.8S700
X.5S0
X.5S700
X1.2S0
X.3S700
X2.917S0
X.1Y.1
X-2.917
X-.4S700
X-1.3S0
X-.4S700
X-.4S0
X-2.9S700
X-.4S0
X-.6S700
X-.3S0
X-2.8S700
X-.5S0
X-.4S700
X-1.3S0
X-.3S700
X-18.1S0
X-.3S700
X-1.3S0
X-.4S700
X-.5S0
X-2.8S700
X-.4S0
X-.6S700
X-.4S0
X-2.8S700
X-.5S0
X-.5S700
X-1.2S0
X-.3S700
X-18.1S0
X-.3S700
X-1.2S0
X-.5S700
X-.5S0
X-2.8S700
X-.4S0
X-.6S700
X-.4S0
X-2.8S700
X-.5S0
X-.4S700
X-1.3S0
X-.3S700
X-18S0
X-.3S700
X-1.2S0
X-.5S700
X-.4S0
X-2.9S700
X-.4S0
X-.6S700
X-.4S0
X-2.8S700
X-.5S0
X-.4S700
X-1.2S0
X-.4S700
X-18S0
X-.4S700
X-1.1S0
X-.5S700
X-.4S0
X-2.9S700
X-.4S0
X-.6S700
X-.4S0
X-2.8S700
X-.5S0
X-.4S700
X-1.2S0
X-.4S700
X-18S0
X-.3S700
X-1.2S0
X-.5S700
X-.4S0
X-2.9S700
X-.4S0
X-.6S700
X-.4S0
X-2.8S700
X-.5S0
X-.4S700
X-1.3S0
X-.2S700
X-18.1S0
X-.2S700
X-1.3S0
X-.4S700
X-.5S0
X-2.8S700
X-.5S0
X-.5S700
X-.4S0
X-2.9S700
X-.4S0
X-.4S700
X-1.3S0
X-.3S700
X-18.1S0
X-.3S700
X-1.2S0
X-.4S700
X-.5S0
X-2.8S700
X-.5S0
X-.6S700
X-.4S0
X-2.8S700
X-.5S0
X-.4S700
X-1.2S0
X-.3S700
X-18.1S0
X-.3S700
X-1.2S0
X-.5S700
X-.5S0
X-2.8S700
X-.4S0
X-.6S700
X-.4S0
X-2.8S700
X-.5S0
X-.4S700
X-1.3S0
X-.2S700
X-2.916S0
Y.1
X2.916
X.2S700
X1.3S0
X.4S700
X.4S0
X2.9S700
X.4S0
X.6S700
X.5S0
X2.8S700
X.5S0
X.4S700
X1.2S0
X.3S700
X18S0
X.4S700
X1.2S0
X.4S700
X.5S0
X2.8S700
X.5S0
X.5S700
X.4S0
X2.9S700
X.5S0
X.4S700
X1.2S0
X.3S700
X18S0
X.4S700
X1.2S0
X.4S700
X.5S0
X2.8S700
X.4S0
X.7S700
X.4S0
X2.8S700
X.4S0
X.5S700
X1.2S0
X.3S700
X18.1S0
X.2S700
X1.3S0
X.4S700
X.5S0
X2.8S700
X.4S0
X.6S700
X.4S0
X2.8S700
X.6S0
X.4S700
X1.2S0
X.3S700
X18.1S0
X.3S700
X1.2S0
X.4S700
X.5S0
X2.8S700
X.4S0
X.6S700
X.5S0
X2.7S700
X.6S0
X.4S700
X1.2S0
X.3S700
X18.1S0
X.3S700
X1.2S0
X.4S700
X.5S0
X2.8S700
X.4S0
X.6S700
X.4S0
X2.9S700
X.5S0
X.4S700
X1.1S0
X.4S700
X18.1S0
X.2S700
X1.3S0
X.4S700
X.5S0
X2.8S700
X.3S0
X.7S700
X.4S0
X2.9S700
X.4S0
X.5S700
X1.2S0
X.3S700
X18.1S0
X.3S700
X1.3S0
X.4S700
X.4S0
X2.9S700
X.3S0
X.7S700
X.4S0
X2.8S700
X.5S0
X.5S700
X1.1S0
X.4S700
X18.1S0
X.3S700
X1.2S0
X.4S700
X.5S0
X2.8S700
X.4S0
X.7S700
X.4S0
X2.8S700
X.5S0
X.4S700
X1.2S0
X.3S700
X2.917S0
X.1Y.1
X-2.917
X-.4S700
X-1.2S0
X-.4S700
X-.5S0
X-2.8S700
X-.4S0
X-.7S700
X-.4S0
X-2.8S700
X-.5S0
X-.4S700
X-1.2S0
X-.3S700
X-18.1S0
X-.4S700
X-1.2S0
X-.4S700
X-.5S0
X-2.7S700
X-.5S0
X-.7S700
X-.4S0
X-2.8S700
X-.4S0
X-.5S700
X-1.2S0
X-.3S700
X-18.1S0
X-.4S700
X-1.1S0
X-.5S700
X-.5S0
X-2.7S700
X-.4S0
X-.7S700
X-.5S0
X-2.8S700
X-.4S0
X-.4S700
X-1.2S0
X-.4S700
X-18S0
X-.3S700
X-1.2S0
X-.5S700
X-.4S0
X-2.8S700
X-.4S0
X-.8S700
X-.4S0
X-2.8S700
X-.4S0
X-.4S700
X-1.2S0
X-.4S700
X-18S0
X-.3S700
X-1.2S0
X-.5S700
X-.4S0
X-2.8S700
X-.4S0
X-.7S700
X-.5S0
X-2.8S700
X-.4S0
X-.4S700
X-1.2S0
X-.4S700
X-18S0
X-.3S700
X-1.2S0
X-.4S700
X-.5S0
X-2.8S700
X-.4S0
X-.8S700
X-.4S0
X-2.8S700
X-.4S0
X-.4S700
X-1.2S0
X-.4S700
X-18S0
X-.2S700
X-1.3S0
X-.4S700
X-.5S0
X-2.8S700
X-.4S0
X-.7S700
X-.4S0
X-2.8S700
X-.5S0
X-.4S700
X-1.2S0
X-.3S700
X-18.1S0
X-.3S700
X-1.2S0
X-.4S700
X-.5S0
X-2.8S700
X-.4S0
X-.7S700
X-.5S0
X-2.7S700
X-.5S0
X-.4S700
X-1.2S0
X-.3S700
X-18.1S0
X-.3S700
X-1.2S0
X-.4S700
X-.5S0
X-2.8S700
X-.4S0
X-.7S700
X-.5S0
X-2.7S700
X-.5S0
X-.5S700
X-1.1S0
X-.3S700
X-2.916S0
Y.1
X2.916
X.3S700
X1.1S0
X.4S700
X.5S0
X2.8S700
X.4S0
X.3S700
X.2S0
X.3S700
X.4S0
X2.8S700
X.5S0
X.4S700
X1.2S0
X.3S700
X18.1S0
X.3S700
X1.2S0
X.4S700
X.4S0
X2.8S700
X.4S0
X.4S700
X.1S0
X.4S700
X.4S0
X2.7S700
X.4S0
X.5S700
X1.2S0
X.3S700
X18.1S0
X.3S700
X1.2S0
X.4S700
X.5S0
X2.7S700
X.5S0
X.3S700
X.2S0
X.3S700
X.4S0
X2.8S700
X.4S0
X.5S700
X1.2S0
X.2S700
X18.1S0
X.3S700
X1.2S0
X.4S700
X.4S0
X2.8S700
X.4S0
X.4S700
X.1S0
X.3S700
X.5S0
X2.8S700
X.3S0
X.5S700
X1.2S0
X.3S700
X18.1S0
X.3S700
X1.2S0
X.4S700
X.4S0
X2.8S700
X.4S0
X.4S700
X.1S0
X.4S700
X.4S0
X2.7S700
X.5S0
X.4S700
X1.2S0
X.3S700
X18.1S0
X.3S700
X1.1S0
X.5S700
X.4S0
X2.8S700
X.4S0
X.3S700
X.2S0
X.3S700
X.5S0
X2.7S700
X.5S0
X.4S700
X1.2S0
X.3S700
X18.1S0
X.3S700
X1.1S0
X.5S700
X.4S0
X2.8S700
X.4S0
X.4S700
X.1S0
X.3S700
X.5S0
X2.7S700
X.5S0
X.4S700
X1.2S0
X.3S700
X18.2S0
X.3S700
X1.1S0
X.4S700
X.5S0
X2.7S700
X.5S0
X.3S700
X.1S0
X.4S700
X.4S0
X2.7S700
X.5S0
X.5S700
X1.2S0
X.3S700
X18.1S0
X.3S700
X1.1S0
X.5S700
X.5S0
X2.7S700
X.4S0
X.4S700
X.1S0
X.4S700
X.4S0
X2.7S700
X.5S0
X.4S700
X1.2S0
X.3S700
X2.917S0
Y.1
X-2.917
X-.3S700
X-1.2S0
X-.4S700
X-.5S0
X-2.6S700
X-.5S0
X-.4S700
X-.1S0
X-.4S700
X-.5S0
X-2.6S700
X-.5S0
X-.4S700
X-1.3S0
X-.2S700
X-18.2S0
X-.3S700
X-1.2S0
X-.4S700
X-.5S0
X-2.6S700
X-.4S0
X-.4S700
X-.2S0
X-.4S700
X-.4S0
X-2.7S700
X-.5S0
X-.4S700
X-1.1S0
X-.4S700
X-18.1S0
X-.4S700
X-1.1S0
X-.5S700
X-.4S0
X-2.7S700
X-.4S0
X-.4S700
X-.2S0
X-.3S700
X-.5S0
X-2.7S700
X-.4S0
X-.5S700
X-1.1S0
X-.4S700
X-18S0
X-.4S700
X-1.1S0
X-.5S700
X-.4S0
X-2.6S700
X-.5S0
X-.4S700
X-.2S0
X-.3S700
X-.5S0
X-2.7S700
X-.4S0
X-.5S700
X-1.1S0
X-.4S700
X-18S0
X-.4S700
X-1.1S0
X-.5S700
X-.3S0
X-2.8S700
X-.4S0
X-.4S700
X-.2S0
X-.3S700
X-.5S0
X-2.7S700
X-.4S0
X-.4S700
X-1.2S0
X-.3S700
X-18.1S0
X-.4S700
X-1.1S0
X-.4S700
X-.5S0
X-2.7S700
X-.4S0
X-.4S700
X-.2S0
X-.3S700
X-.5S0
X-2.6S700
X-.5S0
X-.5S700
X-1.1S0
X-.3S700
X-18.1S0
X-.3S700
X-1.1S0
X-.5S700
X-.5S0
X-2.6S700
X-.5S0
X-.3S700
X-.2S0
X-.4S700
X-.4S0
X-2.7S700
X-.5S0
X-.4S700
X-1.2S0
X-.4S700
X-18S0
X-.4S700
X-1.1S0
X-.4S700
X-.4S0
X-2.7S700
X-.5S0
X-.4S700
X-.2S0
X-.3S700
X-.4S0
X-2.7S700
X-.5S0
X-.4S700
X-1.2S0
X-.3S700
X-18.1S0
X-.3S700
X-1.2S0
X-.4S700
X-.5S0
X-2.7S700
X-.4S0
X-.4S700
X-.2S0
X-.4S700
X-.4S0
X-2.7S700
X-.5S0
X-.4S700
X-1.1S0
X-.4S700
X-2.916S0
X.1Y.1
X2.916
X.3S700
X1.1S0
X.5S700
X.5S0
X2.5S700
X.5S0
X.4S700
X.3S0
X.3S700
X.5S0
X2.5S700
X.6S0
X.4S700
X1.1S0
X.3S700
X18.1S0
X.4S700
X1.2S0
X.4S700
X.5S0
X2.6S700
X.5S0
X.3S700
X.3S0
X.4S700
X.4S0
X2.6S700
X.5S0
X.4S700
X1.2S0
X.3S700
X18.1S0
X.3S700
X1.2S0
X.4S700
X.5S0
X2.6S700
X.5S0
X.3S700
X.3S0
X.4S700
X.5S0
X2.5S700
X.5S0
X.5S700
X1.1S0
X.3S700
X18S0
X.4S700
X1.2S0
X.4S700
X.4S0
X2.7S700
X.4S0
X.4S700
X.3S0
X.3S700
X.5S0
X2.6S700
X.5S0
X.4S700
X1.2S0
X.3S700
X18S0
X.4S700
X1.2S0
X.4S700
X.5S0
X2.6S700
X.4S0
X.4S700
X.3S0
X.3S700
X.5S0
X2.6S700
X.5S0
X.4S700
X1.2S0
X.3S700
X18.1S0
X.3S700
X1.2S0
X.4S700
X.4S0
X2.7S700
X.4S0
X.4S700
X.3S0
X.3S700
X.5S0
X2.6S700
X.5S0
X.4S700
X1.2S0
X.3S700
X18.1S0
X.3S700
X1.2S0
X.4S700
X.4S0
X2.7S700
X.4S0
X.4S700
X.3S0
X.3S700
X.5S0
X2.6S700
X.5S0
X.4S700
X1.2S0
X.3S700
X18.1S0
X.3S700
X1.2S0
X.5S700
X.4S0
X2.6S700
X.5S0
X.4S700
X.2S0
X.4S700
X.5S0
X2.5S700
X.5S0
X.5S700
X1.1S0
X.3S700
X18.2S0
X.3S700
X1.1S0
X.5S700
X.5S0
X2.6S700
X.4S0
X.4S700
X.3S0
X.3S700
X.6S0
X2.5S700
X.5S0
X.4S700
X1.1S0
X.4S700
X2.917S0
Y.1
X-2.917
X-.4S700
X-1S0
X-.5S700
X-.5S0
X-2.5S700
X-.5S0
X-.4S700
X-.3S0
X-.4S700
X-.5S0
X-2.5S700
X-.5S0
X-.4S700
X-1.2S0
X-.3S700
X-18.2S0
X-.2S700
X-1.3S0
X-.4S700
X-.5S0
X-2.4S700
X-.6S0
X-.4S700
X-.3S0
X-.3S700
X-.6S0
X-2.5S700
X-.4S0
X-.5S700
X-1.1S0
X-.4S700
X-18.1S0
X-.3S700
X-1.2S0
X-.5S700
X-.5S0
X-2.4S700
X-.5S0
X-.5S700
X-.3S0
X-.3S700
X-.5S0
X-2.6S700
X-.4S0
X-.4S700
X-1.2S0
X-.4S700
X-18S0
X-.3S700
X-1.2S0
X-.5S700
X-.4S0
X-2.5S700
X-.5S0
X-.5S700
X-.3S0
X-.3S700
X-.5S0
X-2.5S700
X-.5S0
X-.4S700
X-1.2S0
X-.3S700
X-18.1S0
X-.3S700
X-1.2S0
X-.4S700
X-.5S0
X-2.5S700
X-.5S0
X-.4S700
X-.3S0
X-.4S700
X-.5S0
X-2.5S700
X-.5S0
X-.4S700
X-1.2S0
X-.3S700
X-18.1S0
X-.3S700
X-1.2S0
X-.5S700
X-.4S0
X-2.5S700
X-.5S0
X-.4S700
X-.4S0
X-.3S700
X-.5S0
X-2.6S700
X-.4S0
X-.4S700
X-1.2S0
X-.3S700
X-18.1S0
X-.3S700
X-1.1S0
X-.5S700
X-.4S0
X-2.6S700
X-.5S0
X-.4S700
X-.3S0
X-.4S700
X-.5S0
X-2.5S700
X-.5S0
X-.4S700
X-1.1S0
X-.4S700
X-18.1S0
X-.3S700
X-1.2S0
X-.4S700
X-.5S0
X-2.5S700
X-.5S0
X-.4S700
X-.3S0
X-.4S700
X-.5S0
X-2.5S700
X-.5S0
X-.4S700
X-1.2S0
X-.3S700
X-18.2S0
X-.2S700
X-1.2S0
X-.4S700
X-.5S0
X-2.5S700
X-.5S0
X-.4S700
X-.4S0
X-.3S700
X-.5S0
X-2.6S700
X-.4S0
X-.5S700
X-1.1S0
X-.3S700
X-2.916S0
Y.1
X2.916
X.3S700
X1.2S0
X.4S700
X.5S0
X2.4S700
X.5S0
X.4S700
X.4S0
X.4S700
X.6S0
X2.4S700
X.4S0
X.5S700
X1.1S0
X.4S700
X18.1S0
X.3S700
X1.2S0
X.4S700
X.5S0
X2.4S700
X.5S0
X.4S700
X.4S0
X.5S700
X.5S0
X2.4S700
X.4S0
X.5S700
X1.2S0
X.3S700
X18.1S0
X.4S700
X1.1S0
X.5S700
X.4S0
X2.4S700
X.6S0
X.4S700
X.3S0
X.5S700
X.5S0
X2.4S700
X.4S0
X.5S700
X1.2S0
X.3S700
X18.1S0
X.3S700
X1.2S0
X.4S700
X.5S0
X2.4S700
X.5S0
X.4S700
X.4S0
X.4S700
X.6S0
X2.3S700
X.6S0
X.4S700
X1.1S0
X.3S700
X18.2S0
X.3S700
X1.2S0
X.4S700
X.5S0
X2.4S700
X.5S0
X.4S700
X.4S0
X.5S700
X.5S0
X2.3S700
X.5S0
X.5S700
X1.2S0
X.3S700
X18S0
X.4S700
X1.2S0
X.4S700
X.5S0
X2.4S700
X.5S0
X.4S700
X.4S0
X.5S700
X.5S0
X2.3S700
X.5S0
X.5S700
X1.1S0
X.3S700
X18.2S0
X.3S700
X1.2S0
X.4S700
X.5S0
X2.4S700
X.5S0
X.4S700
X.4S0
X.4S700
X.6S0
X2.3S700
X.5S0
X.5S700
X1.1S0
X.3S700
X18.2S0
X.4S700
X1.1S0
X.5S700
X.5S0
X2.4S700
X.5S0
X.4S700
X.4S0
X.4S700
X.5S0
X2.4S700
X.4S0
X.5S700
X1.2S0
X.3S700
X18.2S0
X.4S700
X1.1S0
X.4S700
X.5S0
X2.4S700
X.5S0
X.5S700
X.3S0
X.4S700
X.6S0
X2.4S700
X.4S0
X.5S700
X1.2S0
X.3S700
X2.917S0
Y.1
X-2.917
X-.4S700
X-1.2S0
X-.4S700
X-.5S0
X-2.3S700
X-.5S0
X-.4S700
X-.5S0
X-.4S700
X-.6S0
X-2.2S700
X-.5S0
X-.5S700
X-1.2S0
X-.3S700
X-18.2S0
X-.4S700
X-1.1S0
X-.5S700
X-.4S0
X-2.2S700
X-.6S0
X-.5S700
X-.5S0
X-.4S700
X-.5S0
X-2.3S700
X-.5S0
X-.4S700
X-1.3S0
X-.3S700
X-18.2S0
X-.3S700
X-1.2S0
X-.4S700
X-.5S0
X-2.2S700
X-.6S0
X-.4S700
X-.5S0
X-.5S700
X-.5S0
X-2.3S700
X-.5S0
X-.4S700
X-1.2S0
X-.4S700
X-18.1S0
X-.2S700
X-1.3S0
X-.4S700
X-.5S0
X-2.2S700
X-.6S0
X-.4S700
X-.5S0
X-.4S700
X-.6S0
X-2.3S700
X-.5S0
X-.4S700
X-1.2S0
X-.3S700
X-18.1S0
X-.4S700
X-1.1S0
X-.5S700
X-.5S0
X-2.2S700
X-.6S0
X-.4S700
X-.5S0
X-.4S700
X-.6S0
X-2.3S700
X-.4S0
X-.5S700
X-1.2S0
X-.3S700
X-18.2S0
X-.3S700
X-1.1S0
X-.5S700
X-.5S0
X-2.2S700
X-.6S0
X-.4S700
X-.5S0
X-.5S700
X-.5S0
X-2.2S700
X-.6S0
X-.4S700
X-1.2S0
X-.4S700
X-18S0
X-.3S700
X-1.2S0
X-.4S700
X-.5S0
X-2.3S700
X-.5S0
X-.5S700
X-.5S0
X-.4S700
X-.5S0
X-2.3S700
X-.5S0
X-.4S700
X-1.2S0
X-.3S700
X-18.2S0
X-.3S700
X-1.2S0
X-.5S700
X-.5S0
X-2.2S700
X-.6S0
X-.4S700
X-.5S0
X-.4S700
X-.6S0
X-2.3S700
X-.4S0
X-.5S700
X-1.2S0
X-.3S700
X-18.2S0
X-.3S700
X-1.2S0
X-.4S700
X-.5S0
X-2.2S700
X-.6S0
X-.4S700
X-.5S0
X-.5S700
X-.5S0
X-2.3S700
X-.5S0
X-.4S700
X-1.2S0
X-.3S700
X-2.916S0
X-.1Y.1
X2.916
X.4S700
X1.2S0
X.5S700
X.5S0
X2.1S700
X.6S0
X.4S700
X.6S0
X.5S700
X.6S0
X2S700
X.5S0
X.5S700
X1.2S0
X.3S700
X18.3S0
X.3S700
X1.2S0
X.4S700
X.6S0
X2S700
X.6S0
X.5S700
X.5S0
X.5S700
X.6S0
X2.1S700
X.5S0
X.5S700
X1.1S0
X.4S700
X18.1S0
X.4S700
X1.2S0
X.4S700
X.6S0
X2.1S700
X.5S0
X.5S700
X.6S0
X.4S700
X.6S0
X2.1S700
X.5S0
X.4S700
X1.3S0
X.3S700
X18.1S0
X.3S700
X1.2S0
X.5S700
X.5S0
X2.1S700
X.6S0
X.4S700
X.6S0
X.5S700
X.6S0
X2.1S700
X.5S0
X.4S700
X1.2S0
X.4S700
X18.1S0
X.4S700
X1.2S0
X.4S700
X.6S0
X2S700
X.6S0
X.4S700
X.6S0
X.5S700
X.6S0
X2.1S700
X.5S0
X.4S700
X1.2S0
X.3S700
X18.2S0
X.3S700
X1.3S0
X.4S700
X.6S0
X2S700
X.6S0
X.4S700
X.6S0
X.5S700
X.5S0
X2.1S700
X.6S0
X.4S700
X1.2S0
X.3S700
X18.2S0
X.3S700
X1.2S0
X.5S700
X.5S0
X2.1S700
X.6S0
X.4S700
X.6S0
X.5S700
X.5S0
X2.1S700
X.6S0
X.4S700
X1.2S0
X.3S700
X18.3S0
X.3S700
X1.2S0
X.4S700
X.5S0
X2.1S700
X.6S0
X.5S700
X.6S0
X.4S700
X.6S0
X2.1S700
X.5S0
X.5S700
X1.2S0
X.3S700
X18.2S0
X.4S700
X1.2S0
X.4S700
X.5S0
X2.1S700
X.6S0
X.4S700
X.7S0
X.4S700
X.6S0
X2.1S700
X.5S0
X.5S700
X1.1S0
X.4S700
X2.917S0
X-.1Y.1
X-2.917
X-.2S700
X-1.3S0
X-.5S700
X-.5S0
X-1.8S700
X-.7S0
X-.5S700
X-.7S0
X-.5S700
X-.6S0
X-1.9S700
X-.6S0
X-.4S700
X-1.2S0
X-.4S700
X-18.2S0
X-.3S700
X-1.3S0
X-.4S700
X-.6S0
X-1.8S700
X-.7S0
X-.5S700
X-.7S0
X-.4S700
X-.7S0
X-1.9S700
X-.5S0
X-.5S700
X-1.2S0
X-.3S700
X-18.3S0
X-.3S700
X-1.3S0
X-.4S700
X-.6S0
X-1.7S700
X-.7S0
X-.5S700
X-.7S0
X-.5S700
X-.7S0
X-1.7S700
X-.7S0
X-.4S700
X-1.3S0
X-.3S700
X-18.2S0
X-.3S700
X-1.3S0
X-.4S700
X-.6S0
X-1.7S700
X-.7S0
X-.5S700
X-.7S0
X-.5S700
X-.7S0
X-1.8S700
X-.5S0
X-.6S700
X-1.1S0
X-.4S700
X-18.2S0
X-.3S700
X-1.2S0
X-.5S700
X-.5S0
X-1.9S700
X-.6S0
X-.5S700
X-.7S0
X-.5S700
X-.7S0
X-1.8S700
X-.5S0
X-.5S700
X-1.2S0
X-.4S700
X-18.2S0
X-.3S700
X-1.3S0
X-.4S700
X-.6S0
X-1.8S700
X-.6S0
X-.5S700
X-.7S0
X-.5S700
X-.7S0
X-1.7S700
X-.6S0
X-.5S700
X-1.2S0
X-.4S700
X-18.1S0
X-.4S700
X-1.2S0
X-.4S700
X-.6S0
X-1.8S700
X-.7S0
X-.5S700
X-.6S0
X-.6S700
X-.6S0
X-1.8S700
X-.6S0
X-.5S700
X-1.2S0
X-.3S700
X-18.3S0
X-.3S700
X-1.2S0
X-.5S700
X-.5S0
X-1.9S700
X-.6S0
X-.5S700
X-.7S0
X-.5S700
X-.7S0
X-1.7S700
X-.6S0
X-.5S700
X-1.2S0
X-.4S700
X-18.1S0
X-.4S700
X-1.2S0
X-.5S700
X-.6S0
X-1.7S700
X-.8S0
X-.5S700
X-.6S0
X-.5S700
X-.7S0
X-1.8S700
X-.6S0
X-.4S700
X-1.3S0
X-.3S700
X-2.916S0
X.1Y.1
X2.916
X.3S700
X1.3S0
X.4S700
X.6S0
X1.5S700
X.8S0
X.5S700
X.4S0
X.1S700
X.3S0
X.5S700
X.9S0
X1.4S700
X.6S0
X.5S700
X1.3S0
X.3S700
X18.3S0
X.3S700
X1.3S0
X.4S700
X.6S0
X1.5S700
X.8S0
X.6S700
X.3S0
X.1S700
X.3S0
X.6S700
X.8S0
X1.4S700
X.7S0
X.4S700
X1.3S0
X.3S700
X18.2S0
X.4S700
X1.3S0
X.5S700
X.6S0
X1.5S700
X.7S0
X.6S700
X.3S0
X.1S700
X.4S0
X.5S700
X.8S0
X1.4S700
X.7S0
X.4S700
X1.3S0
X.3S700
X18.3S0
X.3S700
X1.2S0
X.5S700
X.6S0
X1.5S700
X.8S0
X.6S700
X.3S0
X.1S700
X.3S0
X.6S700
X.8S0
X1.4S700
X.6S0
X.5S700
X1.3S0
X.3S700
X18.3S0
X.3S700
X1.2S0
X.5S700
X.7S0
X1.4S700
X.8S0
X.6S700
X.3S0
X.1S700
X.3S0
X.6S700
X.7S0
X1.5S700
X.7S0
X.4S700
X1.3S0
X.3S700
X18.2S0
X.4S700
X1.2S0
X.5S700
X.7S0
X1.4S700
X.8S0
X.6S700
X.3S0
X.1S700
X.3S0
X.6S700
X.7S0
X1.5S700
X.7S0
X.4S700
X1.3S0
X.3S700
X18.2S0
X.4S700
X1.2S0
X.5S700
X.6S0
X1.5S700
X.8S0
X.6S700
X.3S0
X.1S700
X.3S0
X.6S700
X.7S0
X1.5S700
X.6S0
X.5S700
X1.3S0
X.3S700
X18.3S0
X.3S700
X1.3S0
X.4S700
X.7S0
X1.5S700
X.7S0
X.6S700
X.8S0
X.5S700
X.8S0
X1.5S700
X.6S0
X.5S700
X1.2S0
X.3S700
X18.4S0
X.3S700
X1.2S0
X.5S700
X.7S0
X1.5S700
X.7S0
X.5S700
X.4S0
X.1S700
X.3S0
X.6S700
X.7S0
X1.5S700
X.7S0
X.5S700
X1.2S0
X.3S700
X2.917S0
Y.1
X-2.917
X-.4S700
X-1.2S0
X-.5S700
X-.8S0
X-1S700
X-1S0
X-.5S700
X-.4S0
X-.1S700
X-.4S0
X-.6S700
X-.9S0
X-1S700
X-.8S0
X-.5S700
X-1.3S0
X-.3S700
X-18.4S0
X-.3S700
X-1.3S0
X-.4S700
X-.9S0
X-1S700
X-.9S0
X-.6S700
X-.3S0
X-.2S700
X-.4S0
X-.5S700
X-1S0
X-1S700
X-.8S0
X-.5S700
X-1.2S0
X-.4S700
X-18.3S0
X-.4S700
X-1.3S0
X-.4S700
X-.8S0
X-1.1S700
X-.8S0
X-.7S700
X-.3S0
X-.2S700
X-.3S0
X-.6S700
X-1S0
X-.9S700
X-.8S0
X-.6S700
X-1.2S0
X-.4S700
X-18.2S0
X-.3S700
X-1.4S0
X-.4S700
X-.8S0
X-1.1S700
X-.8S0
X-.6S700
X-.4S0
X-.1S700
X-.4S0
X-.6S700
X-.9S0
X-1S700
X-.9S0
X-.4S700
X-1.3S0
X-.3S700
X-18.3S0
X-.3S700
X-1.4S0
X-.4S700
X-.8S0
X-1S700
X-.9S0
X-.6S700
X-.4S0
X-.1S700
X-.4S0
X-.6S700
X-.9S0
X-1S700
X-.8S0
X-.5S700
X-1.3S0
X-.4S700
X-18.2S0
X-.4S700
X-1.3S0
X-.4S700
X-.8S0
X-1.1S700
X-.8S0
X-.6S700
X-.4S0
X-.2S700
X-.3S0
X-.6S700
X-1S0
X-.9S700
X-.8S0
X-.5S700
X-1.3S0
X-.4S700
X-18.2S0
X-.3S700
X-1.3S0
X-.5S700
X-.7S0
X-1.1S700
X-.9S0
X-.6S700
X-.3S0
X-.2S700
X-.3S0
X-.7S700
X-.9S0
X-1S700
X-.8S0
X-.5S700
X-1.2S0
X-.4S700
X-18.2S0
X-.4S700
X-1.4S0
X-.4S700
X-.8S0
X-1S700
X-.9S0
X-.6S700
X-.4S0
X-.1S700
X-.4S0
X-.6S700
X-.9S0
X-1S700
X-.8S0
X-.5S700
X-1.3S0
X-.4S700
X-18.2S0
X-.4S700
X-1.3S0
X-.4S700
X-.8S0
X-1.1S700
X-.9S0
X-.6S700
X-.3S0
X-.2S700
X-.3S0
X-.6S700
X-.9S0
X-1.1S700
X-.7S0
X-.5S700
X-1.3S0
X-.4S700
X-2.916S0
X.1Y.1
X2.916
X.3S700
X1.3S0
X.6S700
X2.4S0
X.8S700
X.3S0
X.2S700
X.4S0
X.7S700
X2.5S0
X.5S700
X1.3S0
X.3S700
X18.4S0
X.4S700
X1.3S0
X.5S700
X2.5S0
X.7S700
X.3S0
X.3S700
X.3S0
X.7S700
X2.5S0
X.5S700
X1.4S0
X.3S700
X18.3S0
X.4S700
X1.3S0
X.5S700
X2.5S0
X.7S700
X.4S0
X.2S700
X.3S0
X.8S700
X2.4S0
X.5S700
X1.4S0
X.3S700
X18.3S0
X.3S700
X1.3S0
X.5S700
X2.5S0
X.8S700
X.3S0
X.3S700
X.3S0
X.7S700
X2.5S0
X.5S700
X1.3S0
X.3S700
X18.4S0
X.4S700
X1.3S0
X.4S700
X2.6S0
X.7S700
X.3S0
X.3S700
X.3S0
X.7S700
X2.5S0
X.5S700
X1.4S0
X.3S700
X18.2S0
X.4S700
X1.4S0
X.5S700
X2.4S0
X.8S700
X.3S0
X.3S700
X.3S0
X.7S700
X2.5S0
X.5S700
X1.3S0
X.4S700
X18.3S0
X.3S700
X1.3S0
X.5S700
X2.5S0
X.7S700
X.4S0
X.2S700
X.4S0
X.7S700
X2.5S0
X.5S700
X1.3S0
X.3S700
X18.4S0
X.3S700
X1.4S0
X.5S700
X2.5S0
X.7S700
X.4S0
X.2S700
X.4S0
X.7S700
X2.5S0
X.4S700
X1.4S0
X.3S700
X18.4S0
X.3S700
X1.4S0
X.4S700
X2.5S0
X.7S700
X.4S0
X.2S700
X.5S0
X.6S700
X2.6S0
X.4S700
X1.4S0
X.3S700
X2.917S0
Y.1
X-2.917
X-.4S700
X-1.3S0
X-.5S700
X-2.3S0
X-.9S700
X-.3S0
X-.3S700
X-.3S0
X-.9S700
X-2.2S0
X-.6S700
X-1.4S0
X-.3S700
X-18.4S0
X-.3S700
X-1.4S0
X-.5S700
X-2.3S0
X-.8S700
X-.4S0
X-.3S700
X-.3S0
X-.9S700
X-2.2S0
X-.5S700
X-1.4S0
X-.4S700
X-18.4S0
X-.3S700
X-1.4S0
X-.5S700
X-2.2S0
X-.9S700
X-.3S0
X-.3S700
X-.4S0
X-.8S700
X-2.3S0
X-.5S700
X-1.3S0
X-.4S700
X-18.4S0
X-.3S700
X-1.4S0
X-.5S700
X-2.2S0
X-.9S700
X-.3S0
X-.3S700
X-.4S0
X-.8S700
X-2.3S0
X-.5S700
X-1.3S0
X-.4S700
X-18.4S0
X-.3S700
X-1.4S0
X-.5S700
X-2.2S0
X-.9S700
X-.3S0
X-.3S700
X-.4S0
X-.8S700
X-2.2S0
X-.6S700
X-1.3S0
X-.4S700
X-18.3S0
X-.4S700
X-1.4S0
X-.5S700
X-2.2S0
X-.9S700
X-.3S0
X-.3S700
X-.4S0
X-.9S700
X-2.1S0
X-.6S700
X-1.3S0
X-.4S700
X-18.3S0
X-.3S700
X-1.4S0
X-.6S700
X-2.2S0
X-.8S700
X-.4S0
X-.3S700
X-.3S0
X-.9S700
X-2.3S0
X-.4S700
X-1.4S0
X-.4S700
X-18.3S0
X-.4S700
X-1.4S0
X-.5S700
X-2.2S0
X-.8S700
X-.4S0
X-.3S700
X-.3S0
X-1S700
X-2.1S0
X-.5S700
X-1.4S0
X-.4S700
X-18.3S0
X-.4S700
X-1.4S0
X-.5S700
X-2.2S0
X-.9S700
X-.3S0
X-.4S700
X-.3S0
X-.9S700
X-2.1S0
X-.6S700
X-1.4S0
X-.3S700
X-2.916S0
Y.1
X2.916
X.4S700
X1.4S0
X.6S700
X1.7S0
X1.1S700
X.4S0
X.4S700
X.4S0
X1.1S700
X1.7S0
X.6S700
X1.5S0
X.3S700
X18.4S0
X.4S700
X1.4S0
X.5S700
X.1S0
X.1S700
X1.6S0
X1.2S700
X.3S0
X.5S700
X.3S0
X1.1S700
X1.7S0
X.6S700
X1.5S0
X.3S700
X18.5S0
X.3S700
X1.4S0
X.7S700
X1.6S0
X1.2S700
X.4S0
X.4S700
X.3S0
X1.2S700
X1.7S0
X.6S700
X1.4S0
X.4S700
X18.3S0
X.4S700
X1.4S0
X.6S700
X1.7S0
X1.2S700
X.3S0
X.4S700
X.4S0
X1.1S700
X1.7S0
X.6S700
X1.5S0
X.3S700
X18.4S0
X.3S700
X1.6S0
X.5S700
X1.7S0
X1.2S700
X.3S0
X.4S700
X.4S0
X1.1S700
X1.7S0
X.6S700
X1.5S0
X.3S700
X18.4S0
X.3S700
X1.5S0
X.6S700
X1.7S0
X1.2S700
X.3S0
X.4S700
X.4S0
X1.1S700
X1.7S0
X.6S700
X1.5S0
X.3S700
X18.4S0
X.3S700
X1.5S0
X.6S700
X1.7S0
X1.2S700
X.3S0
X.4S700
X.4S0
X1S700
X1.8S0
X.6S700
X1.5S0
X.3S700
X18.5S0
X.3S700
X1.5S0
X.6S700
X1.7S0
X1.2S700
X.3S0
X.4S700
X.3S0
X1.1S700
X1.8S0
X.6S700
X1.4S0
X.4S700
X18.4S0
X.4S700
X1.4S0
X.7S700
X1.6S0
X.1S700
X.1S0
X1S700
X.3S0
X.5S700
X.3S0
X1.1S700
X1.8S0
X.6S700
X1.4S0
X.3S700
X2.917S0
Y.1
X-2.917
X-.3S700
X-1.5S0
X-.8S700
X-1.2S0
X-1.4S700
X-.3S0
X-.5S700
X-.4S0
X-1.4S700
X-1.1S0
X-.8S700
X-1.5S0
X-.3S700
X-18.6S0
X-.3S700
X-1.5S0
X-.7S700
X-1.2S0
X-1.4S700
X-.4S0
X-.5S700
X-.3S0
X-1.5S700
X-1.1S0
X-.8S700
X-1.5S0
X-.3S700
X-18.5S0
X-.4S700
X-1.5S0
X-.7S700
X-1.2S0
X-.9S700
X-.1S0
X-.4S700
X-.4S0
X-.5S700
X-.3S0
X-1.4S700
X-1.2S0
X-.7S700
X-1.5S0
X-.4S700
X-18.4S0
X-.4S700
X-1.5S0
X-.7S700
X-1.2S0
X-.9S700
X-.1S0
X-.4S700
X-.4S0
X-.4S700
X-.4S0
X-1.4S700
X-1.2S0
X-.7S700
X-1.5S0
X-.4S700
X-18.4S0
X-.3S700
X-1.6S0
X-.7S700
X-1.2S0
X-.9S700
X-.1S0
X-.4S700
X-.3S0
X-.5S700
X-.3S0
X-1.4S700
X-1.2S0
X-.7S700
X-1.6S0
X-.3S700
X-18.5S0
X-.4S700
X-1.5S0
X-.7S700
X-1.2S0
X-.9S700
X-.1S0
X-.4S700
X-.4S0
X-.4S700
X-.4S0
X-1.4S700
X-1.2S0
X-.7S700
X-1.5S0
X-.4S700
X-18.4S0
X-.3S700
X-1.5S0
X-.8S700
X-1.2S0
X-.9S700
X-.1S0
X-.3S700
X-.4S0
X-.5S700
X-.3S0
X-1.4S700
X-1.2S0
X-.7S700
X-1.6S0
X-.3S700
X-18.5S0
X-.3S700
X-1.6S0
X-.7S700
X-1.2S0
X-.9S700
X-.1S0
X-.3S700
X-.5S0
X-.4S700
X-.3S0
X-1.4S700
X-1.2S0
X-.7S700
X-1.6S0
X-.3S700
X-18.5S0
X-.4S700
X-1.5S0
X-.7S700
X-1.2S0
X-1.4S700
X-.4S0
X-.4S700
X-.4S0
X-1.4S700
X-1.2S0
X-.7S700
X-1.5S0
X-.4S700
X-2.916S0
Y.1
X2.916
X.4S700
X1.6S0
X2.6S700
X.3S0
X.3S700
X.3S0
X.6S700
X.3S0
X.3S700
X.3S0
X2.6S700
X1.6S0
X.4S700
X18.5S0
X.4S700
X1.6S0
X2.5S700
X.3S0
X.3S700
X.4S0
X.5S700
X.4S0
X.3S700
X.2S0
X2.6S700
X1.6S0
X.4S700
X18.5S0
X.4S700
X1.6S0
X2.6S700
X.1S0
X.5S700
X.3S0
X.5S700
X.4S0
X.3S700
X.3S0
X2.5S700
X1.6S0
X.4S700
X18.5S0
X.3S700
X1.7S0
X2.5S700
X.3S0
X.3S700
X.3S0
X.6S700
X.3S0
X.4S700
X.3S0
X2.5S700
X1.6S0
X.4S700
X18.5S0
X.4S700
X1.5S0
X2.6S700
X.3S0
X.3S700
X.3S0
X.6S700
X.4S0
X.3S700
X.2S0
X2.6S700
X1.6S0
X.4S700
X18.5S0
X.3S700
X1.6S0
X2.6S700
X.3S0
X.3S700
X.3S0
X.6S700
X.4S0
X.3S700
X.2S0
X2.6S700
X1.6S0
X.4S700
X18.5S0
X.3S700
X1.6S0
X2.6S700
X.2S0
X.4S700
X.3S0
X.5S700
X.4S0
X.4S700
X.3S0
X2.5S700
X1.6S0
X.3S700
X18.6S0
X.4S700
X1.5S0
X2.7S700
X.2S0
X.4S700
X.3S0
X.5S700
X.3S0
X.5S700
X.2S0
X2.6S700
X1.6S0
X.3S700
X18.6S0
X.3S700
X1.6S0
X2.7S700
X.1S0
X.5S700
X.3S0
X.5S700
X.3S0
X.4S700
X.2S0
X2.7S700
X1.6S0
X.3S700
X2.917S0
X-.1Y.1
X-2.917
X-.3S700
X-1.7S0
X-2.2S700
X-.4S0
X-.4S700
X-.4S0
X-.5S700
X-.4S0
X-.4S700
X-.4S0
X-2.2S700
X-1.7S0
X-.3S700
X-18.7S0
X-.4S700
X-1.7S0
X-2.2S700
X-.4S0
X-.4S700
X-.4S0
X-.5S700
X-.3S0
X-.4S700
X-.4S0
X-2.3S700
X-1.7S0
X-.3S700
X-18.6S0
X-.4S700
X-1.7S0
X-2.3S700
X-.4S0
X-.4S700
X-.4S0
X-.5S700
X-.3S0
X-.3S700
X-.5S0
X-2.3S700
X-1.7S0
X-.3S700
X-18.6S0
X-.3S700
X-1.7S0
X-2.3S700
X-.4S0
X-.3S700
X-.4S0
X-.6S700
X-.3S0
X-.4S700
X-.4S0
X-2.2S700
X-1.8S0
X-.3S700
X-18.6S0
X-.3S700
X-1.7S0
X-2.3S700
X-.4S0
X-.3S700
X-.4S0
X-.6S700
X-.3S0
X-.4S700
X-.4S0
X-2.2S700
X-1.8S0
X-.3S700
X-18.6S0
X-.3S700
X-1.7S0
X-2.3S700
X-.4S0
X-.4S700
X-.4S0
X-.5S700
X-.3S0
X-.3S700
X-.5S0
X-2.3S700
X-1.7S0
X-.3S700
X-18.5S0
X-.4S700
X-1.7S0
X-2.2S700
X-.5S0
X-.3S700
X-.4S0
X-.5S700
X-.4S0
X-.3S700
X-.5S0
X-2.3S700
X-1.7S0
X-.3S700
X-18.5S0
X-.4S700
X-1.7S0
X-2.3S700
X-.4S0
X-.3S700
X-.4S0
X-.6S700
X-.3S0
X-.3S700
X-.5S0
X-2.2S700
X-1.8S0
X-.3S700
X-18.6S0
X-.4S700
X-1.7S0
X-2.2S700
X-.4S0
X-.4S700
X-.4S0
X-.5S700
X-.3S0
X-.3S700
X-.5S0
X-2.2S700
X-1.7S0
X-.4S700
X-2.916S0
Y.1
X2.916
X.4S700
X1.8S0
X1.9S700
X.7S0
X.3S700
X.4S0
X.4S700
X.4S0
X.4S700
X.7S0
X1.8S700
X1.8S0
X.4S700
X18.7S0
X.3S700
X1.8S0
X1.9S700
X.7S0
X.3S700
X.4S0
X.5S700
X.4S0
X.3S700
X.7S0
X1.8S700
X1.9S0
X.3S700
X18.7S0
X.3S700
X1.8S0
X1.9S700
X.7S0
X.3S700
X.4S0
X.5S700
X.4S0
X.3S700
X.7S0
X1.8S700
X1.9S0
X.3S700
X18.6S0
X.4S700
X1.8S0
X1.8S700
X.7S0
X.4S700
X.4S0
X.4S700
X.4S0
X.4S700
X.7S0
X1.8S700
X1.8S0
X.4S700
X18.7S0
X.3S700
X1.8S0
X1.8S700
X.8S0
X.3S700
X.4S0
X.4S700
X.5S0
X.3S700
X.7S0
X1.8S700
X1.9S0
X.3S700
X18.6S0
X.4S700
X1.8S0
X1.8S700
X.8S0
X.3S700
X.4S0
X.4S700
X.4S0
X.4S700
X.7S0
X1.8S700
X1.8S0
X.4S700
X18.6S0
X.4S700
X1.8S0
X1.8S700
X.7S0
X.4S700
X.4S0
X.4S700
X.4S0
X.4S700
X.7S0
X1.8S700
X1.8S0
X.4S700
X18.7S0
X.3S700
X1.8S0
X1.9S700
X.7S0
X.4S700
X.3S0
X.5S700
X.4S0
X.4S700
X.7S0
X1.8S700
X1.8S0
X.3S700
X18.8S0
X.3S700
X1.8S0
X1.9S700
X.7S0
X.4S700
X.3S0
X.5S700
X.3S0
X.4S700
X.7S0
X1.8S700
X1.9S0
X.3S700
X2.917S0
Y.1
X-2.917
X-.4S700
X-2S0
X-.1S700
X-.1S0
X-.8S700
X-.1S0
X-.1S700
X-1.1S0
X-.4S700
X-.4S0
X-.3S700
X-.5S0
X-.3S700
X-1S0
X-.1S700
X-.1S0
X-1S700
X-.1S0
X-.1S700
X-1.9S0
X-.4S700
X-18.8S0
X-.3S700
X-2.2S0
X-.9S700
X-.1S0
X-.1S700
X-1.1S0
X-.4S700
X-.4S0
X-.2S700
X-.6S0
X-.3S700
X-1.1S0
X-.1S700
X-.1S0
X-.7S700
X-.1S0
X-.1S700
X-2.1S0
X-.4S700
X-18.8S0
X-.3S700
X-2.2S0
X-.9S700
X-.1S0
X-.1S700
X-1S0
X-.4S700
X-.5S0
X-.1S700
X-.1S0
X-.1S700
X-.4S0
X-.4S700
X-1.1S0
X-.1S700
X-.1S0
X-.7S700
X-.1S0
X-.1S700
X-2.1S0
X-.3S700
X-18.7S0
X-.4S700
X-2S0
X-.1S700
X-.1S0
X-1S700
X-1.1S0
X-.4S700
X-.6S0
X-.2S700
X-.4S0
X-.4S700
X-1S0
X-.1S700
X-.1S0
X-.9S700
X-.1S0
X-.1S700
X-2S0
X-.3S700
X-18.7S0
X-.4S700
X-2S0
X-.1S700
X-.1S0
X-.8S700
X-.1S0
X-.1S700
X-1.1S0
X-.4S700
X-.5S0
X-.2S700
X-.5S0
X-.4S700
X-1S0
X-.1S700
X-.1S0
X-1S700
X-2.1S0
X-.3S700
X-18.7S0
X-.4S700
X-2S0
X-.1S700
X-.1S0
X-1S700
X-1.1S0
X-.4S700
X-.5S0
X-.2S700
X-.5S0
X-.3S700
X-1.1S0
X-.1S700
X-.1S0
X-.8S700
X-.1S0
X-.1S700
X-2.1S0
X-.3S700
X-18.7S0
X-.4S700
X-2S0
X-.1S700
X-.1S0
X-.9S700
X-.1S0
X-.1S700
X-1S0
X-.3S700
X-.5S0
X-.2S700
X-.5S0
X-.4S700
X-1S0
X-.1S700
X-.1S0
X-1.1S700
X-2S0
X-.4S700
X-18.7S0
X-.4S700
X-2S0
X-.1S700
X-.1S0
X-.8S700
X-.1S0
X-.2S700
X-1S0
X-.4S700
X-.4S0
X-.1S700
X-.1S0
X-.1S700
X-.5S0
X-.3S700
X-1S0
X-.1S700
X-.1S0
X-.9S700
X-.1S0
X-.1S700
X-2S0
X-.4S700
X-18.8S0
X-.3S700
X-2.1S0
X-1S700
X-.1S0
X-.1S700
X-1S0
X-.4S700
X-.5S0
X-.2S700
X-.5S0
X-.3S700
X-1S0
X-.1S700
X-.1S0
X-.1S700
X-.1S0
X-.8S700
X-.1S0
X-.1S700
X-2S0
X-.3S700
X-2.916S0
Y.1
X2.916
X.3S700
X4.4S0
X.4S700
X1.1S0
X.3S700
X1.6S0
X.1S700
X.2S0
X.1S700
X2.4S0
X.3S700
X18.9S0
X.3S700
X2.9S0
X.1S700
X1.3S0
X.4S700
X1.1S0
X.4S700
X1.6S0
X.1S700
X.2S0
X.1S700
X2.3S0
X.3S700
X18.9S0
X.3S700
X2.9S0
X.1S700
X1.3S0
X.4S700
X1.1S0
X.4S700
X1.7S0
X.1S700
X2.5S0
X.4S700
X18.7S0
X.3S700
X4.4S0
X.4S700
X1.1S0
X.4S700
X1.7S0
X.1S700
X2.4S0
X.4S700
X18.9S0
X.3S700
X2.8S0
X.1S700
X1.4S0
X.4S700
X1.1S0
X.4S700
X1.6S0
X.1S700
X2.6S0
X.3S700
X18.8S0
X.4S700
X4.3S0
X.4S700
X1.1S0
X.4S700
X1.7S0
X.1S700
X2.5S0
X.3S700
X18.8S0
X.3S700
X4.4S0
X.3S700
X1.2S0
X.4S700
X4.2S0
X.4S700
X18.9S0
X.3S700
X4.4S0
X.3S700
X1.2S0
X.3S700
X2S0
X.1S700
X2.2S0
X.4S700
X18.8S0
X.4S700
X2.4S0
X.1S700
X.2S0
X.1S700
X1.5S0
X.4S700
X1.1S0
X.4S700
X1.6S0
X.1S700
X2.6S0
X.3S700
X2.917S0
Y.1
X-2.917
X-.4S700
X-4.2S0
X-.4S700
X-1S0
X-.4S700
X-4.3S0
X-.4S700
X-18.9S0
X-.4S700
X-4.3S0
X-.4S700
X-1S0
X-.4S700
X-4.3S0
X-.4S700
X-18.9S0
X-.4S700
X-4.3S0
X-.4S700
X-.9S0
X-.5S700
X-4.3S0
X-.3S700
X-18.9S0
X-.4S700
X-4.3S0
X-.4S700
X-.9S0
X-.5S700
X-4.3S0
X-.3S700
X-18.9S0
X-.4S700
X-4.3S0
X-.4S700
X-.9S0
X-.5S700
X-4.3S0
X-.3S700
X-18.9S0
X-.3S700
X-4.4S0
X-.4S700
X-.9S0
X-.5S700
X-4.3S0
X-.3S700
X-18.9S0
X-.3S700
X-4.3S0
X-.4S700
X-1S0
X-.4S700
X-4.4S0
X-.3S700
X-18.9S0
X-.4S700
X-4.3S0
X-.4S700
X-.9S0
X-.5S700
X-4.3S0
X-.3S700
X-18.9S0
X-.4S700
X-4.3S0
X-.4S700
X-.9S0
X-.5S700
X-4.3S0
X-.3S700
X-2.916S0
Y.1
X2.916
X.3S700
X4.3S0
X.6S700
X.7S0
X.5S700
X4.3S0
X.3S700
X19S0
X.3S700
X4.4S0
X.5S700
X.7S0
X.5S700
X4.3S0
X.4S700
X19S0
X.3S700
X4.3S0
X.5S700
X.8S0
X.4S700
X4.3S0
X.4S700
X18.9S0
X.3S700
X4.3S0
X.5S700
X.8S0
X.4S700
X4.4S0
X.3S700
X19S0
X.3S700
X4.4S0
X.4S700
X.8S0
X.4S700
X4.4S0
X.4S700
X18.9S0
X.3S700
X4.4S0
X.4S700
X.8S0
X.4S700
X4.4S0
X.3S700
X19S0
X.3S700
X4.3S0
X.5S700
X.8S0
X.4S700
X4.4S0
X.3S700
X19.1S0
X.3S700
X4.3S0
X.5S700
X.8S0
X.4S700
X4.3S0
X.4S700
X19S0
X.4S700
X4.3S0
X.5S700
X.8S0
X.4S700
X4.3S0
X.4S700
X2.917S0
X-.1Y.1
X-2.917
X-.4S700
X-4.3S0
X-.5S700
X-.4S0
X-.6S700
X-4.4S0
X-.4S700
X-19S0
X-.4S700
X-4.4S0
X-.5S700
X-.4S0
X-.6S700
X-4.3S0
X-.4S700
X-19.1S0
X-.4S700
X-4.3S0
X-.6S700
X-.4S0
X-.6S700
X-4.3S0
X-.4S700
X-19S0
X-.4S700
X-4.3S0
X-.6S700
X-.4S0
X-.6S700
X-4.3S0
X-.3S700
X-19.1S0
X-.3S700
X-4.4S0
X-.6S700
X-.4S0
X-.6S700
X-4.3S0
X-.3S700
X-19.1S0
X-.4S700
X-4.3S0
X-.6S700
X-.4S0
X-.6S700
X-4.3S0
X-.3S700
X-19.1S0
X-.3S700
X-4.4S0
X-.5S700
X-.4S0
X-.6S700
X-4.4S0
X-.3S700
X-19.1S0
X-.3S700
X-4.4S0
X-.6S700
X-.4S0
X-.6S700
X-4.3S0
X-.3S700
X-19.1S0
X-.3S700
X-4.4S0
X-.6S700
X-.4S0
X-.5S700
X-4.4S0
X-.4S700
X-2.916S0
X.1Y.1
X2.916
X.4S700
X4.3S0
X1.4S700
X4.4S0
X.3S700
X19.2S0
X.3S700
X4.5S0
X1.3S700
X4.4S0
X.4S700
X19.1S0
X.4S700
X4.3S0
X1.4S700
X4.4S0
X.4S700
X19.1S0
X.3S700
X4.4S0
X1.5S700
X4.3S0
X.3S700
X19.2S0
X.3S700
X4.4S0
X1.5S700
X4.3S0
X.4S700
X19.1S0
X.3S700
X4.4S0
X1.4S700
X4.4S0
X.4S700
X19.1S0
X.3S700
X4.4S0
X1.4S700
X4.4S0
X.3S700
X19.2S0
X.4S700
X4.4S0
X1.3S700
X4.5S0
X.3S700
X19.2S0
X.3S700
X4.5S0
X1.3S700
X4.4S0
X.4S700
X2.917S0
X-.1Y.1
X-2.917
X-.3S700
X-4.5S0
X-1.1S700
X-4.5S0
X-.3S700
X-19.4S0
X-.3S700
X-4.5S0
X-1.1S700
X-4.4S0
X-.4S700
X-19.3S0
X-.4S700
X-4.4S0
X-1.2S700
X-4.4S0
X-.4S700
X-19.2S0
X-.4S700
X-4.4S0
X-1.1S700
X-4.5S0
X-.4S700
X-19.2S0
X-.3S700
X-4.5S0
X-1.1S700
X-4.5S0
X-.4S700
X-19.2S0
X-.4S700
X-4.4S0
X-1.1S700
X-4.5S0
X-.4S700
X-19.2S0
X-.3S700
X-4.5S0
X-1.1S700
X-4.4S0
X-.4S700
X-19.3S0
X-.3S700
X-4.4S0
X-.1S700
X-.1S0
X-1.1S700
X-4.4S0
X-.3S700
X-19.3S0
X-.4S700
X-4.5S0
X-1S700
X-4.5S0
X-.4S700
X-2.916S0
X.1Y.1
X2.916
X.4S700
X4.5S0
X.8S700
X4.6S0
X.3S700
X19.4S0
X.4S700
X4.6S0
X.7S700
X4.6S0
X.4S700
X19.3S0
X.4S700
X4.6S0
X.7S700
X4.6S0
X.3S700
X19.3S0
X.5S700
X4.6S0
X.7S700
X4.6S0
X.3S700
X19.4S0
X.4S700
X4.6S0
X.7S700
X4.6S0
X.4S700
X19.3S0
X.4S700
X4.6S0
X.7S700
X4.6S0
X.3S700
X19.3S0
X.5S700
X4.6S0
X.7S700
X4.6S0
X.3S700
X19.4S0
X.4S700
X4.6S0
X.7S700
X4.7S0
X.3S700
X19.4S0
X.4S700
X4.6S0
X.7S700
X4.6S0
X.4S700
X2.917S0
X-.1Y.1
X-2.917
X-.3S700
X-4.8S0
X-.3S700
X-4.8S0
X-.3S700
X-19.6S0
X-.3S700
X-4.8S0
X-.3S700
X-4.8S0
X-.3S700
X-19.6S0
X-.3S700
X-4.7S0
X-.4S700
X-4.7S0
X-.4S700
X-19.4S0
X-.4S700
X-4.6S0
X-.5S700
X-4.7S0
X-.4S700
X-19.4S0
X-.4S700
X-4.6S0
X-.5S700
X-4.6S0
X-.5S700
X-19.4S0
X-.4S700
X-4.7S0
X-.4S700
X-4.7S0
X-.4S700
X-19.4S0
X-.3S700
X-4.7S0
X-.4S700
X-4.8S0
X-.3S700
X-19.5S0
X-.4S700
X-4.6S0
X-.4S700
X-4.7S0
X-.5S700
X-19.4S0
X-.4S700
X-4.7S0
X-.4S700
X-4.7S0
X-.4S700
X-2.916S0
X.1Y.1
X2.916
X.4S700
X4.6S0
X.4S700
X4.6S0
X.5S700
X19.5S0
X.4S700
X4.6S0
X.4S700
X4.7S0
X.4S700
X19.5S0
X.4S700
X4.7S0
X.3S700
X4.7S0
X.4S700
X19.4S0
X.5S700
X4.6S0
X.4S700
X4.7S0
X.3S700
X19.6S0
X.4S700
X4.6S0
X.4S700
X4.7S0
X.3S700
X19.6S0
X.3S700
X4.7S0
X.4S700
X4.7S0
X.3S700
X19.5S0
X.4S700
X4.7S0
X.4S700
X4.7S0
X.3S700
X19.6S0
X.4S700
X4.7S0
X.3S700
X4.7S0
X.4S700
X19.6S0
X.4S700
X4.7S0
X.3S700
X4.7S0
X.4S700
X2.917S0
X-.1Y.1
X-2.917
X-.3S700
X-4.7S0
X-.3S700
X-4.7S0
X-.3S700
X-19.8S0
X-.3S700
X-4.6S0
X-.4S700
X-4.6S0
X-.4S700
X-19.7S0
X-.4S700
X-4.6S0
X-.4S700
X-4.6S0
X-.4S700
X-19.6S0
X-.4S700
X-4.6S0
X-.4S700
X-4.6S0
X-.4S700
X-19.6S0
X-.4S700
X-4.6S0
X-.4S700
X-4.6S0
X-.4S700
X-19.6S0
X-.4S700
X-4.5S0
X-.5S700
X-4.6S0
X-.4S700
X-19.6S0
X-.3S700
X-4.6S0
X-.4S700
X-4.6S0
X-.4S700
X-19.7S0
X-.4S700
X-4.5S0
X-.5S700
X-4.6S0
X-.4S700
X-19.6S0
X-.4S700
X-4.6S0
X-.4S700
X-4.6S0
X-.4S700
X-2.916S0
X.1Y.1
X2.916
X.4S700
X4.5S0
X.4S700
X4.5S0
X.4S700
X19.9S0
X.3S700
X4.5S0
X.4S700
X4.6S0
X.3S700
X19.9S0
X.3S700
X4.6S0
X.3S700
X4.6S0
X.4S700
X19.7S0
X.4S700
X4.5S0
X.4S700
X4.5S0
X.4S700
X19.8S0
X.4S700
X4.5S0
X.5S700
X4.5S0
X.3S700
X19.8S0
X.4S700
X4.5S0
X.5S700
X4.5S0
X.3S700
X19.8S0
X.4S700
X4.5S0
X.5S700
X4.4S0
X.4S700
X19.8S0
X.4S700
X4.6S0
X.3S700
X4.6S0
X.4S700
X19.8S0
X.4S700
X4.6S0
X.3S700
X4.6S0
X.4S700
X2.917S0
X-.1Y.1
X-2.917
X-.4S700
X-4.5S0
X-.4S700
X-4.4S0
X-.4S700
X-20S0
X-.4S700
X-4.5S0
X-.3S700
X-4.5S0
X-.4S700
X-19.9S0
X-.4S700
X-4.5S0
X-.4S700
X-4.5S0
X-.3S700
X-19.9S0
X-.4S700
X-4.5S0
X-.4S700
X-4.4S0
X-.4S700
X-19.9S0
X-.4S700
X-4.5S0
X-.4S700
X-4.4S0
X-.4S700
X-19.9S0
X-.4S700
X-4.4S0
X-.5S700
X-4.5S0
X-.3S700
X-19.9S0
X-.4S700
X-4.4S0
X-.4S700
X-4.5S0
X-.4S700
X-19.9S0
X-.4S700
X-4.4S0
X-.5S700
X-4.4S0
X-.4S700
X-20S0
X-.3S700
X-4.5S0
X-.3S700
X-4.6S0
X-.3S700
X-2.916S0
Y.1
X2.916
X.4S700
X4.4S0
X.3S700
X4.5S0
X.4S700
X20.1S0
X.4S700
X4.3S0
X.4S700
X4.4S0
X.4S700
X20.1S0
X.4S700
X4.4S0
X.3S700
X4.5S0
X.3S700
X20.1S0
X.3S700
X4.4S0
X.4S700
X4.4S0
X.4S700
X20.1S0
X.3S700
X4.4S0
X.4S700
X4.4S0
X.4S700
X20.1S0
X.3S700
X4.4S0
X.4S700
X4.4S0
X.4S700
X20.1S0
X.3S700
X4.4S0
X.4S700
X4.4S0
X.4S700
X20.1S0
X.4S700
X4.4S0
X.3S700
X4.5S0
X.4S700
X20S0
X.4S700
X4.5S0
X.3S700
X4.4S0
X.4S700
X2.917S0
Y.1
X-2.917
X-.5S700
X-4.3S0
X-.3S700
X-4.3S0
X-.5S700
X-20.2S0
X-.4S700
X-4.3S0
X-.4S700
X-4.3S0
X-.5S700
X-20.2S0
X-.4S700
X-4.3S0
X-.4S700
X-4.3S0
X-.4S700
X-20.2S0
X-.4S700
X-4.2S0
X-.5S700
X-4.3S0
X-.4S700
X-20.1S0
X-.4S700
X-4.3S0
X-.5S700
X-4.3S0
X-.4S700
X-20.2S0
X-.3S700
X-4.3S0
X-.5S700
X-4.3S0
X-.4S700
X-20.1S0
X-.4S700
X-4.3S0
X-.4S700
X-4.3S0
X-.4S700
X-20.2S0
X-.4S700
X-4.3S0
X-.4S700
X-4.4S0
X-.3S700
X-20.3S0
X-.4S700
X-4.3S0
X-.4S700
X-4.3S0
X-.4S700
X-2.916S0
X.1Y.1
X2.916
X.4S700
X3.7S0
X1.4S700
X3.8S0
X.3S700
X20.4S0
X.4S700
X3.7S0
X1.5S700
X3.7S0
X.4S700
X20.3S0
X.4S700
X3.8S0
X1.4S700
X3.7S0
X.4S700
X20.3S0
X.4S700
X3.7S0
X1.4S700
X3.8S0
X.4S700
X20.3S0
X.4S700
X3.7S0
X1.5S700
X3.7S0
X.4S700
X20.2S0
X.5S700
X3.7S0
X1.4S700
X3.8S0
X.4S700
X20.2S0
X.5S700
X3.7S0
X1.4S700
X3.8S0
X.4S700
X20.3S0
X.4S700
X3.8S0
X1.4S700
X3.7S0
X.4S700
X20.4S0
X.3S700
X3.9S0
X1.3S700
X3.8S0
X.4S700
X2.917S0
X-.1Y.1
X-2.917
X-.4S700
X-3.6S0
X-1.5S700
X-3.6S0
X-.5S700
X-20.4S0
X-.5S700
X-3.6S0
X-1.5S700
X-3.6S0
X-.4S700
X-20.5S0
X-.4S700
X-3.6S0
X-1.6S700
X-3.6S0
X-.4S700
X-20.4S0
X-.4S700
X-3.6S0
X-1.6S700
X-3.5S0
X-.4S700
X-20.5S0
X-.4S700
X-3.6S0
X-1.6S700
X-3.5S0
X-.5S700
X-20.4S0
X-.4S700
X-3.6S0
X-1.6S700
X-3.6S0
X-.4S700
X-20.4S0
X-.3S700
X-3.7S0
X-1.5S700
X-3.6S0
X-.4S700
X-20.5S0
X-.4S700
X-3.6S0
X-1.6S700
X-3.5S0
X-.4S700
X-20.5S0
X-.4S700
X-3.6S0
X-1.6S700
X-3.6S0
X-.4S700
X-2.916S0
X.1Y.1
X2.916
X.4S700
X3.6S0
X1.5S700
X3.5S0
X.4S700
X20.6S0
X.5S700
X3.4S0
X1.7S700
X3.4S0
X.4S700
X20.7S0
X.4S700
X3.5S0
X1.6S700
X3.5S0
X.4S700
X20.5S0
X.4S700
X3.5S0
X1.6S700
X3.5S0
X.4S700
X20.6S0
X.5S700
X3.4S0
X1.6S700
X3.5S0
X.4S700
X20.6S0
X.4S700
X3.5S0
X1.6S700
X3.4S0
X.5S700
X20.6S0
X.4S700
X3.5S0
X1.6S700
X3.4S0
X.5S700
X20.7S0
X.4S700
X3.5S0
X1.5S700
X3.6S0
X.4S700
X20.7S0
X.4S700
X3.4S0
X1.6S700
X3.5S0
X.5S700
X2.917S0
X-.2Y.1
X-2.917
X-.4S700
X-3.4S0
X-1.5S700
X-3.5S0
X-.4S700
X-20.8S0
X-.5S700
X-3.4S0
X-1.4S700
X-3.5S0
X-.4S700
X-20.9S0
X-.4S700
X-3.5S0
X-1.3S700
X-3.6S0
X-.4S700
X-20.7S0
X-.5S700
X-3.5S0
X-1.3S700
X-3.6S0
X-.4S700
X-20.7S0
X-.5S700
X-3.5S0
X-1.3S700
X-3.6S0
X-.4S700
X-20.7S0
X-.5S700
X-3.5S0
X-1.3S700
X-3.6S0
X-.4S700
X-20.7S0
X-.5S700
X-3.5S0
X-1.3S700
X-3.5S0
X-.4S700
X-20.8S0
X-.4S700
X-3.6S0
X-1.3S700
X-3.5S0
X-.5S700
X-20.8S0
X-.4S700
X-3.5S0
X-1.4S700
X-3.5S0
X-.4S700
X-2.916S0
X.1Y.1
X2.916
X.4S700
X3.9S0
X.4S700
X3.9S0
X.4S700
X21S0
X.4S700
X3.9S0
X.5S700
X3.9S0
X.4S700
X20.9S0
X.5S700
X3.9S0
X.4S700
X3.9S0
X.4S700
X20.9S0
X.4S700
X3.9S0
X.5S700
X3.8S0
X.5S700
X20.9S0
X.4S700
X3.9S0
X.4S700
X3.9S0
X.5S700
X20.9S0
X.4S700
X3.9S0
X.5S700
X3.8S0
X.5S700
X20.9S0
X.4S700
X3.9S0
X.5S700
X3.7S0
X.6S700
X21S0
X.4S700
X3.9S0
X.4S700
X3.8S0
X.5S700
X21.1S0
X.4S700
X3.8S0
X.4S700
X.2S0
X.1S700
X3.6S0
X.4S700
X2.917S0
Y.1
X-2.917
X-.5S700
X-3.8S0
X-.3S700
X-3.8S0
X-.5S700
X-21.2S0
X-.5S700
X-3.8S0
X-.3S700
X-3.8S0
X-.5S700
X-21.1S0
X-.5S700
X-3.8S0
X-.4S700
X-3.8S0
X-.4S700
X-21.1S0
X-.4S700
X-3.9S0
X-.4S700
X-3.8S0
X-.4S700
X-21.1S0
X-.4S700
X-3.8S0
X-.5S700
X-3.8S0
X-.4S700
X-21.1S0
X-.5S700
X-3.8S0
X-.4S700
X-3.8S0
X-.4S700
X-21.1S0
X-.4S700
X-3.9S0
X-.3S700
X-3.8S0
X-.5S700
X-21.1S0
X-.4S700
X-3.9S0
X-.4S700
X-3.8S0
X-.4S700
X-21.1S0
X-.5S700
X-3.8S0
X-.4S700
X-3.8S0
X-.4S700
X-2.916S0
Y.1
X2.916
X.5S700
X3.7S0
X.4S700
X3.7S0
X.5S700
X21.3S0
X.4S700
X3.7S0
X.5S700
X3.7S0
X.4S700
X21.3S0
X.5S700
X3.7S0
X.4S700
X3.7S0
X.4S700
X21.3S0
X.4S700
X3.7S0
X.4S700
X3.7S0
X.5S700
X21.3S0
X.4S700
X3.7S0
X.4S700
X3.8S0
X.4S700
X21.3S0
X.4S700
X3.7S0
X.4S700
X3.8S0
X.4S700
X21.3S0
X.4S700
X3.7S0
X.4S700
X3.7S0
X.5S700
X21.3S0
X.5S700
X3.7S0
X.3S700
X3.8S0
X.5S700
X21.2S0
X.5S700
X3.8S0
X.3S700
X3.7S0
X.5S700
X2.917S0
X-.1Y.1
X-2.917
X-.5S700
X-3.6S0
X-.3S700
X-3.6S0
X-.6S700
X-21.4S0
X-.6S700
X-3.5S0
X-.4S700
X-3.6S0
X-.5S700
X-21.5S0
X-.5S700
X-3.5S0
X-.5S700
X-3.6S0
X-.4S700
X-21.5S0
X-.5S700
X-3.5S0
X-.5S700
X-3.6S0
X-.4S700
X-21.5S0
X-.5S700
X-3.6S0
X-.4S700
X-3.6S0
X-.4S700
X-21.5S0
X-.5S700
X-3.5S0
X-.5S700
X-3.6S0
X-.4S700
X-21.5S0
X-.4S700
X-3.7S0
X-.3S700
X-3.6S0
X-.5S700
X-21.5S0
X-.4S700
X-3.7S0
X-.4S700
X-3.6S0
X-.4S700
X-21.5S0
X-.5S700
X-3.6S0
X-.4S700
X-3.6S0
X-.5S700
X-2.916S0
X.1Y.1
X2.916
X.6S700
X3.4S0
X.3S700
X3.6S0
X.5S700
X21.7S0
X.5S700
X3.4S0
X.5S700
X3.4S0
X.5S700
X21.7S0
X.5S700
X3.5S0
X.4S700
X3.4S0
X.5S700
X21.7S0
X.4S700
X3.5S0
X.4S700
X3.5S0
X.5S700
X21.7S0
X.5S700
X3.4S0
X.5S700
X3.4S0
X.5S700
X21.7S0
X.4S700
X3.5S0
X.4S700
X3.5S0
X.5S700
X21.7S0
X.4S700
X3.5S0
X.4S700
X3.4S0
X.6S700
X21.7S0
X.5S700
X3.5S0
X.3S700
X3.5S0
X.5S700
X21.8S0
X.5S700
X3.5S0
X.3S700
X3.5S0
X.5S700
X2.917S0
X-.1Y.1
X-2.917
X-.5S700
X-3.4S0
X-.3S700
X-3.4S0
X-.5S700
X-22S0
X-.5S700
X-3.4S0
X-.3S700
X-3.4S0
X-.4S700
X-22S0
X-.5S700
X-3.4S0
X-.3S700
X-3.4S0
X-.5S700
X-21.9S0
X-.5S700
X-3.4S0
X-.3S700
X-3.4S0
X-.5S700
X-21.9S0
X-.5S700
X-3.4S0
X-.3S700
X-3.4S0
X-.5S700
X-21.9S0
X-.5S700
X-3.4S0
X-.3S700
X-3.4S0
X-.5S700
X-21.9S0
X-.4S700
X-3.5S0
X-.3S700
X-3.4S0
X-.5S700
X-21.9S0
X-.5S700
X-3.4S0
X-.3S700
X-3.4S0
X-.5S700
X-21.9S0
X-.5S700
X-3.5S0
X-.2S700
X-3.5S0
X-.4S700
X-2.916S0
X.1Y.1
X2.916
X.5S700
X6.8S0
X.5S700
X22.2S0
X.5S700
X6.9S0
X.5S700
X22.1S0
X.5S700
X6.9S0
X.5S700
X22.1S0
X.5S700
X6.9S0
X.5S700
X22.1S0
X.5S700
X6.9S0
X.5S700
X22.1S0
X.5S700
X6.9S0
X.5S700
X22.1S0
X.5S700
X6.9S0
X.5S700
X22.2S0
X.5S700
X6.8S0
X.5S700
X22.2S0
X.5S700
X6.8S0
X.5S700
X2.917S0
X-.1Y.1
X-2.917
X-.5S700
X-6.6S0
X-.5S700
X-22.4S0
X-.5S700
X-6.7S0
X-.5S700
X-22.3S0
X-.6S700
X-6.6S0
X-.5S700
X-22.3S0
X-.6S700
X-6.6S0
X-.5S700
X-22.3S0
X-.5S700
X-6.6S0
X-.6S700
X-22.3S0
X-.6S700
X-6.6S0
X-.5S700
X-22.3S0
X-.5S700
X-6.6S0
X-.6S700
X-22.3S0
X-.5S700
X-6.6S0
X-.6S700
X-22.4S0
X-.5S700
X-6.6S0
X-.5S700
X-2.916S0
X.1Y.1
X2.916
X.5S700
X6.4S0
X.5S700
X22.6S0
X.6S700
X6.3S0
X.6S700
X22.6S0
X.5S700
X6.3S0
X.6S700
X22.5S0
X.6S700
X6.3S0
X.5S700
X22.6S0
X.6S700
X6.3S0
X.6S700
X22.5S0
X.6S700
X6.3S0
X.5S700
X22.6S0
X.6S700
X6.3S0
X.5S700
X22.7S0
X.5S700
X6.4S0
X.5S700
X22.7S0
X.4S700
X6.5S0
X.5S700
X2.917S0
X-.2Y.1
X-2.917
X-.5S700
X-6.1S0
X-.6S700
X-22.8S0
X-.6S700
X-6.1S0
X-.5S700
X-22.9S0
X-.6S700
X-6.1S0
X-.6S700
X-22.7S0
X-.5S700
X-6.1S0
X-.6S700
X-22.8S0
X-.5S700
X-6.1S0
X-.5S700
X-22.9S0
X-.6S700
X-6S0
X-.5S700
X-22.9S0
X-.5S700
X-6S0
X-.6S700
X-22.9S0
X-.5S700
X-6.1S0
X-.5S700
X-22.9S0
X-.6S700
X-6S0
X-.6S700
X-2.916S0
X.2Y.1
X2.916
X.6S700
X5.6S0
X.6S700
X23.2S0
X.7S700
X5.5S0
X.7S700
X23.1S0
X.6S700
X5.7S0
X.6S700
X23.1S0
X.6S700
X5.6S0
X.7S700
X23.1S0
X.6S700
X5.6S0
X.7S700
X23.1S0
X.6S700
X5.6S0
X.7S700
X23.1S0
X.6S700
X5.6S0
X.7S700
X23.2S0
X.6S700
X5.6S0
X.6S700
X23.2S0
X.6S700
X5.7S0
X.6S700
X2.917S0
X-.2Y.1
X-2.917
X-.6S700
X-5.3S0
X-.6S700
X-23.6S0
X-.6S700
X-5.3S0
X-.6S700
X-23.5S0
X-.7S700
X-5.3S0
X-.6S700
X-23.4S0
X-.7S700
X-5.3S0
X-.5S700
X-23.5S0
X-.6S700
X-5.3S0
X-.6S700
X-23.5S0
X-.7S700
X-5.3S0
X-.6S700
X-23.4S0
X-.6S700
X-5.3S0
X-.6S700
X-23.5S0
X-.6S700
X-5.3S0
X-.6S700
X-23.6S0
X-.6S700
X-5.2S0
X-.6S700
X-2.916S0
Y.1
X2.916
X.7S700
X5S0
X.6S700
X23.8S0
X.6S700
X5S0
X.6S700
X23.8S0
X.7S700
X4.9S0
X.7S700
X23.7S0
X.6S700
X5S0
X.6S700
X23.8S0
X.6S700
X5S0
X.6S700
X23.7S0
X.7S700
X4.9S0
X.7S700
X23.8S0
X.6S700
X4.9S0
X.7S700
X23.8S0
X.7S700
X4.9S0
X.7S700
X23.8S0
X.7S700
X4.9S0
X.7S700
X2.917S0
X-.2Y.1
X-2.917
X-.7S700
X-4.5S0
X-.7S700
X-24.2S0
X-.7S700
X-4.5S0
X-.7S700
X-24.2S0
X-.6S700
X-4.5S0
X-.8S700
X-24S0
X-.7S700
X-4.5S0
X-.8S700
X-24S0
X-.7S700
X-4.5S0
X-.8S700
X-24.1S0
X-.6S700
X-4.5S0
X-.8S700
X-24S0
X-.6S700
X-4.6S0
X-.8S700
X-24S0
X-.7S700
X-4.5S0
X-.8S700
X-24.1S0
X-.6S700
X-4.6S0
X-.7S700
X-2.916S0
X.2Y.1
X2.916
X.8S700
X4S0
X.8S700
X24.4S0
X.8S700
X4.1S0
X.7S700
X24.4S0
X.8S700
X4.1S0
X.8S700
X24.3S0
X.8S700
X4.1S0
X.7S700
X24.4S0
X.8S700
X4.1S0
X.7S700
X24.4S0
X.8S700
X4.1S0
X.7S700
X24.4S0
X.8S700
X4.1S0
X.7S700
X24.5S0
X.8S700
X4S0
X.7S700
X24.6S0
X.6S700
X4.1S0
X.8S700
X2.917S0
X-.2Y.1
X-2.917
X-.7S700
X-.1S0
X-.1S700
X-3.4S0
X-.9S700
X-24.8S0
X-1S700
X-3.4S0
X-.8S700
X-24.9S0
X-1S700
X-3.3S0
X-.9S700
X-24.8S0
X-1S700
X-3.2S0
X-.9S700
X-24.9S0
X-1S700
X-3.2S0
X-1S700
X-24.7S0
X-.9S700
X-.1S0
X-.1S700
X-3.3S0
X-.9S700
X-24.8S0
X-.9S700
X-3.3S0
X-.9S700
X-24.9S0
X-.8S700
X-.1S0
X-.1S700
X-3.2S0
X-.9S700
X-24.9S0
X-.9S700
X-3.3S0
X-.9S700
X-2.916S0
X.2Y.1
X2.916
X1S700
X2.6S0
X1S700
X25.4S0
X1.1S700
X2.5S0
X1.1S700
X25.3S0
X1.1S700
X2.6S0
X1S700
X25.3S0
X1S700
X2.6S0
X1S700
X25.4S0
X1.1S700
X2.5S0
X1S700
X25.4S0
X1.1S700
X2.5S0
X1S700
X25.4S0
X1S700
X2.6S0
X1S700
X25.5S0
X1S700
X2.5S0
X1.1S700
X25.4S0
X1S700
X2.6S0
X1.1S700
X2.917S0
X-.3Y.1
X-2.917
X-1.3S700
X-1.5S0
X-1.4S700
X-25.8S0
X-1.4S700
X-1.5S0
X-1.4S700
X-25.8S0
X-1.4S700
X-1.4S0
X-1.4S700
X-25.8S0
X-1.4S700
X-1.4S0
X-1.4S700
X-25.8S0
X-1.3S700
X-1.5S0
X-1.4S700
X-25.8S0
X-1.3S700
X-1.5S0
X-1.4S700
X-25.8S0
X-1.3S700
X-1.5S0
X-1.4S700
X-25.8S0
X-1.3S700
X-1.5S0
X-1.4S700
X-25.8S0
X-1.3S700
X-1.6S0
X-1.3S700
X-2.916S0
X.2Y.1
X2.916
X3.8S700
X26.3S0
X3.7S700
X26.3S0
X3.7S700
X26.2S0
X3.8S700
X26.3S0
X3.6S700
X26.3S0
X3.7S700
X26.3S0
X3.7S700
X26.4S0
X3.7S700
X26.4S0
X3.7S700
X2.917S0
X-.4Y.1
X-2.917
X-3S700
X-27S0
X-3.1S700
X-26.9S0
X-3.1S700
X-26.9S0
X-3.1S700
X-26.9S0
X-3.1S700
X-26.9S0
X-3.1S700
X-26.9S0
X-3.1S700
X-26.9S0
X-3.1S700
X-26.9S0
X-3.1S700
X-2.916S0
X.4Y.1
X2.916
X2S700
X.1S0
X.1S700
X27.8S0
X.1S700
X.1S0
X.2S700
X.1S0
X1.5S700
X.1S0
X.2S700
X27.8S0
X.1S700
X.1S0
X1.9S700
X27.8S0
X2.1S700
X.1S0
X.1S700
X27.7S0
X.1S700
X.1S0
X.2S700
X.1S0
X1.8S700
X27.7S0
X.2S700
X.1S0
X1.6S700
X.1S0
X.2S700
X27.8S0
X.2S700
X.1S0
X1.7S700
X.1S0
X.1S700
X27.9S0
X.2S700
X.1S0
X1.7S700
X.1S0
X.1S700
X27.8S0
X.1S700
X.1S0
X2S700
X2.917S0
X-.6Y.1
X-2.917
X-.2S700
X-.1S0
X-.2S700
X-.1S0
X-.1S700
X-.1S0
X-.1S700
X-29S0
X-.1S700
X-.1S0
X-.1S700
X-.1S0
X-.2S700
X-.1S0
X-.2S700
X-.1S0
X-.1S700
X-29S0
X-.1S700
X-.1S0
X-.1S700
X-.1S0
X-.2S700
X-.1S0
X-.2S700
X-.1S0
X-.1S700
X-29S0
X-.1S700
X-.1S0
X-.1S700
X-.1S0
X-.2S700
X-.1S0
X-.1S700
X-.1S0
X-.1S700
X-28.9S0
X-.1S700
X-.1S0
X-.1S700
X-.1S0
X-.1S700
X-.1S0
X-.1S700
X-.1S0
X-.1S700
X-.1S0
X-.1S700
X-29S0
X-.1S700
X-.1S0
X-.1S700
X-.1S0
X-.2S700
X-.1S0
X-.1S700
X-.1S0
X-.1S700
X-28.9S0
X-.1S700
X-.1S0
X-.2S700
X-.1S0
X-.2S700
X-.1S0
X-.1S700
X-.1S0
X-.1S700
X-29.1S0
X-.1S700
X-.1S0
X-.1S700
X-.1S0
X-.1S700
X-.1S0
X-.1S700
X-.1S0
X-.1S700
X-29.1S0
X-.1S700
X-.1S0
X-.1S700
X-.1S0
X-.1S700
X-.1S0
X-.1S700
X-.1S0
X-.1S700
X-2.916S0
Y18.1
X2.916
X1S700
X29S0
X1.1S700
X28.9S0
X1.1S700
X28.9S0
X1.1S700
X28.9S0
X1.1S700
X28.9S0
X1.1S700
X28.9S0
X1.1S700
X29S0
X1S700
X29S0
X1.1S700
X2.917S0
X.6Y.1
X-2.917
X-2.3S700
X-27.8S0
X-2.2S700
X-27.8S0
X-2.3S700
X-27.7S0
X-2.3S700
X-27.7S0
X-2.3S700
X-27.7S0
X-2.3S700
X-27.7S0
X-2.3S700
X-27.7S0
X-2.3S700
X-27.8S0
X-2.2S700
X-2.916S0
X-.5Y.1
X2.916
X3.2S700
X26.9S0
X3S700
X27S0
X3.1S700
X26.9S0
X3S700
X27S0
X3S700
X27S0
X3S700
X26.9S0
X3.1S700
X27S0
X3.1S700
X27S0
X3.1S700
X2.917S0
X.3Y.1
X-2.917
X-1.4S700
X-.1S0
X-.2S700
X-.1S0
X-.2S700
X-.1S0
X-.2S700
X-.1S0
X-1.4S700
X-26.2S0
X-1.4S700
X-.1S0
X-.2S700
X-.1S0
X-.2S700
X-.1S0
X-1.8S700
X-26.1S0
X-1.6S700
X-.1S0
X-.2S700
X-.1S0
X-.2S700
X-.1S0
X-1.5S700
X-.1S0
X-.1S700
X-26S0
X-1.5S700
X-.1S0
X-.2S700
X-.1S0
X-.2S700
X-.1S0
X-1.6S700
X-.1S0
X-.1S700
X-26S0
X-1.5S700
X-.1S0
X-.2S700
X-.1S0
X-.2S700
X-.1S0
X-1.6S700
X-.1S0
X-.1S700
X-26S0
X-1.6S700
X-.1S0
X-.2S700
X-.1S0
X-.2S700
X-.1S0
X-1.5S700
X-.1S0
X-.1S700
X-26S0
X-1.6S700
X-.1S0
X-.2S700
X-.1S0
X-.2S700
X-.1S0
X-1.6S700
X-26.1S0
X-1.4S700
X-.1S0
X-.2S700
X-.1S0
X-.2S700
X-.1S0
X-.2S700
X-.1S0
X-1.4S700
X-.1S0
X-.1S700
X-26.1S0
X-1.6S700
X-.1S0
X-.3S700
X-.1S0
X-1.6S700
X-.1S0
X-.1S700
X-2.916S0
X-.3Y.1
X2.916
X1.2S700
X.1S0
X.2S700
X1.6S0
X.1S700
X.1S0
X1.3S700
X25.5S0
X1.2S700
X.1S0
X.1S700
X1.6S0
X.1S700
X.2S0
X1.2S700
X25.5S0
X1.2S700
X.1S0
X.1S700
X1.7S0
X.1S700
X.1S0
X1.2S700
X25.4S0
X1.2S700
X.1S0
X.1S700
X.1S0
X.1S700
X1.6S0
X.1S700
X.1S0
X1.2S700
X25.5S0
X1.2S700
X.1S0
X.1S700
X.1S0
X.1S700
X1.4S0
X.1S700
X.1S0
X1.3S700
X25.5S0
X1.1S700
X.1S0
X.1S700
X.1S0
X.1S700
X1.5S0
X.1S700
X.1S0
X1.3S700
X25.4S0
X1.2S700
X.1S0
X.1S700
X.1S0
X.1S700
X1.6S0
X.1S700
X.1S0
X1.1S700
X25.6S0
X1.2S700
X.1S0
X.1S700
X.1S0
X.1S700
X1.5S0
X.1S700
X.2S0
X1.1S700
X25.6S0
X1.1S700
X.1S0
X.1S700
X1.8S0
X.1S700
X.2S0
X1.1S700
X2.917S0
X.2Y.1
X-2.917
X-1S700
X-3S0
X-.9S700
X-25.2S0
X-.9S700
X-3S0
X-1S700
X-25.2S0
X-.9S700
X-3S0
X-1S700
X-25.1S0
X-.9S700
X-3S0
X-1S700
X-25S0
X-1S700
X-3S0
X-.9S700
X-25.2S0
X-.9S700
X-3S0
X-1S700
X-25S0
X-.9S700
X-3S0
X-1S700
X-25.1S0
X-1S700
X-2.9S0
X-1S700
X-25.2S0
X-.9S700
X-3S0
X-1S700
X-2.916S0
X-.1Y.1
X2.916
X.8S700
X3.6S0
X.8S700
X24.8S0
X.8S700
X3.6S0
X.9S700
X24.7S0
X.8S700
X3.6S0
X.9S700
X24.7S0
X.8S700
X3.6S0
X.8S700
X24.8S0
X.8S700
X3.6S0
X.9S700
X24.7S0
X.8S700
X3.6S0
X.9S700
X24.7S0
X.8S700
X3.5S0
X.9S700
X24.8S0
X.9S700
X3.5S0
X.9S700
X24.8S0
X.9S700
X3.5S0
X.9S700
X2.917S0
X.1Y.1
X-2.917
X-.7S700
X-4.1S0
X-.8S700
X-24.4S0
X-.8S700
X-4.1S0
X-.7S700
X-24.5S0
X-.8S700
X-4.1S0
X-.7S700
X-24.3S0
X-.9S700
X-4.1S0
X-.7S700
X-24.3S0
X-.8S700
X-4.2S0
X-.7S700
X-24.4S0
X-.8S700
X-4.1S0
X-.7S700
X-24.3S0
X-.8S700
X-4.1S0
X-.7S700
X-24.4S0
X-.8S700
X-4.2S0
X-.7S700
X-24.4S0
X-.8S700
X-4.1S0
X-.7S700
X-2.916S0
X-.2Y.1
X2.916
X.8S700
X4.4S0
X.8S700
X24.1S0
X.7S700
X4.5S0
X.8S700
X24S0
X.7S700
X4.5S0
X.8S700
X23.9S0
X.8S700
X4.5S0
X.7S700
X24.1S0
X.7S700
X4.5S0
X.8S700
X23.9S0
X.8S700
X4.5S0
X.7S700
X24S0
X.7S700
X4.6S0
X.7S700
X24.1S0
X.7S700
X4.5S0
X.8S700
X24S0
X.8S700
X4.5S0
X.7S700
X2.917S0
X.3Y.1
X-2.917
X-.7S700
X-5.1S0
X-.6S700
X-23.8S0
X-.6S700
X-5.1S0
X-.6S700
X-23.7S0
X-.7S700
X-5S0
X-.7S700
X-23.5S0
X-.7S700
X-5S0
X-.8S700
X-23.6S0
X-.6S700
X-5S0
X-.8S700
X-23.5S0
X-.8S700
X-5S0
X-.7S700
X-23.6S0
X-.7S700
X-5S0
X-.6S700
X-23.7S0
X-.6S700
X-5.1S0
X-.7S700
X-23.6S0
X-.7S700
X-5S0
X-.7S700
X-2.916S0
X-.2Y.1
X2.916
X.6S700
X5.6S0
X.6S700
X23.3S0
X.6S700
X5.5S0
X.6S700
X23.3S0
X.6S700
X5.5S0
X.7S700
X23.1S0
X.7S700
X5.5S0
X.6S700
X23.3S0
X.6S700
X5.4S0
X.7S700
X23.3S0
X.6S700
X5.4S0
X.6S700
X23.3S0
X.7S700
X5.4S0
X.6S700
X23.4S0
X.6S700
X5.5S0
X.6S700
X23.4S0
X.6S700
X5.4S0
X.7S700
X2.917S0
X.1Y.1
X-2.917
X-.6S700
X-5.7S0
X-.6S700
X-23.2S0
X-.6S700
X-5.7S0
X-.6S700
X-23.1S0
X-.6S700
X-5.8S0
X-.6S700
X-23S0
X-.6S700
X-5.8S0
X-.6S700
X-23S0
X-.5S700
X-5.9S0
X-.6S700
X-23S0
X-.6S700
X-5.8S0
X-.6S700
X-23S0
X-.6S700
X-5.7S0
X-.6S700
X-23S0
X-.7S700
X-5.8S0
X-.6S700
X-23S0
X-.6S700
X-5.8S0
X-.6S700
X-2.916S0
X-.1Y.1
X2.916
X.6S700
X6S0
X.7S700
X22.7S0
X.6S700
X6.1S0
X.5S700
X22.8S0
X.6S700
X6.1S0
X.5S700
X22.8S0
X.5S700
X6.1S0
X.6S700
X22.8S0
X.6S700
X6S0
X.6S700
X22.8S0
X.5S700
X6.1S0
X.6S700
X22.8S0
X.5S700
X6.1S0
X.6S700
X22.9S0
X.5S700
X6.1S0
X.6S700
X22.8S0
X.6S700
X6.1S0
X.5S700
X2.917S0
X.2Y.1
X-2.917
X-.6S700
X-6.3S0
X-.6S700
X-22.6S0
X-.5S700
X-6.4S0
X-.6S700
X-22.6S0
X-.5S700
X-6.4S0
X-.6S700
X-22.5S0
X-.5S700
X-6.4S0
X-.5S700
X-22.6S0
X-.5S700
X-6.4S0
X-.5S700
X-22.6S0
X-.5S700
X-6.4S0
X-.6S700
X-22.4S0
X-.6S700
X-6.3S0
X-.6S700
X-22.6S0
X-.5S700
X-6.4S0
X-.5S700
X-22.6S0
X-.5S700
X-6.4S0
X-.5S700
X-2.916S0
X-.2Y.1
X2.916
X.6S700
X6.6S0
X.6S700
X22.3S0
X.5S700
X6.6S0
X.6S700
X22.3S0
X.5S700
X6.7S0
X.5S700
X22.3S0
X.5S700
X6.7S0
X.4S700
X22.3S0
X.6S700
X6.6S0
X.7S700
X22.1S0
X.6S700
X6.7S0
X.5S700
X22.2S0
X.5S700
X6.7S0
X.5S700
X22.4S0
X.5S700
X6.7S0
X.5S700
X22.4S0
X.5S700
X6.7S0
X.5S700
X2.917S0
X.1Y.1
X-2.917
X-.5S700
X-6.9S0
X-.5S700
X-22.2S0
X-.5S700
X-6.9S0
X-.5S700
X-22.1S0
X-.5S700
X-7S0
X-.5S700
X-22S0
X-.5S700
X-7S0
X-.5S700
X-22S0
X-.5S700
X-7S0
X-.5S700
X-22S0
X-.5S700
X-7S0
X-.5S700
X-21.9S0
X-.6S700
X-6.8S0
X-.1S700
X-.1S0
X-.5S700
X-21.9S0
X-.6S700
X-7S0
X-.5S700
X-22.1S0
X-.4S700
X-6.9S0
X-.6S700
X-2.916S0
X-.1Y.1
X2.916
X.5S700
X2.2S0
X2.7S700
X2.3S0
X.5S700
X21.8S0
X.5S700
X2.3S0
X2.7S700
X2.2S0
X.5S700
X21.8S0
X.5S700
X2.3S0
X2.7S700
X2.3S0
X.4S700
X21.8S0
X.5S700
X2.2S0
X2.8S700
X2.2S0
X.5S700
X21.8S0
X.5S700
X2.2S0
X2.8S700
X2.2S0
X.5S700
X21.8S0
X.5S700
X2.2S0
X2.8S700
X2.2S0
X.5S700
X21.8S0
X.4S700
X2.3S0
X2.8S700
X2.2S0
X.5S700
X21.9S0
X.4S700
X2.2S0
X2.8S700
X2.3S0
X.4S700
X22S0
X.4S700
X2.2S0
X2.8S700
X2.3S0
X.4S700
X2.917S0
X.1Y.1
X-2.917
X-.4S700
X-1.7S0
X-4.1S700
X-1.7S0
X-.4S700
X-21.7S0
X-.5S700
X-1.7S0
X-4.1S700
X-1.7S0
X-.4S700
X-21.7S0
X-.5S700
X-1.7S0
X-4.1S700
X-1.6S0
X-.5S700
X-21.6S0
X-.5S700
X-1.7S0
X-4S700
X-1.7S0
X-.5S700
X-21.6S0
X-.5S700
X-1.7S0
X-4S700
X-1.7S0
X-.5S700
X-21.6S0
X-.5S700
X-1.7S0
X-4S700
X-1.7S0
X-.5S700
X-21.6S0
X-.4S700
X-1.7S0
X-4.1S700
X-1.7S0
X-.5S700
X-21.6S0
X-.5S700
X-1.7S0
X-4S700
X-1.6S0
X-.5S700
X-21.7S0
X-.5S700
X-1.7S0
X-4S700
X-1.7S0
X-.4S700
X-2.916S0
X-.1Y.1
X2.916
X.4S700
X1.3S0
X5S700
X1.3S0
X.5S700
X21.5S0
X.4S700
X1.3S0
X5S700
X1.4S0
X.4S700
X21.5S0
X.5S700
X1.2S0
X5S700
X1.4S0
X.4S700
X21.5S0
X.4S700
X1.3S0
X5S700
X1.3S0
X.5S700
X21.4S0
X.5S700
X1.3S0
X5S700
X1.4S0
X.4S700
X21.4S0
X.5S700
X1.3S0
X5S700
X1.3S0
X.5S700
X21.4S0
X.4S700
X1.4S0
X4.9S700
X1.4S0
X.5S700
X21.5S0
X.5S700
X1.3S0
X4.9S700
X1.4S0
X.5S700
X21.5S0
X.4S700
X1.3S0
X5S700
X1.3S0
X.5S700
X2.917S0
X.1Y.1
X-2.917
X-.4S700
X-1.1S0
X-5.7S700
X-1.1S0
X-.4S700
X-21.4S0
X-.4S700
X-1.1S0
X-5.7S700
X-1.1S0
X-.4S700
X-21.3S0
X-.5S700
X-1.1S0
X-5.7S700
X-1S0
X-.5S700
X-21.2S0
X-.5S700
X-1.1S0
X-5.7S700
X-1.1S0
X-.4S700
X-21.2S0
X-.4S700
X-1.2S0
X-5.6S700
X-1.1S0
X-.4S700
X-21.3S0
X-.5S700
X-1.1S0
X-5.6S700
X-1.1S0
X-.5S700
X-21.2S0
X-.4S700
X-1.1S0
X-5.6S700
X-1.2S0
X-.4S700
X-21.3S0
X-.4S700
X-1.2S0
X-5.6S700
X-1.1S0
X-.5S700
X-21.2S0
X-.5S700
X-1.1S0
X-5.6S700
X-1.1S0
X-.5S700
X-2.916S0
Y.1
X2.916
X.4S700
X.9S0
X6.2S700
X.9S0
X.4S700
X21.2S0
X.4S700
X.9S0
X6.3S700
X.9S0
X.5S700
X21S0
X.5S700
X.8S0
X6.2S700
X1S0
X.5S700
X20.9S0
X.5S700
X.9S0
X6.2S700
X.9S0
X.5S700
X21S0
X.5S700
X.9S0
X6.2S700
X1S0
X.5S700
X20.9S0
X.4S700
X1S0
X6.2S700
X.9S0
X.6S700
X20.9S0
X.4S700
X1S0
X6.2S700
X.9S0
X.4S700
X21.2S0
X.4S700
X.9S0
X6.3S700
X.9S0
X.4S700
X21.2S0
X.4S700
X.9S0
X6.2S700
X1S0
X.4S700
X2.917S0
X.1Y.1
X-2.917
X-.4S700
X-.9S0
X-6.5S700
X-.9S0
X-.4S700
X-21S0
X-.4S700
X-1S0
X-6.3S700
X-1S0
X-.4S700
X-21S0
X-.4S700
X-.8S0
X-6.5S700
X-1S0
X-.4S700
X-20.8S0
X-.5S700
X-.8S0
X-6.5S700
X-1S0
X-.4S700
X-20.8S0
X-.4S700
X-.9S0
X-6.5S700
X-.9S0
X-.5S700
X-20.8S0
X-.5S700
X-.8S0
X-6.5S700
X-1S0
X-.4S700
X-20.8S0
X-.4S700
X-.9S0
X-6.5S700
X-.8S0
X-.5S700
X-20.9S0
X-.4S700
X-.9S0
X-6.5S700
X-.8S0
X-.5S700
X-20.9S0
X-.5S700
X-.9S0
X-6.4S700
X-.9S0
X-.5S700
X-2.916S0
X-.1Y.1
X2.916
X.5S700
X1S0
X6.4S700
X1S0
X.5S700
X20.7S0
X.5S700
X.9S0
X6.5S700
X.9S0
X.5S700
X20.7S0
X.5S700
X1S0
X6.4S700
X1S0
X.4S700
X20.6S0
X.5S700
X1S0
X6.5S700
X.9S0
X.4S700
X20.8S0
X.4S700
X1S0
X6.5S700
X.9S0
X.5S700
X20.6S0
X.4S700
X1.1S0
X6.5S700
X.9S0
X.5S700
X20.6S0
X.4S700
X1S0
X6.6S700
X.9S0
X.5S700
X20.7S0
X.4S700
X1S0
X6.5S700
X1S0
X.4S700
X20.8S0
X.4S700
X1S0
X6.5S700
X1S0
X.4S700
X2.917S0
X.1Y.1
X-2.917
X-.4S700
X-1.1S0
X-6.5S700
X-1.1S0
X-.4S700
X-20.6S0
X-.4S700
X-1.1S0
X-6.5S700
X-1.1S0
X-.4S700
X-20.6S0
X-.4S700
X-1.1S0
X-6.4S700
X-1.1S0
X-.4S700
X-20.6S0
X-.4S700
X-1.1S0
X-6.4S700
X-1S0
X-.5S700
X-20.6S0
X-.4S700
X-1.1S0
X-6.4S700
X-1S0
X-.5S700
X-20.6S0
X-.4S700
X-1.1S0
X-6.4S700
X-1.1S0
X-.4S700
X-20.5S0
X-.4S700
X-1.1S0
X-6.4S700
X-1.1S0
X-.5S700
X-20.6S0
X-.4S700
X-1S0
X-6.4S700
X-1.1S0
X-.5S700
X-20.6S0
X-.4S700
X-1.1S0
X-6.4S700
X-1.1S0
X-.4S700
X-2.916S0
X-.1Y.1
X2.916
X.4S700
X1.2S0
X.6S700
X.2S0
X4.8S700
X.3S0
X.5S700
X1.2S0
X.4S700
X20.4S0
X.5S700
X1.2S0
X.5S700
X.2S0
X4.9S700
X.2S0
X.5S700
X1.2S0
X.4S700
X20.5S0
X.4S700
X1.1S0
X.6S700
X.2S0
X4.8S700
X.4S0
X.5S700
X1.1S0
X.4S700
X20.4S0
X.4S700
X1.3S0
X.5S700
X.2S0
X4.8S700
X.3S0
X.5S700
X1.2S0
X.4S700
X20.4S0
X.4S700
X1.3S0
X.5S700
X.2S0
X4.8S700
X.3S0
X.5S700
X1.2S0
X.4S700
X20.4S0
X.4S700
X1.2S0
X.6S700
X.2S0
X4.8S700
X.3S0
X.5S700
X1.2S0
X.4S700
X20.4S0
X.4S700
X1.2S0
X.6S700
X.2S0
X4.8S700
X.3S0
X.5S700
X1.2S0
X.4S700
X20.5S0
X.4S700
X1.2S0
X.5S700
X.3S0
X4.7S700
X.4S0
X.5S700
X1.2S0
X.4S700
X20.4S0
X.4S700
X1.2S0
X.5S700
X.4S0
X4.7S700
X.3S0
X.5S700
X1.2S0
X.5S700
X2.917S0
Y.1
X-2.917
X-.4S700
X-1.3S0
X-.5S700
X-.7S0
X-.2S700
X-.1S0
X-.2S700
X-.1S0
X-2.7S700
X-.1S0
X-.2S700
X-.1S0
X-.2S700
X-.7S0
X-.5S700
X-1.3S0
X-.4S700
X-20.4S0
X-.4S700
X-1.2S0
X-.6S700
X-.8S0
X-.3S700
X-.1S0
X-2.7S700
X-.1S0
X-.2S700
X-.1S0
X-.3S700
X-.6S0
X-.6S700
X-1.3S0
X-.4S700
X-20.4S0
X-.3S700
X-1.3S0
X-.5S700
X-.7S0
X-.2S700
X-.1S0
X-.2S700
X-.1S0
X-3.3S700
X-.8S0
X-.4S700
X-1.4S0
X-.4S700
X-20.2S0
X-.4S700
X-1.3S0
X-.5S700
X-.7S0
X-.2S700
X-.1S0
X-.2S700
X-.1S0
X-3.3S700
X-.7S0
X-.6S700
X-1.3S0
X-.4S700
X-20.2S0
X-.4S700
X-1.3S0
X-.5S700
X-.7S0
X-.2S700
X-.1S0
X-.2S700
X-.1S0
X-3.3S700
X-.7S0
X-.6S700
X-1.2S0
X-.4S700
X-20.3S0
X-.4S700
X-1.3S0
X-.5S700
X-.7S0
X-.5S700
X-.1S0
X-3.3S700
X-.7S0
X-.6S700
X-1.3S0
X-.4S700
X-20.2S0
X-.4S700
X-1.3S0
X-.5S700
X-.7S0
X-.1S700
X-.1S0
X-.2S700
X-.1S0
X-3.3S700
X-.7S0
X-.6S700
X-1.3S0
X-.4S700
X-20.3S0
X-.4S700
X-1.3S0
X-.5S700
X-.7S0
X-.5S700
X-.1S0
X-3.2S700
X-.8S0
X-.5S700
X-1.3S0
X-.4S700
X-20.3S0
X-.4S700
X-1.3S0
X-.6S700
X-.7S0
X-.1S700
X-.1S0
X-.2S700
X-.1S0
X-3.3S700
X-.7S0
X-.5S700
X-1.3S0
X-.5S700
X-2.916S0
X-.1Y.1
X2.916
X.4S700
X1.5S0
X.5S700
X1.5S0
X.1S700
X.2S0
X.1S700
X.2S0
X.1S700
X3S0
X.5S700
X1.5S0
X.4S700
X20.1S0
X.4S700
X1.4S0
X.6S700
X1.4S0
X.1S700
X.1S0
X.1S700
X.2S0
X.1S700
X.3S0
X.1S700
X2.8S0
X.5S700
X1.4S0
X.4S700
X20.1S0
X.4S700
X1.4S0
X.6S700
X1.4S0
X.1S700
X.2S0
X.1S700
X.2S0
X.1S700
X3.1S0
X.5S700
X1.4S0
X.4S700
X20.1S0
X.3S700
X1.5S0
X.5S700
X1.5S0
X.1S700
X.2S0
X.1S700
X.2S0
X.1S700
X3S0
X.5S700
X1.4S0
X.5S700
X20.1S0
X.3S700
X1.5S0
X.6S700
X1.4S0
X.1S700
X.2S0
X.1S700
X.2S0
X.1S700
X3S0
X.6S700
X1.4S0
X.4S700
X20.1S0
X.3S700
X1.5S0
X.5S700
X1.5S0
X.1S700
X.2S0
X.1S700
X.2S0
X.1S700
X3S0
X.6S700
X1.4S0
X.4S700
X20.1S0
X.3S700
X1.4S0
X.6S700
X1.5S0
X.1S700
X.2S0
X.1S700
X.2S0
X.1S700
X3S0
X.5S700
X1.4S0
X.5S700
X20.1S0
X.4S700
X1.4S0
X.5S700
X1.5S0
X.1S700
X3.7S0
X.5S700
X1.4S0
X.5S700
X20.1S0
X.4S700
X1.4S0
X.5S700
X1.6S0
X.1S700
X.2S0
X.1S700
X.2S0
X.1S700
X.4S0
X.1S700
X1.1S0
X.1S700
X1.3S0
X.5S700
X1.4S0
X.4S700
X2.917S0
Y.1
X-2.917
X-.3S700
X-1.5S0
X-.5S700
X-5.3S0
X-.5S700
X-1.5S0
X-.4S700
X-20S0
X-.4S700
X-1.5S0
X-.5S700
X-5.2S0
X-.5S700
X-1.6S0
X-.3S700
X-20S0
X-.5S700
X-1.5S0
X-.5S700
X-5.2S0
X-.5S700
X-1.5S0
X-.4S700
X-19.9S0
X-.5S700
X-1.5S0
X-.5S700
X-5.2S0
X-.5S700
X-1.5S0
X-.4S700
X-19.9S0
X-.5S700
X-1.5S0
X-.5S700
X-5.2S0
X-.5S700
X-1.5S0
X-.4S700
X-19.9S0
X-.5S700
X-1.5S0
X-.5S700
X-5.1S0
X-.6S700
X-1.5S0
X-.4S700
X-19.9S0
X-.4S700
X-1.5S0
X-.6S700
X-5.2S0
X-.4S700
X-1.6S0
X-.3S700
X-20S0
X-.5S700
X-1.4S0
X-.6S700
X-5.1S0
X-.6S700
X-1.5S0
X-.4S700
X-20S0
X-.4S700
X-1.5S0
X-.5S700
X-5.2S0
X-.5S700
X-1.5S0
X-.4S700
X-2.916S0
X-.1Y.1
X2.916
X.4S700
X1.6S0
X.6S700
X5.1S0
X.5S700
X1.6S0
X.4S700
X19.9S0
X.3S700
X1.6S0
X.5S700
X5.2S0
X.5S700
X1.6S0
X.4S700
X19.9S0
X.3S700
X1.7S0
X.5S700
X5.1S0
X.5S700
X1.6S0
X.5S700
X19.7S0
X.4S700
X1.6S0
X.5S700
X5.2S0
X.5S700
X1.6S0
X.4S700
X19.9S0
X.3S700
X1.6S0
X.6S700
X5.1S0
X.5S700
X1.6S0
X.4S700
X19.8S0
X.4S700
X1.6S0
X.5S700
X5.2S0
X.5S700
X1.6S0
X.4S700
X19.8S0
X.4S700
X1.6S0
X.6S700
X5.1S0
X.5S700
X1.6S0
X.4S700
X19.9S0
X.4S700
X1.6S0
X.5S700
X5.1S0
X.5S700
X1.6S0
X.4S700
X20S0
X.4S700
X1.6S0
X.5S700
X5.1S0
X.5S700
X1.6S0
X.4S700
X2.917S0
Y.1
X-2.917
X-.3S700
X-1.7S0
X-.5S700
X-5.1S0
X-.5S700
X-1.7S0
X-.4S700
X-19.8S0
X-.4S700
X-1.7S0
X-.5S700
X-5.1S0
X-.5S700
X-1.7S0
X-.3S700
X-19.9S0
X-.4S700
X-1.7S0
X-.5S700
X-5.1S0
X-.5S700
X-1.7S0
X-.3S700
X-19.8S0
X-.4S700
X-1.6S0
X-.6S700
X-5S0
X-.5S700
X-1.8S0
X-.3S700
X-19.8S0
X-.3S700
X-1.7S0
X-.6S700
X-5S0
X-.5S700
X-1.8S0
X-.3S700
X-19.8S0
X-.3S700
X-1.7S0
X-.6S700
X-5S0
X-.5S700
X-1.8S0
X-.3S700
X-19.7S0
X-.4S700
X-1.7S0
X-.5S700
X-5.1S0
X-.5S700
X-1.7S0
X-.4S700
X-19.7S0
X-.4S700
X-1.7S0
X-.6S700
X-5S0
X-.5S700
X-1.7S0
X-.4S700
X-19.7S0
X-.4S700
X-1.7S0
X-.6S700
X-5S0
X-.5S700
X-1.8S0
X-.3S700
X-2.916S0
X-.1Y.1
X2.916
X.4S700
X1.8S0
X.7S700
X4.6S0
X.7S700
X1.8S0
X.4S700
X19.6S0
X.4S700
X1.8S0
X.8S700
X4.5S0
X.8S700
X1.8S0
X.3S700
X19.7S0
X.4S700
X1.7S0
X.8S700
X4.5S0
X.8S700
X1.7S0
X.4S700
X19.6S0
X.4S700
X1.8S0
X.8S700
X4.5S0
X.7S700
X1.8S0
X.4S700
X19.6S0
X.5S700
X1.7S0
X.8S700
X4.5S0
X.7S700
X1.8S0
X.4S700
X19.6S0
X.4S700
X1.8S0
X.8S700
X4.5S0
X.7S700
X1.8S0
X.4S700
X19.6S0
X.4S700
X1.8S0
X.8S700
X4.5S0
X.7S700
X1.8S0
X.4S700
X19.7S0
X.3S700
X1.8S0
X.8S700
X4.5S0
X.8S700
X1.8S0
X.4S700
X19.6S0
X.4S700
X1.8S0
X.8S700
X4.5S0
X.8S700
X1.8S0
X.4S700
X2.917S0
Y.1
X-2.917
X-.4S700
X-1.9S0
X-1.3S700
X-.3S0
X-.1S700
X-.1S0
X-.1S700
X-.1S0
X-.2S700
X-1.5S0
X-.1S700
X-.2S0
X-.1S700
X-.2S0
X-.1S700
X-.3S0
X-1.2S700
X-1.9S0
X-.4S700
X-19.6S0
X-.4S700
X-1.8S0
X-1.4S700
X-.2S0
X-.1S700
X-.1S0
X-.2S700
X-.1S0
X-.2S700
X-1.5S0
X-.1S700
X-.1S0
X-.1S700
X-.2S0
X-.1S700
X-.4S0
X-1.2S700
X-1.9S0
X-.4S700
X-19.6S0
X-.3S700
X-1.8S0
X-1.4S700
X-.1S0
X-.1S700
X-.2S0
X-.2S700
X-.1S0
X-.2S700
X-1.8S0
X-.1S700
X-.6S0
X-1.3S700
X-1.9S0
X-.3S700
X-19.5S0
X-.4S700
X-1.9S0
X-1.3S700
X-.1S0
X-.1S700
X-.2S0
X-.2S700
X-.1S0
X-.2S700
X-1.7S0
X-.1S700
X-.7S0
X-1.3S700
X-1.8S0
X-.4S700
X-19.5S0
X-.4S700
X-1.8S0
X-1.5S700
X-.2S0
X-.1S700
X-.1S0
X-.1S700
X-.1S0
X-.2S700
X-1.7S0
X-.1S700
X-.7S0
X-1.3S700
X-1.8S0
X-.4S700
X-19.6S0
X-.3S700
X-1.9S0
X-1.3S700
X-.2S0
X-.1S700
X-.1S0
X-.2S700
X-.1S0
X-.2S700
X-1.8S0
X-.1S700
X-.6S0
X-1.3S700
X-1.9S0
X-.3S700
X-19.5S0
X-.3S700
X-1.9S0
X-1.5S700
X-.1S0
X-.1S700
X-.1S0
X-.2S700
X-.1S0
X-.2S700
X-1.6S0
X-.1S700
X-.2S0
X-.1S700
X-.5S0
X-1.2S700
X-1.9S0
X-.4S700
X-19.5S0
X-.4S700
X-1.9S0
X-1.3S700
X-.2S0
X-.1S700
X-.1S0
X-.2S700
X-.1S0
X-.2S700
X-1.6S0
X-.1S700
X-.2S0
X-.1S700
X-.5S0
X-1.2S700
X-1.9S0
X-.4S700
X-19.5S0
X-.4S700
X-1.9S0
X-1.3S700
X-.2S0
X-.1S700
X-.1S0
X-.2S700
X-.1S0
X-.2S700
X-1.7S0
X-.1S700
X-.7S0
X-1.3S700
X-1.9S0
X-.4S700
X-2.916S0
Y.1
X2.916
X.4S700
X1.9S0
X6S700
X2S0
X.3S700
X19.4S0
X.4S700
X2S0
X6S700
X1.9S0
X.3S700
X19.5S0
X.3S700
X2S0
X5.9S700
X2S0
X.3S700
X19.4S0
X.4S700
X1.9S0
X6S700
X2S0
X.3S700
X19.4S0
X.4S700
X2S0
X5.9S700
X2S0
X.3S700
X19.4S0
X.4S700
X1.9S0
X6S700
X2S0
X.3S700
X19.4S0
X.4S700
X1.9S0
X6S700
X2S0
X.3S700
X19.4S0
X.5S700
X1.9S0
X5.9S700
X2S0
X.4S700
X19.4S0
X.4S700
X2S0
X2.3S700
X.1S0
X3.5S700
X1.9S0
X.5S700
X2.917S0
Y.1
X-2.917
X-.4S700
X-2S0
X-5.9S700
X-2.1S0
X-.3S700
X-19.4S0
X-.3S700
X-2.1S0
X-5.9S700
X-2S0
X-.4S700
X-19.4S0
X-.3S700
X-2.1S0
X-5.8S700
X-2.1S0
X-.4S700
X-19.2S0
X-.4S700
X-2S0
X-5.9S700
X-2.1S0
X-.3S700
X-19.3S0
X-.4S700
X-2S0
X-5.9S700
X-2.1S0
X-.3S700
X-19.4S0
X-.3S700
X-2S0
X-5.9S700
X-2.1S0
X-.3S700
X-19.3S0
X-.3S700
X-2.1S0
X-5.9S700
X-2S0
X-.4S700
X-19.3S0
X-.4S700
X-2S0
X-5.9S700
X-2S0
X-.4S700
X-19.4S0
X-.3S700
X-2S0
X-6S700
X-2S0
X-.3S700
X-2.916S0
X-.1Y.1
X2.916
X.4S700
X2.1S0
X.4S700
X.3S0
X4.4S700
X.3S0
X.5S700
X2S0
X.4S700
X19.3S0
X.3S700
X2.1S0
X.5S700
X.2S0
X4.5S700
X.2S0
X.5S700
X2.1S0
X.3S700
X19.3S0
X.3S700
X2.1S0
X.4S700
X.3S0
X4.5S700
X.2S0
X.5S700
X2.1S0
X.3S700
X19.2S0
X.4S700
X2.1S0
X.4S700
X.3S0
X4.4S700
X.3S0
X.5S700
X2.1S0
X.3S700
X19.2S0
X.4S700
X2.1S0
X.4S700
X.3S0
X4.5S700
X.2S0
X.5S700
X2.1S0
X.3S700
X19.2S0
X.4S700
X2.1S0
X.4S700
X.3S0
X4.4S700
X.3S0
X.4S700
X2.2S0
X.3S700
X19.2S0
X.4S700
X2.1S0
X.4S700
X.3S0
X4.4S700
X.3S0
X.5S700
X2.1S0
X.3S700
X19.2S0
X.5S700
X2.1S0
X.4S700
X.2S0
X4.5S700
X.3S0
X.4S700
X2.1S0
X.4S700
X19.2S0
X.4S700
X2.1S0
X.5S700
X.1S0
X4.6S700
X.2S0
X.4S700
X2.1S0
X.5S700
X2.917S0
Y.1
X-2.917
X-.4S700
X-2.1S0
X-.4S700
X-.8S0
X-3.5S700
X-.8S0
X-.4S700
X-2.2S0
X-.3S700
X-19.2S0
X-.3S700
X-2.2S0
X-.4S700
X-.8S0
X-3.5S700
X-.7S0
X-.5S700
X-2.1S0
X-.4S700
X-19.2S0
X-.3S700
X-2.2S0
X-.4S700
X-.7S0
X-3.6S700
X-.7S0
X-.4S700
X-2.2S0
X-.4S700
X-19S0
X-.4S700
X-2.1S0
X-.5S700
X-.7S0
X-3.6S700
X-.7S0
X-.4S700
X-2.2S0
X-.3S700
X-19.1S0
X-.4S700
X-2.2S0
X-.4S700
X-.7S0
X-3.5S700
X-.8S0
X-.4S700
X-2.2S0
X-.3S700
X-19.2S0
X-.3S700
X-2.2S0
X-.4S700
X-.7S0
X-3.6S700
X-.7S0
X-.4S700
X-2.2S0
X-.3S700
X-19.1S0
X-.3S700
X-2.2S0
X-.5S700
X-.7S0
X-3.5S700
X-.7S0
X-.5S700
X-2.1S0
X-.4S700
X-19.1S0
X-.4S700
X-2.2S0
X-.3S700
X-.8S0
X-3.5S700
X-.8S0
X-.4S700
X-2.1S0
X-.4S700
X-19.2S0
X-.3S700
X-2.1S0
X-.5S700
X-.7S0
X-3.6S700
X-.7S0
X-.5S700
X-2.1S0
X-.3S700
X-2.916S0
X-.1Y.1
X2.916
X.4S700
X2.2S0
X.4S700
X1.8S0
X.2S700
X.1S0
X.1S700
X.1S0
X.1S700
X.1S0
X.2S700
X.1S0
X.2S700
X.1S0
X.1S700
X1.8S0
X.4S700
X2.2S0
X.4S700
X19S0
X.4S700
X2.2S0
X.4S700
X1.8S0
X.2S700
X.1S0
X.1S700
X.1S0
X.1S700
X.1S0
X.1S700
X.1S0
X.1S700
X.1S0
X.2S700
X1.9S0
X.5S700
X2.2S0
X.3S700
X19.1S0
X.3S700
X2.2S0
X.4S700
X1.8S0
X.2S700
X.1S0
X.2S700
X.1S0
X.2S700
X.1S0
X.2S700
X.1S0
X.2S700
X1.9S0
X.4S700
X2.2S0
X.3S700
X19S0
X.4S700
X2.1S0
X.5S700
X1.7S0
X.3S700
X.1S0
X.2S700
X.1S0
X.1S700
X.1S0
X.2S700
X.1S0
X.2S700
X1.9S0
X.5S700
X2.2S0
X.3S700
X19S0
X.4S700
X2.2S0
X.4S700
X1.7S0
X.3S700
X.1S0
X.2S700
X.1S0
X.1S700
X.1S0
X.2S700
X.1S0
X.2S700
X1.9S0
X.5S700
X2.1S0
X.4S700
X19S0
X.4S700
X2.2S0
X.4S700
X1.7S0
X.3S700
X.1S0
X.2S700
X.1S0
X.1S700
X.1S0
X.2S700
X.1S0
X.2S700
X1.9S0
X.4S700
X2.2S0
X.4S700
X19S0
X.4S700
X2.1S0
X.5S700
X1.7S0
X.2S700
X.1S0
X.2S700
X.1S0
X.1S700
X.1S0
X.2S700
X.1S0
X.2S700
X.1S0
X.1S700
X1.8S0
X.5S700
X2.1S0
X.4S700
X19.1S0
X.3S700
X2.2S0
X.4S700
X1.8S0
X.2S700
X.1S0
X.2S700
X.1S0
X.2S700
X.1S0
X.2S700
X.1S0
X.2S700
X1.9S0
X.4S700
X2.2S0
X.4S700
X19S0
X.4S700
X2.2S0
X.4S700
X1.8S0
X.3S700
X.1S0
X.2S700
X.1S0
X.1S700
X.1S0
X.1S700
X.1S0
X.1S700
X.1S0
X.1S700
X1.9S0
X.4S700
X2.2S0
X.3S700
X2.917S0
Y.1
X-2.917
X-.3S700
X-2.2S0
X-.4S700
X-5.1S0
X-.4S700
X-2.2S0
X-.4S700
X-19S0
X-.4S700
X-2.2S0
X-.4S700
X-5.1S0
X-.4S700
X-2.2S0
X-.4S700
X-19S0
X-.3S700
X-2.3S0
X-.4S700
X-5.1S0
X-.4S700
X-2.2S0
X-.3S700
X-19S0
