; LightBurn Pro 2.0.05
; GRBL-LPC device profile, absolute coords
; Bounds: X25.75 Y171.6 to X43.59 Y183.4
G00 G17 G40 G21 G54
G90
M4
; Image @ 7000.02 мм/мин, 70% power
M8
G0 X35.852Y221.699
; Layer C00
G91
G1 X2.917F7000.02S0
X1.9S700
X2.917S0
X.7Y.1
X-2.917
X-.1S700
X-.1S0
X-2.8S700
X-.1S0
X-.1S700
X-2.917S0
X-.3Y.1
X2.917
X1.6S700
X.1S0
X.1S700
X.1S0
X.1S700
X.1S0
X1.7S700
X2.917S0
X.3Y.1
X-2.917
X-1.2S700
X-.1S0
X-.1S700
X-1.8S0
X-1.2S700
X-2.917S0
X-.2Y.1
X2.917
X1S700
X2.8S0
X1S700
X2.917S0
X.2Y.1
X-2.917
X-.9S700
X-3.4S0
X-.9S700
X-2.917S0
X-.1Y.1
X2.917
X.7S700
X4S0
X.8S700
X2.917S0
X.2Y.1
X-2.917
X-.7S700
X-4.6S0
X-.7S700
X-2.917S0
X-.2Y.1
X2.917
X.7S700
X5S0
X.7S700
X2.917S0
X.1Y.1
X-2.917
X-.6S700
X-5.4S0
X-.6S700
X-2.917S0
X-.2Y.1
X2.917
X.6S700
X5.8S0
X.6S700
X2.917S0
X.1Y.1
X-2.917
X-.6S700
X-6S0
X-.6S700
X-2.917S0
X-.1Y.1
X2.917
X.5S700
X6.3S0
X.6S700
X2.917S0
X.2Y.1
X-2.917
X-.6S700
X-6.7S0
X-.5S700
X-2.917S0
X-.1Y.1
X2.917
X.5S700
X7S0
X.5S700
X2.917S0
Y.1
X-2.917
X-.5S700
X-2.4S0
X-2.2S700
X-2.5S0
X-.5S700
X-2.917S0
X-.1Y.1
X2.917
X.6S700
X1.7S0
X3.8S700
X1.8S0
X.4S700
X2.917S0
X.2Y.1
X-2.917
X-.5S700
X-1.5S0
X-4.7S700
X-1.4S0
X-.5S700
X-2.917S0
X-.1Y.1
X2.917
X.4S700
X1S0
X.1S700
X.1S0
X5.7S700
X1.1S0
X.4S700
X2.917S0
Y.1
X-2.917
X-.4S700
X-.9S0
X-6.2S700
X-1S0
X-.4S700
X-2.917S0
X-.1Y.1
X2.917
X.5S700
X.9S0
X6.4S700
X.9S0
X.5S700
X2.917S0
Y.1
X-2.917
X-.4S700
X-1S0
X-6.4S700
X-1S0
X-.5S700
X-2.917S0
Y.1
X2.917
X.4S700
X1.1S0
X6.4S700
X1.1S0
X.4S700
X2.917S0
X.1Y.1
X-2.917
X-.4S700
X-1.2S0
X-.5S700
X-.2S0
X-5S700
X-.1S0
X-.6S700
X-1.2S0
X-.4S700
X-2.917S0
X-.1Y.1
X2.917
X.4S700
X1.4S0
X.5S700
X.6S0
X.1S700
X.1S0
X.1S700
X.1S0
X3.3S700
X.1S0
X.1S700
X.1S0
X.1S700
X.6S0
X.5S700
X1.2S0
X.5S700
X2.917S0
Y.1
X-2.917
X-.3S700
X-1.5S0
X-.5S700
X-2.1S0
X-1S700
X-2.1S0
X-.6S700
X-1.4S0
X-.3S700
X-2.917S0
X-.1Y.1
X2.917
X.4S700
X1.5S0
X.5S700
X5.2S0
X.5S700
X1.5S0
X.4S700
X2.917S0
X.1Y.1
X-2.917
X-.4S700
X-1.6S0
X-.6S700
X-5S0
X-.6S700
X-1.6S0
X-.4S700
X-2.917S0
Y.1
X2.917
X.4S700
X1.6S0
X.6S700
X5S0
X.5S700
X1.8S0
X.3S700
X2.917S0
X.1Y.1
X-2.917
X-.4S700
X-1.7S0
X-.7S700
X-.3S0
X-.1S700
X-4.1S0
X-.1S700
X-.2S0
X-.6S700
X-1.8S0
X-.4S700
X-2.917S0
Y.1
X2.917
X.3S700
X1.9S0
X1.8S700
X2.4S0
X1.8S700
X1.9S0
X.3S700
X2.917S0
X.1Y.1
X-2.917
X-.4S700
X-2S0
X-5.9S700
X-1.9S0
X-.4S700
X-2.917S0
X-.1Y.1
X2.917
X.4S700
X2S0
X6S700
X2S0
X.3S700
X2.917S0
X.1Y.1
X-2.917
X-.4S700
X-2S0
X-.5S700
X-.2S0
X-4.7S700
X-.1S0
X-.4S700
X-2.1S0
X-.4S700
X-2.917S0
Y.1
X2.917
X.3S700
X2.2S0
X.4S700
X.6S0
X.1S700
X.1S0
X.1S700
X.1S0
X.1S700
X.1S0
X3S700
X.1S0
X.1S700
X.6S0
X.4S700
X2.2S0
X.3S700
X2.917S0
X.1Y.1
X-2.917
X-.4S700
X-2.1S0
X-.5S700
X-1.5S0
X-.2S700
X-.1S0
X-.1S700
X-.1S0
X-.1S700
X-.1S0
X-.1S700
X-.1S0
X-.1S700
X-.1S0
X-.1S700
X-.1S0
X-.1S700
X-.1S0
X-.1S700
X-.1S0
X-.1S700
X-.1S0
X-.1S700
X-1.6S0
X-.4S700
X-2.1S0
X-.4S700
X-2.917S0
Y.1
X2.917
X.3S700
X2.2S0
X.5S700
X5S0
X.5S700
X2.2S0
X.3S700
X2.917S0
X.1Y.1
X-2.917
X-.4S700
X-2.3S0
X-.3S700
X-5.2S0
X-.4S700
X-2.2S0
X-.4S700
X-2.917S0
Y.1
X2.917
X.3S700
X2.3S0
X.5S700
X4.9S0
X.6S700
X2.2S0
X.4S700
X2.917S0
X.1Y.1
X-2.917
X-.4S700
X-2.3S0
X-.9S700
X-4.2S0
X-.9S700
X-2.3S0
X-.3S700
X-2.917S0
X-.1Y.1
X2.917
X.4S700
X2.2S0
X1.5S700
X.1S0
X.1S700
X.2S0
X.1S700
X.2S0
X.1S700
X.2S0
X.1S700
X.2S0
X.1S700
X.2S0
X.1S700
X.2S0
X.1S700
X.2S0
X.1S700
X.2S0
X.1S700
X.2S0
X.1S700
X.2S0
X1.5S700
X2.3S0
X.4S700
X2.917S0
Y.1
X-2.917
X-.3S700
X-2.3S0
X-6.2S700
X-2.2S0
X-.4S700
X-2.917S0
X-.1Y.1
X2.917
X.4S700
X2.4S0
X6.1S700
X2.3S0
X.3S700
X2.917S0
X.1Y.1
X-2.917
X-.4S700
X-2.3S0
X-6.2S700
X-2.3S0
X-.4S700
X-2.917S0
Y.1
X2.917
X.3S700
X2.3S0
X6.4S700
X2.2S0
X.4S700
X2.917S0
Y.1
X-2.917
X-.3S700
X-2.1S0
X-.7S700
X-.3S0
X-4.8S700
X-.3S0
X-.7S700
X-2.1S0
X-.3S700
X-2.917S0
X-.1Y.1
X2.917
X.4S700
X2S0
X.7S700
X1S0
X.1S700
X.1S0
X.2S700
X.1S0
X2.7S700
X.1S0
X.1S700
X.1S0
X.1S700
X1.1S0
X.6S700
X2S0
X.3S700
X2.917S0
Y.1
X-2.917
X-.3S700
X-1.8S0
X-.7S700
X-2.1S0
X-.1S700
X-.3S0
X-.1S700
X-.2S0
X-.5S700
X-.3S0
X-.1S700
X-2.2S0
X-.7S700
X-1.9S0
X-.3S700
X-2.917S0
X-.1Y.1
X2.917
X.4S700
X1.8S0
X.6S700
X2.9S0
X.4S700
X2.9S0
X.7S700
X1.8S0
X.3S700
X2.917S0
Y.1
X-2.917
X-.3S700
X-1.7S0
X-.7S700
X-.6S0
X-.1S700
X-2.3S0
X-.4S700
X-2.3S0
X-.1S700
X-.6S0
X-.7S700
X-1.7S0
X-.3S700
X-2.917S0
Y.1
X2.917
X.3S700
X1.6S0
X.7S700
X.6S0
X.7S700
X1.8S0
X.4S700
X1.8S0
X.7S700
X.7S0
X.6S700
X1.6S0
X.3S700
X2.917S0
Y.1
X-2.917
X-.3S700
X-1.5S0
X-.6S700
X-.7S0
X-1.7S700
X-.1S0
X-.2S700
X-.1S0
X-.1S700
X-.5S0
X-.3S700
X-.4S0
X-.1S700
X-.1S0
X-.1S700
X-.1S0
X-.1S700
X-.1S0
X-1.5S700
X-.8S0
X-.5S700
X-1.6S0
X-.3S700
X-2.917S0
X-.1Y.1
X2.917
X.4S700
X1.5S0
X.5S700
X.7S0
X2.3S700
X.4S0
X.4S700
X.4S0
X2.3S700
X.7S0
X.5S700
X1.5S0
X.3S700
X2.917S0
Y.1
X-2.917
X-.3S700
X-1.4S0
X-.5S700
X-.7S0
X-2.4S700
X-.4S0
X-.4S700
X-.4S0
X-2.4S700
X-.7S0
X-.5S700
X-1.4S0
X-.3S700
X-2.917S0
Y.1
X2.917
X.3S700
X1.3S0
X.5S700
X.7S0
X2.5S700
X.4S0
X.4S700
X.4S0
X2.5S700
X.7S0
X.4S700
X1.4S0
X.3S700
X2.917S0
X.1Y.1
X-2.917
X-.3S700
X-1.4S0
X-.4S700
X-.7S0
X-2.6S700
X-.4S0
X-.4S700
X-.4S0
X-2.6S700
X-.6S0
X-.5S700
X-1.3S0
X-.3S700
X-2.917S0
X-.1Y.1
X2.917
X.4S700
X1.3S0
X.4S700
X.6S0
X2.7S700
X.4S0
X.5S700
X.4S0
X2.6S700
X.6S0
X.5S700
X1.3S0
X.3S700
X2.917S0
Y.1
X-2.917
X-.3S700
X-1.3S0
X-.4S700
X-.5S0
X-2.8S700
X-.5S0
X-.5S700
X-.3S0
X-2.8S700
X-.5S0
X-.5S700
X-1.3S0
X-.2S700
X-2.917S0
Y.1
X2.917
X.2S700
X1.3S0
X.4S700
X.5S0
X2.8S700
X.5S0
X.4S700
X.5S0
X2.8S700
X.5S0
X.4S700
X1.3S0
X.3S700
X2.917S0
Y.1
X-2.917
X-.4S700
X-1.1S0
X-.5S700
X-.5S0
X-2.8S700
X-.4S0
X-.6S700
X-.4S0
X-2.8S700
X-.5S0
X-.4S700
X-1.3S0
X-.2S700
X-2.917S0
X-.1Y.1
X2.917
X.3S700
X1.3S0
X.4S700
X.4S0
X2.9S700
X.4S0
X.6S700
X.4S0
X2.9S700
X.4S0
X.5S700
X1.2S0
X.3S700
X2.917S0
Y.1
X-2.917
X-.3S700
X-1.2S0
X-.4S700
X-.5S0
X-2.8S700
X-.5S0
X-.7S700
X-.4S0
X-2.7S700
X-.5S0
X-.5S700
X-1.1S0
X-.3S700
X-2.917S0
Y.1
X2.917
X.3S700
X1.1S0
X.4S700
X.5S0
X2.8S700
X.4S0
X.4S700
X.1S0
X.3S700
X.5S0
X2.6S700
X.6S0
X.4S700
X1.2S0
X.3S700
X2.917S0
X-.1Y.1
X-2.917
X-.3S700
X-1.1S0
X-.5S700
X-.4S0
X-2.7S700
X-.4S0
X-.4S700
X-.2S0
X-.3S700
X-.5S0
X-2.7S700
X-.5S0
X-.4S700
X-1.1S0
X-.4S700
X-2.917S0
X.1Y.1
X2.917
X.3S700
X1.1S0
X.5S700
X.4S0
X2.6S700
X.5S0
X.3S700
X.4S0
X.3S700
X.5S0
X2.6S700
X.5S0
X.4S700
X1.1S0
X.3S700
X2.917S0
Y.1
X-2.917
X-.2S700
X-1.2S0
X-.4S700
X-.6S0
X-2.4S700
X-.5S0
X-.4S700
X-.4S0
X-.3S700
X-.5S0
X-2.5S700
X-.5S0
X-.5S700
X-1.1S0
X-.3S700
X-2.917S0
Y.1
X2.917
X.3S700
X1.2S0
X.4S700
X.4S0
X2.5S700
X.5S0
X.4S700
X.3S0
X.5S700
X.6S0
X2.3S700
X.5S0
X.5S700
X1.1S0
X.3S700
X2.917S0
Y.1
X-2.917
X-.3S700
X-1.2S0
X-.4S700
X-.5S0
X-2.2S700
X-.6S0
X-.5S700
X-.5S0
X-.4S700
X-.5S0
X-2.3S700
X-.5S0
X-.4S700
X-1.2S0
X-.4S700
X-2.917S0
X.1Y.1
X2.917
X.3S700
X1.2S0
X.5S700
X.5S0
X2S700
X.7S0
X.4S700
X.6S0
X.5S700
X.6S0
X2S700
X.5S0
X.5S700
X1.2S0
X.3S700
X2.917S0
Y.1
X-2.917
X-.3S700
X-1.3S0
X-.4S700
X-.6S0
X-1.7S700
X-.8S0
X-.5S700
X-.6S0
X-.5S700
X-.7S0
X-1.8S700
X-.6S0
X-.4S700
X-1.3S0
X-.3S700
X-2.917S0
Y.1
X2.917
X.4S700
X1.3S0
X.4S700
X.7S0
X1.4S700
X.8S0
X.5S700
X.4S0
X.1S700
X.3S0
X.5S700
X.8S0
X1.5S700
X.6S0
X.5S700
X1.3S0
X.3S700
X2.917S0
X-.1Y.1
X-2.917
X-.3S700
X-1.3S0
X-.4S700
X-.8S0
X-1.1S700
X-.9S0
X-.6S700
X-.3S0
X-.2S700
X-.3S0
X-.6S700
X-1S0
X-1S700
X-.7S0
X-.5S700
X-1.3S0
X-.3S700
X-2.917S0
X-.1Y.1
X2.917
X.4S700
X1.3S0
X.6S700
X2.4S0
X.8S700
X.3S0
X.2S700
X.4S0
X.7S700
X2.5S0
X.5S700
X1.3S0
X.4S700
X2.917S0
X-.1Y.1
X-2.917
X-.3S700
X-1.4S0
X-.5S700
X-2.1S0
X-1S700
X-.3S0
X-.4S700
X-.3S0
X-1S700
X-2S0
X-.6S700
X-1.4S0
X-.3S700
X-2.917S0
Y.1
X2.917
X.4S700
X1.4S0
X.6S700
X1.7S0
X1.1S700
X.4S0
X.4S700
X.4S0
X1.1S700
X1.7S0
X.6S700
X1.4S0
X.4S700
X2.917S0
Y.1
X-2.917
X-.4S700
X-1.5S0
X-.7S700
X-1.3S0
X-1.3S700
X-.4S0
X-.4S700
X-.4S0
X-1.4S700
X-1.1S0
X-.8S700
X-1.5S0
X-.4S700
X-2.917S0
Y.1
X2.917
X.4S700
X1.6S0
X2.6S700
X.2S0
X.4S700
X.3S0
X.6S700
X.3S0
X.3S700
X.3S0
X2.6S700
X1.6S0
X.3S700
X2.917S0
Y.1
X-2.917
X-.4S700
X-1.7S0
X-2.2S700
X-.4S0
X-.4S700
X-.4S0
X-.5S700
X-.3S0
X-.3S700
X-.5S0
X-2.2S700
X-1.8S0
X-.3S700
X-2.917S0
Y.1
X2.917
X.4S700
X1.8S0
X1.8S700
X.8S0
X.3S700
X.4S0
X.4S700
X.4S0
X.4S700
X.6S0
X.1S700
X.1S0
X1.7S700
X1.8S0
X.4S700
X2.917S0
X-.1Y.1
X-2.917
X-.3S700
X-2S0
X-.1S700
X-.1S0
X-1S700
X-1.1S0
X-.4S700
X-.6S0
X-.1S700
X-.5S0
X-.3S700
X-1.2S0
X-.1S700
X-.1S0
X-.8S700
X-2.2S0
X-.3S700
X-2.917S0
Y.1
X2.917
X.3S700
X4.3S0
X.5S700
X1.1S0
X.3S700
X4.3S0
X.4S700
X2.917S0
Y.1
X-2.917
X-.3S700
X-4.4S0
X-.4S700
X-.9S0
X-.5S700
X-4.3S0
X-.3S700
X-2.917S0
Y.1
X2.917
X.3S700
X4.4S0
X.5S700
X.7S0
X.5S700
X4.3S0
X.3S700
X2.917S0
Y.1
X-2.917
X-.4S700
X-4.4S0
X-.5S700
X-.4S0
X-.6S700
X-4.3S0
X-.4S700
X-2.917S0
X.1Y.1
X2.917
X.4S700
X4.4S0
X1.3S700
X4.4S0
X.3S700
X2.917S0
Y.1
X-2.917
X-.4S700
X-4.5S0
X-1S700
X-4.5S0
X-.4S700
X-2.917S0
X.1Y.1
X2.917
X.4S700
X4.5S0
X.8S700
X4.6S0
X.3S700
X2.917S0
X-.1Y.1
X-2.917
X-.3S700
X-4.7S0
X-.4S700
X-4.7S0
X-.4S700
X-2.917S0
X.1Y.1
X2.917
X.4S700
X4.6S0
X.4S700
X4.6S0
X.5S700
X2.917S0
X-.1Y.1
X-2.917
X-.4S700
X-4.6S0
X-.4S700
X-4.6S0
X-.4S700
X-2.917S0
X.1Y.1
X2.917
X.4S700
X4.5S0
X.3S700
X4.6S0
X.4S700
X2.917S0
X-.1Y.1
X-2.917
X-.3S700
X-4.5S0
X-.4S700
X-4.5S0
X-.3S700
X-2.917S0
Y.1
X2.917
X.4S700
X4.4S0
X.4S700
X4.4S0
X.4S700
X2.917S0
X-.1Y.1
X-2.917
X-.4S700
X-4.4S0
X-.3S700
X-4.3S0
X-.4S700
X-2.917S0
X.1Y.1
X2.917
X.4S700
X3.7S0
X1.4S700
X3.8S0
X.3S700
X2.917S0
Y.1
X-2.917
X-.5S700
X-3.5S0
X-1.6S700
X-3.6S0
X-.4S700
X-2.917S0
X.1Y.1
X2.917
X.4S700
X3.5S0
X1.6S700
X3.5S0
X.4S700
X2.917S0
X-.1Y.1
X-2.917
X-.5S700
X-3.4S0
X-1.4S700
X-3.5S0
X-.4S700
X-2.917S0
X.1Y.1
X2.917
X.4S700
X3.9S0
X.4S700
X3.9S0
X.4S700
X2.917S0
Y.1
X-2.917
X-.5S700
X-3.8S0
X-.4S700
X-3.8S0
X-.4S700
X-2.917S0
Y.1
X2.917
X.5S700
X3.7S0
X.3S700
X3.8S0
X.5S700
X2.917S0
X-.1Y.1
X-2.917
X-.6S700
X-3.5S0
X-.4S700
X-3.5S0
X-.6S700
X-2.917S0
X.1Y.1
X2.917
X.5S700
X3.5S0
X.4S700
X3.4S0
X.6S700
X2.917S0
X-.1Y.1
X-2.917
X-.5S700
X-3.5S0
X-.2S700
X-3.5S0
X-.5S700
X-2.917S0
X.2Y.1
X2.917
X.5S700
X6.8S0
X.5S700
X2.917S0
X-.1Y.1
X-2.917
X-.5S700
X-6.6S0
X-.5S700
X-2.917S0
X.1Y.1
X2.917
X.5S700
X6.3S0
X.6S700
X2.917S0
X-.2Y.1
X-2.917
X-.5S700
X-6S0
X-.6S700
X-2.917S0
X.2Y.1
X2.917
X.6S700
X5.6S0
X.6S700
X2.917S0
X-.2Y.1
X-2.917
X-.6S700
X-5.2S0
X-.6S700
X-2.917S0
Y.1
X2.917
X.7S700
X4.9S0
X.7S700
X2.917S0
X-.2Y.1
X-2.917
X-.6S700
X-4.6S0
X-.7S700
X-2.917S0
X.3Y.1
X2.917
X.8S700
X3.8S0
X.1S700
X.1S0
X.6S700
X2.917S0
X-.1Y.1
X-2.917
X-1S700
X-3.2S0
X-1S700
X-2.917S0
X.3Y.1
X2.917
X1S700
X2.6S0
X1S700
X2.917S0
X-.2Y.1
X-2.917
X-1.3S700
X-1.6S0
X-1.3S700
X-2.917S0
X.2Y.1
X2.917
X3.7S700
X2.917S0
X-.2Y.1
X-2.917
X-.1S700
X-.1S0
X-2.9S700
X-2.917S0
X.5Y.1
X2.917
X.1S700
X.1S0
X1.5S700
X.2S0
X.1S700
X2.917S0
G90
M9
G1 S0
M5
G90
; return to user-defined finish pos
G0 X0Y0
M2
