; LightBurn Pro 2.0.05
; GRBL-LPC device profile, absolute coords
; Bounds: X16.7 Y17.4 to X283.73 Y193.3
G00 G17 G40 G21 G54
G90
M4
; Image @ 7000 мм/мин, 100% power
M8
G0 X29.898Y67.499
; Layer C00
G91
G1 X2.916F7000S0
X1.2S1000
X13.7S0
X.1S1000
X.1S0
X1S1000
X.2S0
X.1S1000
X13.4S0
X.1S1000
X.1S0
X.9S1000
X.1S0
X.1S1000
X39S0
X1.2S1000
X13.7S0
X1.1S1000
X.2S0
X.1S1000
X13.5S0
X.1S1000
X.1S0
X.8S1000
X.1S0
X.1S1000
X39S0
X1.2S1000
X13.6S0
X.1S1000
X.1S0
X1S1000
X.1S0
X.1S1000
X13.7S0
X1S1000
X.2S0
X.1S1000
X38.9S0
X1.2S1000
X13.6S0
X.1S1000
X.1S0
X1S1000
X.1S0
X.1S1000
X13.6S0
X.1S1000
X.1S0
X.9S1000
X.2S0
X.1S1000
X2.917S0
X.4Y.1
X-2.917
X-.2S1000
X-.1S0
X-2S1000
X-12.6S0
X-2S1000
X-.1S0
X-.2S1000
X-12.7S0
X-2S1000
X-.1S0
X-.2S1000
X-37.9S0
X-.2S1000
X-.1S0
X-1.9S1000
X-12.7S0
X-2S1000
X-.1S0
X-.2S1000
X-12.7S0
X-1.9S1000
X-.1S0
X-.2S1000
X-38S0
X-2.2S1000
X-12.7S0
X-2.2S1000
X-12.7S0
X-2S1000
X-.1S0
X-.2S1000
X-38S0
X-1.9S1000
X-.1S0
X-.2S1000
X-12.5S0
X-.1S1000
X-.1S0
X-1.9S1000
X-.1S0
X-.2S1000
X-12.6S0
X-1.9S1000
X-.1S0
X-.3S1000
X-2.916S0
X-.3Y.1
X2.916
X2.8S1000
X12.2S0
X2.8S1000
X12.1S0
X2.8S1000
X37.4S0
X2.7S1000
X12.2S0
X2.8S1000
X12.2S0
X2.8S1000
X37.3S0
X2.8S1000
X12.2S0
X2.7S1000
X12.2S0
X2.8S1000
X37.4S0
X2.7S1000
X12.2S0
X2.8S1000
X12.2S0
X2.7S1000
X2.917S0
X.2Y.1
X-2.917
X-3.2S1000
X-11.7S0
X-3.3S1000
X-11.7S0
X-3.1S1000
X-37S0
X-3.3S1000
X-11.6S0
X-3.3S1000
X-11.8S0
X-3.1S1000
X-37S0
X-3.2S1000
X-11.7S0
X-3.3S1000
X-11.7S0
X-3.1S1000
X-37S0
X-3.3S1000
X-11.6S0
X-3.3S1000
X-11.7S0
X-3.2S1000
X-2.916S0
X-.3Y.1
X2.916
X3.7S1000
X11.2S0
X3.8S1000
X11.2S0
X3.7S1000
X36.5S0
X3.6S1000
X11.2S0
X3.8S1000
X11.2S0
X3.8S1000
X36.4S0
X3.7S1000
X11.2S0
X3.8S1000
X11.2S0
X3.7S1000
X36.5S0
X3.6S1000
X11.2S0
X3.8S1000
X11.3S0
X3.7S1000
X2.917S0
X.1Y.1
X-2.917
X-4S1000
X-10.9S0
X-4.1S1000
X-10.9S0
X-4.1S1000
X-36S0
X-4.1S1000
X-10.9S0
X-4.1S1000
X-10.8S0
X-4.1S1000
X-36.1S0
X-4S1000
X-10.9S0
X-4.1S1000
X-10.9S0
X-4.1S1000
X-36S0
X-4.1S1000
X-10.8S0
X-4.2S1000
X-10.8S0
X-4.1S1000
X-2.916S0
X-.4Y.1
X2.916
X.1S1000
X.1S0
X4.4S1000
X10.4S0
X.1S1000
X.1S0
X4.5S1000
X10.3S0
X4.6S1000
X35.5S0
X.1S1000
X.1S0
X4.3S1000
X10.4S0
X.1S1000
X.1S0
X4.5S1000
X10.3S0
X4.7S1000
X35.4S0
X.1S1000
X.1S0
X4.4S1000
X10.4S0
X4.7S1000
X10.3S0
X4.6S1000
X35.5S0
X.1S1000
X.1S0
X4.3S1000
X10.4S0
X.1S1000
X.1S0
X4.5S1000
X10.3S0
X4.7S1000
X2.917S0
X.1Y.1
X-2.917
X-4.9S1000
X-10S0
X-5.1S1000
X-9.9S0
X-5.1S1000
X-35S0
X-5S1000
X-10S0
X-5S1000
X-10.1S0
X-4.9S1000
X-35.1S0
X-4.9S1000
X-10S0
X-5.1S1000
X-10S0
X-5S1000
X-35S0
X-4.9S1000
X-10.2S0
X-4.9S1000
X-10S0
X-5S1000
X-2.916S0
X-.1Y.1
X2.916
X5.2S1000
X9.7S0
X5.3S1000
X9.6S0
X5.4S1000
X34.8S0
X5.3S1000
X9.6S0
X5.4S1000
X9.6S0
X5.3S1000
X34.8S0
X5.3S1000
X9.7S0
X5.3S1000
X9.6S0
X5.4S1000
X34.8S0
X5.2S1000
X9.7S0
X5.4S1000
X9.6S0
X5.3S1000
X2.917S0
X.1Y.1
X-2.917
X-5.5S1000
X-9.5S0
X-5.5S1000
X-9.4S0
X-5.6S1000
X-34.6S0
X-5.5S1000
X-9.4S0
X-5.6S1000
X-9.4S0
X-5.6S1000
X-34.5S0
X-5.6S1000
X-9.4S0
X-5.5S1000
X-9.4S0
X-5.6S1000
X-34.6S0
X-5.5S1000
X-9.4S0
X-5.6S1000
X-9.4S0
X-5.5S1000
X-2.916S0
X-.3Y.1
X2.916
X2.9S1000
X.9S0
X2.1S1000
X9.2S0
X2.8S1000
X.5S0
X2.5S1000
X9.1S0
X2.9S1000
X.6S0
X2.3S1000
X34.3S0
X2.8S1000
X.9S0
X2.2S1000
X9.1S0
X2.8S1000
X.6S0
X2.5S1000
X9S0
X3S1000
X.5S0
X2.4S1000
X34.3S0
X2.8S1000
X.9S0
X2.2S1000
X9.1S0
X2.9S1000
X.5S0
X2.4S1000
X9.1S0
X3S1000
X.5S0
X2.4S1000
X34.3S0
X2.7S1000
X.9S0
X2.2S1000
X9.2S0
X2.8S1000
X.6S0
X2.4S1000
X9S0
X3S1000
X.6S0
X2.3S1000
X2.917S0
X.2Y.1
X-2.917
X-2.1S1000
X-1.7S0
X-2.5S1000
X-8.7S0
X-1.9S1000
X-1.8S0
X-2.5S1000
X-8.8S0
X-1.9S1000
X-1.7S0
X-2.6S1000
X-34S0
X-1.9S1000
X-1.7S0
X-2.5S1000
X-8.7S0
X-2S1000
X-1.7S0
X-2.6S1000
X-8.8S0
X-1.9S1000
X-1.7S0
X-2.5S1000
X-34S0
X-2S1000
X-1.7S0
X-2.5S1000
X-8.8S0
X-1.8S1000
X-1.8S0
X-2.5S1000
X-8.8S0
X-1.9S1000
X-1.7S0
X-2.5S1000
X-34S0
X-2S1000
X-1.7S0
X-2.5S1000
X-8.8S0
X-1.9S1000
X-1.6S0
X-2.6S1000
X-8.9S0
X-1.9S1000
X-1.6S0
X-2.6S1000
X-2.916S0
X-.2Y.1
X2.916
X2.4S1000
X2.4S0
X1.7S1000
X8.3S0
X2.6S1000
X2.4S0
X1.7S1000
X8.3S0
X2.4S1000
X2.5S0
X1.7S1000
X33.6S0
X2.4S1000
X2.4S0
X1.8S1000
X8.3S0
X2.5S1000
X2.4S0
X1.8S1000
X8.2S0
X2.5S1000
X2.5S0
X1.7S1000
X33.5S0
X2.5S1000
X2.3S0
X1.8S1000
X8.3S0
X2.6S1000
X2.3S0
X1.7S1000
X8.4S0
X2.4S1000
X2.5S0
X1.7S1000
X33.6S0
X2.4S1000
X2.4S0
X1.8S1000
X8.3S0
X2.5S1000
X2.4S0
X1.8S1000
X8.2S0
X2.5S1000
X2.5S0
X1.7S1000
X2.917S0
X.1Y.1
X-2.917
X-1.6S1000
X-3S0
X-2.4S1000
X-8S0
X-1.6S1000
X-2.9S0
X-2.4S1000
X-8.1S0
X-1.6S1000
X-2.8S0
X-2.4S1000
X-33.3S0
X-1.6S1000
X-2.9S0
X-2.4S1000
X-8S0
X-1.6S1000
X-3S0
X-2.4S1000
X-8.1S0
X-1.5S1000
X-2.9S0
X-2.4S1000
X-33.2S0
X-1.6S1000
X-3S0
X-2.4S1000
X-8S0
X-1.6S1000
X-2.9S0
X-2.4S1000
X-8.1S0
X-1.6S1000
X-2.8S0
X-2.4S1000
X-33.4S0
X-1.5S1000
X-2.9S0
X-2.4S1000
X-8.1S0
X-1.5S1000
X-3S0
X-2.3S1000
X-8.1S0
X-1.6S1000
X-2.9S0
X-2.4S1000
X-2.916S0
X-.1Y.1
X2.916
X2.3S1000
X3.3S0
X1.4S1000
X7.9S0
X2.3S1000
X3.4S0
X1.4S1000
X7.8S0
X2.3S1000
X3.4S0
X1.5S1000
X33S0
X2.3S1000
X3.3S0
X1.5S1000
X7.8S0
X2.4S1000
X3.3S0
X1.4S1000
X7.9S0
X2.3S1000
X3.4S0
X1.4S1000
X33.1S0
X2.2S1000
X3.3S0
X1.5S1000
X7.9S0
X2.3S1000
X3.3S0
X1.5S1000
X7.9S0
X2.2S1000
X3.4S0
X1.5S1000
X33S0
X2.3S1000
X3.3S0
X1.5S1000
X7.8S0
X2.4S1000
X3.3S0
X1.5S1000
X7.8S0
X2.4S1000
X3.2S0
X1.5S1000
X2.917S0
X.1Y.1
X-2.917
X-1.4S1000
X-3.6S0
X-2.3S1000
X-7.7S0
X-1.4S1000
X-3.6S0
X-2.3S1000
X-7.6S0
X-1.5S1000
X-3.6S0
X-2.3S1000
X-32.8S0
X-1.4S1000
X-3.6S0
X-2.3S1000
X-7.6S0
X-1.4S1000
X-3.7S0
X-2.3S1000
X-7.5S0
X-1.5S1000
X-3.7S0
X-2.2S1000
X-32.8S0
X-1.4S1000
X-3.6S0
X-2.3S1000
X-7.7S0
X-1.4S1000
X-3.6S0
X-2.3S1000
X-7.7S0
X-1.4S1000
X-3.6S0
X-2.3S1000
X-32.8S0
X-1.3S1000
X-3.7S0
X-2.3S1000
X-7.6S0
X-1.4S1000
X-3.7S0
X-2.3S1000
X-7.6S0
X-1.4S1000
X-3.7S0
X-2.2S1000
X-2.916S0
X-.2Y.1
X2.916
X2.3S1000
X3.9S0
X1.4S1000
X7.4S0
X2.2S1000
X4S0
X1.3S1000
X7.5S0
X2.1S1000
X4.1S0
X1.4S1000
X32.5S0
X2.2S1000
X4S0
X1.4S1000
X7.3S0
X2.2S1000
X4S0
X1.4S1000
X7.4S0
X2.1S1000
X4.1S0
X1.3S1000
X32.6S0
X2.3S1000
X3.9S0
X1.4S1000
X7.4S0
X2.2S1000
X4S0
X1.3S1000
X7.5S0
X2.1S1000
X4.1S0
X1.3S1000
X32.6S0
X2.3S1000
X3.9S0
X1.4S1000
X7.3S0
X2.2S1000
X4S0
X1.4S1000
X7.4S0
X2.1S1000
X4.1S0
X1.3S1000
X2.917S0
X.2Y.1
X-2.917
X-1.4S1000
X-4.3S0
X-2.2S1000
X-7.1S0
X-1.3S1000
X-4.4S0
X-2.2S1000
X-7.1S0
X-1.3S1000
X-4.2S0
X-.1S1000
X-.1S0
X-2.2S1000
X-32.2S0
X-1.3S1000
X-4.5S0
X-2.1S1000
X-7S0
X-1.4S1000
X-4.4S0
X-2.2S1000
X-7S0
X-1.4S1000
X-4.2S0
X-.1S1000
X-.1S0
X-2.2S1000
X-32.1S0
X-1.4S1000
X-4.3S0
X-2.2S1000
X-7.1S0
X-1.3S1000
X-4.3S0
X-.1S1000
X-.1S0
X-2.1S1000
X-7.1S0
X-1.3S1000
X-4.2S0
X-.1S1000
X-.1S0
X-2.2S1000
X-32.2S0
X-1.3S1000
X-4.4S0
X-2.2S1000
X-7S0
X-1.4S1000
X-4.4S0
X-2.2S1000
X-7S0
X-1.4S1000
X-4.3S0
X-2.2S1000
X-2.916S0
X-.2Y.1
X2.916
X2.1S1000
X4.7S0
X1.4S1000
X6.7S0
X2.2S1000
X4.8S0
X1.3S1000
X6.7S0
X2.2S1000
X4.7S0
X1.3S1000
X31.9S0
X2.2S1000
X4.7S0
X1.3S1000
X6.8S0
X2.1S1000
X4.8S0
X1.3S1000
X6.8S0
X2.1S1000
X4.7S0
X1.4S1000
X31.9S0
X2.1S1000
X4.7S0
X1.4S1000
X6.7S0
X2.1S1000
X4.9S0
X1.2S1000
X6.8S0
X2.2S1000
X4.7S0
X1.3S1000
X31.9S0
X2.2S1000
X4.7S0
X1.3S1000
X6.8S0
X2.1S1000
X4.8S0
X1.3S1000
X6.8S0
X2.1S1000
X4.7S0
X1.4S1000
X2.917S0
Y.1
X-2.917
X-1.3S1000
X-4.9S0
X-2.2S1000
X-6.5S0
X-1.3S1000
X-5.1S0
X-2.1S1000
X-6.5S0
X-1.3S1000
X-5S0
X-2.1S1000
X-31.7S0
X-1.3S1000
X-5S0
X-2.1S1000
X-6.6S0
X-1.2S1000
X-5.2S0
X-2.1S1000
X-6.5S0
X-1.3S1000
X-5S0
X-2.1S1000
X-31.7S0
X-1.3S1000
X-4.9S0
X-2.2S1000
X-6.5S0
X-1.3S1000
X-5.1S0
X-2.1S1000
X-6.5S0
X-1.3S1000
X-5S0
X-2.1S1000
X-31.7S0
X-1.3S1000
X-5S0
X-2.1S1000
X-6.6S0
X-1.2S1000
X-5.2S0
X-2S1000
X-6.5S0
X-1.3S1000
X-5.1S0
X-2.1S1000
X-2.916S0
X-.1Y.1
X2.916
X2S1000
X5.4S0
X1.2S1000
X6.3S0
X2.1S1000
X5.3S0
X1.3S1000
X6.3S0
X2.2S1000
X5.2S0
X1.2S1000
X31.5S0
X2.1S1000
X5.3S0
X1.2S1000
X6.3S0
X2.2S1000
X5.3S0
X1.2S1000
X6.3S0
X2.2S1000
X5.2S0
X1.3S1000
X31.4S0
X2.1S1000
X5.4S0
X1.2S1000
X6.3S0
X2.1S1000
X5.3S0
X1.3S1000
X6.3S0
X2.2S1000
X5.2S0
X1.2S1000
X31.5S0
X2.1S1000
X5.3S0
X1.2S1000
X6.3S0
X2.2S1000
X5.3S0
X1.2S1000
X6.3S0
X2.2S1000
X5.2S0
X1.3S1000
X2.917S0
Y.1
X-2.917
X-1.2S1000
X-5.5S0
X-2.1S1000
X-6.1S0
X-1.2S1000
X-5.6S0
X-2.1S1000
X-6.1S0
X-1.2S1000
X-5.6S0
X-2.1S1000
X-31.2S0
X-1.2S1000
X-5.5S0
X-2.1S1000
X-6.2S0
X-1.2S1000
X-5.5S0
X-2.2S1000
X-6.1S0
X-1.2S1000
X-5.5S0
X-2.1S1000
X-31.3S0
X-1.2S1000
X-5.5S0
X-2.1S1000
X-6.1S0
X-1.2S1000
X-5.6S0
X-2.1S1000
X-6.1S0
X-1.2S1000
X-5.5S0
X-2.2S1000
X-31.2S0
X-1.2S1000
X-5.5S0
X-2.1S1000
X-6.2S0
X-1.2S1000
X-5.5S0
X-2.2S1000
X-6.1S0
X-1.2S1000
X-5.5S0
X-2.1S1000
X-2.916S0
X-.2Y.1
X2.916
X2.1S1000
X5.8S0
X1.1S1000
X6S0
X2.1S1000
X5.8S0
X1.1S1000
X6S0
X2.1S1000
X5.8S0
X1.1S1000
X31S0
X2.2S1000
X5.7S0
X1.2S1000
X5.9S0
X2.1S1000
X5.8S0
X1.2S1000
X5.9S0
X2.2S1000
X5.7S0
X1.2S1000
X31S0
X2.1S1000
X5.8S0
X1.1S1000
X6S0
X2.1S1000
X5.8S0
X1.2S1000
X5.9S0
X2.1S1000
X5.8S0
X1.1S1000
X31.1S0
X2.1S1000
X5.7S0
X1.2S1000
X5.9S0
X2.1S1000
X5.8S0
X1.2S1000
X6S0
X2.1S1000
X5.7S0
X1.2S1000
X2.917S0
Y.1
X-2.917
X-1.1S1000
X-6.1S0
X-2.1S1000
X-5.7S0
X-1.1S1000
X-6.1S0
X-2S1000
X-5.8S0
X-1.1S1000
X-6.1S0
X-2S1000
X-30.8S0
X-1.2S1000
X-6.1S0
X-2S1000
X-5.7S0
X-1.1S1000
X-6.2S0
X-2S1000
X-5.7S0
X-1.1S1000
X-6.1S0
X-2.1S1000
X-30.8S0
X-1.1S1000
X-6.1S0
X-2.1S1000
X-5.7S0
X-1.1S1000
X-6.1S0
X-2S1000
X-5.8S0
X-1.1S1000
X-6.1S0
X-2S1000
X-30.8S0
X-1.2S1000
X-6.1S0
X-2S1000
X-5.7S0
X-1.1S1000
X-6.1S0
X-2.1S1000
X-5.7S0
X-1.1S1000
X-6.1S0
X-2.1S1000
X-2.916S0
X-.2Y.1
X2.916
X2.1S1000
X6.3S0
X1.2S1000
X5.4S0
X2.1S1000
X6.3S0
X1.1S1000
X5.5S0
X2S1000
X6.4S0
X1.1S1000
X30.6S0
X2S1000
X6.4S0
X1.1S1000
X5.5S0
X2S1000
X6.4S0
X1.1S1000
X5.5S0
X2S1000
X6.3S0
X1.1S1000
X30.6S0
X2S1000
X6.4S0
X1.1S1000
X5.5S0
X2S1000
X6.4S0
X1.1S1000
X5.5S0
X2S1000
X6.4S0
X1.1S1000
X30.6S0
X2S1000
X6.4S0
X1.1S1000
X5.5S0
X2S1000
X6.4S0
X1.1S1000
X5.5S0
X2S1000
X6.3S0
X1.2S1000
X2.917S0
Y.1
X-2.917
X-1.1S1000
X-6.6S0
X-2S1000
X-5.3S0
X-1.1S1000
X-6.6S0
X-2S1000
X-5.3S0
X-1S1000
X-6.7S0
X-2S1000
X-30.4S0
X-1.1S1000
X-6.6S0
X-2S1000
X-5.2S0
X-1.2S1000
X-6.5S0
X-2.1S1000
X-5.2S0
X-1.1S1000
X-6.7S0
X-1.9S1000
X-30.4S0
X-1.1S1000
X-6.6S0
X-2S1000
X-5.3S0
X-1.1S1000
X-6.6S0
X-2S1000
X-5.3S0
X-1S1000
X-6.7S0
X-2S1000
X-30.4S0
X-1.1S1000
X-6.5S0
X-2.1S1000
X-5.2S0
X-1.1S1000
X-6.6S0
X-2S1000
X-5.3S0
X-1.1S1000
X-6.6S0
X-2S1000
X-2.916S0
X-.2Y.1
X2.916
X2S1000
X6.9S0
X1S1000
X5.1S0
X2S1000
X6.8S0
X1.1S1000
X5.1S0
X2S1000
X6.8S0
X1.1S1000
X30.2S0
X2S1000
X6.8S0
X1.1S1000
X5.1S0
X2S1000
X6.8S0
X1.1S1000
X5S0
X2.1S1000
X6.7S0
X1.1S1000
X30.2S0
X2S1000
X6.9S0
X1S1000
X5.1S0
X2S1000
X6.8S0
X1.1S1000
X5.1S0
X2S1000
X6.8S0
X1.1S1000
X30.2S0
X2S1000
X6.8S0
X1.1S1000
X5.1S0
X2S1000
X6.8S0
X1.1S1000
X5S0
X2.1S1000
X6.8S0
X1S1000
X2.917S0
X.1Y.1
X-2.917
X-1.1S1000
X-7S0
X-2S1000
X-4.9S0
X-1S1000
X-7.1S0
X-2S1000
X-4.9S0
X-1S1000
X-7.1S0
X-2S1000
X-30S0
X-1S1000
X-7.1S0
X-2S1000
X-4.9S0
X-1S1000
X-7S0
X-2.1S1000
X-4.8S0
X-1.1S1000
X-7S0
X-2S1000
X-30S0
X-1.1S1000
X-7S0
X-2S1000
X-4.9S0
X-1.1S1000
X-7S0
X-2S1000
X-4.9S0
X-1S1000
X-7.1S0
X-2S1000
X-30S0
X-1S1000
X-7S0
X-2.1S1000
X-4.8S0
X-1.1S1000
X-7S0
X-2S1000
X-4.9S0
X-1.1S1000
X-7S0
X-2S1000
X-2.916S0
X-.2Y.1
X2.916
X2S1000
X7.3S0
X1S1000
X4.7S0
X2S1000
X7.2S0
X1.1S1000
X4.7S0
X1.9S1000
X7.3S0
X1S1000
X29.9S0
X2S1000
X7.2S0
X1.1S1000
X4.6S0
X2.1S1000
X7.2S0
X1.1S1000
X4.6S0
X1.9S1000
X7.4S0
X1S1000
X29.8S0
X1.9S1000
X7.4S0
X1S1000
X4.7S0
X1.9S1000
X7.3S0
X1.1S1000
X4.7S0
X1.9S1000
X7.3S0
X1S1000
X29.8S0
X2.1S1000
X7.2S0
X1.1S1000
X4.6S0
X2.1S1000
X7.2S0
X1.1S1000
X4.6S0
X2S1000
X7.3S0
X1S1000
X2.917S0
Y.1
X-2.917
X-1S1000
X-7.5S0
X-2S1000
X-4.4S0
X-1S1000
X-7.6S0
X-2S1000
X-4.4S0
X-1S1000
X-7.6S0
X-2S1000
X-29.5S0
X-1.1S1000
X-7.5S0
X-2S1000
X-4.4S0
X-1S1000
X-7.6S0
X-2S1000
X-4.3S0
X-1S1000
X-7.6S0
X-2.1S1000
X-29.5S0
X-1S1000
X-7.5S0
X-2S1000
X-4.4S0
X-1S1000
X-7.6S0
X-2S1000
X-4.4S0
X-1S1000
X-7.6S0
X-2S1000
X-29.5S0
X-1S1000
X-7.5S0
X-2.1S1000
X-4.3S0
X-1.1S1000
X-7.6S0
X-2S1000
X-4.3S0
X-1S1000
X-7.6S0
X-2S1000
X-2.916S0
X-.2Y.1
X2.916
X2S1000
X7.8S0
X1S1000
X4.1S0
X2.1S1000
X7.8S0
X1S1000
X4.2S0
X2S1000
X7.7S0
X1S1000
X29.4S0
X1.9S1000
X7.9S0
X1S1000
X4.1S0
X2S1000
X7.8S0
X1S1000
X4.3S0
X1.9S1000
X7.8S0
X1S1000
X29.3S0
X2S1000
X7.8S0
X1S1000
X4.2S0
X1.9S1000
X7.9S0
X1S1000
X4.3S0
X1.9S1000
X7.7S0
X1S1000
X29.4S0
X1.9S1000
X7.9S0
X1S1000
X4.2S0
X1.9S1000
X7.8S0
X1S1000
X4.3S0
X1.9S1000
X7.7S0
X1.1S1000
X2.917S0
Y.1
X-2.917
X-1S1000
X-8S0
X-1.9S1000
X-4.1S0
X-1S1000
X-8S0
X-1.9S1000
X-4S0
X-1S1000
X-8S0
X-1.9S1000
X-29.2S0
X-1.1S1000
X-8S0
X-1.8S1000
X-4.1S0
X-1S1000
X-8.1S0
X-1.8S1000
X-4.1S0
X-1S1000
X-8S0
X-1.9S1000
X-29.2S0
X-1S1000
X-8S0
X-1.9S1000
X-4.1S0
X-.9S1000
X-8.1S0
X-1.9S1000
X-4S0
X-1S1000
X-8S0
X-2S1000
X-29.1S0
X-1S1000
X-8S0
X-1.9S1000
X-4.1S0
X-1S1000
X-8.1S0
X-1.8S1000
X-4S0
X-1.1S1000
X-8S0
X-1.9S1000
X-2.916S0
X-.1Y.1
X2.916
X1.9S1000
X8.2S0
X1S1000
X3.9S0
X1.8S1000
X8.3S0
X.9S1000
X4S0
X1.8S1000
X8.2S0
X1S1000
X29S0
X1.9S1000
X8.2S0
X1S1000
X3.9S0
X1.9S1000
X8.2S0
X.9S1000
X4S0
X1.9S1000
X8.1S0
X1S1000
X29.1S0
X1.8S1000
X8.3S0
X1S1000
X3.9S0
X1.8S1000
X8.2S0
X1S1000
X4S0
X1.8S1000
X8.2S0
X1S1000
X29S0
X1.9S1000
X8.2S0
X1S1000
X3.9S0
X1.9S1000
X8.2S0
X.9S1000
X4S0
X1.9S1000
X8.1S0
X1S1000
X2.917S0
Y.1
X-2.917
X-.9S1000
X-8.3S0
X-2S1000
X-3.7S0
X-1S1000
X-8.3S0
X-2S1000
X-3.7S0
X-1S1000
X-8.3S0
X-2S1000
X-28.8S0
X-1S1000
X-8.3S0
X-1.9S1000
X-3.8S0
X-.9S1000
X-8.4S0
X-1.9S1000
X-3.7S0
X-1S1000
X-8.4S0
X-1.9S1000
X-28.9S0
X-.9S1000
X-8.4S0
X-1.9S1000
X-3.7S0
X-1S1000
X-8.4S0
X-1.9S1000
X-3.6S0
X-1.1S1000
X-8.4S0
X-1.9S1000
X-28.8S0
X-1S1000
X-8.3S0
X-1.9S1000
X-3.8S0
X-1S1000
X-8.3S0
X-1.9S1000
X-3.7S0
X-1.1S1000
X-8.3S0
X-1.9S1000
X-2.916S0
X-.2Y.1
X2.916
X1.9S1000
X8.6S0
X1S1000
X3.5S0
X1.9S1000
X8.6S0
X1S1000
X3.5S0
X1.9S1000
X8.5S0
X1S1000
X28.7S0
X1.9S1000
X8.5S0
X1.1S1000
X3.5S0
X1.9S1000
X8.5S0
X1S1000
X3.6S0
X1.9S1000
X8.5S0
X1S1000
X28.6S0
X1.9S1000
X8.6S0
X1S1000
X3.5S0
X1.9S1000
X8.6S0
X1S1000
X3.5S0
X1.9S1000
X8.5S0
X1S1000
X28.7S0
X1.9S1000
X8.6S0
X1S1000
X3.5S0
X1.9S1000
X8.6S0
X.9S1000
X3.5S0
X2S1000
X8.5S0
X1S1000
X2.917S0
Y.1
X-2.917
X-1S1000
X-8.7S0
X-1.9S1000
X-3.3S0
X-1.1S1000
X-8.7S0
X-1.9S1000
X-3.3S0
X-1S1000
X-8.8S0
X-1.9S1000
X-28.4S0
X-1S1000
X-8.8S0
X-1.9S1000
X-3.3S0
X-1.1S1000
X-8.6S0
X-1.9S1000
X-3.4S0
X-1S1000
X-8.7S0
X-2S1000
X-28.4S0
X-1S1000
X-8.7S0
X-1.9S1000
X-3.4S0
X-1S1000
X-8.7S0
X-1.9S1000
X-3.3S0
X-1S1000
X-8.8S0
X-1.9S1000
X-28.4S0
X-1.1S1000
X-8.7S0
X-1.9S1000
X-3.3S0
X-1S1000
X-8.7S0
X-1.9S1000
X-3.4S0
X-1S1000
X-8.7S0
X-1.9S1000
X-2.916S0
X-.2Y.1
X2.916
X1.9S1000
X8.9S0
X1S1000
X3.2S0
X1.9S1000
X8.9S0
X1S1000
X3.2S0
X1.9S1000
X8.9S0
X1S1000
X28.2S0
X2S1000
X8.9S0
X1S1000
X3.1S0
X1.9S1000
X9S0
X1S1000
X3.1S0
X1.9S1000
X8.9S0
X1S1000
X28.3S0
X1.9S1000
X8.9S0
X1S1000
X3.2S0
X1.9S1000
X8.9S0
X1S1000
X3.2S0
X1.8S1000
X9S0
X1S1000
X28.2S0
X2S1000
X8.9S0
X1S1000
X3.1S0
X1.9S1000
X9S0
X1S1000
X3.1S0
X1.9S1000
X8.9S0
X1S1000
X2.917S0
Y.1
X-2.917
X-.9S1000
X-9.2S0
X-1.8S1000
X-3S0
X-1S1000
X-9.1S0
X-1.9S1000
X-3S0
X-1S1000
X-9.1S0
X-1.9S1000
X-28.1S0
X-1S1000
X-9.1S0
X-1.9S1000
X-3S0
X-.9S1000
X-9.2S0
X-1.8S1000
X-3S0
X-1.1S1000
X-9S0
X-2S1000
X-28.1S0
X-.9S1000
X-9.2S0
X-1.8S1000
X-3S0
X-1.1S1000
X-9S0
X-1.9S1000
X-3S0
X-1S1000
X-9.1S0
X-1.9S1000
X-28.1S0
X-1S1000
X-9.1S0
X-1.8S1000
X-3.1S0
X-1S1000
X-9S0
X-1.9S1000
X-3S0
X-1S1000
X-9.1S0
X-1.9S1000
X-2.916S0
X-.2Y.1
X2.916
X1.9S1000
X9.3S0
X.9S1000
X2.9S0
X1.9S1000
X9.3S0
X.9S1000
X2.8S0
X1.9S1000
X9.2S0
X1.1S1000
X27.9S0
X1.9S1000
X9.3S0
X1S1000
X2.8S0
X1.9S1000
X9.3S0
X1S1000
X2.8S0
X1.9S1000
X9.2S0
X1.1S1000
X27.9S0
X1.9S1000
X9.3S0
X1S1000
X2.8S0
X1.9S1000
X9.2S0
X1S1000
X2.8S0
X1.9S1000
X9.3S0
X1S1000
X27.9S0
X1.9S1000
X9.3S0
X1S1000
X2.8S0
X1.9S1000
X9.3S0
X1S1000
X2.8S0
X1.9S1000
X9.3S0
X1S1000
X2.917S0
Y.1
X-2.917
X-1S1000
X-9.5S0
X-1.8S1000
X-2.7S0
X-1S1000
X-9.5S0
X-1.8S1000
X-2.6S0
X-1S1000
X-9.5S0
X-1.9S1000
X-27.8S0
X-1S1000
X-9.4S0
X-1.9S1000
X-2.7S0
X-.9S1000
X-9.5S0
X-1.9S1000
X-2.6S0
X-1.1S1000
X-9.4S0
X-1.9S1000
X-27.7S0
X-1S1000
X-9.5S0
X-1.8S1000
X-2.7S0
X-1S1000
X-9.4S0
X-1.9S1000
X-2.7S0
X-1S1000
X-9.4S0
X-1.9S1000
X-27.8S0
X-1S1000
X-9.4S0
X-1.9S1000
X-2.7S0
X-.9S1000
X-9.5S0
X-1.8S1000
X-2.7S0
X-1S1000
X-9.5S0
X-1.9S1000
X-2.916S0
X-.2Y.1
X2.916
X1.9S1000
X9.7S0
X1S1000
X2.4S0
X1.9S1000
X9.7S0
X.9S1000
X2.5S0
X1.9S1000
X9.7S0
X.9S1000
X27.6S0
X1.9S1000
X9.6S0
X1.1S1000
X2.4S0
X1.8S1000
X9.8S0
X.9S1000
X2.5S0
X1.8S1000
X9.6S0
X1.1S1000
X27.5S0
X1.9S1000
X9.6S0
X1S1000
X2.5S0
X.1S1000
X.1S0
X1.7S1000
X9.6S0
X1S1000
X2.5S0
X1.9S1000
X9.6S0
X1S1000
X27.6S0
X1.9S1000
X9.6S0
X1.1S1000
X2.4S0
X1.9S1000
X9.7S0
X.9S1000
X2.5S0
X1.8S1000
X9.6S0
X1.1S1000
X2.917S0
Y.1
X-2.917
X-1S1000
X-9.9S0
X-1.8S1000
X-2.3S0
X-1S1000
X-9.8S0
X-1.8S1000
X-2.4S0
X-1S1000
X-9.8S0
X-1.8S1000
X-27.5S0
X-1S1000
X-9.8S0
X-1.8S1000
X-2.4S0
X-.9S1000
X-9.8S0
X-1.9S1000
X-2.3S0
X-1S1000
X-9.9S0
X-1.7S1000
X-27.5S0
X-1S1000
X-9.9S0
X-1.8S1000
X-2.3S0
X-1S1000
X-9.8S0
X-1.9S1000
X-2.3S0
X-1S1000
X-9.8S0
X-1.8S1000
X-27.5S0
X-1S1000
X-9.8S0
X-1.8S1000
X-2.4S0
X-.9S1000
X-9.9S0
X-1.8S1000
X-2.4S0
X-.9S1000
X-9.8S0
X-1.9S1000
X-2.916S0
X-.1Y.1
X2.916
X1.9S1000
X9.9S0
X1S1000
X2.3S0
X1.8S1000
X9.9S0
X.9S1000
X2.3S0
X1.8S1000
X9.9S0
X1S1000
X27.4S0
X1.8S1000
X10S0
X1S1000
X2.2S0
X1.8S1000
X9.9S0
X1S1000
X2.2S0
X1.9S1000
X9.9S0
X1S1000
X27.3S0
X1.9S1000
X9.8S0
X1.1S1000
X2.3S0
X1.7S1000
X10S0
X.9S1000
X2.3S0
X1.8S1000
X9.9S0
X1S1000
X27.4S0
X1.8S1000
X10S0
X1S1000
X2.2S0
X1.8S1000
X9.9S0
X1S1000
X2.3S0
X1.8S1000
X9.9S0
X1S1000
X2.917S0
Y.1
X-2.917
X-1S1000
X-10S0
X-1.7S1000
X-2.3S0
X-.9S1000
X-10S0
X-1.8S1000
X-2.2S0
X-1.1S1000
X-9.8S0
X-1.9S1000
X-27.4S0
X-.9S1000
X-10S0
X-1.8S1000
X-2.3S0
X-.9S1000
X-9.9S0
X-1.9S1000
X-2.2S0
X-1S1000
X-9.9S0
X-1.8S1000
X-27.4S0
X-1.1S1000
X-9.9S0
X-1.7S1000
X-2.3S0
X-1S1000
X-9.9S0
X-1.8S1000
X-2.3S0
X-1S1000
X-9.8S0
X-1.9S1000
X-27.4S0
X-.9S1000
X-10S0
X-1.9S1000
X-2.2S0
X-.9S1000
X-9.9S0
X-1.9S1000
X-2.3S0
X-.9S1000
X-9.9S0
X-1.8S1000
X-2.916S0
X.2Y.1
X2.916
X1.8S1000
X9.7S0
X1S1000
X2.4S0
X1.9S1000
X9.7S0
X.9S1000
X2.4S0
X1.9S1000
X9.7S0
X1S1000
X27.6S0
X1.9S1000
X9.6S0
X1.1S1000
X2.3S0
X1.9S1000
X9.7S0
X1S1000
X2.4S0
X1.8S1000
X9.8S0
X1S1000
X27.5S0
X1.9S1000
X9.6S0
X1S1000
X2.5S0
X1.8S1000
X9.7S0
X1S1000
X2.2S0
X.1S1000
X.1S0
X1.9S1000
X9.7S0
X1S1000
X27.6S0
X1.9S1000
X9.6S0
X1S1000
X2.4S0
X1.9S1000
X9.7S0
X1S1000
X2.1S0
X.1S1000
X.2S0
X1.8S1000
X9.7S0
X1.1S1000
X2.917S0
Y.1
X-2.917
X-1S1000
X-8S0
X-18.3S1000
X-2.6S0
X-1S1000
X-9.6S0
X-1.9S1000
X-27.7S0
X-1S1000
X-7.9S0
X-16.4S1000
X-.2S0
X-1.8S1000
X-2.6S0
X-1S1000
X-9.5S0
X-2S1000
X-27.6S0
X-1.1S1000
X-7.9S0
X-18.3S1000
X-2.7S0
X-1S1000
X-9.5S0
X-1.9S1000
X-27.7S0
X-1S1000
X-7.9S0
X-16.4S1000
X-.1S0
X-1.9S1000
X-2.7S0
X-.9S1000
X-9.5S0
X-1.9S1000
X-2.916S0
X.1Y.1
X2.916
X1.9S1000
X9.4S0
X1S1000
X2.8S0
X18.3S1000
X7.9S0
X.9S1000
X27.9S0
X1.9S1000
X9.3S0
X1.1S1000
X2.7S0
X18.3S1000
X7.9S0
X1S1000
X27.9S0
X1.8S1000
X9.3S0
X1.1S1000
X2.7S0
X18.3S1000
X7.9S0
X1S1000
X27.9S0
X1.9S1000
X9.3S0
X1S1000
X2.8S0
X18.3S1000
X7.9S0
X1S1000
X2.917S0
Y.1
X-2.917
X-1.1S1000
X-7.7S0
X-18.3S1000
X-2.9S0
X-1S1000
X-9.2S0
X-1.8S1000
X-28.1S0
X-1S1000
X-7.7S0
X-18.3S1000
X-2.9S0
X-1.1S1000
X-9.1S0
X-1.9S1000
X-28S0
X-1.1S1000
X-7.7S0
X-18.3S1000
X-2.9S0
X-.9S1000
X-9.3S0
X-1.8S1000
X-28.1S0
X-1S1000
X-7.8S0
X-18.2S1000
X-3S0
X-.9S1000
X-9.2S0
X-1.9S1000
X-2.916S0
X.2Y.1
X2.916
X1.9S1000
X9S0
X1S1000
X3S0
X18.1S1000
X7.8S0
X1S1000
X28.2S0
X1.9S1000
X9S0
X1S1000
X3.1S0
X18.1S1000
X7.8S0
X.9S1000
X28.2S0
X1.9S1000
X9.1S0
X.9S1000
X3.1S0
X18.2S1000
X7.7S0
X1S1000
X28.2S0
X1.9S1000
X9.1S0
X.9S1000
X3.1S0
X18.1S1000
X7.8S0
X.9S1000
X2.917S0
Y.1
X-2.917
X-.9S1000
X-7.8S0
X-18S1000
X-3.2S0
X-1S1000
X-8.9S0
X-1.8S1000
X-28.4S0
X-1.1S1000
X-7.6S0
X-18S1000
X-3.3S0
X-1S1000
X-8.8S0
X-1.9S1000
X-28.4S0
X-1S1000
X-7.7S0
X-18S1000
X-3.2S0
X-1S1000
X-8.9S0
X-1.8S1000
X-28.4S0
X-1S1000
X-7.7S0
X-18S1000
X-3.3S0
X-1S1000
X-8.8S0
X-1.8S1000
X-2.916S0
X.1Y.1
X2.916
X1.8S1000
X8.7S0
X1S1000
X3.4S0
X1.7S1000
X15.6S0
X.6S1000
X7.6S0
X1.1S1000
X28.6S0
X1.8S1000
X8.6S0
X1.1S1000
X3.4S0
X1.6S1000
X15.6S0
X.7S1000
X7.6S0
X1S1000
X28.6S0
X1.8S1000
X8.7S0
X1S1000
X3.4S0
X1.7S1000
X15.6S0
X.6S1000
X7.7S0
X1S1000
X28.6S0
X1.8S1000
X8.6S0
X1.1S1000
X3.4S0
X1.6S1000
X15.7S0
X.6S1000
X7.6S0
X1S1000
X2.917S0
Y.1
X-2.917
X-1S1000
X-7.5S0
X-.7S1000
X-15.7S0
X-1.4S1000
X-3.7S0
X-.9S1000
X-8.4S0
X-2S1000
X-28.8S0
X-1S1000
X-7.5S0
X-.7S1000
X-15.7S0
X-1.4S1000
X-3.6S0
X-1S1000
X-8.4S0
X-1.9S1000
X-28.8S0
X-1S1000
X-7.5S0
X-.7S1000
X-15.8S0
X-1.3S1000
X-3.6S0
X-1S1000
X-8.5S0
X-1.9S1000
X-28.7S0
X-1S1000
X-7.6S0
X-.7S1000
X-15.7S0
X-1.4S1000
X-3.6S0
X-1.1S1000
X-8.3S0
X-1.9S1000
X-2.916S0
X.1Y.1
X2.916
X2S1000
X8.2S0
X1S1000
X3.8S0
X1.1S1000
X15.9S0
X.7S1000
X7.4S0
X1S1000
X29S0
X1.9S1000
X8.2S0
X1S1000
X3.9S0
X1.1S1000
X15.9S0
X.6S1000
X7.5S0
X1S1000
X28.9S0
X1.9S1000
X8.2S0
X1.1S1000
X3.8S0
X1.1S1000
X15.9S0
X.8S1000
X7.3S0
X1S1000
X29S0
X1.9S1000
X8.2S0
X1S1000
X3.9S0
X1S1000
X16S0
X.6S1000
X7.4S0
X1.1S1000
X2.917S0
X-.1Y.1
X-2.917
X-1S1000
X-7.3S0
X-.7S1000
X-16S0
X-.9S1000
X-4S0
X-1S1000
X-8.1S0
X-1.9S1000
X-29.1S0
X-1S1000
X-7.4S0
X-.6S1000
X-16.1S0
X-.9S1000
X-4S0
X-1S1000
X-8S0
X-1.9S1000
X-29.2S0
X-1S1000
X-7.3S0
X-.7S1000
X-16S0
X-1S1000
X-3.9S0
X-1S1000
X-8S0
X-2S1000
X-29.1S0
X-1S1000
X-7.4S0
X-.6S1000
X-16.1S0
X-.9S1000
X-3.9S0
X-1.1S1000
X-8S0
X-1.9S1000
X-2.916S0
X.1Y.1
X2.916
X1.9S1000
X7.9S0
X1S1000
X4.2S0
X.7S1000
X16.1S0
X.7S1000
X7.3S0
X1S1000
X29.2S0
X2S1000
X7.8S0
X1S1000
X4.2S0
X.8S1000
X16.1S0
X.6S1000
X7.3S0
X1S1000
X29.3S0
X1.9S1000
X7.9S0
X1S1000
X4.2S0
X.7S1000
X16.1S0
X.8S1000
X7.1S0
X1S1000
X29.3S0
X2S1000
X7.8S0
X1S1000
X4.2S0
X.7S1000
X16.2S0
X.6S1000
X7.3S0
X1S1000
X2.917S0
Y.1
X-2.917
X-1S1000
X-7.1S0
X-.8S1000
X-16.1S0
X-.8S1000
X-4.2S0
X-1S1000
X-7.6S0
X-2S1000
X-29.5S0
X-1S1000
X-7.2S0
X-.6S1000
X-16.3S0
X-.6S1000
X-4.2S0
X-1S1000
X-7.7S0
X-2S1000
X-29.4S0
X-1S1000
X-7.2S0
X-.7S1000
X-16.2S0
X-.7S1000
X-4.2S0
X-1S1000
X-7.6S0
X-2S1000
X-29.5S0
X-1S1000
X-7.1S0
X-.7S1000
X-16.2S0
X-.7S1000
X-4.2S0
X-1S1000
X-7.6S0
X-2S1000
X-2.916S0
X.1Y.1
X2.916
X1.9S1000
X7.5S0
X1S1000
X4.2S0
X.7S1000
X16.4S0
X.6S1000
X7S0
X1.1S1000
X29.7S0
X2S1000
X7.3S0
X1.1S1000
X4.2S0
X.6S1000
X16.4S0
X.7S1000
X7S0
X1.1S1000
X29.6S0
X2S1000
X7.4S0
X1S1000
X4.3S0
X.6S1000
X16.3S0
X.7S1000
X7.1S0
X1S1000
X29.7S0
X2S1000
X7.3S0
X1.1S1000
X4.2S0
X.6S1000
X16.4S0
X.6S1000
X7.1S0
X1.1S1000
X2.917S0
X-.1Y.1
X-2.917
X-1.1S1000
X-6.9S0
X-.6S1000
X-16.5S0
X-.6S1000
X-4.2S0
X-1.1S1000
X-7.2S0
X-2S1000
X-29.8S0
X-1.1S1000
X-7S0
X-.6S1000
X-16.4S0
X-.7S1000
X-4.2S0
X-1.1S1000
X-7.1S0
X-2S1000
X-29.9S0
X-1.1S1000
X-6.9S0
X-.6S1000
X-16.6S0
X-.5S1000
X-4.3S0
X-1S1000
X-7.1S0
X-.1S1000
X-.1S0
X-1.9S1000
X-29.9S0
X-1S1000
X-6.9S0
X-.7S1000
X-16.5S0
X-.6S1000
X-4.2S0
X-1.1S1000
X-7.1S0
X-2S1000
X-2.916S0
X.2Y.1
X2.916
X2S1000
X6.9S0
X1.1S1000
X4.2S0
X.6S1000
X16.6S0
X.6S1000
X6.8S0
X1.1S1000
X30.1S0
X2S1000
X6.9S0
X1.1S1000
X4.2S0
X.7S1000
X16.6S0
X.5S1000
X6.9S0
X1S1000
X30.2S0
X1.9S1000
X7S0
X1S1000
X4.2S0
X.7S1000
X16.6S0
X.7S1000
X6.7S0
X1.1S1000
X30.1S0
X2S1000
X6.9S0
X1.1S1000
X4.2S0
X.6S1000
X16.7S0
X.6S1000
X6.8S0
X1.1S1000
X2.917S0
X-.1Y.1
X-2.917
X-1.1S1000
X-6.7S0
X-.6S1000
X-16.7S0
X-.7S1000
X-4.1S0
X-1.1S1000
X-6.8S0
X-1.9S1000
X-30.3S0
X-1.1S1000
X-6.7S0
X-.6S1000
X-16.8S0
X-.6S1000
X-4.2S0
X-1.1S1000
X-6.7S0
X-2S1000
X-30.3S0
X-1.1S1000
X-6.7S0
X-.6S1000
X-16.7S0
X-.6S1000
X-4.2S0
X-1.1S1000
X-6.8S0
X-1.9S1000
X-30.3S0
X-1.1S1000
X-6.7S0
X-.7S1000
X-16.7S0
X-.6S1000
X-4.2S0
X-1S1000
X-6.8S0
X-2S1000
X-2.916S0
X.2Y.1
X2.916
X2S1000
X6.5S0
X1.1S1000
X4.1S0
X.7S1000
X16.8S0
X.8S1000
X6.4S0
X1.1S1000
X30.6S0
X1.9S1000
X6.5S0
X1.1S1000
X4.2S0
X.6S1000
X16.8S0
X.8S1000
X6.4S0
X1.2S1000
X30.5S0
X2S1000
X6.5S0
X1.1S1000
X4.1S0
X.7S1000
X16.8S0
X.8S1000
X6.4S0
X1.1S1000
X30.6S0
X1.9S1000
X6.5S0
X1.1S1000
X4.2S0
X.6S1000
X16.8S0
X.8S1000
X6.5S0
X1.1S1000
X2.917S0
Y.1
X-2.917
X-1.2S1000
X-6.2S0
X-.9S1000
X-16.9S0
X-.7S1000
X-4.1S0
X-1.1S1000
X-6.3S0
X-2.1S1000
X-30.6S0
X-1.1S1000
X-6.3S0
X-.9S1000
X-16.9S0
X-.6S1000
X-4.2S0
X-1.1S1000
X-6.3S0
X-2S1000
X-30.6S0
X-1.2S1000
X-6.2S0
X-.9S1000
X-16.9S0
X-.7S1000
X-4.1S0
X-1.2S1000
X-6.2S0
X-2.1S1000
X-30.6S0
X-1.2S1000
X-6.2S0
X-.9S1000
X-16.9S0
X-.6S1000
X-4.2S0
X-1.1S1000
X-6.3S0
X-2S1000
X-2.916S0
X.2Y.1
X2.916
X2.2S1000
X5.8S0
X1.2S1000
X4.1S0
X.6S1000
X17.1S0
X1.1S1000
X5.9S0
X1.2S1000
X30.9S0
X2.1S1000
X5.9S0
X1.2S1000
X4S0
X.7S1000
X17.1S0
X1S1000
X5.9S0
X1.2S1000
X31S0
X2.1S1000
X5.8S0
X1.2S1000
X4.1S0
X.6S1000
X17.1S0
X1.1S1000
X5.9S0
X1.1S1000
X31S0
X2.1S1000
X5.9S0
X1.1S1000
X4.2S0
X.6S1000
X17.1S0
X1S1000
X5.9S0
X1.2S1000
X2.917S0
X-.1Y.1
X-2.917
X-1.1S1000
X-5.6S0
X-1.3S1000
X-17.2S0
X-.6S1000
X-4.1S0
X-1.2S1000
X-5.6S0
X-2.2S1000
X-31.1S0
X-1.2S1000
X-5.6S0
X-1.2S1000
X-17.2S0
X-.7S1000
X-4S0
X-1.3S1000
X-5.6S0
X-2.1S1000
X-31.2S0
X-1.1S1000
X-5.6S0
X-1.3S1000
X-17.2S0
X-.6S1000
X-4.1S0
X-1.2S1000
X-5.7S0
X-2S1000
X-31.2S0
X-1.2S1000
X-5.6S0
X-1.2S1000
X-17.2S0
X-.7S1000
X-4.1S0
X-1.2S1000
X-5.7S0
X-2S1000
X-2.916S0
X.2Y.1
X2.916
X2.1S1000
X5.4S0
X1.2S1000
X4.1S0
X.6S1000
X17.3S0
X1.3S1000
X5.4S0
X1.3S1000
X31.3S0
X2.1S1000
X5.4S0
X1.2S1000
X4.1S0
X.7S1000
X17.3S0
X1.3S1000
X5.4S0
X1.2S1000
X31.3S0
X2.1S1000
X5.4S0
X1.3S1000
X4.1S0
X.6S1000
X17.3S0
X1.4S1000
X5.3S0
X1.2S1000
X31.4S0
X2.1S1000
X5.4S0
X1.2S1000
X4.1S0
X.6S1000
X17.4S0
X1.3S1000
X5.4S0
X1.2S1000
X2.917S0
X-.1Y.1
X-2.917
X-1.2S1000
X-5.1S0
X-1.5S1000
X-17.3S0
X-.7S1000
X-4.1S0
X-1.3S1000
X-5.1S0
X-2.1S1000
X-31.6S0
X-1.3S1000
X-5.1S0
X-1.4S1000
X-17.5S0
X-.6S1000
X-4.1S0
X-1.2S1000
X-5.2S0
X-2S1000
X-31.7S0
X-1.2S1000
X-5.2S0
X-1.4S1000
X-17.4S0
X-.6S1000
X-4.1S0
X-1.3S1000
X-5.1S0
X-2.1S1000
X-31.6S0
X-1.3S1000
X-5.1S0
X-1.4S1000
X-17.5S0
X-.6S1000
X-4S0
X-1.3S1000
X-5.1S0
X-2.1S1000
X-2.916S0
X.1Y.1
X2.916
X2.1S1000
X4.9S0
X1.3S1000
X4.1S0
X.6S1000
X17.5S0
X1.6S1000
X4.8S0
X1.3S1000
X31.9S0
X2.1S1000
X4.8S0
X1.4S1000
X4S0
X.6S1000
X17.6S0
X1.6S1000
X4.8S0
X1.3S1000
X31.8S0
X2.1S1000
X4.9S0
X1.3S1000
X4.1S0
X.6S1000
X17.5S0
X1.6S1000
X4.8S0
X1.3S1000
X31.9S0
X2.1S1000
X4.8S0
X1.4S1000
X4S0
X.7S1000
X17.5S0
X1.6S1000
X4.8S0
X1.3S1000
X2.917S0
X-.1Y.1
X-2.917
X-1.3S1000
X-4.6S0
X-1.7S1000
X-17.5S0
X-.7S1000
X-4.1S0
X-1.4S1000
X-4.5S0
X-2.2S1000
X-32.1S0
X-1.3S1000
X-4.5S0
X-1.7S1000
X-17.6S0
X-.7S1000
X-4.1S0
X-1.3S1000
X-4.5S0
X-2.2S1000
X-32.1S0
X-1.3S1000
X-4.6S0
X-1.7S1000
X-17.6S0
X-.6S1000
X-4.1S0
X-1.4S1000
X-4.5S0
X-2.2S1000
X-32.1S0
X-1.3S1000
X-4.5S0
X-1.7S1000
X-17.6S0
X-.7S1000
X-4.1S0
X-1.3S1000
X-4.5S0
X-2.2S1000
X-2.916S0
X.2Y.1
X2.916
X2.2S1000
X4.2S0
X1.4S1000
X4.1S0
X.6S1000
X17.8S0
X1.9S1000
X4.1S0
X1.4S1000
X32.4S0
X2.3S1000
X4S0
X1.3S1000
X4.2S0
X.6S1000
X17.8S0
X2S1000
X4.1S0
X1.3S1000
X32.4S0
X2.3S1000
X4S0
X1.4S1000
X4.2S0
X.6S1000
X17.7S0
X2S1000
X4.1S0
X1.4S1000
X32.4S0
X2.3S1000
X4S0
X1.4S1000
X4.1S0
X.6S1000
X17.8S0
X2S1000
X4.1S0
X1.3S1000
X2.917S0
Y.1
X-2.917
X-1.5S1000
X-3.7S0
X-2.1S1000
X-17.9S0
X-.6S1000
X-4.2S0
X-1.4S1000
X-3.8S0
X-2.3S1000
X-32.6S0
X-1.5S1000
X-3.7S0
X-2.1S1000
X-17.8S0
X-.7S1000
X-4.1S0
X-1.5S1000
X-3.8S0
X-2.2S1000
X-32.7S0
X-1.4S1000
X-3.8S0
X-2.1S1000
X-17.8S0
X-.6S1000
X-4.2S0
X-1.4S1000
X-3.8S0
X-2.3S1000
X-32.6S0
X-1.4S1000
X-3.8S0
X-2.1S1000
X-17.9S0
X-.6S1000
X-4.2S0
X-1.3S1000
X-3.9S0
X-2.2S1000
X-2.916S0
X.1Y.1
X2.916
X2.3S1000
X3.5S0
X1.4S1000
X4.3S0
X.6S1000
X17.9S0
X2.3S1000
X3.4S0
X1.5S1000
X32.9S0
X2.3S1000
X3.5S0
X1.4S1000
X4.2S0
X.7S1000
X17.9S0
X2.3S1000
X3.3S0
X1.6S1000
X32.8S0
X2.3S1000
X3.5S0
X1.4S1000
X4.2S0
X.7S1000
X17.9S0
X2.3S1000
X3.4S0
X1.5S1000
X32.9S0
X2.3S1000
X3.5S0
X1.4S1000
X4.2S0
X.6S1000
X18S0
X2.3S1000
X3.3S0
X1.6S1000
X2.917S0
X-.1Y.1
X-2.917
X-1.6S1000
X-3S0
X-2.5S1000
X-17.9S0
X-.8S1000
X-4.2S0
X-1.6S1000
X-3S0
X-2.3S1000
X-33.2S0
X-1.6S1000
X-2.9S0
X-2.5S1000
X-18.1S0
X-.6S1000
X-4.2S0
X-1.6S1000
X-3S0
X-2.4S1000
X-33.1S0
X-1.6S1000
X-3S0
X-2.5S1000
X-18S0
X-.7S1000
X-4.2S0
X-1.6S1000
X-3S0
X-2.3S1000
X-33.1S0
X-1.6S1000
X-3S0
X-2.5S1000
X-18.1S0
X-.6S1000
X-4.2S0
X-1.6S1000
X-3S0
X-2.3S1000
X-2.916S0
X.1Y.1
X2.916
X2.3S1000
X2.8S0
X1.6S1000
X4.3S0
X.6S1000
X18.2S0
X2.6S1000
X2.6S0
X1.7S1000
X33.3S0
X2.4S1000
X2.7S0
X1.6S1000
X4.3S0
X.6S1000
X18.2S0
X2.6S1000
X2.7S0
X1.6S1000
X33.4S0
X2.3S1000
X2.7S0
X1.7S1000
X4.2S0
X.7S1000
X18.2S0
X2.6S1000
X2.6S0
X1.7S1000
X33.3S0
X2.4S1000
X2.7S0
X1.6S1000
X4.3S0
X.6S1000
X18.2S0
X2.6S1000
X2.7S0
X1.6S1000
X2.917S0
X-.1Y.1
X-2.917
X-1.7S1000
X-.1S0
X-.1S1000
X-1.8S0
X-.1S1000
X-.1S0
X-2.8S1000
X-18.3S0
X-.7S1000
X-4.2S0
X-1.8S1000
X-.1S0
X-.1S1000
X-1.8S0
X-.1S1000
X-.1S0
X-2.3S1000
X-.1S0
X-.1S1000
X-33.7S0
X-1.7S1000
X-.1S0
X-.1S1000
X-1.9S0
X-2.9S1000
X-18.3S0
X-.6S1000
X-4.3S0
X-1.8S1000
X-.1S0
X-.1S1000
X-1.7S0
X-.1S1000
X-.1S0
X-2.5S1000
X-33.8S0
X-1.6S1000
X-.1S0
X-.1S1000
X-1.8S0
X-.1S1000
X-.1S0
X-2.8S1000
X-18.3S0
X-.7S1000
X-4.2S0
X-1.8S1000
X-.1S0
X-.1S1000
X-1.8S0
X-.1S1000
X-.1S0
X-2.3S1000
X-.1S0
X-.1S1000
X-33.7S0
X-1.7S1000
X-.1S0
X-.1S1000
X-1.7S0
X-.1S1000
X-.1S0
X-2.9S1000
X-18.3S0
X-.6S1000
X-4.3S0
X-1.7S1000
X-.1S0
X-.1S1000
X-1.8S0
X-.1S1000
X-.1S0
X-2.5S1000
X-2.916S0
X.3Y.1
X2.916
X2.6S1000
X1.3S0
X2.1S1000
X4.3S0
X.7S1000
X18.4S0
X3.2S1000
X1.3S0
X2S1000
X34.1S0
X2.7S1000
X1.2S0
X2.1S1000
X4.4S0
X.5S1000
X18.6S0
X3.2S1000
X1.2S0
X2.1S1000
X34.1S0
X2.6S1000
X1.2S0
X2.1S1000
X4.4S0
X.6S1000
X18.5S0
X3.2S1000
X1.3S0
X2.1S1000
X34S0
X2.7S1000
X1.2S0
X2.1S1000
X4.4S0
X.6S1000
X18.5S0
X3.2S1000
X1.2S0
X2S1000
X2.917S0
Y.1
X-2.917
X-6.4S1000
X-18.6S0
X-.6S1000
X-4.4S0
X-5.7S1000
X-34.4S0
X-5.6S1000
X-.1S0
X-.6S1000
X-18.6S0
X-.6S1000
X-4.4S0
X-5.8S1000
X-34.3S0
X-6.4S1000
X-18.6S0
X-.6S1000
X-4.4S0
X-5.7S1000
X-34.3S0
X-6.4S1000
X-18.6S0
X-.7S1000
X-4.4S0
X-5.7S1000
X-2.916S0
X.3Y.1
X2.916
X5.4S1000
X4.4S0
X.6S1000
X18.7S0
X.6S1000
X.3S0
X5.3S1000
X34.7S0
X5.4S1000
X4.4S0
X.7S1000
X18.7S0
X.6S1000
X.2S0
X5.4S1000
X34.7S0
X5.4S1000
X4.4S0
X.6S1000
X18.7S0
X6.3S1000
X34.6S0
X5.4S1000
X4.4S0
X.7S1000
X18.7S0
X.6S1000
X.2S0
X5.4S1000
X2.917S0
X-.1Y.1
X-2.917
X-5.2S1000
X-.2S0
X-.7S1000
X-18.7S0
X-.7S1000
X-4.5S0
X-5.1S1000
X-35S0
X-5.1S1000
X-.3S0
X-.6S1000
X-18.8S0
X-.7S1000
X-4.5S0
X-5.1S1000
X-34.9S0
X-5.2S1000
X-.3S0
X-.6S1000
X-18.8S0
X-.6S1000
X-4.5S0
X-5.1S1000
X-35S0
X-5.1S1000
X-.3S0
X-.6S1000
X-18.8S0
X-.6S1000
X-4.5S0
X-5.2S1000
X-2.916S0
X.3Y.1
X2.916
X4.7S1000
X4.6S0
X.6S1000
X18.9S0
X.7S1000
X.5S0
X4.7S1000
X35.3S0
X4.8S1000
X4.5S0
X.7S1000
X18.8S0
X.7S1000
X.5S0
X4.7S1000
X35.4S0
X4.7S1000
X4.6S0
X.6S1000
X18.9S0
X.6S1000
X.5S0
X4.7S1000
X35.4S0
X4.8S1000
X4.5S0
X.7S1000
X18.9S0
X.6S1000
X.5S0
X4.7S1000
X2.917S0
X-.2Y.1
X-2.917
X-4.2S1000
X-.7S0
X-.7S1000
X-19S0
X-.6S1000
X-4.7S0
X-4.3S1000
X-35.8S0
X-4.3S1000
X-.7S0
X-.6S1000
X-19S0
X-.7S1000
X-4.7S0
X-4.2S1000
X-35.9S0
X-4.2S1000
X-.7S0
X-.7S1000
X-19S0
X-.6S1000
X-4.7S0
X-4.3S1000
X-35.8S0
X-4.3S1000
X-.7S0
X-.6S1000
X-19S0
X-.7S1000
X-4.7S0
X-4.2S1000
X-2.916S0
X.3Y.1
X2.916
X3.7S1000
X4.9S0
X.6S1000
X19.1S0
X.7S1000
X.8S0
X3.9S1000
X36.4S0
X3.6S1000
X4.9S0
X.6S1000
X19.2S0
X.6S1000
X.8S0
X3.9S1000
X36.4S0
X3.7S1000
X4.9S0
X.6S1000
X19.1S0
X.6S1000
X.9S0
X3.9S1000
X36.4S0
X3.6S1000
X4.9S0
X.6S1000
X19.2S0
X.6S1000
X.8S0
X3.9S1000
X2.917S0
X-.1Y.1
X-2.917
X-3.5S1000
X-1S0
X-.7S1000
X-19.2S0
X-.7S1000
X-4.9S0
X-3.4S1000
X-36.7S0
X-3.5S1000
X-1S0
X-.6S1000
X-19.3S0
X-.6S1000
X-5S0
X-3.4S1000
X-36.6S0
X-3.5S1000
X-1S0
X-.7S1000
X-19.2S0
X-.6S1000
X-5S0
X-3.4S1000
X-36.7S0
X-3.4S1000
X-1.1S0
X-.6S1000
X-19.3S0
X-.6S1000
X-4.9S0
X-3.5S1000
X-2.917S0
X.3Y.1
X2.917
X2.9S1000
X5.2S0
X.6S1000
X19.3S0
X.7S1000
X1.2S0
X3S1000
X37.2S0
X2.9S1000
X5.1S0
X.7S1000
X19.3S0
X.6S1000
X1.3S0
X2.9S1000
X37.3S0
X2.8S1000
X5.1S0
X.7S1000
X19.3S0
X.8S1000
X1.1S0
X3S1000
X37.2S0
X2.9S1000
X5.1S0
X.6S1000
X19.4S0
X.6S1000
X1.3S0
X2.9S1000
X2.917S0
X-.2Y.1
X-2.917
X-2.4S1000
X-1.4S0
X-.8S1000
X-19.3S0
X-.8S1000
X-5.3S0
X-2.3S1000
X-37.8S0
X-2.4S1000
X-1.5S0
X-.6S1000
X-19.5S0
X-.6S1000
X-5.3S0
X-2.3S1000
X-37.8S0
X-2.5S1000
X-1.4S0
X-.7S1000
X-19.4S0
X-.7S1000
X-5.3S0
X-2.3S1000
X-37.8S0
X-2.4S1000
X-1.4S0
X-.7S1000
X-19.4S0
X-.7S1000
X-5.4S0
X-2.2S1000
X-2.917S0
X.2Y.1
X2.917
X.2S1000
X.1S0
X1.2S1000
X.1S0
X.1S1000
X.1S0
X.1S1000
X5.5S0
X.6S1000
X19.6S0
X.6S1000
X1.7S0
X.1S1000
X.1S0
X1.1S1000
X.1S0
X.1S1000
X.1S0
X.1S1000
X.1S0
X.1S1000
X38.3S0
X.2S1000
X.1S0
X1.2S1000
X.1S0
X.1S1000
X5.6S0
X.6S1000
X19.7S0
X.5S1000
X1.8S0
X.2S1000
X.1S0
X1S1000
X.1S0
X.1S1000
X.1S0
X.1S1000
X38.4S0
X.2S1000
X.1S0
X1.2S1000
X.1S0
X.1S1000
X5.6S0
X.7S1000
X19.5S0
X.7S1000
X1.7S0
X.2S1000
X.1S0
X1S1000
X.1S0
X.1S1000
X.1S0
X.1S1000
X.1S0
X.1S1000
X38.3S0
X.1S1000
X.1S0
X1.3S1000
X.1S0
X.1S1000
X5.6S0
X.6S1000
X19.7S0
X.5S1000
X1.7S0
X.1S1000
X.1S0
X1.2S1000
X.1S0
X.1S1000
X.1S0
X.1S1000
X2.917S0
X-3.4Y.1
X-2.917
X-.6S1000
X-19.7S0
X-.7S1000
X-46.7S0
X-.1S1000
X-2.3S0
X-.5S1000
X-19.8S0
X-.6S1000
X-49.1S0
X-.6S1000
X-19.7S0
X-.7S1000
X-49S0
X-.6S1000
X-19.8S0
X-.6S1000
X-2.917S0
X-.1Y.1
X2.917
X.7S1000
X19.8S0
X.6S1000
X49S0
X.6S1000
X19.9S0
X.6S1000
X48.9S0
X.7S1000
X19.8S0
X.7S1000
X48.9S0
X.6S1000
X19.9S0
X.6S1000
X2.917S0
X.1Y.1
X-2.917
X-.7S1000
X-20S0
X-.6S1000
X-48.8S0
X-.6S1000
X-20S0
X-.6S1000
X-48.9S0
X-.6S1000
X-20S0
X-.5S1000
X-48.9S0
X-.7S1000
X-19.9S0
X-.6S1000
X-2.917S0
X-.1Y.1
X2.917
X.6S1000
X20.1S0
X.6S1000
X48.8S0
X.7S1000
X19.9S0
X.7S1000
X48.7S0
X.6S1000
X20.1S0
X.7S1000
X48.7S0
X.6S1000
X20.1S0
X.5S1000
X2.917S0
X.2Y.1
X-2.917
X-.7S1000
X-20.1S0
X-.7S1000
X-48.6S0
X-.7S1000
X-20.1S0
X-.6S1000
X-48.7S0
X-.6S1000
X-20.2S0
X-.6S1000
X-48.6S0
X-.6S1000
X-20.2S0
X-.6S1000
X-2.917S0
X-.1Y.1
X2.917
X.7S1000
X20.2S0
X.7S1000
X48.4S0
X.7S1000
X20.3S0
X.6S1000
X48.5S0
X.6S1000
X20.3S0
X.6S1000
X48.5S0
X.7S1000
X20.3S0
X.6S1000
X2.917S0
X.1Y.1
X-2.917
X-.7S1000
X-20.4S0
X-.6S1000
X-48.4S0
X-.6S1000
X-20.4S0
X-.7S1000
X-48.3S0
X-.7S1000
X-20.4S0
X-.6S1000
X-48.4S0
X-.6S1000
X-20.4S0
X-.7S1000
X-2.917S0
Y.1
X2.917
X.6S1000
X20.5S0
X.7S1000
X48.2S0
X.7S1000
X20.5S0
X.6S1000
X48.3S0
X.6S1000
X20.5S0
X.8S1000
X48.1S0
X.6S1000
X20.6S0
X.6S1000
X2.917S0
X.1Y.1
X-2.917
X-.7S1000
X-20.6S0
X-.7S1000
X-48.1S0
X-.6S1000
X-20.7S0
X-.6S1000
X-48.1S0
X-.7S1000
X-20.6S0
X-.6S1000
X-48.2S0
X-.6S1000
X-20.7S0
X-.6S1000
X-2.917S0
Y.1
X2.917
X.6S1000
X20.7S0
X.7S1000
X48S0
X.7S1000
X20.7S0
X.6S1000
X48S0
X.7S1000
X20.7S0
X.8S1000
X47.9S0
X.6S1000
X20.8S0
X.6S1000
X2.917S0
X.1Y.1
X-2.917
X-.7S1000
X-20.7S0
X-.7S1000
X-48S0
X-.6S1000
X-20.9S0
X-.6S1000
X-47.9S0
X-.7S1000
X-20.8S0
X-.7S1000
X-47.8S0
X-.7S1000
X-20.8S0
X-.7S1000
X-2.917S0
X-.1Y.1
X2.917
X.7S1000
X21S0
X.6S1000
X47.8S0
X.6S1000
X21S0
X.7S1000
X47.8S0
X.6S1000
X20.9S0
X.7S1000
X47.8S0
X.6S1000
X21S0
X.7S1000
X2.917S0
Y.1
X-2.917
X-.6S1000
X-21.1S0
X-.6S1000
X-47.8S0
X-.5S1000
X-21.1S0
X-.7S1000
X-47.7S0
X-.6S1000
X-21.2S0
X-.5S1000
X-47.8S0
X-.6S1000
X-21.1S0
X-.6S1000
X-2.917S0
Y.1
X2.917
X.6S1000
X21.1S0
X.7S1000
X47.6S0
X.7S1000
X21.1S0
X.6S1000
X47.7S0
X.6S1000
X21.2S0
X.7S1000
X47.5S0
X.6S1000
X21.3S0
X.5S1000
X2.917S0
X.1Y.1
X-2.917
X-.7S1000
X-21.2S0
X-.7S1000
X-47.5S0
X-.6S1000
X-21.3S0
X-.6S1000
X-47.5S0
X-.6S1000
X-21.3S0
X-.6S1000
X-47.5S0
X-.7S1000
X-21.3S0
X-.6S1000
X-2.917S0
Y.1
X2.917
X.6S1000
X21.4S0
X.6S1000
X47.4S0
X.6S1000
X21.4S0
X.7S1000
X47.3S0
X.7S1000
X21.4S0
X.6S1000
X47.4S0
X.6S1000
X21.4S0
X.7S1000
X2.917S0
X.1Y.1
X-2.917
X-.7S1000
X-21.5S0
X-.7S1000
X-47.2S0
X-.7S1000
X-21.5S0
X-.6S1000
X-47.3S0
X-.6S1000
X-21.5S0
X-.7S1000
X-47.2S0
X-.6S1000
X-21.6S0
X-.7S1000
X-2.917S0
Y.1
X2.917
X.6S1000
X21.7S0
X.6S1000
X47.1S0
X.6S1000
X21.8S0
X.6S1000
X47.1S0
X.6S1000
X21.7S0
X.6S1000
X47.2S0
X.5S1000
X21.8S0
X.6S1000
X2.917S0
Y.1
X-2.917
X-.6S1000
X-21.8S0
X-.6S1000
X-47S0
X-.6S1000
X-21.8S0
X-.7S1000
X-46.9S0
X-.7S1000
X-21.8S0
X-.6S1000
X-47S0
X-.6S1000
X-21.8S0
X-.7S1000
X-2.917S0
Y.1
X2.917
X.6S1000
X21.9S0
X.7S1000
X46.8S0
X.7S1000
X21.9S0
X.6S1000
X46.9S0
X.6S1000
X21.9S0
X.8S1000
X46.7S0
X.7S1000
X21.9S0
X.6S1000
X2.917S0
X.1Y.1
X-2.917
X-.7S1000
X-22S0
X-.6S1000
X-46.8S0
X-.6S1000
X-22S0
X-.7S1000
X-46.7S0
X-.7S1000
X-22S0
X-.6S1000
X-46.8S0
X-.6S1000
X-22.1S0
X-.6S1000
X-2.917S0
Y.1
X2.917
X.6S1000
X22.2S0
X.6S1000
X46.6S0
X.7S1000
X22.1S0
X.6S1000
X46.7S0
X.6S1000
X22.1S0
X.7S1000
X46.6S0
X.7S1000
X22.1S0
X.6S1000
X2.917S0
X.1Y.1
X-2.917
X-.7S1000
X-22.2S0
X-.6S1000
X-46.6S0
X-.6S1000
X-22.2S0
X-.7S1000
X-46.5S0
X-.7S1000
X-22.2S0
X-.6S1000
X-46.6S0
X-.6S1000
X-22.2S0
X-.7S1000
X-2.917S0
Y.1
X2.917
X.6S1000
X22.3S0
X.7S1000
X46.4S0
X.6S1000
X22.4S0
X.6S1000
X46.5S0
X.6S1000
X22.3S0
X.6S1000
X46.5S0
X.6S1000
X22.4S0
X.6S1000
X2.917S0
Y.1
X-2.917
X-.5S1000
X-22.5S0
X-.6S1000
X-46.4S0
X-.6S1000
X-22.4S0
X-.7S1000
X-46.3S0
X-.7S1000
X-22.4S0
X-.6S1000
X-46.4S0
X-.6S1000
X-22.4S0
X-.7S1000
X-2.917S0
Y.1
X2.917
X.6S1000
X22.5S0
X.7S1000
X46.2S0
X.7S1000
X22.5S0
X.6S1000
X46.2S0
X.7S1000
X22.5S0
X.8S1000
X46.1S0
X.6S1000
X22.6S0
X.6S1000
X2.917S0
X.1Y.1
X-2.917
X-.6S1000
X-22.6S0
X-.8S1000
X-46.1S0
X-.6S1000
X-22.7S0
X-.6S1000
X-46.1S0
X-.7S1000
X-22.6S0
X-.7S1000
X-46S0
X-.7S1000
X-22.7S0
X-.6S1000
X-2.917S0
Y.1
X2.917
X.6S1000
X22.8S0
X.6S1000
X46S0
X.6S1000
X22.8S0
X.6S1000
X46S0
X.7S1000
X22.8S0
X.6S1000
X46S0
X.6S1000
X22.8S0
X.7S1000
X2.917S0
X9.6Y.1
X-2.917
X-.6S1000
X-9S0
X-.6S1000
X-22.9S0
X-.7S1000
X-36.2S0
X-.7S1000
X-8.9S0
X-.7S1000
X-22.9S0
X-.6S1000
X-36.3S0
X-.6S1000
X-8.9S0
X-.7S1000
X-23S0
X-.6S1000
X-36.2S0
X-.7S1000
X-8.9S0
X-.6S1000
X-23S0
X-.7S1000
X-2.917S0
Y.1
X2.917
X.6S1000
X23.1S0
X.7S1000
X8.5S0
X1.4S1000
X35.8S0
X.6S1000
X23.1S0
X.6S1000
X8.6S0
X1.4S1000
X35.7S0
X.6S1000
X23.1S0
X.6S1000
X8.6S0
X1.4S1000
X35.8S0
X.6S1000
X23.1S0
X.6S1000
X8.6S0
X1.4S1000
X2.917S0
X.4Y.1
X-2.917
X-2.3S1000
X-8S0
X-.7S1000
X-23.2S0
X-.5S1000
X-35.3S0
X-2.4S1000
X-8S0
X-.6S1000
X-23.2S0
X-.6S1000
X-35.3S0
X-2.3S1000
X-8.1S0
X-.6S1000
X-23.2S0
X-.6S1000
X-35.2S0
X-2.4S1000
X-8S0
X-.6S1000
X-23.2S0
X-.6S1000
X-2.917S0
X-.1Y.1
X2.917
X.7S1000
X23.2S0
X.6S1000
X7.7S0
X2.9S1000
X35S0
X.6S1000
X23.3S0
X.6S1000
X7.7S0
X2.9S1000
X34.9S0
X.6S1000
X23.3S0
X.7S1000
X7.6S0
X2.9S1000
X35S0
X.6S1000
X23.3S0
X.6S1000
X7.7S0
X2.9S1000
X2.917S0
X.2Y.1
X-2.917
X-3.4S1000
X-7.3S0
X-.7S1000
X-23.3S0
X-.7S1000
X-34.6S0
X-3.4S1000
X-7.4S0
X-.6S1000
X-23.4S0
X-.7S1000
X-34.6S0
X-3.4S1000
X-7.4S0
X-.6S1000
X-23.4S0
X-.6S1000
X-34.7S0
X-3.3S1000
X-7.4S0
X-.7S1000
X-23.3S0
X-.6S1000
X-2.917S0
X-.1Y.1
X2.917
X.7S1000
X23.4S0
X.7S1000
X6.9S0
X3.9S1000
X34.4S0
X.7S1000
X23.4S0
X.7S1000
X7S0
X3.9S1000
X34.4S0
X.6S1000
X23.5S0
X.6S1000
X7S0
X3.9S1000
X34.4S0
X.7S1000
X23.4S0
X.7S1000
X7S0
X3.9S1000
X2.917S0
X.2Y.1
X-2.917
X-4.4S1000
X-6.6S0
X-.7S1000
X-23.6S0
X-.6S1000
X-34.2S0
X-4.4S1000
X-6.6S0
X-.6S1000
X-23.6S0
X-.7S1000
X-34.1S0
X-4.4S1000
X-6.6S0
X-.7S1000
X-23.6S0
X-.6S1000
X-34.2S0
X-4.4S1000
X-6.6S0
X-.6S1000
X-23.6S0
X-.7S1000
X-2.917S0
Y.1
X2.917
X.6S1000
X23.7S0
X.7S1000
X6.4S0
X4.7S1000
X33.9S0
X.6S1000
X23.8S0
X.6S1000
X6.5S0
X4.6S1000
X34S0
X.6S1000
X23.7S0
X.6S1000
X6.5S0
X4.6S1000
X34S0
X.6S1000
X23.8S0
X.6S1000
X6.5S0
X4.6S1000
X2.917S0
X.1Y.1
X-2.917
X-4.9S1000
X-6.2S0
X-.7S1000
X-23.8S0
X-.7S1000
X-33.7S0
X-5S1000
X-6.2S0
X-.6S1000
X-23.9S0
X-.6S1000
X-33.8S0
X-4.9S1000
X-6.2S0
X-.7S1000
X-23.8S0
X-.6S1000
X-33.8S0
X-5S1000
X-6.2S0
X-.6S1000
X-23.9S0
X-.6S1000
X-2.917S0
Y.1
X2.917
X.6S1000
X23.9S0
X.7S1000
X5.9S0
X5.4S1000
X33.5S0
X.7S1000
X23.9S0
X.6S1000
X5.9S0
X5.4S1000
X33.5S0
X.7S1000
X23.9S0
X.8S1000
X5.8S0
X5.3S1000
X33.6S0
X.6S1000
X24S0
X.6S1000
X5.9S0
X5.4S1000
X2.917S0
X.1Y.1
X-2.917
X-2.5S1000
X-.1S0
X-.1S1000
X-.1S0
X-2.8S1000
X-5.6S0
X-.7S1000
X-24S0
X-.8S1000
X-33.3S0
X-2.5S1000
X-.1S0
X-.1S1000
X-.1S0
X-2.9S1000
X-5.7S0
X-.6S1000
X-24.1S0
X-.6S1000
X-33.4S0
X-2.5S1000
X-.1S0
X-.1S1000
X-.1S0
X-2.8S1000
X-5.7S0
X-.7S1000
X-24S0
X-.7S1000
X-33.3S0
X-2.5S1000
X-.1S0
X-.1S1000
X-.1S0
X-2.9S1000
X-5.6S0
X-.7S1000
X-24S0
X-.7S1000
X-2.917S0
Y.1
X2.917
X.6S1000
X24.2S0
X.6S1000
X5.3S0
X2.7S1000
X.3S0
X.1S1000
X1S0
X2S1000
X33.2S0
X.6S1000
X24.3S0
X.5S1000
X5.4S0
X2.6S1000
X.2S0
X.1S1000
X1.2S0
X1.9S1000
X33.2S0
X.7S1000
X24.2S0
X.6S1000
X5.3S0
X2.6S1000
X.2S0
X.1S1000
X1.2S0
X2S1000
X33.2S0
X.7S1000
X24.1S0
X.7S1000
X5.3S0
X2.6S1000
X.2S0
X.1S1000
X1.2S0
X1.9S1000
X2.917S0
X.1Y.1
X-2.917
X-1.8S1000
X-2S0
X-2.4S1000
X-5.2S0
X-.6S1000
X-24.3S0
X-.6S1000
X-33.1S0
X-1.8S1000
X-2.1S0
X-2.4S1000
X-5.1S0
X-.7S1000
X-24.3S0
X-.6S1000
X-33.1S0
X-1.8S1000
X-2S0
X-2.4S1000
X-5.2S0
X-.6S1000
X-24.3S0
X-.7S1000
X-33S0
X-1.8S1000
X-2.1S0
X-2.4S1000
X-5.1S0
X-.6S1000
X-24.4S0
X-.6S1000
X-2.917S0
X-.1Y.1
X2.917
X.7S1000
X24.4S0
X.6S1000
X4.9S0
X2.4S1000
X2.5S0
X1.7S1000
X32.9S0
X.6S1000
X24.4S0
X.7S1000
X4.9S0
X2.4S1000
X2.4S0
X1.7S1000
X32.9S0
X.7S1000
X24.4S0
X.7S1000
X4.8S0
X2.4S1000
X2.5S0
X1.7S1000
X32.9S0
X.6S1000
X24.5S0
X.6S1000
X4.9S0
X2.4S1000
X2.4S0
X1.7S1000
X2.917S0
X.1Y.1
X-2.917
X-1.6S1000
X-2.8S0
X-2.4S1000
X-4.7S0
X-.6S1000
X-24.6S0
X-.6S1000
X-32.7S0
X-1.6S1000
X-2.9S0
X-2.4S1000
X-4.7S0
X-.5S1000
X-24.6S0
X-.6S1000
X-32.8S0
X-1.6S1000
X-2.9S0
X-2.3S1000
X-4.7S0
X-.6S1000
X-24.5S0
X-.6S1000
X-32.8S0
X-1.6S1000
X-2.9S0
X-2.4S1000
X-4.7S0
X-.6S1000
X-24.5S0
X-.6S1000
X-2.917S0
X-.1Y.1
X2.917
X.7S1000
X24.6S0
X.7S1000
X4.4S0
X2.3S1000
X3.2S0
X1.5S1000
X32.7S0
X.6S1000
X24.6S0
X.7S1000
X4.4S0
X2.3S1000
X3.3S0
X1.5S1000
X32.6S0
X.6S1000
X24.7S0
X.7S1000
X4.3S0
X2.4S1000
X3.2S0
X1.6S1000
X32.6S0
X.6S1000
X24.6S0
X.7S1000
X4.4S0
X2.3S1000
X3.3S0
X1.5S1000
X2.917S0
X.1Y.1
X-2.917
X-1.4S1000
X-3.7S0
X-.1S1000
X-.1S0
X-2.2S1000
X-4S0
X-.7S1000
X-24.7S0
X-.7S1000
X-32.5S0
X-1.4S1000
X-3.6S0
X-.1S1000
X-.1S0
X-2.2S1000
X-4.1S0
X-.7S1000
X-24.8S0
X-.6S1000
X-32.4S0
X-1.4S1000
X-3.7S0
X-.1S1000
X-.1S0
X-2.2S1000
X-4S0
X-.7S1000
X-24.8S0
X-.6S1000
X-32.5S0
X-1.4S1000
X-3.6S0
X-.1S1000
X-.1S0
X-2.2S1000
X-4.1S0
X-.6S1000
X-24.8S0
X-.7S1000
X-2.917S0
Y.1
X2.917
X.7S1000
X24.8S0
X.6S1000
X3.9S0
X2.2S1000
X4.1S0
X1.4S1000
X32.3S0
X.6S1000
X25S0
X.6S1000
X3.8S0
X2.2S1000
X4.2S0
X1.3S1000
X32.3S0
X.7S1000
X24.9S0
X.6S1000
X3.9S0
X2.2S1000
X4.1S0
X1.4S1000
X32.3S0
X.8S1000
X24.8S0
X.6S1000
X3.8S0
X2.3S1000
X4.1S0
X1.3S1000
X2.917S0
X.1Y.1
X-2.917
X-1.3S1000
X-4.4S0
X-2.2S1000
X-3.7S0
X-.6S1000
X-25S0
X-.7S1000
X-32.1S0
X-1.4S1000
X-4.4S0
X-2.1S1000
X-3.7S0
X-.6S1000
X-25S0
X-.7S1000
X-32.2S0
X-1.3S1000
X-4.4S0
X-2.2S1000
X-3.6S0
X-.7S1000
X-25S0
X-.7S1000
X-32.1S0
X-1.3S1000
X-4.5S0
X-2.2S1000
X-3.6S0
X-.6S1000
X-25S0
X-.7S1000
X-2.917S0
X-.2Y.1
X2.917
X.8S1000
X25.1S0
X.7S1000
X3.4S0
X2S1000
X4.9S0
X1.3S1000
X31.9S0
X.8S1000
X25.1S0
X.6S1000
X3.4S0
X2.1S1000
X4.8S0
X1.3S1000
X31.9S0
X.8S1000
X25.1S0
X.8S1000
X3.3S0
X2S1000
X4.9S0
X1.2S1000
X32.1S0
X.6S1000
X25.2S0
X.6S1000
X3.4S0
X2.1S1000
X4.8S0
X1.3S1000
X2.917S0
X.1Y.1
X-2.917
X-1.3S1000
X-5.1S0
X-2S1000
X-3.2S0
X-.7S1000
X-25.2S0
X-.8S1000
X-31.8S0
X-1.2S1000
X-5.1S0
X-2.1S1000
X-3.2S0
X-.6S1000
X-25.3S0
X-.8S1000
X-31.7S0
X-1.3S1000
X-5.1S0
X-2S1000
X-3.2S0
X-.7S1000
X-25.2S0
X-.8S1000
X-31.8S0
X-1.2S1000
X-5.1S0
X-2.1S1000
X-3.2S0
X-.6S1000
X-25.3S0
X-.8S1000
X-2.917S0
X-.2Y.1
X2.917
X1S1000
X25.3S0
X.7S1000
X3S0
X2.1S1000
X5.3S0
X1.2S1000
X31.4S0
X1.1S1000
X25.3S0
X.6S1000
X3S0
X2.1S1000
X5.3S0
X1.2S1000
X31.4S0
X1.1S1000
X25.3S0
X.7S1000
X3S0
X2.1S1000
X5.3S0
X1.2S1000
X31.4S0
X1.1S1000
X25.3S0
X.6S1000
X3S0
X2.1S1000
X5.3S0
X1.2S1000
X2.917S0
X.1Y.1
X-2.917
X-1.1S1000
X-5.8S0
X-2S1000
X-2.7S0
X-.7S1000
X-25.4S0
X-1.2S1000
X-31.2S0
X-1.1S1000
X-5.7S0
X-2.1S1000
X-2.7S0
X-.6S1000
X-25.5S0
X-1.2S1000
X-31.1S0
X-1.1S1000
X-5.8S0
X-2S1000
X-2.7S0
X-.7S1000
X-25.4S0
X-1.2S1000
X-31.2S0
X-1.1S1000
X-5.7S0
X-2.1S1000
X-2.7S0
X-.6S1000
X-25.4S0
X-1.2S1000
X-2.917S0
X-.2Y.1
X2.917
X1.3S1000
X25.6S0
X.6S1000
X2.4S0
X2.2S1000
X5.8S0
X1.2S1000
X30.9S0
X1.3S1000
X25.6S0
X.6S1000
X2.5S0
X2.1S1000
X5.9S0
X1.1S1000
X31S0
X1.3S1000
X25.5S0
X.7S1000
X2.4S0
X2.2S1000
X5.8S0
X1.2S1000
X30.9S0
X1.3S1000
X25.7S0
X.5S1000
X2.5S0
X2.1S1000
X5.9S0
X1.2S1000
X2.917S0
Y.1
X-2.917
X-1.1S1000
X-6.2S0
X-2.1S1000
X-2.2S0
X-.6S1000
X-25.7S0
X-1.5S1000
X-30.6S0
X-1.2S1000
X-6.1S0
X-2.1S1000
X-2.3S0
X-.6S1000
X-25.6S0
X-1.5S1000
X-30.7S0
X-1.1S1000
X-6.1S0
X-2.2S1000
X-2.2S0
X-.6S1000
X-25.7S0
X-1.4S1000
X-30.8S0
X-1.1S1000
X-6.1S0
X-2.1S1000
X-2.3S0
X-.6S1000
X-25.7S0
X-1.4S1000
X-2.917S0
X-.2Y.1
X2.917
X1.6S1000
X25.7S0
X.7S1000
X2S0
X2.1S1000
X6.4S0
X1S1000
X30.5S0
X1.7S1000
X25.7S0
X.6S1000
X2S0
X2.2S1000
X6.3S0
X1.2S1000
X30.4S0
X1.6S1000
X25.8S0
X.7S1000
X1.9S0
X2.1S1000
X6.4S0
X1S1000
X30.6S0
X1.5S1000
X25.8S0
X.6S1000
X2.1S0
X2.1S1000
X6.3S0
X1.2S1000
X2.917S0
Y.1
X-2.917
X-1.1S1000
X-6.6S0
X-2.1S1000
X-1.8S0
X-.6S1000
X-25.9S0
X-1.7S1000
X-30.3S0
X-1.1S1000
X-6.6S0
X-2S1000
X-1.8S0
X-.7S1000
X-25.9S0
X-1.6S1000
X-30.3S0
X-1.1S1000
X-6.6S0
X-2S1000
X-1.9S0
X-.6S1000
X-25.9S0
X-1.7S1000
X-30.3S0
X-1.1S1000
X-6.6S0
X-2S1000
X-1.8S0
X-.7S1000
X-25.9S0
X-1.7S1000
X-2.917S0
X-.1Y.1
X2.917
X1.8S1000
X26S0
X.7S1000
X1.5S0
X1.9S1000
X7S0
X1.1S1000
X30S0
X1.8S1000
X26S0
X.7S1000
X1.5S0
X2S1000
X7S0
X1S1000
X30S0
X1.9S1000
X26S0
X.6S1000
X1.6S0
X2S1000
X6.9S0
X1.1S1000
X30.1S0
X1.7S1000
X26S0
X.8S1000
X1.4S0
X2S1000
X7S0
X1S1000
X2.917S0
Y.1
X-2.917
X-1S1000
X-7.2S0
X-1.9S1000
X-1.4S0
X-.6S1000
X-26.1S0
X-1.9S1000
X-29.9S0
X-1S1000
X-7.3S0
X-1.9S1000
X-1.3S0
X-.7S1000
X-26.1S0
X-1.9S1000
X-29.9S0
X-1S1000
X-7.2S0
X-1.9S1000
X-1.3S0
X-.7S1000
X-26.2S0
X-1.8S1000
X-29.9S0
X-1S1000
X-7.2S0
X-2S1000
X-1.3S0
X-.6S1000
X-26.2S0
X-1.9S1000
X-2.917S0
X-.1Y.1
X2.917
X1.9S1000
X26.3S0
X.7S1000
X1.1S0
X1.9S1000
X7.4S0
X1S1000
X29.8S0
X1.8S1000
X26.4S0
X.6S1000
X1.1S0
X2S1000
X7.3S0
X1S1000
X29.8S0
X1.9S1000
X26.3S0
X.6S1000
X1.1S0
X2.1S1000
X7.3S0
X1S1000
X29.8S0
X1.8S1000
X26.4S0
X.6S1000
X1.1S0
X2S1000
X7.3S0
X1S1000
X2.917S0
X.1Y.1
X-2.917
X-1S1000
X-7.5S0
X-2S1000
X-1S0
X-.6S1000
X-26.4S0
X-2S1000
X-29.6S0
X-1S1000
X-7.5S0
X-2S1000
X-.9S0
X-.6S1000
X-26.4S0
X-2.1S1000
X-29.5S0
X-1S1000
X-7.6S0
X-1.9S1000
X-.9S0
X-.7S1000
X-26.4S0
X-2S1000
X-29.6S0
X-1S1000
X-7.5S0
X-2S1000
X-.9S0
X-.6S1000
X-26.4S0
X-2.1S1000
X-2.917S0
X-.1Y.1
X2.917
X2.1S1000
X26.5S0
X.7S1000
X.6S0
X2S1000
X7.8S0
X1S1000
X29.3S0
X2.2S1000
X26.5S0
X.6S1000
X.7S0
X2S1000
X7.7S0
X1S1000
X29.4S0
X2.1S1000
X26.5S0
X.7S1000
X.6S0
X2S1000
X7.8S0
X1S1000
X29.3S0
X2.2S1000
X26.5S0
X.6S1000
X.7S0
X2S1000
X7.7S0
X1S1000
X2.917S0
X.1Y.1
X-2.917
X-1S1000
X-8.1S0
X-1.9S1000
X-.4S0
X-.7S1000
X-26.6S0
X-2.2S1000
X-29.2S0
X-1S1000
X-8S0
X-2S1000
X-.4S0
X-.6S1000
X-26.6S0
X-2.3S1000
X-29.1S0
X-1S1000
X-8.1S0
X-1.9S1000
X-.5S0
X-.6S1000
X-26.6S0
X-2.2S1000
X-29.2S0
X-1S1000
X-8S0
X-2S1000
X-.4S0
X-.6S1000
X-26.6S0
X-2.2S1000
X-2.917S0
X-.2Y.1
X2.917
X2.3S1000
X26.7S0
X.7S1000
X.1S0
X2S1000
X8.2S0
X1.1S1000
X28.9S0
X2.4S1000
X26.6S0
X.7S1000
X.2S0
X1.9S1000
X8.3S0
X1S1000
X28.9S0
X2.4S1000
X26.7S0
X.7S1000
X.2S0
X1.8S1000
X8.3S0
X1.1S1000
X28.9S0
X2.4S1000
X26.7S0
X.6S1000
X.1S0
X2S1000
X8.3S0
X1S1000
X2.917S0
Y.1
X-2.917
X-1S1000
X-8.5S0
X-2.5S1000
X-26.8S0
X-2.5S1000
X-28.7S0
X-1S1000
X-8.5S0
X-2.5S1000
X-26.8S0
X-2.5S1000
X-28.8S0
X-1S1000
X-8.5S0
X-2.5S1000
X-26.8S0
X-2.5S1000
X-28.7S0
X-1S1000
X-8.5S0
X-2.5S1000
X-26.8S0
X-2.5S1000
X-2.917S0
X-.2Y.1
X2.917
X2.6S1000
X2.9S0
X.3S1000
X23.7S0
X2.3S1000
X8.7S0
X1S1000
X28.6S0
X2.5S1000
X2.9S0
X.3S1000
X23.8S0
X2.3S1000
X8.7S0
X1S1000
X28.5S0
X2.6S1000
X2.8S0
X.3S1000
X23.8S0
X2.3S1000
X8.8S0
X.9S1000
X28.6S0
X2.5S1000
X2.9S0
X.3S1000
X23.8S0
X2.3S1000
X8.7S0
X1S1000
X2.917S0
Y.1
X-2.917
X-1S1000
X-8.8S0
X-2.2S1000
X-23.5S0
X-.7S1000
X-2.8S0
X-.7S1000
X-.1S0
X-1.8S1000
X-28.5S0
X-1S1000
X-8.8S0
X-2.1S1000
X-23.7S0
X-.6S1000
X-2.7S0
X-.7S1000
X-.1S0
X-1.8S1000
X-28.5S0
X-1S1000
X-8.8S0
X-2.2S1000
X-23.6S0
X-.6S1000
X-2.8S0
X-.7S1000
X-.1S0
X-1.8S1000
X-28.4S0
X-1.1S1000
X-8.8S0
X-2.1S1000
X-23.6S0
X-.6S1000
X-2.8S0
X-.7S1000
X-.1S0
X-1.9S1000
X-2.917S0
X-.1Y.1
X2.917
X1.8S1000
X.3S0
X.6S1000
X2.8S0
X.9S1000
X23.4S0
X2S1000
X9S0
X1S1000
X28.2S0
X1.8S1000
X.3S0
X.7S1000
X2.7S0
X1S1000
X23.4S0
X1.9S1000
X8.9S0
X1.1S1000
X28.3S0
X1.8S1000
X.2S0
X.7S1000
X2.7S0
X1S1000
X23.4S0
X2S1000
X9S0
X.9S1000
X28.4S0
X1.8S1000
X.2S0
X.6S1000
X2.9S0
X.9S1000
X23.4S0
X1.9S1000
X9S0
X1S1000
X2.917S0
Y.1
X-2.917
X-1S1000
X-9.1S0
X-1.7S1000
X-23.3S0
X-1.2S1000
X-2.7S0
X-.8S1000
X-.3S0
X-1.9S1000
X-28S0
X-1S1000
X-9.2S0
X-1.7S1000
X-23.3S0
X-1.2S1000
X-2.8S0
X-.6S1000
X-.4S0
X-1.8S1000
X-28.1S0
X-1S1000
X-9.1S0
X-1.7S1000
X-23.4S0
X-1.1S1000
X-2.8S0
X-.7S1000
X-.3S0
X-1.9S1000
X-28S0
X-1.1S1000
X-9.1S0
X-1.7S1000
X-23.3S0
X-1.1S1000
X-2.9S0
X-.6S1000
X-.4S0
X-1.8S1000
X-2.917S0
X-.2Y.1
X2.917
X1.9S1000
X.5S0
X.6S1000
X2.8S0
X1.3S1000
X23.3S0
X1.4S1000
X9.4S0
X.9S1000
X27.9S0
X1.9S1000
X.4S0
X.7S1000
X2.8S0
X1.3S1000
X23.3S0
X1.5S1000
X9.3S0
X1S1000
X27.9S0
X1.9S1000
X.4S0
X.7S1000
X2.8S0
X1.2S1000
X23.4S0
X1.4S1000
X9.3S0
X1.1S1000
X27.8S0
X1.9S1000
X.5S0
X.7S1000
X2.8S0
X1.2S1000
X23.3S0
X1.5S1000
X9.3S0
X1S1000
X2.917S0
Y.1
X-2.917
X-1S1000
X-9.5S0
X-1.2S1000
X-23.4S0
X-1.3S1000
X-2.8S0
X-.7S1000
X-.6S0
X-1.8S1000
X-27.7S0
X-1S1000
X-9.5S0
X-1.2S1000
X-23.5S0
X-1.3S1000
X-2.8S0
X-.6S1000
X-.6S0
X-1.9S1000
X-27.7S0
X-1S1000
X-9.5S0
X-1.2S1000
X-23.4S0
X-1.3S1000
X-2.9S0
X-.6S1000
X-.6S0
X-1.8S1000
X-27.7S0
X-1.1S1000
X-9.4S0
X-1.2S1000
X-23.4S0
X-1.3S1000
X-2.9S0
X-.7S1000
X-.5S0
X-1.8S1000
X-2.917S0
X-.2Y.1
X2.917
X1.9S1000
X.7S0
X.5S1000
X3S0
X1.3S1000
X23.4S0
X1S1000
X9.7S0
X1S1000
X27.5S0
X1.9S1000
X.7S0
X.6S1000
X2.9S0
X1.3S1000
X23.5S0
X1S1000
X9.6S0
X1S1000
X27.6S0
X1.8S1000
X.7S0
X.6S1000
X2.9S0
X1.3S1000
X23.5S0
X1S1000
X9.7S0
X1S1000
X27.5S0
X1.9S1000
X.7S0
X.6S1000
X2.9S0
X1.3S1000
X23.5S0
X1S1000
X9.7S0
X.9S1000
X2.917S0
Y.1
X-2.917
X-1S1000
X-9.8S0
X-.8S1000
X-23.5S0
X-1.3S1000
X-3S0
X-.6S1000
X-.8S0
X-1.8S1000
X-27.4S0
X-1.1S1000
X-9.8S0
X-.7S1000
X-23.6S0
X-1.3S1000
X-2.8S0
X-.7S1000
X-.8S0
X-1.9S1000
X-27.4S0
X-1S1000
X-9.8S0
X-.8S1000
X-23.5S0
X-1.3S1000
X-3S0
X-.6S1000
X-.8S0
X-1.8S1000
X-27.4S0
X-1.1S1000
X-9.8S0
X-.7S1000
X-23.5S0
X-1.3S1000
X-3S0
X-.6S1000
X-.8S0
X-1.8S1000
X-2.917S0
X-.1Y.1
X2.917
X1.8S1000
X.8S0
X.7S1000
X2.9S0
X1.4S1000
X23.5S0
X.6S1000
X10S0
X1S1000
X27.3S0
X1.8S1000
X.8S0
X.7S1000
X2.9S0
X1.4S1000
X23.5S0
X.7S1000
X10S0
X.9S1000
X27.4S0
X1.8S1000
X.8S0
X.6S1000
X2.9S0
X1.4S1000
X23.6S0
X.7S1000
X9.9S0
X1S1000
X27.4S0
X1.7S1000
X.9S0
X.6S1000
X3S0
X1.3S1000
X23.6S0
X.7S1000
X9.9S0
X.9S1000
X2.917S0
Y.1
X-2.917
X-1S1000
X-9.8S0
X-.7S1000
X-23.6S0
X-1.4S1000
X-3S0
X-.6S1000
X-.7S0
X-1.8S1000
X-27.4S0
X-1S1000
X-9.8S0
X-.8S1000
X-23.6S0
X-1.3S1000
X-3S0
X-.7S1000
X-.6S0
X-1.8S1000
X-27.5S0
X-1S1000
X-9.8S0
X-.7S1000
X-23.6S0
X-1.4S1000
X-3S0
X-.6S1000
X-.7S0
X-1.8S1000
X-27.5S0
X-1S1000
X-9.7S0
X-.7S1000
X-23.6S0
X-1.4S1000
X-3S0
X-.6S1000
X-.8S0
X-1.7S1000
X-2.917S0
X.2Y.1
X2.917
X1.8S1000
X.4S0
X.7S1000
X3S0
X1.4S1000
X23.6S0
X.8S1000
X9.7S0
X1S1000
X27.6S0
X1.8S1000
X.4S0
X.7S1000
X3S0
X1.4S1000
X23.6S0
X.9S1000
X9.6S0
X1S1000
X27.7S0
X1.8S1000
X.4S0
X.6S1000
X3S0
X1.4S1000
X23.7S0
X.8S1000
X9.6S0
X1.1S1000
X27.6S0
X1.9S1000
X.3S0
X.8S1000
X2.9S0
X1.4S1000
X23.7S0
X.8S1000
X9.7S0
X.9S1000
X2.917S0
Y.1
X-2.917
X-1S1000
X-9.5S0
X-.9S1000
X-23.7S0
X-1.3S1000
X-3.2S0
X-.6S1000
X-.3S0
X-1.7S1000
X-27.8S0
X-1S1000
X-9.5S0
X-.9S1000
X-23.9S0
X-1.3S1000
X-3S0
X-.7S1000
X-.2S0
X-1.8S1000
X-27.8S0
X-.9S1000
X-9.6S0
X-.9S1000
X-23.8S0
X-1.3S1000
X-3.1S0
X-.6S1000
X-.2S0
X-1.8S1000
X-27.8S0
X-1.1S1000
X-9.4S0
X-.9S1000
X-23.8S0
X-1.3S1000
X-3.1S0
X-.7S1000
X-.2S0
X-1.9S1000
X-2.917S0
X.2Y.1
X2.917
X2.5S1000
X3.2S0
X1.3S1000
X23.8S0
X1S1000
X9.4S0
X1S1000
X27.8S0
X2.5S1000
X3.2S0
X1.3S1000
X23.9S0
X1S1000
X9.3S0
X1S1000
X27.9S0
X2.5S1000
X3.2S0
X1.2S1000
X23.9S0
X1S1000
X9.3S0
X1.1S1000
X27.9S0
X2.4S1000
X3.2S0
X1.3S1000
X23.9S0
X1S1000
X9.4S0
X.9S1000
X2.917S0
Y.1
X-2.917
X-1S1000
X-9.2S0
X-1.1S1000
X-23.9S0
X-1.3S1000
X-3.2S0
X-2.3S1000
X-28.1S0
X-.9S1000
X-9.2S0
X-1.1S1000
X-24S0
X-1.3S1000
X-3.2S0
X-2.2S1000
X-28.1S0
X-1S1000
X-9.2S0
X-1.1S1000
X-23.9S0
X-1.3S1000
X-3.2S0
X-2.3S1000
X-28S0
X-1.1S1000
X-9.1S0
X-1.1S1000
X-23.9S0
X-1.3S1000
X-3.3S0
X-2.2S1000
X-2.917S0
X.1Y.1
X2.917
X2.1S1000
X3.3S0
X1.3S1000
X23.9S0
X1.3S1000
X9S0
X.9S1000
X28.2S0
X2.2S1000
X3.3S0
X1.2S1000
X24S0
X1.2S1000
X9S0
X1S1000
X28.2S0
X2.1S1000
X3.2S0
X1.3S1000
X24S0
X1.3S1000
X8.9S0
X1S1000
X28.2S0
X2.2S1000
X3.3S0
X1.2S1000
X24S0
X1.3S1000
X8.9S0
X1S1000
X2.917S0
X-.1Y.1
X-2.917
X-.9S1000
X-8.8S0
X-1.3S1000
X-24.1S0
X-1.3S1000
X-3.3S0
X-1.8S1000
X-28.5S0
X-1S1000
X-8.8S0
X-1.3S1000
X-24.1S0
X-1.2S1000
X-3.4S0
X-1.8S1000
X-28.5S0
X-1S1000
X-8.7S0
X-1.3S1000
X-24.1S0
X-1.3S1000
X-3.3S0
X-1.8S1000
X-28.5S0
X-1S1000
X-8.7S0
X-1.4S1000
X-24S0
X-1.3S1000
X-3.3S0
X-1.9S1000
X-2.917S0
X.2Y.1
X2.917
X1.6S1000
X3.4S0
X1.3S1000
X24.1S0
X1.5S1000
X8.5S0
X1S1000
X28.6S0
X1.6S1000
X3.4S0
X1.3S1000
X24.1S0
X1.5S1000
X8.5S0
X1S1000
X28.6S0
X1.7S1000
X3.3S0
X1.3S1000
X24.2S0
X1.4S1000
X8.6S0
X.9S1000
X28.7S0
X1.7S1000
X3.3S0
X1.3S1000
X24.1S0
X1.5S1000
X8.5S0
X1S1000
X2.917S0
Y.1
X-2.917
X-1S1000
X-8.4S0
X-1.5S1000
X-17.7S0
X-.6S1000
X-.2S0
X-5.4S1000
X-.2S0
X-1.4S1000
X-3.4S0
X-1.4S1000
X-28.9S0
X-.9S1000
X-8.4S0
X-1.5S1000
X-17.8S0
X-.6S1000
X-.2S0
X-1.4S1000
X-.1S0
X-3.8S1000
X-.3S0
X-1.4S1000
X-3.4S0
X-1.4S1000
X-28.8S0
X-1S1000
X-8.4S0
X-1.5S1000
X-17.8S0
X-.5S1000
X-.3S0
X-5.3S1000
X-.2S0
X-1.5S1000
X-3.3S0
X-1.4S1000
X-28.9S0
X-.9S1000
X-8.4S0
X-1.6S1000
X-17.7S0
X-.5S1000
X-.3S0
X-1.4S1000
X-.1S0
X-3.8S1000
X-.2S0
X-1.5S1000
X-3.4S0
X-1.3S1000
X-2.917S0
X.1Y.1
X2.917
X1.2S1000
X3.5S0
X7.9S1000
X17.6S0
X1.6S1000
X8.2S0
X1S1000
X29S0
X1.2S1000
X3.5S0
X7.9S1000
X17.6S0
X1.7S1000
X8.2S0
X1S1000
X29S0
X1.2S1000
X3.4S0
X7.9S1000
X17.6S0
X1.8S1000
X8.1S0
X1S1000
X29S0
X1.2S1000
X3.5S0
X7.9S1000
X17.7S0
X1.6S1000
X8.2S0
X1S1000
X2.917S0
Y.1
X-2.917
X-1.1S1000
X-8S0
X-1.7S1000
X-17.6S0
X-7.9S1000
X-3.6S0
X-1S1000
X-29.2S0
X-1S1000
X-8.1S0
X-1.7S1000
X-17.6S0
X-8S1000
X-3.5S0
X-1S1000
X-29.1S0
X-1.1S1000
X-8S0
X-1.7S1000
X-17.6S0
X-8S1000
X-3.5S0
X-1S1000
X-29.2S0
X-1S1000
X-8S0
X-1.8S1000
X-17.5S0
X-8S1000
X-3.6S0
X-1S1000
X-2.917S0
X.2Y.1
X2.917
X.8S1000
X3.6S0
X8S1000
X17.6S0
X1.9S1000
X7.8S0
X1S1000
X29.4S0
X.7S1000
X3.6S0
X8S1000
X17.6S0
X2S1000
X7.7S0
X1.1S1000
X29.3S0
X.7S1000
X3.7S0
X7.9S1000
X17.7S0
X1.9S1000
X7.7S0
X1.1S1000
X29.4S0
X.7S1000
X3.6S0
X8S1000
X17.6S0
X2S1000
X7.7S0
X1.1S1000
X2.917S0
X-.1Y.1
X-2.917
X-1.1S1000
X-7.5S0
X-2S1000
X-17.7S0
X-8S1000
X-3.7S0
X-.6S1000
X-29.4S0
X-1.1S1000
X-7.5S0
X-2.1S1000
X-17.7S0
X-8S1000
X-3.6S0
X-.7S1000
X-29.4S0
X-1.1S1000
X-7.5S0
X-2S1000
X-17.7S0
X-7.9S1000
X-3.8S0
X-.6S1000
X-29.5S0
X-1S1000
X-7.5S0
X-2S1000
X-17.7S0
X-8S1000
X-3.7S0
X-.7S1000
X-2.917S0
Y.1
X2.917
X.6S1000
X3.8S0
X8S1000
X17.7S0
X2.1S1000
X7.4S0
X1S1000
X29.4S0
X.6S1000
X3.8S0
X8S1000
X17.8S0
X2.1S1000
X7.3S0
X1S1000
X29.5S0
X.6S1000
X3.7S0
X8S1000
X17.8S0
X2.1S1000
X7.3S0
X1.1S1000
X29.4S0
X.6S1000
X3.9S0
X7.9S1000
X17.8S0
X2.1S1000
X7.3S0
X1.1S1000
X2.917S0
X-.1Y.1
X-2.917
X-1.1S1000
X-7S0
X-2.3S1000
X-17.8S0
X-8S1000
X-3.8S0
X-.6S1000
X-29.4S0
X-1.1S1000
X-7.1S0
X-2.2S1000
X-17.9S0
X-7.9S1000
X-3.8S0
X-.7S1000
X-29.4S0
X-1.1S1000
X-7S0
X-2.3S1000
X-17.8S0
X-8S1000
X-3.8S0
X-.6S1000
X-29.4S0
X-1.1S1000
X-7.1S0
X-2.2S1000
X-17.8S0
X-8S1000
X-3.8S0
X-.7S1000
X-2.917S0
Y.1
X2.917
X.6S1000
X3.9S0
X8S1000
X17.8S0
X2.4S1000
X6.9S0
X1.1S1000
X29.3S0
X.7S1000
X3.8S0
X8S1000
X17.9S0
X2.3S1000
X6.9S0
X1.1S1000
X29.4S0
X.6S1000
X3.8S0
X8S1000
X17.9S0
X2.4S1000
X6.8S0
X1.1S1000
X29.4S0
X.6S1000
X3.9S0
X8S1000
X17.9S0
X2.3S1000
X6.9S0
X1.1S1000
X2.917S0
Y.1
X-2.917
X-1.1S1000
X-6.7S0
X-2.5S1000
X-17.9S0
X-7.9S1000
X-4S0
X-.6S1000
X-29.4S0
X-1.1S1000
X-6.6S0
X-2.5S1000
X-18S0
X-7.9S1000
X-4S0
X-.6S1000
X-29.4S0
X-1S1000
X-6.7S0
X-2.5S1000
X-17.9S0
X-7.9S1000
X-4S0
X-.6S1000
X-29.4S0
X-1.1S1000
X-6.6S0
X-2.5S1000
X-17.9S0
X-8S1000
X-4S0
X-.6S1000
X-2.917S0
Y.1
X2.917
X.6S1000
X4.1S0
X7.8S1000
X18S0
X2.7S1000
X6.4S0
X1.1S1000
X29.3S0
X.7S1000
X4S0
X7.9S1000
X18S0
X2.7S1000
X6.3S0
X1.2S1000
X29.3S0
X.6S1000
X4S0
X7.9S1000
X18S0
X2.7S1000
X6.3S0
X1.2S1000
X29.3S0
X.7S1000
X4S0
X7.9S1000
X18S0
X2.7S1000
X6.3S0
X1.2S1000
X2.917S0
X-.1Y.1
X-2.917
X-1.1S1000
X-6.2S0
X-2.8S1000
X-18S0
X-7.9S1000
X-4.1S0
X-.6S1000
X-29.3S0
X-1.2S1000
X-6.1S0
X-2.8S1000
X-18.2S0
X-7.8S1000
X-4S0
X-.7S1000
X-29.3S0
X-1.2S1000
X-6.1S0
X-2.8S1000
X-18.1S0
X-7.8S1000
X-4.1S0
X-.6S1000
X-29.4S0
X-1.1S1000
X-6.1S0
X-2S1000
X-.1S0
X-.7S1000
X-18.1S0
X-7.8S1000
X-4.1S0
X-.7S1000
X-2.917S0
Y.1
X2.917
X.6S1000
X4.2S0
X7.9S1000
X18S0
X.7S1000
X.2S0
X2.1S1000
X5.8S0
X1.2S1000
X29.3S0
X.6S1000
X4.2S0
X7.9S1000
X18.1S0
X.6S1000
X.3S0
X2S1000
X5.9S0
X1.1S1000
X29.4S0
X.6S1000
X4.1S0
X7.9S1000
X18.1S0
X.6S1000
X.3S0
X2.1S1000
X5.9S0
X1.1S1000
X29.3S0
X.6S1000
X4.2S0
X7.9S1000
X18.1S0
X.6S1000
X.3S0
X2S1000
X5.9S0
X1.1S1000
X2.917S0
Y.1
X-2.917
X-1.2S1000
X-5.6S0
X-2.1S1000
X-.4S0
X-.5S1000
X-18.2S0
X-7.9S1000
X-4.2S0
X-.6S1000
X-29.4S0
X-1.1S1000
X-5.6S0
X-2.1S1000
X-.4S0
X-.6S1000
X-18.2S0
X-7.9S1000
X-4.1S0
X-.7S1000
X-29.3S0
X-1.2S1000
X-5.6S0
X-2.1S1000
X-.3S0
X-.7S1000
X-18.1S0
X-7.9S1000
X-4.2S0
X-.6S1000
X-29.3S0
X-1.2S1000
X-5.6S0
X-2.1S1000
X-.4S0
X-.6S1000
X-18.1S0
X-7.9S1000
X-4.3S0
X-.6S1000
X-2.917S0
Y.1
X2.917
X.6S1000
X4.3S0
X7.9S1000
X18.2S0
X.6S1000
X.4S0
X2.2S1000
X5.3S0
X1.2S1000
X29.3S0
X.6S1000
X4.3S0
X7.9S1000
X18.2S0
X.7S1000
X.3S0
X2.2S1000
X5.3S0
X1.2S1000
X29.3S0
X.7S1000
X4.2S0
X7.9S1000
X18.3S0
X.7S1000
X.3S0
X2.2S1000
X5.3S0
X1.2S1000
X29.3S0
X.6S1000
X4.3S0
X7.9S1000
X18.2S0
X.7S1000
X.4S0
X2.1S1000
X5.3S0
X1.3S1000
X2.917S0
X-.1Y.1
X-2.917
X-1.3S1000
X-5S0
X-2.2S1000
X-.5S0
X-.6S1000
X-18.3S0
X-7.9S1000
X-4.3S0
X-.7S1000
X-29.3S0
X-1.3S1000
X-5S0
X-2.1S1000
X-.5S0
X-.7S1000
X-18.3S0
X-7.9S1000
X-4.3S0
X-.6S1000
X-29.3S0
X-1.3S1000
X-5S0
X-2.1S1000
X-.6S0
X-.6S1000
X-18.3S0
X-7.9S1000
X-4.3S0
X-.6S1000
X-29.4S0
X-1.3S1000
X-5S0
X-2.2S1000
X-.4S0
X-.7S1000
X-18.2S0
X-7.9S1000
X-4.4S0
X-.6S1000
X-2.917S0
X-.1Y.1
X2.917
X.7S1000
X4.4S0
X7.7S1000
X18.5S0
X.7S1000
X.6S0
X2.2S1000
X4.7S0
X1.2S1000
X29.4S0
X.6S1000
X4.4S0
X7.7S1000
X18.5S0
X.7S1000
X.6S0
X2.2S1000
X4.8S0
X1.2S1000
X29.3S0
X.6S1000
X4.4S0
X7.8S1000
X18.5S0
X.6S1000
X.7S0
X2.1S1000
X4.8S0
X1.2S1000
X29.4S0
X.6S1000
X4.4S0
X7.8S1000
X18.4S0
X.7S1000
X.6S0
X2.2S1000
X4.8S0
X1.2S1000
X2.917S0
X-.1Y.1
X-2.917
X-1.2S1000
X-4.5S0
X-2.2S1000
X-.8S0
X-.6S1000
X-24.8S0
X-1.5S1000
X-4.5S0
X-.6S1000
X-29.4S0
X-1.2S1000
X-4.5S0
X-2.1S1000
X-.8S0
X-.7S1000
X-24.9S0
X-1.4S1000
X-4.4S0
X-.6S1000
X-29.4S0
X-1.3S1000
X-4.4S0
X-2.2S1000
X-.8S0
X-.6S1000
X-24.9S0
X-1.4S1000
X-4.5S0
X-.6S1000
X-29.3S0
X-1.4S1000
X-4.4S0
X-2.1S1000
X-.8S0
X-.6S1000
X-24.9S0
X-1.4S1000
X-4.5S0
X-.7S1000
X-2.917S0
Y.1
X2.917
X.6S1000
X4.6S0
X1.4S1000
X24.9S0
X.6S1000
X.9S0
X2.3S1000
X4.1S0
X1.3S1000
X29.3S0
X.6S1000
X4.6S0
X1.4S1000
X25S0
X.6S1000
X.9S0
X2.2S1000
X4.1S0
X1.3S1000
X29.4S0
X.6S1000
X4.6S0
X1.3S1000
X25S0
X.6S1000
X.9S0
X2.3S1000
X4.1S0
X1.3S1000
X29.4S0
X.6S1000
X4.5S0
X1.4S1000
X25S0
X.6S1000
X.9S0
X2.2S1000
X4.1S0
X1.3S1000
X2.917S0
Y.1
X-2.917
X-1.4S1000
X-3.8S0
X-2.3S1000
X-1S0
X-.6S1000
X-13S0
X-.4S1000
X-11.6S0
X-1.4S1000
X-4.6S0
X-.6S1000
X-29.4S0
X-1.4S1000
X-3.7S0
X-2.3S1000
X-1S0
X-.6S1000
X-13.1S0
X-.4S1000
X-11.6S0
X-1.4S1000
X-4.5S0
X-.7S1000
X-29.3S0
X-1.4S1000
X-3.8S0
X-2.3S1000
X-.9S0
X-.7S1000
X-13.1S0
X-.3S1000
X-11.6S0
X-1.4S1000
X-4.5S0
X-.7S1000
X-29.4S0
X-1.3S1000
X-3.8S0
X-2.3S1000
X-1S0
X-.7S1000
X-13S0
X-.4S1000
X-11.5S0
X-1.4S1000
X-4.6S0
X-.6S1000
X-2.917S0
X-.1Y.1
X2.917
X.6S1000
X4.7S0
X1.3S1000
X11.6S0
X.7S1000
X12.8S0
X.7S1000
X1.1S0
X2.3S1000
X3.4S0
X1.4S1000
X29.4S0
X.7S1000
X4.6S0
X1.4S1000
X11.5S0
X.7S1000
X12.9S0
X.6S1000
X1.1S0
X2.3S1000
X3.4S0
X1.5S1000
X29.4S0
X.6S1000
X4.6S0
X1.4S1000
X11.5S0
X.6S1000
X.1S0
X.1S1000
X12.8S0
X.7S1000
X1.1S0
X2.3S1000
X3.3S0
X1.5S1000
X29.4S0
X.7S1000
X4.6S0
X1.4S1000
X11.5S0
X.7S1000
X.1S0
X.1S1000
X12.7S0
X.6S1000
X1.1S0
X2.3S1000
X3.4S0
X1.6S1000
X2.917S0
X-.2Y.1
X-2.917
X-1.6S1000
X-2.9S0
X-2.2S1000
X-.1S0
X-.1S1000
X-1.2S0
X-.7S1000
X-12.5S0
X-1.2S1000
X-11.4S0
X-1.4S1000
X-4.7S0
X-.6S1000
X-29.4S0
X-1.7S1000
X-2.9S0
X-2.2S1000
X-.1S0
X-.1S1000
X-1.2S0
X-.6S1000
X-12.7S0
X-1.1S1000
X-11.4S0
X-1.4S1000
X-4.6S0
X-.7S1000
X-29.4S0
X-1.6S1000
X-2.9S0
X-2.4S1000
X-1.3S0
X-.6S1000
X-12.6S0
X-1.1S1000
X-11.4S0
X-1.4S1000
X-4.7S0
X-.6S1000
X-29.5S0
X-1.6S1000
X-2.8S0
X-2.4S1000
X-1.3S0
X-.6S1000
X-12.6S0
X-1.1S1000
X-11.4S0
X-1.4S1000
X-4.7S0
X-.6S1000
X-2.917S0
X-.1Y.1
X2.917
X.6S1000
X4.8S0
X1.4S1000
X11.4S0
X1.2S1000
X12.5S0
X.7S1000
X1.4S0
X2.4S1000
X2.4S0
X1.7S1000
X29.5S0
X.7S1000
X4.7S0
X1.4S1000
X11.4S0
X1.2S1000
X12.5S0
X.7S1000
X1.5S0
X2.3S1000
X2.5S0
X1.7S1000
X29.5S0
X.6S1000
X4.7S0
X1.4S1000
X11.4S0
X1.2S1000
X12.6S0
X.6S1000
X1.5S0
X2.4S1000
X2.4S0
X1.7S1000
X29.5S0
X.7S1000
X4.7S0
X1.4S1000
X11.4S0
X1.2S1000
X12.5S0
X.8S1000
X1.3S0
X2.4S1000
X2.5S0
X1.7S1000
X2.917S0
X-.1Y.1
X-2.917
X-1.9S1000
X-1.7S0
X-2.7S1000
X-1.6S0
X-.6S1000
X-12.6S0
X-1.2S1000
X-11.4S0
X-1.4S1000
X-4.8S0
X-.6S1000
X-29.6S0
X-1.8S1000
X-1.8S0
X-2.6S1000
X-1.6S0
X-.7S1000
X-12.6S0
X-1.3S1000
X-11.3S0
X-1.4S1000
X-4.7S0
X-.7S1000
X-29.5S0
X-1.9S1000
X-1.7S0
X-2.7S1000
X-1.5S0
X-.7S1000
X-12.6S0
X-1.3S1000
X-11.3S0
X-1.4S1000
X-4.8S0
X-.6S1000
X-29.6S0
X-1.9S1000
X-1.7S0
X-2.6S1000
X-1.6S0
X-.6S1000
X-12.6S0
X-1.3S1000
X-11.4S0
X-1.3S1000
X-4.8S0
X-.7S1000
X-2.917S0
Y.1
X2.917
X.6S1000
X4.9S0
X1.4S1000
X11.3S0
X1.3S1000
X12.6S0
X.7S1000
X1.7S0
X2.6S1000
X1.2S0
X2.1S1000
X29.6S0
X.6S1000
X4.9S0
X1.4S1000
X11.3S0
X1.3S1000
X12.7S0
X.6S1000
X1.7S0
X2.6S1000
X1.3S0
X2.1S1000
X29.6S0
X.6S1000
X4.8S0
X1.4S1000
X11.3S0
X1.3S1000
X12.7S0
X.6S1000
X1.8S0
X2.6S1000
X1.2S0
X2.1S1000
X29.6S0
X.6S1000
X4.9S0
X1.4S1000
X11.3S0
X1.3S1000
X12.7S0
X.6S1000
X1.7S0
X2.7S1000
X1.2S0
X2.1S1000
X2.917S0
Y.1
X-2.917
X-5.8S1000
X-1.8S0
X-.6S1000
X-12.8S0
X-1.3S1000
X-11.3S0
X-1.4S1000
X-4.9S0
X-.6S1000
X-29.6S0
X-5.7S1000
X-1.9S0
X-.6S1000
X-12.8S0
X-1.3S1000
X-11.3S0
X-1.3S1000
X-4.9S0
X-.7S1000
X-29.6S0
X-5.7S1000
X-1.8S0
X-.7S1000
X-12.7S0
X-1.3S1000
X-11.3S0
X-1.4S1000
X-4.9S0
X-.6S1000
X-29.7S0
X-5.6S1000
X-1.9S0
X-.6S1000
X-12.7S0
X-1.3S1000
X-11.3S0
X-1.4S1000
X-4.9S0
X-.7S1000
X-2.917S0
Y.1
X2.917
X.6S1000
X5S0
X1.3S1000
X11.4S0
X1.3S1000
X12.7S0
X.7S1000
X2S0
X5.3S1000
X29.7S0
X.7S1000
X4.9S0
X1.4S1000
X11.3S0
X1.3S1000
X12.8S0
X.6S1000
X2.1S0
X5.3S1000
X29.6S0
X.7S1000
X4.9S0
X1.4S1000
X11.3S0
X1.3S1000
X12.9S0
X.7S1000
X1.9S0
X5.3S1000
X29.7S0
X.6S1000
X5S0
X1.4S1000
X11.3S0
X1.3S1000
X12.8S0
X.6S1000
X2.1S0
X5.3S1000
X2.917S0
X-.1Y.1
X-2.917
X-4.9S1000
X-.1S0
X-.1S1000
X-2.1S0
X-.6S1000
X-12.9S0
X-1.3S1000
X-11.3S0
X-1.4S1000
X-5S0
X-.7S1000
X-29.7S0
X-4.9S1000
X-2.3S0
X-.6S1000
X-12.9S0
X-1.3S1000
X-11.3S0
X-1.4S1000
X-5S0
X-.6S1000
X-29.8S0
X-4.8S1000
X-.1S0
X-.1S1000
X-2.1S0
X-.6S1000
X-12.9S0
X-1.4S1000
X-11.3S0
X-1.3S1000
X-5.1S0
X-.6S1000
X-29.7S0
X-4.9S1000
X-2.2S0
X-.6S1000
X-12.9S0
X-1.4S1000
X-11.2S0
X-1.4S1000
X-5.1S0
X-.6S1000
X-2.917S0
X-.1Y.1
X2.917
X.7S1000
X5.1S0
X1.4S1000
X11.2S0
X1.4S1000
X12.9S0
X.6S1000
X2.4S0
X4.5S1000
X29.9S0
X.6S1000
X5.1S0
X1.4S1000
X11.2S0
X1.4S1000
X12.9S0
X.7S1000
X2.3S0
X4.6S1000
X29.8S0
X.7S1000
X5S0
X1.4S1000
X11.2S0
X1.4S1000
X13S0
X.6S1000
X2.3S0
X4.6S1000
X29.9S0
X.7S1000
X5S0
X1.4S1000
X11.2S0
X1.4S1000
X13S0
X.7S1000
X2.2S0
X4.6S1000
X2.917S0
X-.1Y.1
X-2.917
X-4.3S1000
X-2.5S0
X-.6S1000
X-13S0
X-1.3S1000
X-11.3S0
X-1.4S1000
X-5.1S0
X-.6S1000
X-29.9S0
X-4.4S1000
X-2.4S0
X-.6S1000
X-13.1S0
X-1.3S1000
X-11.3S0
X-1.4S1000
X-5.1S0
X-.6S1000
X-30S0
X-4.2S1000
X-2.5S0
X-.6S1000
X-13S0
X-1.3S1000
X-11.3S0
X-1.4S1000
X-5.1S0
X-.7S1000
X-29.9S0
X-4.2S1000
X-2.5S0
X-.7S1000
X-12.9S0
X-1.4S1000
X-11.3S0
X-1.3S1000
X-5.2S0
X-.6S1000
X-2.917S0
X-.1Y.1
X2.917
X.6S1000
X5.3S0
X1.4S1000
X11.2S0
X1.3S1000
X13.1S0
X.6S1000
X2.7S0
X3.9S1000
X30S0
X.6S1000
X5.2S0
X1.4S1000
X11.2S0
X1.3S1000
X13.1S0
X.7S1000
X2.7S0
X3.8S1000
X30.1S0
X.6S1000
X5.1S0
X1.4S1000
X11.2S0
X1.3S1000
X13.2S0
X.6S1000
X2.7S0
X3.8S1000
X30.1S0
X.6S1000
X5.2S0
X1.4S1000
X11.2S0
X1.4S1000
X13S0
X.7S1000
X2.7S0
X3.8S1000
X2.917S0
X-.2Y.1
X-2.917
X-3.5S1000
X-2.8S0
X-.6S1000
X-13.1S0
X-1.3S1000
X-11.3S0
X-1.3S1000
X-5.4S0
X-.6S1000
X-30.1S0
X-3.5S1000
X-2.8S0
X-.7S1000
X-13.2S0
X-1.2S1000
X-11.3S0
X-1.3S1000
X-5.3S0
X-.6S1000
X-30.2S0
X-3.5S1000
X-2.8S0
X-.6S1000
X-13.2S0
X-1.3S1000
X-11.3S0
X-1.3S1000
X-5.2S0
X-.7S1000
X-30.1S0
X-3.5S1000
X-2.8S0
X-.7S1000
X-13.1S0
X-1.3S1000
X-11.3S0
X-1.3S1000
X-5.3S0
X-.6S1000
X-2.917S0
X-.1Y.1
X2.917
X.7S1000
X5.4S0
X1.2S1000
X11.3S0
X1.3S1000
X13.2S0
X.7S1000
X3S0
X.1S1000
X.1S0
X2.6S1000
X.1S0
X.1S1000
X30.2S0
X.7S1000
X5.4S0
X1.2S1000
X11.4S0
X1.2S1000
X13.2S0
X.7S1000
X3.1S0
X.1S1000
X.1S0
X2.6S1000
X30.4S0
X.6S1000
X5.4S0
X1.2S1000
X11.3S0
X1.4S1000
X13.2S0
X.7S1000
X3S0
X.1S1000
X.1S0
X2.7S1000
X30.3S0
X.7S1000
X5.4S0
X1.3S1000
X11.2S0
X1.3S1000
X13.2S0
X.7S1000
X3.1S0
X2.8S1000
X2.917S0
X-.3Y.1
X-2.917
X-2.1S1000
X-3.4S0
X-.7S1000
X-13.3S0
X-1.2S1000
X-8.4S0
X-.5S1000
X-2.5S0
X-1.2S1000
X-5.5S0
X-.6S1000
X-30.6S0
X-2.1S1000
X-3.5S0
X-.7S1000
X-13.3S0
X-1.2S1000
X-8.5S0
X-.4S1000
X-2.5S0
X-1.2S1000
X-5.4S0
X-.7S1000
X-30.6S0
X-2.1S1000
X-3.5S0
X-.6S1000
X-13.3S0
X-1.3S1000
X-8.4S0
X-.5S1000
X-2.4S0
X-1.2S1000
X-5.5S0
X-.6S1000
X-30.7S0
X-2.1S1000
X-3.4S0
X-.6S1000
X-13.3S0
X-1.3S1000
X-8.5S0
X-.4S1000
X-2.4S0
X-1.2S1000
X-5.5S0
X-.6S1000
X-2.917S0
X-.1Y.1
X2.917
X.7S1000
X5.6S0
X1S1000
X2.3S0
X.8S1000
X8.3S0
X1.3S1000
X13.3S0
X.7S1000
X3.9S0
X.9S1000
X31.2S0
X.7S1000
X5.6S0
X1S1000
X2.3S0
X.8S1000
X8.3S0
X1.3S1000
X13.3S0
X.7S1000
X3.9S0
X1S1000
X31.2S0
X.6S1000
X5.6S0
X1S1000
X2.3S0
X.9S1000
X8.2S0
X1.3S1000
X13.4S0
X.6S1000
X4S0
X1S1000
X31.1S0
X.8S1000
X5.5S0
X1S1000
X2.3S0
X.8S1000
X8.3S0
X1.3S1000
X13.4S0
X.7S1000
X3.8S0
X1S1000
X2.917S0
X-4.9Y.1
X-2.917
X-.6S1000
X-13.4S0
X-1.3S1000
X-8.1S0
X-1.1S1000
X-2.5S0
X-.6S1000
X-5.8S0
X-.6S1000
X-36S0
X-.6S1000
X-13.5S0
X-1.3S1000
X-8.1S0
X-1.1S1000
X-2.4S0
X-.7S1000
X-5.7S0
X-.7S1000
X-35.9S0
X-.7S1000
X-13.4S0
X-1.3S1000
X-8.1S0
X-1.2S1000
X-2.4S0
X-.6S1000
X-5.8S0
X-.6S1000
X-36S0
X-.6S1000
X-13.4S0
X-1.3S1000
X-8.1S0
X-1.2S1000
X-2.4S0
X-.6S1000
X-5.8S0
X-.7S1000
X-2.917S0
Y.1
X2.917
X.6S1000
X6.1S0
X.1S1000
X2.6S0
X1.4S1000
X7.9S0
X1.5S1000
X.2S0
X5.3S1000
X.3S0
X.5S1000
X7S0
X.7S1000
X35.8S0
X.7S1000
X6S0
X.1S1000
X2.6S0
X1.4S1000
X8S0
X1.4S1000
X.2S0
X5.4S1000
X.2S0
X.6S1000
X7S0
X.6S1000
X35.8S0
X.7S1000
X8.7S0
X1.4S1000
X8S0
X1.4S1000
X.2S0
X5.4S1000
X.2S0
X.6S1000
X7S0
X.8S1000
X35.7S0
X.6S1000
X8.8S0
X1.5S1000
X8S0
X1.3S1000
X.2S0
X5.4S1000
X.2S0
X.6S1000
X7S0
X.6S1000
X2.917S0
X.1Y.1
X-2.917
X-.7S1000
X-6.8S0
X-8S1000
X-7.7S0
X-2S1000
X-8.5S0
X-.6S1000
X-35.8S0
X-.6S1000
X-6.9S0
X-8S1000
X-7.8S0
X-1.9S1000
X-8.5S0
X-.6S1000
X-35.7S0
X-.7S1000
X-6.8S0
X-8S1000
X-7.8S0
X-1.9S1000
X-8.5S0
X-.6S1000
X-35.8S0
X-.6S1000
X-6.8S0
X-8S1000
X-7.8S0
X-1.9S1000
X-8.6S0
X-.6S1000
X-2.917S0
Y.1
X2.917
X.6S1000
X8.4S0
X2.3S1000
X7.6S0
X8S1000
X6.8S0
X.7S1000
X35.6S0
X.7S1000
X8.4S0
X2.2S1000
X7.6S0
X8S1000
X6.9S0
X.6S1000
X35.7S0
X.6S1000
X8.4S0
X2.2S1000
X7.7S0
X7.9S1000
X7S0
X.6S1000
X35.6S0
X.7S1000
X8.4S0
X2.2S1000
X7.6S0
X8S1000
X6.9S0
X.6S1000
X2.917S0
X.1Y.1
X-2.917
X-.6S1000
X-7S0
X-7.9S1000
X-7.5S0
X-2.6S1000
X-8.3S0
X-.6S1000
X-35.6S0
X-.6S1000
X-7S0
X-8S1000
X-7.5S0
X-2.5S1000
X-8.2S0
X-.7S1000
X-35.5S0
X-.6S1000
X-7S0
X-7.9S1000
X-7.6S0
X-2.5S1000
X-8.3S0
X-.6S1000
X-35.6S0
X-.6S1000
X-6.9S0
X-8S1000
X-7.5S0
X-2.5S1000
X-8.3S0
X-.7S1000
X-2.917S0
Y.1
X2.917
X.6S1000
X8.3S0
X2.8S1000
X7.4S0
X7.9S1000
X7S0
X.6S1000
X35.4S0
X.6S1000
X8.3S0
X2.8S1000
X7.3S0
X8S1000
X7S0
X.6S1000
X35.5S0
X.6S1000
X8.2S0
X2.8S1000
X7.4S0
X7.9S1000
X7S0
X.7S1000
X35.4S0
X.7S1000
X8.2S0
X2.8S1000
X7.3S0
X8S1000
X7.1S0
X.6S1000
X2.917S0
Y.1
X-2.917
X-.6S1000
X-7.1S0
X-7.9S1000
X-7.2S0
X-3.1S1000
X-8.2S0
X-.6S1000
X-35.4S0
X-.5S1000
X-7.2S0
X-8S1000
X-7.2S0
X-3S1000
X-8.1S0
X-.7S1000
X-35.3S0
X-.7S1000
X-7S0
X-8S1000
X-7.2S0
X-3S1000
X-8.2S0
X-.6S1000
X-35.4S0
X-.6S1000
X-7S0
X-8S1000
X-7.2S0
X-3S1000
X-8.2S0
X-.7S1000
X-2.917S0
Y.1
X2.917
X.5S1000
X8.2S0
X3.3S1000
X7.1S0
X8S1000
X7.1S0
X.6S1000
X35.2S0
X.6S1000
X8.1S0
X3.4S1000
X7.1S0
X7.9S1000
X7.1S0
X.6S1000
X35.2S0
X.7S1000
X8S0
X3.4S1000
X7.1S0
X7.9S1000
X7.2S0
X.7S1000
X35.1S0
X.6S1000
X8.1S0
X3.4S1000
X7S0
X8S1000
X7.1S0
X.7S1000
X2.917S0
Y.1
X-2.917
X-.6S1000
X-7.2S0
X-7.9S1000
X-6.9S0
X-3.8S1000
X-7.9S0
X-.7S1000
X-35S0
X-.7S1000
X-7.2S0
X-8S1000
X-6.9S0
X-3.7S1000
X-7.9S0
X-.6S1000
X-35.1S0
X-.6S1000
X-7.2S0
X-8S1000
X-7S0
X-3.6S1000
X-7.9S0
X-.7S1000
X-35S0
X-.7S1000
X-7.1S0
X-8S1000
X-6.9S0
X-3.7S1000
X-8S0
X-.6S1000
X-2.917S0
X-.1Y.1
X2.917
X.7S1000
X7.8S0
X4S1000
X6.8S0
X8S1000
X7.2S0
X.7S1000
X34.8S0
X.7S1000
X7.8S0
X4S1000
X6.9S0
X7.9S1000
X7.2S0
X.7S1000
X34.9S0
X.6S1000
X7.8S0
X4S1000
X6.9S0
X8S1000
X7.2S0
X.6S1000
X34.9S0
X.8S1000
X7.7S0
X4.1S1000
X6.8S0
X7.9S1000
X7.2S0
X.8S1000
X2.917S0
X-.1Y.1
X-2.917
X-.6S1000
X-7.3S0
X-7.9S1000
X-6.8S0
X-4.2S1000
X-7.8S0
X-.6S1000
X-34.8S0
X-.7S1000
X-7.3S0
X-7.9S1000
X-6.7S0
X-4.3S1000
X-7.7S0
X-.7S1000
X-34.7S0
X-.7S1000
X-7.3S0
X-7.9S1000
X-6.8S0
X-4.2S1000
X-7.8S0
X-.6S1000
X-34.8S0
X-.6S1000
X-7.4S0
X-7.8S1000
X-6.8S0
X-4.2S1000
X-7.8S0
X-.7S1000
X-2.917S0
Y.1
X2.917
X.6S1000
X7.7S0
X4.6S1000
X6.6S0
X7.8S1000
X7.4S0
X.6S1000
X34.7S0
X.6S1000
X7.8S0
X4.5S1000
X6.6S0
X7.8S1000
X7.5S0
X.6S1000
X34.7S0
X.6S1000
X7.7S0
X4.5S1000
X6.7S0
X7.7S1000
X7.5S0
X.6S1000
X34.7S0
X.6S1000
X7.8S0
X4.5S1000
X6.6S0
X7.9S1000
X7.4S0
X.6S1000
X2.917S0
Y.1
X-2.917
X-.6S1000
X-7.4S0
X-7.9S1000
X-6.4S0
X-4.8S1000
X-7.7S0
X-.6S1000
X-34.6S0
X-.6S1000
X-7.5S0
X-7.9S1000
X-6.5S0
X-4.8S1000
X-7.5S0
X-.7S1000
X-34.5S0
X-.7S1000
X-7.4S0
X-7.9S1000
X-6.5S0
X-4.8S1000
X-7.6S0
X-.6S1000
X-34.6S0
X-.6S1000
X-7.4S0
X-7.9S1000
X-6.5S0
X-4.8S1000
X-7.6S0
X-.7S1000
X-2.917S0
Y.1
X2.917
X.6S1000
X7.5S0
X5.2S1000
X6.3S0
X7.9S1000
X7.4S0
X.7S1000
X34.5S0
X.6S1000
X7.5S0
X5.1S1000
X6.3S0
X7.9S1000
X7.5S0
X.6S1000
X34.5S0
X.6S1000
X7.5S0
X5.2S1000
X6.2S0
X7.9S1000
X7.5S0
X.7S1000
X34.4S0
X.7S1000
X7.5S0
X5.2S1000
X6.3S0
X7.8S1000
X7.5S0
X.6S1000
X2.917S0
X.1Y.1
X-2.917
X-.7S1000
X-7.5S0
X-7.9S1000
X-6.1S0
X-5.5S1000
X-7.4S0
X-.6S1000
X-34.3S0
X-.7S1000
X-7.6S0
X-7.8S1000
X-6.2S0
X-5.5S1000
X-7.3S0
X-.7S1000
X-34.4S0
X-.6S1000
X-7.5S0
X-7.9S1000
X-6.1S0
X-5.5S1000
X-7.4S0
X-.6S1000
X-34.4S0
X-.6S1000
X-7.5S0
X-7.9S1000
X-6.1S0
X-5.5S1000
X-7.5S0
X-.5S1000
X-2.917S0
X-.1Y.1
X2.917
X.7S1000
X7.2S0
X2.8S1000
X.2S0
X2.8S1000
X6S0
X7.9S1000
X7.5S0
X.7S1000
X34.2S0
X.7S1000
X7.2S0
X2.8S1000
X.2S0
X2.8S1000
X6S0
X7.9S1000
X7.6S0
X.6S1000
X34.3S0
X.6S1000
X7.2S0
X2.8S1000
X.2S0
X2.9S1000
X5.9S0
X7.9S1000
X7.6S0
X.7S1000
X34.2S0
X.7S1000
X7.3S0
X2.7S1000
X.3S0
X2.8S1000
X5.9S0
X7.9S1000
X7.6S0
X.7S1000
X2.917S0
X-.1Y.1
X-2.917
X-.6S1000
X-7.7S0
X-7.8S1000
X-5.8S0
X-2.8S1000
X-.5S0
X-2.8S1000
X-7.2S0
X-.6S1000
X-34.2S0
X-.6S1000
X-7.8S0
X-7.8S1000
X-5.8S0
X-2.8S1000
X-.5S0
X-2.8S1000
X-7.1S0
X-.7S1000
X-34.1S0
X-.7S1000
X-7.7S0
X-7.8S1000
X-5.8S0
X-2.8S1000
X-.6S0
X-2.7S1000
X-7.2S0
X-.6S1000
X-34.2S0
X-.6S1000
X-7.8S0
X-7.7S1000
X-5.8S0
X-2.8S1000
X-.6S0
X-2.7S1000
X-7.2S0
X-.7S1000
X-2.917S0
Y.1
X2.917
X.6S1000
X7.1S0
X2.8S1000
X.7S0
X2.9S1000
X5.7S0
X1.4S1000
X14.1S0
X.6S1000
X34.1S0
X.6S1000
X7.1S0
X2.8S1000
X.9S0
X2.7S1000
X5.7S0
X1.4S1000
X14.2S0
X.6S1000
X34.1S0
X.6S1000
X7S0
X2.8S1000
X.9S0
X2.8S1000
X5.7S0
X1.3S1000
X14.2S0
X.6S1000
X34.1S0
X.6S1000
X7.2S0
X2.7S1000
X.9S0
X2.8S1000
X5.7S0
X1.4S1000
X14.1S0
X.6S1000
X2.917S0
Y.1
X-2.917
X-.5S1000
X-14.3S0
X-1.4S1000
X-5.5S0
X-2.9S1000
X-1S0
X-2.8S1000
X-7S0
X-.6S1000
X-34S0
X-.6S1000
X-14.3S0
X-1.4S1000
X-5.5S0
X-2.9S1000
X-1.1S0
X-2.7S1000
X-6.9S0
X-.7S1000
X-33.9S0
X-.7S1000
X-14.2S0
X-1.4S1000
X-5.5S0
X-2.9S1000
X-1.1S0
X-2.7S1000
X-7S0
X-.6S1000
X-34S0
X-.6S1000
X-14.2S0
X-1.4S1000
X-5.5S0
X-2.9S1000
X-1.1S0
X-2.7S1000
X-7S0
X-.7S1000
X-2.917S0
Y.1
X2.917
X.6S1000
X6.9S0
X2.8S1000
X1.4S0
X2.7S1000
X.1S0
X.1S1000
X5.3S0
X1.4S1000
X14.3S0
X.6S1000
X33.8S0
X.7S1000
X6.8S0
X2.8S1000
X1.4S0
X2.8S1000
X5.4S0
X1.4S1000
X14.3S0
X.6S1000
X33.8S0
X.7S1000
X6.8S0
X2.8S1000
X1.5S0
X2.7S1000
X5.4S0
X1.4S1000
X14.4S0
X.7S1000
X33.7S0
X.6S1000
X6.9S0
X2.8S1000
X1.5S0
X2.8S1000
X5.3S0
X1.4S1000
X14.3S0
X.7S1000
X2.917S0
Y.1
X-2.917
X-.6S1000
X-14.4S0
X-1.4S1000
X-5.2S0
X-2.9S1000
X-1.7S0
X-2.7S1000
X-6.8S0
X-.7S1000
X-33.6S0
X-.7S1000
X-14.4S0
X-1.4S1000
X-5.2S0
X-2.9S1000
X-1.7S0
X-2.7S1000
X-6.8S0
X-.6S1000
X-33.7S0
X-.6S1000
X-14.4S0
X-1.4S1000
X-5.2S0
X-2.8S1000
X-1.8S0
X-2.7S1000
X-6.9S0
X-.6S1000
X-33.6S0
X-.7S1000
X-14.3S0
X-1.4S1000
X-5.3S0
X-2.8S1000
X-1.7S0
X-2.7S1000
X-6.9S0
X-.6S1000
X-2.917S0
X-.1Y.1
X2.917
X.7S1000
X6.8S0
X2.6S1000
X2.1S0
X2.8S1000
X5.1S0
X1.4S1000
X14.4S0
X.7S1000
X33.4S0
X.7S1000
X6.8S0
X2.6S1000
X2.1S0
X2.8S1000
X5.1S0
X1.4S1000
X14.4S0
X.7S1000
X33.5S0
X.6S1000
X6.8S0
X2.7S1000
X2S0
X2.8S1000
X5.2S0
X1.3S1000
X14.5S0
X.6S1000
X33.6S0
X.7S1000
X6.7S0
X2.7S1000
X2S0
X2.9S1000
X5.1S0
X1.3S1000
X14.4S0
X.7S1000
X2.917S0
Y.1
X-2.917
X-.6S1000
X-14.5S0
X-1.4S1000
X-5S0
X-2.8S1000
X-2.3S0
X-2.7S1000
X-6.7S0
X-.6S1000
X-33.4S0
X-.7S1000
X-14.5S0
X-1.4S1000
X-5S0
X-2.8S1000
X-2.3S0
X-2.7S1000
X-6.6S0
X-.6S1000
X-33.4S0
X-.7S1000
X-14.5S0
X-1.4S1000
X-5.1S0
X-2.7S1000
X-2.3S0
X-2.7S1000
X-6.6S0
X-.7S1000
X-33.4S0
X-.6S1000
X-14.5S0
X-1.4S1000
X-5.1S0
X-2.7S1000
X-2.3S0
X-2.7S1000
X-6.7S0
X-.7S1000
X-2.917S0
Y.1
X2.917
X.6S1000
X6.7S0
X2.6S1000
X2.6S0
X2.7S1000
X5S0
X1.4S1000
X14.5S0
X.6S1000
X33.4S0
X.6S1000
X6.6S0
X2.6S1000
X2.6S0
X2.7S1000
X5S0
X1.4S1000
X14.6S0
X.6S1000
X33.3S0
X.7S1000
X6.6S0
X2.5S1000
X2.6S0
X2.8S1000
X4.9S0
X1.4S1000
X14.6S0
X.6S1000
X33.4S0
X.6S1000
X6.7S0
X2.6S1000
X2.5S0
X2.8S1000
X4.9S0
X1.4S1000
X14.6S0
X.6S1000
X2.917S0
X.1Y.1
X-2.917
X-.7S1000
X-14.6S0
X-1.4S1000
X-4.9S0
X-2.6S1000
X-2.9S0
X-2.5S1000
X-6.7S0
X-.6S1000
X-33.2S0
X-.6S1000
X-14.7S0
X-1.3S1000
X-5S0
X-2.6S1000
X-2.9S0
X-2.4S1000
X-6.7S0
X-.7S1000
X-33.2S0
X-.6S1000
X-14.6S0
X-1.3S1000
X-5S0
X-2.6S1000
X-2.9S0
X-2.4S1000
X-6.8S0
X-.6S1000
X-33.2S0
X-.7S1000
X-14.5S0
X-1.4S1000
X-4.9S0
X-2.6S1000
X-2.9S0
X-2.5S1000
X-6.7S0
X-.6S1000
X-2.917S0
X-.1Y.1
X2.917
X.6S1000
X6.8S0
X2.3S1000
X3.2S0
X2.5S1000
X4.9S0
X1.4S1000
X14.6S0
X.7S1000
X33S0
X.7S1000
X6.7S0
X2.3S1000
X3.3S0
X2.4S1000
X4.9S0
X1.4S1000
X14.6S0
X.7S1000
X33.1S0
X.6S1000
X6.7S0
X2.3S1000
X3.3S0
X2.4S1000
X4.9S0
X1.4S1000
X14.7S0
X.7S1000
X33S0
X.7S1000
X6.8S0
X2.2S1000
X3.3S0
X2.4S1000
X5S0
X1.3S1000
X14.7S0
X.6S1000
X2.917S0
Y.1
X-2.917
X-.6S1000
X-14.7S0
X-1.4S1000
X-4.9S0
X-2.2S1000
X-3.5S0
X-2.3S1000
X-6.8S0
X-.6S1000
X-33S0
X-.7S1000
X-14.7S0
X-1.4S1000
X-4.9S0
X-2.2S1000
X-3.5S0
X-2.2S1000
X-6.8S0
X-.7S1000
X-33S0
X-.6S1000
X-14.7S0
X-1.4S1000
X-4.9S0
X-2.2S1000
X-3.6S0
X-2.1S1000
X-6.9S0
X-.6S1000
X-33S0
X-.6S1000
X-14.7S0
X-1.4S1000
X-4.9S0
X-2.2S1000
X-3.6S0
X-2.2S1000
X-6.8S0
X-.6S1000
X-2.917S0
X-.1Y.1
X2.917
X.7S1000
X6.9S0
X2.3S1000
X3.5S0
X2.1S1000
X4.9S0
X1.4S1000
X14.7S0
X.7S1000
X32.8S0
X.7S1000
X6.8S0
X2.4S1000
X3.6S0
X2S1000
X4.9S0
X1.4S1000
X14.7S0
X.7S1000
X32.9S0
X.6S1000
X6.9S0
X2.3S1000
X3.6S0
X2S1000
X5S0
X1.3S1000
X14.8S0
X.6S1000
X32.9S0
X.8S1000
X6.8S0
X2.4S1000
X3.5S0
X2S1000
X4.9S0
X1.4S1000
X14.7S0
X.8S1000
X2.917S0
X-.1Y.1
X-2.917
X-.6S1000
X-14.8S0
X-1.4S1000
X-4.9S0
X-2.1S1000
X-3.3S0
X-2.5S1000
X-7S0
X-.6S1000
X-32.8S0
X-.7S1000
X-14.8S0
X-1.4S1000
X-4.9S0
X-2.1S1000
X-3.3S0
X-2.5S1000
X-6.9S0
X-.7S1000
X-32.7S0
X-.7S1000
X-14.8S0
X-1.4S1000
X-4.9S0
X-2.1S1000
X-3.3S0
X-2.5S1000
X-7S0
X-.6S1000
X-32.8S0
X-.6S1000
X-14.8S0
X-1.4S1000
X-4.9S0
X-2.1S1000
X-3.3S0
X-2.5S1000
X-7S0
X-.7S1000
X-2.917S0
Y.1
X2.917
X.6S1000
X7.1S0
X2.6S1000
X3.1S0
X2.2S1000
X4.9S0
X1.3S1000
X14.9S0
X.7S1000
X32.6S0
X.6S1000
X7.2S0
X2.5S1000
X3.1S0
X2.2S1000
X4.9S0
X1.4S1000
X14.9S0
X.6S1000
X32.7S0
X.6S1000
X7S0
X2.6S1000
X3.1S0
X2.2S1000
X4.9S0
X1.4S1000
X14.9S0
X.6S1000
X32.7S0
X.6S1000
X7.2S0
X2.6S1000
X3S0
X2.2S1000
X5S0
X1.3S1000
X14.9S0
X.6S1000
X2.917S0
X.1Y.1
X-2.917
X-.6S1000
X-15S0
X-1.4S1000
X-4.9S0
X-2.4S1000
X-2.7S0
X-2.7S1000
X-7.2S0
X-.6S1000
X-32.6S0
X-.6S1000
X-15S0
X-1.4S1000
X-4.8S0
X-2.5S1000
X-2.7S0
X-2.6S1000
X-7.2S0
X-.7S1000
X-32.5S0
X-.7S1000
X-14.9S0
X-1.4S1000
X-4.9S0
X-2.4S1000
X-2.7S0
X-2.7S1000
X-7.2S0
X-.6S1000
X-32.6S0
X-.6S1000
X-14.9S0
X-1.4S1000
X-4.9S0
X-2.4S1000
X-2.8S0
X-2.6S1000
X-7.2S0
X-.7S1000
X-2.917S0
Y.1
X2.917
X.6S1000
X7.5S0
X2.6S1000
X2.4S0
X2.6S1000
X5S0
X1.2S1000
X15S0
X.7S1000
X32.4S0
X.7S1000
X7.4S0
X2.6S1000
X2.4S0
X2.6S1000
X5S0
X1.2S1000
X15.1S0
X.6S1000
X32.4S0
X.7S1000
X7.4S0
X2.6S1000
X2.5S0
X2.5S1000
X5S0
X1.3S1000
X15.1S0
X.7S1000
X32.3S0
X.7S1000
X7.4S0
X2.6S1000
X2.5S0
X2.5S1000
X5S0
X1.3S1000
X15S0
X.7S1000
X2.917S0
Y.1
X-2.917
X-.6S1000
X-15.1S0
X-1.3S1000
X-5S0
X-2.8S1000
X-2S0
X-2.7S1000
X-7.6S0
X-.7S1000
X-32.2S0
X-.7S1000
X-15.2S0
X-1.2S1000
X-5S0
X-2.8S1000
X-2.1S0
X-2.6S1000
X-7.6S0
X-.6S1000
X-32.3S0
X-.6S1000
X-15.2S0
X-1.2S1000
X-5S0
X-2.8S1000
X-2.1S0
X-2.6S1000
X-7.6S0
X-.7S1000
X-32.2S0
X-.6S1000
X-15.2S0
X-1.2S1000
X-5.1S0
X-2.7S1000
X-2.1S0
X-2.7S1000
X-7.6S0
X-.6S1000
X-2.917S0
X-.1Y.1
X2.917
X.7S1000
X7.7S0
X2.7S1000
X1.8S0
X2.8S1000
X5.2S0
X1.2S1000
X15.2S0
X.6S1000
X32.2S0
X.6S1000
X7.7S0
X2.7S1000
X1.9S0
X2.8S1000
X5.1S0
X1.2S1000
X15.3S0
X.6S1000
X32.1S0
X.7S1000
X7.7S0
X2.7S1000
X1.9S0
X2.7S1000
X5.1S0
X1.2S1000
X15.3S0
X.6S1000
X32.2S0
X.7S1000
X7.7S0
X2.7S1000
X1.9S0
X2.8S1000
X5S0
X1.2S1000
X15.3S0
X.6S1000
X2.917S0
Y.1
X-2.917
X-.6S1000
X-15.4S0
X-1S1000
X-5.2S0
X-2.9S1000
X-1.6S0
X-2.7S1000
X-7.9S0
X-.8S1000
X-32S0
X-.6S1000
X-15.4S0
X-1S1000
X-5.3S0
X-2.8S1000
X-1.6S0
X-2.7S1000
X-7.9S0
X-.8S1000
X-31.9S0
X-.6S1000
X-15.4S0
X-1S1000
X-5.3S0
X-2.8S1000
X-1.6S0
X-2.7S1000
X-7.9S0
X-.8S1000
X-31.9S0
X-.7S1000
X-15.3S0
X-1S1000
X-5.3S0
X-2.8S1000
X-1.7S0
X-2.6S1000
X-7.9S0
X-.9S1000
X-2.917S0
X-.2Y.1
X2.917
X.9S1000
X8.2S0
X2.6S1000
X1.4S0
X2.8S1000
X5.6S0
X.5S1000
X15.8S0
X.6S1000
X31.6S0
X1S1000
X8.1S0
X2.6S1000
X1.4S0
X2.9S1000
X5.5S0
X.4S1000
X.1S0
X.1S1000
X15.7S0
X.7S1000
X31.6S0
X1S1000
X8S0
X2.7S1000
X1.4S0
X2.8S1000
X5.5S0
X.6S1000
X15.8S0
X.7S1000
X31.5S0
X1S1000
X8.1S0
X2.8S1000
X1.3S0
X2.8S1000
X5.5S0
X.6S1000
X15.7S0
X.7S1000
X2.917S0
Y.1
X-2.917
X-.6S1000
X-22S0
X-3S1000
X-.8S0
X-.1S1000
X-.1S0
X-2.6S1000
X-8.4S0
X-1.2S1000
X-31.2S0
X-.7S1000
X-22.1S0
X-2.9S1000
X-.9S0
X-2.7S1000
X-8.3S0
X-1.2S1000
X-31.3S0
X-.6S1000
X-22.1S0
X-2.9S1000
X-.9S0
X-2.7S1000
X-8.3S0
X-1.3S1000
X-31.2S0
X-.7S1000
X-22S0
X-2.9S1000
X-.9S0
X-2.7S1000
X-8.4S0
X-1.2S1000
X-2.917S0
X-.2Y.1
X2.917
X1.4S1000
X8.5S0
X2.7S1000
X.6S0
X3S1000
X22.2S0
X.7S1000
X31S0
X1.3S1000
X8.5S0
X2.7S1000
X.6S0
X3S1000
X22.2S0
X.7S1000
X31S0
X1.3S1000
X8.5S0
X2.8S1000
X.5S0
X3S1000
X22.3S0
X.7S1000
X31S0
X1.4S1000
X8.5S0
X2.6S1000
X.7S0
X2.9S1000
X22.2S0
X.8S1000
X2.917S0
X-.1Y.1
X-2.917
X-.6S1000
X-22.5S0
X-2.9S1000
X-.3S0
X-2.8S1000
X-8.7S0
X-1.5S1000
X-30.7S0
X-.7S1000
X-22.5S0
X-2.9S1000
X-.3S0
X-2.8S1000
X-8.6S0
X-1.5S1000
X-30.8S0
X-.6S1000
X-22.5S0
X-2.9S1000
X-.3S0
X-2.8S1000
X-8.7S0
X-1.5S1000
X-30.7S0
X-.6S1000
X-22.5S0
X-2.9S1000
X-.3S0
X-2.8S1000
X-8.7S0
X-1.5S1000
X-2.917S0
X-.2Y.1
X2.917
X1.7S1000
X8.9S0
X5.6S1000
X6.4S0
X2.6S1000
X13.7S0
X.7S1000
X30.5S0
X1.6S1000
X8.9S0
X5.6S1000
X6.5S0
X2.5S1000
X13.8S0
X.6S1000
X30.5S0
X1.6S1000
X8.9S0
X5.6S1000
X6.5S0
X2.5S1000
X13.8S0
X.6S1000
X30.6S0
X1.7S1000
X8.8S0
X5.7S1000
X6.4S0
X2.5S1000
X13.8S0
X.7S1000
X2.917S0
X-.1Y.1
X-2.917
X-.6S1000
X-9.3S0
X-1.4S1000
X-1.6S0
X-4S1000
X-6.6S0
X-5.4S1000
X-9.1S0
X-1.7S1000
X-30.3S0
X-.6S1000
X-9.4S0
X-1.5S1000
X-1.5S0
X-4S1000
X-6.6S0
X-5.4S1000
X-9S0
X-1.8S1000
X-30.2S0
X-.7S1000
X-9.3S0
X-1.5S1000
X-1.6S0
X-4S1000
X-6.5S0
X-5.4S1000
X-9.1S0
X-1.7S1000
X-30.3S0
X-.6S1000
X-9.4S0
X-1.4S1000
X-1.6S0
X-4S1000
X-6.5S0
X-5.4S1000
X-9.1S0
X-1.7S1000
X-2.917S0
X-.3Y.1
X2.917
X1.9S1000
X9.4S0
X5S1000
X6.6S0
X7.5S1000
X9S0
X.7S1000
X29.9S0
X2S1000
X9.3S0
X5S1000
X6.7S0
X7.4S1000
X9.1S0
X.6S1000
X30S0
X1.9S1000
X9.3S0
X5S1000
X6.7S0
X7.4S1000
X9.1S0
X.7S1000
X29.9S0
X1.9S1000
X9.4S0
X5S1000
X6.7S0
X7.5S1000
X9S0
X.6S1000
X2.917S0
X.1Y.1
X-2.917
X-.7S1000
X-9S0
X-7.4S1000
X-7S0
X-4.6S1000
X-9.6S0
X-2.1S1000
X-29.6S0
X-.7S1000
X-9.1S0
X-7.4S1000
X-7S0
X-4.6S1000
X-9.6S0
X-2S1000
X-29.7S0
X-.7S1000
X-9.1S0
X-7.3S1000
X-7S0
X-4.6S1000
X-9.6S0
X-2.1S1000
X-29.7S0
X-.6S1000
X-9.1S0
X-7.4S1000
X-6.9S0
X-4.7S1000
X-9.6S0
X-2.1S1000
X-2.917S0
X-.1Y.1
X2.917
X2.2S1000
X9.8S0
X4.3S1000
X7.1S0
X7.5S1000
X9S0
X.7S1000
X29.5S0
X2.2S1000
X9.7S0
X4.3S1000
X7.1S0
X7.5S1000
X9.1S0
X.6S1000
X29.5S0
X2.2S1000
X9.7S0
X4.4S1000
X7S0
X7.5S1000
X9.2S0
X.6S1000
X29.5S0
X2.2S1000
X9.7S0
X4.4S1000
X7S0
X7.5S1000
X9.1S0
X.7S1000
X2.917S0
Y.1
X-2.917
X-.6S1000
X-9.2S0
X-7.4S1000
X-7.2S0
X-4.1S1000
X-10S0
X-2.3S1000
X-29.4S0
X-.5S1000
X-9.2S0
X-7.4S1000
X-7.3S0
X-4S1000
X-9.9S0
X-2.3S1000
X-29.4S0
X-.6S1000
X-9.1S0
X-7.5S1000
X-7.2S0
X-4.1S1000
X-9.9S0
X-2.3S1000
X-29.3S0
X-.6S1000
X-9.1S0
X-7.5S1000
X-7.3S0
X-4S1000
X-9.9S0
X-2.3S1000
X-2.917S0
X-.2Y.1
X2.917
X2.4S1000
X10.1S0
X3.9S1000
X7.3S0
X7.5S1000
X9.2S0
X.5S1000
X29.2S0
X2.4S1000
X10.1S0
X3.8S1000
X7.4S0
X7.4S1000
X9.2S0
X.6S1000
X29.1S0
X2.4S1000
X10.1S0
X3.8S1000
X7.3S0
X7.5S1000
X9.2S0
X.6S1000
X29.2S0
X2.3S1000
X10.1S0
X3.9S1000
X7.3S0
X7.5S1000
X9.2S0
X.5S1000
X2.917S0
X.1Y.1
X-2.917
X-.5S1000
X-9.3S0
X-7.5S1000
X-7.4S0
X-3.6S1000
X-10.3S0
X-2.5S1000
X-29S0
X-.5S1000
X-9.3S0
X-7.4S1000
X-7.6S0
X-3.6S1000
X-10.1S0
X-2.6S1000
X-29S0
X-.4S1000
X-9.3S0
X-7.5S1000
X-7.5S0
X-3.6S1000
X-10.2S0
X-2.5S1000
X-29S0
X-.6S1000
X-9.1S0
X-7.5S1000
X-7.5S0
X-3.6S1000
X-10.2S0
X-2.6S1000
X-2.917S0
X-.2Y.1
X2.917
X2.8S1000
X10.4S0
X3.2S1000
X7.7S0
X7.4S1000
X9.2S0
X.6S1000
X28.7S0
X2.8S1000
X10.4S0
X3.2S1000
X7.7S0
X7.4S1000
X9.3S0
X.5S1000
X28.8S0
X2.8S1000
X10.4S0
X3.2S1000
X7.6S0
X7.4S1000
X9.3S0
X.5S1000
X28.8S0
X2.8S1000
X10.4S0
X3.3S1000
X7.7S0
X7.4S1000
X9.2S0
X.5S1000
X2.917S0
X.1Y.1
X-2.917
X-.6S1000
X-9.3S0
X-7.4S1000
X-7.8S0
X-2.9S1000
X-10.6S0
X-.5S1000
X-.2S0
X-2.2S1000
X-28.6S0
X-.5S1000
X-9.4S0
X-7.3S1000
X-7.9S0
X-2.9S1000
X-10.5S0
X-.6S1000
X-.2S0
X-2.2S1000
X-28.5S0
X-.6S1000
X-9.3S0
X-7.3S1000
X-7.9S0
X-2.9S1000
X-10.6S0
X-.5S1000
X-.3S0
X-2.1S1000
X-28.6S0
X-.5S1000
X-9.4S0
X-7.3S1000
X-7.8S0
X-2.9S1000
X-10.7S0
X-.4S1000
X-.4S0
X-2.1S1000
X-2.917S0
X-.2Y.1
X2.917
X2.2S1000
X.5S0
X.5S1000
X10.7S0
X2.6S1000
X8S0
X7.3S1000
X9.3S0
X.7S1000
X28.3S0
X2.1S1000
X.5S0
X.5S1000
X10.7S0
X2.6S1000
X8S0
X7.3S1000
X9.5S0
X.4S1000
X28.4S0
X2.2S1000
X.4S0
X.6S1000
X10.6S0
X2.6S1000
X8S0
X7.3S1000
X9.4S0
X.6S1000
X28.4S0
X2.1S1000
X.5S0
X.5S1000
X10.7S0
X2.7S1000
X8S0
X7.3S1000
X9.4S0
X.5S1000
X2.917S0
X-.1Y.1
X-2.917
X-.5S1000
X-9.4S0
X-7.3S1000
X-8.1S0
X-2.4S1000
X-10.8S0
X-.5S1000
X-.6S0
X-2.1S1000
X-28.4S0
X-.4S1000
X-9.4S0
X-7.3S1000
X-8.2S0
X-2.4S1000
X-10.7S0
X-.6S1000
X-.6S0
X-2S1000
X-28.4S0
X-.5S1000
X-9.4S0
X-7.3S1000
X-8.1S0
X-2.4S1000
X-10.8S0
X-.6S1000
X-.5S0
X-2.1S1000
X-28.3S0
X-.6S1000
X-9.3S0
X-7.3S1000
X-8.1S0
X-2.4S1000
X-10.8S0
X-.6S1000
X-.6S0
X-2.1S1000
X-2.917S0
X-.1Y.1
X2.917
X2S1000
X.9S0
X.5S1000
X10.9S0
X2.1S1000
X8.3S0
X7.3S1000
X9.4S0
X.5S1000
X28.1S0
X2.1S1000
X.8S0
X.5S1000
X10.9S0
X2.1S1000
X8.3S0
X7.3S1000
X9.4S0
X.6S1000
X28.1S0
X2S1000
X.8S0
X.6S1000
X10.8S0
X2.1S1000
X8.3S0
X7.3S1000
X9.4S0
X.6S1000
X28.1S0
X2.1S1000
X.8S0
X.5S1000
X10.9S0
X2.1S1000
X8.3S0
X7.3S1000
X9.5S0
X.5S1000
X2.917S0
X-.1Y.1
X-2.917
X-.5S1000
X-9.3S0
X-7.3S1000
X-8.5S0
X-1.8S1000
X-11.1S0
X-.5S1000
X-1S0
X-2S1000
X-28S0
X-.5S1000
X-9.4S0
X-7.3S1000
X-8.5S0
X-1.8S1000
X-11S0
X-.6S1000
X-1S0
X-2S1000
X-28S0
X-.5S1000
X-9.4S0
X-7.2S1000
X-8.6S0
X-1.7S1000
X-11.1S0
X-.5S1000
X-1S0
X-2S1000
X-28S0
X-.6S1000
X-9.3S0
X-7.3S1000
X-8.5S0
X-1.7S1000
X-11.1S0
X-.5S1000
X-1.1S0
X-2S1000
X-2.917S0
X-.2Y.1
X2.917
X2.1S1000
X1.1S0
X.6S1000
X11.2S0
X1.4S1000
X8.7S0
X7.3S1000
X9.3S0
X.6S1000
X27.7S0
X2.1S1000
X1.2S0
X.5S1000
X11.2S0
X1.5S1000
X8.6S0
X7.3S1000
X9.5S0
X.5S1000
X27.7S0
X2S1000
X1.2S0
X.6S1000
X11.1S0
X1.5S1000
X8.6S0
X7.3S1000
X9.4S0
X.5S1000
X27.8S0
X2.1S1000
X1.2S0
X.5S1000
X11.2S0
X1.5S1000
X8.6S0
X7.3S1000
X9.4S0
X.6S1000
X2.917S0
X-.1Y.1
X-2.917
X-.4S1000
X-9.5S0
X-5.2S1000
X-.4S0
X-1.7S1000
X-8.7S0
X-1.2S1000
X-11.4S0
X-.5S1000
X-1.4S0
X-2S1000
X-27.6S0
X-.6S1000
X-9.3S0
X-5.3S1000
X-.1S0
X-.1S1000
X-.2S0
X-1.7S1000
X-8.7S0
X-1.2S1000
X-11.3S0
X-.6S1000
X-1.3S0
X-2.1S1000
X-27.6S0
X-.5S1000
X-9.3S0
X-5.4S1000
X-.4S0
X-1.7S1000
X-8.7S0
X-1.1S1000
X-11.4S0
X-.5S1000
X-1.4S0
X-2S1000
X-27.5S0
X-.6S1000
X-9.4S0
X-5.3S1000
X-.4S0
X-1.7S1000
X-8.7S0
X-1.1S1000
X-11.5S0
X-.4S1000
X-1.5S0
X-1.9S1000
X-2.917S0
X-.3Y.1
X2.917
X2.1S1000
X1.5S0
X.6S1000
X11.5S0
X.9S1000
X8.9S0
X1.5S1000
X1.1S0
X4.7S1000
X9.3S0
X.6S1000
X27.3S0
X2.1S1000
X1.6S0
X.5S1000
X11.5S0
X.9S1000
X8.9S0
X1.6S1000
X1S0
X4.7S1000
X9.4S0
X.5S1000
X27.4S0
X2.1S1000
X1.5S0
X.6S1000
X11.4S0
X.9S1000
X8.9S0
X1.6S1000
X1S0
X4.7S1000
X9.5S0
X.5S1000
X27.3S0
X2.1S1000
X1.6S0
X.5S1000
X11.5S0
X1S1000
X8.7S0
X1.7S1000
X1.1S0
X4.7S1000
X9.3S0
X.6S1000
X2.917S0
Y.1
X-2.917
X-.5S1000
X-9.5S0
X-1.7S1000
X-1.1S0
X-1.9S1000
X-1S0
X-1.7S1000
X-9S0
X-.2S1000
X-12S0
X-.5S1000
X-1.8S0
X-2S1000
X-27.3S0
X-.5S1000
X-9.4S0
X-1.7S1000
X-1.1S0
X-1.9S1000
X-1S0
X-1.7S1000
X-9S0
X-.3S1000
X-11.8S0
X-.6S1000
X-1.7S0
X-2.1S1000
X-27.1S0
X-.5S1000
X-9.6S0
X-1.6S1000
X-1.2S0
X-1.8S1000
X-1S0
X-1.7S1000
X-9S0
X-.3S1000
X-11.9S0
X-.5S1000
X-1.8S0
X-2S1000
X-27.2S0
X-.6S1000
X-9.4S0
X-1.6S1000
X-1.2S0
X-1.8S1000
X-1S0
X-1.7S1000
X-9S0
X-.3S1000
X-11.9S0
X-.5S1000
X-1.8S0
X-2.1S1000
X-2.917S0
X-.1Y.1
X2.917
X2S1000
X2S0
X.5S1000
X21.1S0
X1.7S1000
X1S0
X1.7S1000
X1.3S0
X1.7S1000
X9.5S0
X.5S1000
X27.1S0
X2S1000
X1.8S0
X.6S1000
X21.1S0
X1.7S1000
X1S0
X1.7S1000
X1.3S0
X1.7S1000
X9.5S0
X.5S1000
X27.2S0
X1.9S1000
X1.9S0
X.6S1000
X21S0
X1.7S1000
X1.1S0
X1.6S1000
X1.4S0
X1.6S1000
X9.6S0
X.5S1000
X27.1S0
X2S1000
X1.9S0
X.5S1000
X21.2S0
X1.7S1000
X1S0
X1.7S1000
X1.3S0
X1.6S1000
X9.5S0
X.5S1000
X2.917S0
X.1Y.1
X-2.917
X-.6S1000
X-9.5S0
X-1.7S1000
X-1.3S0
X-1.7S1000
X-1S0
X-1.7S1000
X-21.1S0
X-.5S1000
X-2.1S0
X-2S1000
X-26.9S0
X-.6S1000
X-9.5S0
X-1.7S1000
X-1.3S0
X-1.7S1000
X-1S0
X-1.7S1000
X-21S0
X-.6S1000
X-2.1S0
X-2S1000
X-26.8S0
X-.6S1000
X-9.5S0
X-1.7S1000
X-1.3S0
X-1.7S1000
X-1S0
X-1.7S1000
X-21.1S0
X-.5S1000
X-2.1S0
X-2S1000
X-26.8S0
X-.7S1000
X-9.5S0
X-1.6S1000
X-1.3S0
X-1.7S1000
X-1S0
X-1.7S1000
X-21.1S0
X-.6S1000
X-2.1S0
X-1.9S1000
X-2.917S0
X-.2Y.1
X2.917
X1.9S1000
X2.4S0
X.5S1000
X21S0
X1.7S1000
X1S0
X1.7S1000
X1.4S0
X1.7S1000
X9.4S0
X.6S1000
X26.8S0
X1.8S1000
X2.4S0
X.5S1000
X21S0
X1.7S1000
X1S0
X1.8S1000
X1.3S0
X1.7S1000
X9.5S0
X.5S1000
X26.8S0
X1.9S1000
X2.3S0
X.6S1000
X20.9S0
X1.7S1000
X1S0
X1.8S1000
X1.3S0
X1.7S1000
X9.6S0
X.4S1000
X26.9S0
X1.8S1000
X2.4S0
X.5S1000
X21S0
X1.7S1000
X1S0
X1.8S1000
X1.3S0
X1.7S1000
X9.6S0
X.4S1000
X2.917S0
X.1Y.1
X-2.917
X-.6S1000
X-9.6S0
X-1.6S1000
X-1.4S0
X-1.7S1000
X-1S0
X-1.7S1000
X-4.8S0
X-.3S1000
X-15.9S0
X-.5S1000
X-2.5S0
X-1.9S1000
X-26.6S0
X-.6S1000
X-9.6S0
X-1.6S1000
X-1.4S0
X-1.7S1000
X-1S0
X-1.7S1000
X-4.9S0
X-.2S1000
X-15.8S0
X-.6S1000
X-2.5S0
X-1.8S1000
X-26.7S0
X-.4S1000
X-9.7S0
X-1.7S1000
X-1.3S0
X-1.7S1000
X-1S0
X-1.7S1000
X-4.9S0
X-.2S1000
X-15.9S0
X-.5S1000
X-2.5S0
X-1.9S1000
X-26.6S0
X-.6S1000
X-9.5S0
X-1.7S1000
X-1.3S0
X-1.7S1000
X-1S0
X-1.7S1000
X-4.9S0
X-.3S1000
X-15.8S0
X-.5S1000
X-2.5S0
X-1.9S1000
X-2.917S0
X-.2Y.1
X2.917
X1.9S1000
X2.6S0
X.5S1000
X15.7S0
X.5S1000
X4.8S0
X1.7S1000
X1.1S0
X1.6S1000
X1.4S0
X1.7S1000
X9.6S0
X.5S1000
X26.5S0
X1.9S1000
X2.6S0
X.5S1000
X15.7S0
X.5S1000
X4.7S0
X1.7S1000
X1.1S0
X1.6S1000
X1.5S0
X1.6S1000
X9.6S0
X.6S1000
X26.4S0
X2S1000
X2.5S0
X.6S1000
X15.6S0
X.5S1000
X4.7S0
X1.7S1000
X1.1S0
X1.7S1000
X1.4S0
X1.6S1000
X9.7S0
X.5S1000
X26.5S0
X1.9S1000
X2.6S0
X.5S1000
X15.7S0
X.5S1000
X4.7S0
X1.8S1000
X1S0
X1.6S1000
X1.5S0
X1.6S1000
X9.7S0
X.4S1000
X2.917S0
X.1Y.1
X-2.917
X-.6S1000
X-9.6S0
X-1.7S1000
X-1.4S0
X-1.7S1000
X-1S0
X-1.7S1000
X-4.6S0
X-.8S1000
X-15.5S0
X-.5S1000
X-2.8S0
X-1.9S1000
X-26.4S0
X-.5S1000
X-9.6S0
X-1.7S1000
X-1.4S0
X-1.7S1000
X-1S0
X-1.7S1000
X-4.6S0
X-.8S1000
X-15.4S0
X-.6S1000
X-2.7S0
X-2S1000
X-26.3S0
X-.5S1000
X-9.6S0
X-1.7S1000
X-1.4S0
X-1.7S1000
X-1S0
X-1.7S1000
X-4.7S0
X-.7S1000
X-15.5S0
X-.5S1000
X-2.8S0
X-1.9S1000
X-26.3S0
X-.6S1000
X-9.5S0
X-1.7S1000
X-1.4S0
X-1.7S1000
X-1S0
X-1.7S1000
X-4.6S0
X-.8S1000
X-15.5S0
X-.5S1000
X-2.8S0
X-1.9S1000
X-2.917S0
X-.2Y.1
X2.917
X1.9S1000
X3S0
X.5S1000
X15.4S0
X.9S1000
X4.5S0
X1.7S1000
X1.1S0
X1.6S1000
X1.4S0
X1.7S1000
X9.6S0
X.7S1000
X26S0
X2S1000
X2.9S0
X.5S1000
X15.4S0
X1S1000
X4.4S0
X1.7S1000
X1.1S0
X1.6S1000
X1.4S0
X1.7S1000
X9.7S0
X.5S1000
X26.2S0
X1.9S1000
X2.9S0
X.6S1000
X15.3S0
X1S1000
X4.4S0
X1.7S1000
X1.1S0
X1.6S1000
X1.4S0
X1.7S1000
X9.8S0
X.5S1000
X26.1S0
X2S1000
X2.9S0
X.5S1000
X15.4S0
X1S1000
X4.4S0
X1.8S1000
X1S0
X1.7S1000
X1.4S0
X1.7S1000
X9.6S0
X.6S1000
X2.917S0
X-.1Y.1
X-2.917
X-.4S1000
X-9.8S0
X-1.7S1000
X-1.4S0
X-1.7S1000
X-1S0
X-1.7S1000
X-4.3S0
X-1.4S1000
X-15.1S0
X-.5S1000
X-3.1S0
X-2S1000
X-25.9S0
X-.6S1000
X-9.7S0
X-1.7S1000
X-1.4S0
X-1.6S1000
X-1.1S0
X-1.7S1000
X-4.3S0
X-1.4S1000
X-15S0
X-.6S1000
X-3.1S0
X-1.9S1000
X-25.9S0
X-.5S1000
X-9.8S0
X-1.7S1000
X-1.4S0
X-1.7S1000
X-1S0
X-1.7S1000
X-4.3S0
X-1.4S1000
X-15.1S0
X-.6S1000
X-3S0
X-2S1000
X-25.9S0
X-.5S1000
X-9.7S0
X-1.7S1000
X-1.5S0
X-1.6S1000
X-1S0
X-1.7S1000
X-4.3S0
X-1.4S1000
X-15.1S0
X-.6S1000
X-3.1S0
X-1.9S1000
X-2.917S0
X-.2Y.1
X2.917
X1.9S1000
X3.4S0
X.5S1000
X14.9S0
X1.7S1000
X4.1S0
X1.7S1000
X1.1S0
X1.7S1000
X1.4S0
X1.6S1000
X9.7S0
X.6S1000
X25.8S0
X1.9S1000
X3.3S0
X.5S1000
X14.9S0
X1.7S1000
X4.1S0
X1.7S1000
X1.1S0
X1.7S1000
X1.4S0
X1.6S1000
X9.8S0
X.5S1000
X25.8S0
X1.9S1000
X3.3S0
X.6S1000
X14.8S0
X1.7S1000
X4.1S0
X1.8S1000
X1S0
X1.7S1000
X1.4S0
X1.7S1000
X9.7S0
X.5S1000
X25.9S0
X1.9S1000
X3.3S0
X.5S1000
X14.9S0
X1.7S1000
X4.1S0
X1.8S1000
X1S0
X1.7S1000
X1.4S0
X1.7S1000
X9.7S0
X.6S1000
X2.917S0
X-.1Y.1
X-2.917
X-.5S1000
X-9.8S0
X-1.7S1000
X-1.3S0
X-1.7S1000
X-1.1S0
X-1.6S1000
X-4.1S0
X-2S1000
X-14.7S0
X-.5S1000
X-3.5S0
X-1.9S1000
X-25.6S0
X-.5S1000
X-9.9S0
X-1.7S1000
X-1.4S0
X-1.6S1000
X-1S0
X-1.7S1000
X-4.2S0
X-1.9S1000
X-14.6S0
X-.6S1000
X-3.4S0
X-1.9S1000
X-25.6S0
X-.6S1000
X-9.8S0
X-1.7S1000
X-1.4S0
X-1.6S1000
X-1.1S0
X-1.7S1000
X-4.1S0
X-1.9S1000
X-14.7S0
X-.5S1000
X-3.5S0
X-1.9S1000
X-25.6S0
X-.6S1000
X-9.7S0
X-1.7S1000
X-1.4S0
X-1.7S1000
X-1.1S0
X-1.7S1000
X-4S0
X-1.9S1000
X-14.7S0
X-.5S1000
X-3.5S0
X-1.9S1000
X-2.917S0
X-.2Y.1
X2.917
X1.9S1000
X3.6S0
X.6S1000
X14.5S0
X2.1S1000
X4S0
X1.7S1000
X1.2S0
X1.6S1000
X1.4S0
X1.7S1000
X9.8S0
X.6S1000
X25.4S0
X1.8S1000
X3.7S0
X.5S1000
X14.6S0
X2S1000
X4S0
X1.8S1000
X1.1S0
X1.6S1000
X1.4S0
X1.7S1000
X9.9S0
X.4S1000
X25.6S0
X1.8S1000
X3.6S0
X.6S1000
X14.5S0
X2S1000
X4.1S0
X1.7S1000
X1.1S0
X1.6S1000
X1.4S0
X1.7S1000
X9.8S0
X.6S1000
X25.6S0
X1.7S1000
X3.7S0
X.5S1000
X14.6S0
X2.1S1000
X4S0
X1.7S1000
X1.1S0
X1.6S1000
X1.4S0
X1.7S1000
X9.9S0
X.5S1000
X2.917S0
X-.1Y.1
X-2.917
X-.5S1000
X-9.9S0
X-1.6S1000
X-1.4S0
X-1.6S1000
X-1.1S0
X-1.7S1000
X-4S0
X-2.3S1000
X-14.4S0
X-.5S1000
X-3.8S0
X-1.8S1000
X-25.5S0
X-.4S1000
X-10S0
X-1.6S1000
X-1.5S0
X-1.5S1000
X-1.1S0
X-1.7S1000
X-4.1S0
X-2.2S1000
X-14.3S0
X-.6S1000
X-3.8S0
X-1.8S1000
X-25.4S0
X-.5S1000
X-9.9S0
X-1.7S1000
X-1.4S0
X-1.6S1000
X-1.1S0
X-1.6S1000
X-4.1S0
X-2.2S1000
X-14.4S0
X-.5S1000
X-3.8S0
X-1.8S1000
X-25.4S0
X-.6S1000
X-9.8S0
X-1.7S1000
X-1.4S0
X-1.6S1000
X-1.1S0
X-1.6S1000
X-4.1S0
X-2.2S1000
X-14.5S0
X-.4S1000
X-3.9S0
X-1.7S1000
X-2.917S0
X-.3Y.1
X2.917
X1.9S1000
X4S0
X.5S1000
X14.3S0
X2.2S1000
X4.1S0
X1.7S1000
X1.2S0
X1.4S1000
X1.5S0
X1.7S1000
X9.8S0
X.6S1000
X25.2S0
X1.8S1000
X4S0
X.5S1000
X14.4S0
X2.2S1000
X4.1S0
X1.6S1000
X1.2S0
X1.5S1000
X1.4S0
X1.7S1000
X9.9S0
X.6S1000
X25.2S0
X1.8S1000
X3.9S0
X.6S1000
X14.3S0
X2.2S1000
X4.1S0
X1.6S1000
X1.1S0
X1.6S1000
X1.4S0
X1.7S1000
X9.9S0
X.6S1000
X25.1S0
X2S1000
X3.9S0
X.5S1000
X14.4S0
X2.2S1000
X4S0
X1.7S1000
X1.2S0
X1.5S1000
X1.4S0
X1.8S1000
X9.9S0
X.5S1000
X2.917S0
X-.1Y.1
X-2.917
X-.5S1000
X-9.9S0
X-1.7S1000
X-1.4S0
X-1.5S1000
X-1.2S0
X-1.6S1000
X-4.2S0
X-2.2S1000
X-14.3S0
X-.5S1000
X-4.1S0
X-1.9S1000
X-25S0
X-.5S1000
X-10S0
X-1.7S1000
X-1.5S0
X-1.4S1000
X-1.3S0
X-1.6S1000
X-4.2S0
X-2.1S1000
X-14.2S0
X-.6S1000
X-4.1S0
X-1.8S1000
X-25.1S0
X-.5S1000
X-10S0
X-1.6S1000
X-1.5S0
X-1.4S1000
X-1.3S0
X-1.6S1000
X-4.2S0
X-2.1S1000
X-14.3S0
X-.5S1000
X-4.1S0
X-1.9S1000
X-25S0
X-.5S1000
X-10S0
X-1.6S1000
X-1.5S0
X-1.4S1000
X-1.3S0
X-1.6S1000
X-4.2S0
X-2.1S1000
X-14.3S0
X-.6S1000
X-4.1S0
X-1.8S1000
X-2.917S0
X-.1Y.1
X2.917
X1.9S1000
X4.2S0
X.5S1000
X14.3S0
X2S1000
X4.4S0
X1.5S1000
X1.3S0
X1.4S1000
X1.5S0
X1.6S1000
X9.9S0
X.6S1000
X25S0
X1.8S1000
X4.1S0
X.6S1000
X14.3S0
X2.1S1000
X4.3S0
X1.5S1000
X1.3S0
X1.4S1000
X1.5S0
X1.7S1000
X10S0
X.5S1000
X24.9S0
X1.9S1000
X4.1S0
X.6S1000
X14.2S0
X2.1S1000
X4.3S0
X1.5S1000
X1.4S0
X1.3S1000
X1.5S0
X1.7S1000
X9.9S0
X.5S1000
X25.1S0
X1.8S1000
X4.2S0
X.5S1000
X14.3S0
X2.2S1000
X4.2S0
X1.5S1000
X1.4S0
X1.3S1000
X1.5S0
X1.7S1000
X9.9S0
X.6S1000
X2.917S0
Y.1
X-2.917
X-.5S1000
X-10.1S0
X-1.6S1000
X-1.6S0
X-1.1S1000
X-1.5S0
X-1.5S1000
X-4.4S0
X-1.9S1000
X-14.4S0
X-.5S1000
X-4.1S0
X-1.8S1000
X-25.1S0
X-.5S1000
X-10.1S0
X-1.6S1000
X-1.6S0
X-1.1S1000
X-1.6S0
X-1.4S1000
X-4.4S0
X-2S1000
X-14.2S0
X-.6S1000
X-4S0
X-1.9S1000
X-25.1S0
X-.5S1000
X-10S0
X-1.6S1000
X-1.6S0
X-1.1S1000
X-1.6S0
X-1.4S1000
X-4.4S0
X-2S1000
X-14.3S0
X-.5S1000
X-4.1S0
X-1.8S1000
X-25S0
X-.7S1000
X-9.9S0
X-1.6S1000
X-1.6S0
X-1.1S1000
X-1.6S0
X-1.4S1000
X-4.4S0
X-2S1000
X-14.3S0
X-.5S1000
X-4.1S0
X-1.8S1000
X-2.917S0
X.2Y.1
X2.917
X1.8S1000
X3.8S0
X.6S1000
X14.5S0
X1.6S1000
X4.7S0
X1.3S1000
X1.8S0
X.8S1000
X1.7S0
X1.5S1000
X10.1S0
X.5S1000
X25.3S0
X1.8S1000
X3.9S0
X.5S1000
X14.5S0
X1.7S1000
X4.6S0
X1.3S1000
X1.8S0
X.8S1000
X1.7S0
X1.5S1000
X10.1S0
X.5S1000
X25.3S0
X1.9S1000
X3.8S0
X.6S1000
X14.4S0
X1.7S1000
X4.6S0
X1.3S1000
X1.8S0
X.9S1000
X1.7S0
X1.5S1000
X10S0
X.6S1000
X25.3S0
X1.8S1000
X3.9S0
X.5S1000
X14.5S0
X1.7S1000
X4.6S0
X1.3S1000
X1.8S0
X.9S1000
X1.6S0
X1.6S1000
X10S0
X.5S1000
X2.917S0
X.1Y.1
X-2.917
X-.5S1000
X-10.1S0
X-1.5S1000
X-1.8S0
X-.5S1000
X-2.1S0
X-1.2S1000
X-4.8S0
X-1.6S1000
X-14.5S0
X-.5S1000
X-3.7S0
X-1.9S1000
X-25.5S0
X-.4S1000
X-10.2S0
X-1.5S1000
X-1.7S0
X-.5S1000
X-2.1S0
X-1.1S1000
X-5S0
X-1.5S1000
X-14.4S0
X-.6S1000
X-3.6S0
X-1.9S1000
X-25.4S0
X-.6S1000
X-10.1S0
X-1.5S1000
X-1.7S0
X-.5S1000
X-2.2S0
X-1.1S1000
X-4.9S0
X-1.5S1000
X-14.5S0
X-.5S1000
X-3.7S0
X-1.9S1000
X-25.4S0
X-.6S1000
X-10S0
X-1.5S1000
X-1.7S0
X-.6S1000
X-2.1S0
X-1.1S1000
X-4.9S0
X-1.5S1000
X-14.5S0
X-.5S1000
X-3.8S0
X-1.8S1000
X-2.917S0
X.1Y.1
X2.917
X1.9S1000
X3.5S0
X.6S1000
X14.5S0
X1.2S1000
X5.4S0
X.2S1000
X.1S0
X.6S1000
X4.5S0
X1.4S1000
X10S0
X.6S1000
X25.6S0
X1.9S1000
X3.5S0
X.5S1000
X14.5S0
X1.3S1000
X5.3S0
X.2S1000
X.1S0
X.6S1000
X2.4S0
X.1S1000
X2.1S0
X1.3S1000
X10.2S0
X.4S1000
X25.6S0
X1.9S1000
X3.5S0
X.6S1000
X14.4S0
X1.2S1000
X5.3S0
X.2S1000
X.1S0
X.7S1000
X2.4S0
X.2S1000
X2S0
X1.3S1000
X10.1S0
X.6S1000
X25.6S0
X1.9S1000
X3.5S0
X.5S1000
X14.5S0
X1.4S1000
X5.3S0
X.8S1000
X2.4S0
X.2S1000
X2S0
X1.3S1000
X10.1S0
X.5S1000
X2.917S0
X.1Y.1
X-2.917
X-.6S1000
X-10.2S0
X-1.1S1000
X-4.9S0
X-.1S1000
X-6.1S0
X-1S1000
X-14.6S0
X-.5S1000
X-3.4S0
X-1.9S1000
X-25.7S0
X-.6S1000
X-10.2S0
X-1.1S1000
X-4.9S0
X-.1S1000
X-6.2S0
X-.9S1000
X-14.5S0
X-.6S1000
X-3.4S0
X-1.9S1000
X-25.7S0
X-.5S1000
X-10.2S0
X-1.1S1000
X-4.9S0
X-.2S1000
X-6.1S0
X-.9S1000
X-14.6S0
X-.5S1000
X-3.4S0
X-1.8S1000
X-25.7S0
X-.7S1000
X-10.1S0
X-1.2S1000
X-4.8S0
X-.3S1000
X-6S0
X-.9S1000
X-14.7S0
X-.4S1000
X-3.4S0
X-1.9S1000
X-2.917S0
X.2Y.1
X2.917
X1.8S1000
X3.3S0
X.5S1000
X14.7S0
X.6S1000
X11.6S0
X.9S1000
X10.2S0
X.5S1000
X25.9S0
X1.8S1000
X3.3S0
X.5S1000
X14.7S0
X.6S1000
X11.6S0
X.9S1000
X10.2S0
X.6S1000
X25.9S0
X1.8S1000
X3.2S0
X.6S1000
X14.6S0
X.7S1000
X11.6S0
X.8S1000
X10.3S0
X.4S1000
X26S0
X1.9S1000
X3.2S0
X.5S1000
X14.7S0
X.7S1000
X11.6S0
X.8S1000
X10.3S0
X.4S1000
X2.917S0
X.1Y.1
X-2.917
X-.6S1000
X-10.3S0
X-.4S1000
X-12.1S0
X-.4S1000
X-14.8S0
X-.5S1000
X-3.2S0
X-1.7S1000
X-26.1S0
X-.6S1000
X-10.4S0
X-.3S1000
X-12.1S0
X-.4S1000
X-14.7S0
X-.6S1000
X-3.1S0
X-1.8S1000
X-26.1S0
X-.5S1000
X-10.4S0
X-.3S1000
X-12.1S0
X-.4S1000
X-14.8S0
X-.6S1000
X-3.1S0
X-1.8S1000
X-26S0
X-.6S1000
X-10.3S0
X-.4S1000
X-12.1S0
X-.3S1000
X-14.8S0
X-.6S1000
X-3.1S0
X-1.8S1000
X-2.917S0
X.1Y.1
X2.917
X1.9S1000
X3S0
X.5S1000
X37.9S0
X.6S1000
X26.2S0
X1.8S1000
X3S0
X.5S1000
X38.1S0
X.5S1000
X26.1S0
X1.9S1000
X2.9S0
X.6S1000
X38S0
X.5S1000
X26.1S0
X1.9S1000
X3S0
X.5S1000
X38.1S0
X.5S1000
X2.917S0
X-.1Y.1
X-2.917
X-.5S1000
X-38S0
X-.5S1000
X-2.8S0
X-1.9S1000
X-26.4S0
X-.5S1000
X-37.9S0
X-.6S1000
X-2.7S0
X-1.9S1000
X-26.4S0
X-.5S1000
X-38S0
X-.5S1000
X-2.8S0
X-1.9S1000
X-26.3S0
X-.5S1000
X-38S0
X-.5S1000
X-2.8S0
X-1.9S1000
X-2.917S0
X.2Y.1
X2.917
X1.9S1000
X2.5S0
X.6S1000
X37.9S0
X.7S1000
X26.4S0
X2S1000
X2.5S0
X.5S1000
X38S0
X.5S1000
X26.6S0
X1.9S1000
X2.5S0
X.6S1000
X38S0
X.5S1000
X26.5S0
X2S1000
X2.5S0
X.5S1000
X38S0
X.6S1000
X2.917S0
X-.1Y.1
X-2.917
X-.4S1000
X-38.1S0
X-.5S1000
X-2.3S0
X-2.1S1000
X-26.6S0
X-.6S1000
X-37.9S0
X-.6S1000
X-2.3S0
X-2S1000
X-26.6S0
X-.6S1000
X-38S0
X-.5S1000
X-2.3S0
X-2.1S1000
X-26.6S0
X-.6S1000
X-37.9S0
X-.5S1000
X-2.4S0
X-2S1000
X-2.917S0
X.2Y.1
X2.917
X1.9S1000
X2.3S0
X.4S1000
X38.1S0
X.5S1000
X26.8S0
X1.9S1000
X2.3S0
X.5S1000
X38.1S0
X.4S1000
X26.8S0
X2.1S1000
X2.1S0
X.6S1000
X38S0
X.4S1000
X26.9S0
X2S1000
X2.2S0
X.5S1000
X38S0
X.6S1000
X2.917S0
X-.1Y.1
X-2.917
X-.5S1000
X-38S0
X-.5S1000
X-2.1S0
X-1.9S1000
X-27S0
X-.6S1000
X-37.9S0
X-.6S1000
X-2.1S0
X-1.9S1000
X-27S0
X-.5S1000
X-38S0
X-.5S1000
X-2.1S0
X-1.9S1000
X-27S0
X-.6S1000
X-37.9S0
X-.6S1000
X-2S0
X-2S1000
X-2.916S0
X.2Y.1
X2.916
X1.9S1000
X2S0
X.5S1000
X37.9S0
X.7S1000
X27.1S0
X1.8S1000
X1.9S0
X.6S1000
X38S0
X.6S1000
X27.1S0
X1.9S1000
X1.9S0
X.6S1000
X37.9S0
X.6S1000
X27.2S0
X1.8S1000
X2S0
X.5S1000
X38.1S0
X.5S1000
X2.917S0
X-.1Y.1
X-2.917
X-.5S1000
X-15.2S0
X-.1S1000
X-.2S0
X-.1S1000
X-.1S0
X-.1S1000
X-.1S0
X-.1S1000
X-.2S0
X-.1S1000
X-.2S0
X-.1S1000
X-21.4S0
X-.5S1000
X-1.6S0
X-2S1000
X-27.5S0
X-.4S1000
X-15.4S0
X-.1S1000
X-.1S0
X-.1S1000
X-.1S0
X-.1S1000
X-.1S0
X-.1S1000
X-.1S0
X-.1S1000
X-.1S0
X-.1S1000
X-.1S0
X-.1S1000
X-21.3S0
X-.6S1000
X-1.6S0
X-2S1000
X-27.4S0
X-.5S1000
X-15.3S0
X-.1S1000
X-.2S0
X-.1S1000
X-.2S0
X-.1S1000
X-.2S0
X-.1S1000
X-.2S0
X-.1S1000
X-21.4S0
X-.5S1000
X-1.6S0
X-2S1000
X-27.4S0
X-.5S1000
X-15.3S0
X-.1S1000
X-.2S0
X-.1S1000
X-.2S0
X-.1S1000
X-.3S0
X-.1S1000
X-.2S0
X-.1S1000
X-21.3S0
X-.5S1000
X-1.6S0
X-2.1S1000
X-2.916S0
X.2Y.1
X2.916
X2S1000
X1.4S0
X.6S1000
X21.1S0
X2S1000
X.1S0
X.2S1000
X.1S0
X.2S1000
X14.2S0
X.6S1000
X27.5S0
X2.1S1000
X1.4S0
X.5S1000
X21.1S0
X2.1S1000
X.1S0
X.2S1000
X.1S0
X.2S1000
X14.3S0
X.5S1000
X27.5S0
X2S1000
X1.4S0
X.6S1000
X21S0
X2.2S1000
X.1S0
X.3S1000
X.1S0
X.2S1000
X14S0
X.6S1000
X27.6S0
X2S1000
X1.4S0
X.5S1000
X21.1S0
X2.2S1000
X.1S0
X.4S1000
X.1S0
X.1S1000
X14.1S0
X.5S1000
X2.917S0
Y.1
X-2.917
X-.6S1000
X-9.7S0
X-1.8S1000
X-.1S0
X-.3S1000
X-.7S0
X-4.3S1000
X-21.1S0
X-.5S1000
X-1.3S0
X-2S1000
X-27.8S0
X-.4S1000
X-9.8S0
X-1.8S1000
X-.2S0
X-.2S1000
X-.7S0
X-4.3S1000
X-21S0
X-.6S1000
X-1.2S0
X-2.1S1000
X-27.7S0
X-.5S1000
X-9.7S0
X-1.9S1000
X-.1S0
X-.2S1000
X-.7S0
X-4.3S1000
X-21.1S0
X-.5S1000
X-1.3S0
X-2S1000
X-27.7S0
X-.6S1000
X-9.6S0
X-1.9S1000
X-.1S0
X-.2S1000
X-.8S0
X-4.2S1000
X-21.1S0
X-.5S1000
X-1.3S0
X-2.1S1000
X-2.916S0
X.2Y.1
X2.916
X2.1S1000
X1S0
X.6S1000
X21.1S0
X7.4S1000
X9.4S0
X.7S1000
X27.8S0
X2S1000
X1.1S0
X.5S1000
X21.1S0
X7.4S1000
X9.5S0
X.5S1000
X27.9S0
X2S1000
X1.1S0
X.6S1000
X21S0
X7.5S1000
X9.4S0
X.6S1000
X27.9S0
X2S1000
X1.1S0
X.5S1000
X21.1S0
X7.5S1000
X9.4S0
X.5S1000
X2.917S0
X.1Y.1
X-2.917
X-.5S1000
X-9.6S0
X-7.4S1000
X-21.1S0
X-.5S1000
X-.9S0
X-2.1S1000
X-28S0
X-.5S1000
X-9.5S0
X-7.5S1000
X-21S0
X-.6S1000
X-.9S0
X-2S1000
X-28S0
X-.6S1000
X-9.4S0
X-7.5S1000
X-21.1S0
X-.5S1000
X-1S0
X-2S1000
X-28S0
X-.5S1000
X-9.5S0
X-7.4S1000
X-21.2S0
X-.4S1000
X-1S0
X-2S1000
X-2.916S0
X.1Y.1
X2.916
X2.1S1000
X.8S0
X.5S1000
X21.1S0
X7.4S1000
X9.4S0
X.6S1000
X28.2S0
X2S1000
X.8S0
X.5S1000
X21.1S0
X7.4S1000
X9.6S0
X.4S1000
X28.2S0
X2.1S1000
X.7S0
X.6S1000
X21S0
X7.4S1000
X9.5S0
X.5S1000
X28.3S0
X2S1000
X.8S0
X.5S1000
X21.1S0
X7.5S1000
X9.4S0
X.5S1000
X2.917S0
X.1Y.1
X-2.917
X-.5S1000
X-9.6S0
X-7.4S1000
X-21.1S0
X-.5S1000
X-.5S0
X-2.1S1000
X-28.4S0
X-.5S1000
X-9.5S0
X-7.5S1000
X-21S0
X-.6S1000
X-.5S0
X-2S1000
X-28.5S0
X-.5S1000
X-9.5S0
X-7.4S1000
X-21.1S0
X-.6S1000
X-.4S0
X-2.2S1000
X-28.3S0
X-.6S1000
X-9.4S0
X-7.5S1000
X-21S0
X-.6S1000
X-.5S0
X-2.1S1000
X-2.916S0
X.3Y.1
X2.916
X2.1S1000
X.3S0
X.5S1000
X21.1S0
X7.4S1000
X9.5S0
X.5S1000
X28.6S0
X2.1S1000
X.3S0
X.5S1000
X21.1S0
X7.5S1000
X9.4S0
X.6S1000
X28.6S0
