; LightBurn Pro 2.0.05
; GRBL-LPC device profile, absolute coords
; Bounds: X18.94 Y17.9 to X281.59 Y193.9
G00 G17 G40 G21 G54
G90
M4
; Image @ 1500 мм/мин, 100% power
M8
G0 X32.136Y67.999
; Layer C00
G91
G1 X.625F7000S0
X1.1F1500S1000
X13.9F7000S0
X.9F1500S1000
X14.3F7000S0
X.6F1500S1000
X39.4F7000S0
X.9F1500S1000
X14F7000S0
X.9F1500S1000
X14.3F7000S0
X.6F1500S1000
X39.3F7000S0
X1.1F1500S1000
X13.9F7000S0
X.9F1500S1000
X14.3F7000S0
X.6F1500S1000
X39.4F7000S0
X1F1500S1000
X13.9F7000S0
X.9F1500S1000
X14.301F7000S0
X.599F1500S1000
X.625F7000S0
X.6Y.1
X-.625
X-1.699F1500S1000
X-.101F7000S0
X-.1F1500S1000
X-12.8F7000S0
X-.1F1500S1000
X-.1F7000S0
X-1.8F1500S1000
X-.1F7000S0
X-.1F1500S1000
X-12.7F7000S0
X-.1F1500S1000
X-.2F7000S0
X-1.6F1500S1000
X-.1F7000S0
X-.1F1500S1000
X-38.2F7000S0
X-.1F1500S1000
X-.2F7000S0
X-1.6F1500S1000
X-.1F7000S0
X-.1F1500S1000
X-12.8F7000S0
X-.1F1500S1000
X-.1F7000S0
X-1.8F1500S1000
X-.1F7000S0
X-.1F1500S1000
X-13F7000S0
X-1.6F1500S1000
X-.2F7000S0
X-.1F1500S1000
X-38.2F7000S0
X-.1F1500S1000
X-.1F7000S0
X-1.7F1500S1000
X-.1F7000S0
X-.1F1500S1000
X-12.9F7000S0
X-1.7F1500S1000
X-.2F7000S0
X-.1F1500S1000
X-12.7F7000S0
X-.1F1500S1000
X-.2F7000S0
X-1.6F1500S1000
X-.2F7000S0
X-.1F1500S1000
X-38.1F7000S0
X-.1F1500S1000
X-.2F7000S0
X-1.6F1500S1000
X-.2F7000S0
X-.1F1500S1000
X-12.7F7000S0
X-.1F1500S1000
X-.1F7000S0
X-1.7F1500S1000
X-.1F7000S0
X-.1F1500S1000
X-12.9F7000S0
X-.1F1500S1000
X-.1F7000S0
X-1.8F1500S1000
X-.1F7000S0
X-.1F1500S1000
X-.625F7000S0
X-.3Y.1
X.625
X2.7F1500S1000
X12.3F7000S0
X2.7F1500S1000
X12.2F7000S0
X2.6F1500S1000
X.1F7000S0
X.1F1500S1000
X37.4F7000S0
X.2F1500S1000
X.1F7000S0
X2.4F1500S1000
X12.3F7000S0
X2.7F1500S1000
X12.2F7000S0
X2.8F1500S1000
X37.3F7000S0
X2.8F1500S1000
X12.3F7000S0
X2.7F1500S1000
X12.3F7000S0
X2.5F1500S1000
X.1F7000S0
X.1F1500S1000
X37.4F7000S0
X2.7F1500S1000
X12.3F7000S0
X2.7F1500S1000
X12.2F7000S0
X2.8F1500S1000
X.625F7000S0
X.2Y.1
X-.625
X-3.2F1500S1000
X-11.8F7000S0
X-3.2F1500S1000
X-11.8F7000S0
X-3.1F1500S1000
X-37F7000S0
X-3.3F1500S1000
X-11.6F7000S0
X-3.3F1500S1000
X-11.8F7000S0
X-3.1F1500S1000
X-37.1F7000S0
X-3.1F1500S1000
X-11.8F7000S0
X-3.2F1500S1000
X-11.8F7000S0
X-3.1F1500S1000
X-37F7000S0
X-3.3F1500S1000
X-11.7F7000S0
X-3.2F1500S1000
X-11.8F7000S0
X-3.1F1500S1000
X-.625F7000S0
X-.3Y.1
X.625
X3.6F1500S1000
X11.3F7000S0
X3.7F1500S1000
X11.3F7000S0
X3.7F1500S1000
X36.5F7000S0
X3.6F1500S1000
X11.4F7000S0
X3.6F1500S1000
X11.3F7000S0
X3.7F1500S1000
X36.5F7000S0
X3.6F1500S1000
X11.3F7000S0
X3.8F1500S1000
X11.2F7000S0
X3.7F1500S1000
X36.6F7000S0
X3.5F1500S1000
X11.4F7000S0
X3.6F1500S1000
X11.3F7000S0
X3.8F1500S1000
X.625F7000S0
Y.1
X-.625
X-4F1500S1000
X-10.9F7000S0
X-4.1F1500S1000
X-10.9F7000S0
X-4F1500S1000
X-36.1F7000S0
X-4F1500S1000
X-11.1F7000S0
X-4F1500S1000
X-11F7000S0
X-3.9F1500S1000
X-36.2F7000S0
X-4F1500S1000
X-10.9F7000S0
X-4F1500S1000
X-11F7000S0
X-4F1500S1000
X-36.2F7000S0
X-4F1500S1000
X-11F7000S0
X-4F1500S1000
X-10.9F7000S0
X-4F1500S1000
X-.625F7000S0
X-.2Y.1
X.625
X4.3F1500S1000
X10.6F7000S0
X4.5F1500S1000
X10.5F7000S0
X4.4F1500S1000
X35.8F7000S0
X4.3F1500S1000
X10.6F7000S0
X4.5F1500S1000
X10.4F7000S0
X4.5F1500S1000
X35.8F7000S0
X4.3F1500S1000
X10.7F7000S0
X4.4F1500S1000
X10.5F7000S0
X4.4F1500S1000
X35.8F7000S0
X4.3F1500S1000
X10.6F7000S0
X4.5F1500S1000
X10.5F7000S0
X4.399F1500S1000
X.625F7000S0
X.2Y.1
X-.625
X-4.8F1500S1000
X-10.2F7000S0
X-4.7F1500S1000
X-.1F7000S0
X-.1F1500S1000
X-10.1F7000S0
X-4.9F1500S1000
X-35.2F7000S0
X-4.8F1500S1000
X-10.2F7000S0
X-4.9F1500S1000
X-10.1F7000S0
X-4.7F1500S1000
X-.1F7000S0
X-.1F1500S1000
X-35.2F7000S0
X-4.9F1500S1000
X-10.1F7000S0
X-4.8F1500S1000
X-.1F7000S0
X-.1F1500S1000
X-10F7000S0
X-4.8F1500S1000
X-.1F7000S0
X-.1F1500S1000
X-35.1F7000S0
X-4.8F1500S1000
X-10.2F7000S0
X-4.9F1500S1000
X-10.1F7000S0
X-4.9F1500S1000
X-.625F7000S0
X-.1Y.1
X.625
X5.2F1500S1000
X9.7F7000S0
X5.2F1500S1000
X9.7F7000S0
X5.3F1500S1000
X34.9F7000S0
X5.2F1500S1000
X9.8F7000S0
X5.3F1500S1000
X9.7F7000S0
X5.2F1500S1000
X34.9F7000S0
X5.3F1500S1000
X9.7F7000S0
X5.3F1500S1000
X9.6F7000S0
X5.4F1500S1000
X34.9F7000S0
X5.2F1500S1000
X9.7F7000S0
X5.3F1500S1000
X9.7F7000S0
X5.2F1500S1000
X.625F7000S0
X.1Y.1
X-.625
X-5.5F1500S1000
X-9.4F7000S0
X-5.5F1500S1000
X-9.5F7000S0
X-5.5F1500S1000
X-34.7F7000S0
X-5.5F1500S1000
X-9.5F7000S0
X-5.5F1500S1000
X-9.4F7000S0
X-5.5F1500S1000
X-34.7F7000S0
X-5.5F1500S1000
X-9.4F7000S0
X-5.5F1500S1000
X-9.5F7000S0
X-5.6F1500S1000
X-34.6F7000S0
X-5.5F1500S1000
X-9.5F7000S0
X-5.5F1500S1000
X-9.4F7000S0
X-5.5F1500S1000
X-.625F7000S0
X-.3Y.1
X.625
X2.9F1500S1000
X.8F7000S0
X2.2F1500S1000
X9.2F7000S0
X2.9F1500S1000
X.2F7000S0
X2.7F1500S1000
X9.1F7000S0
X3F1500S1000
X.4F7000S0
X2.4F1500S1000
X34.4F7000S0
X2.9F1500S1000
X.6F7000S0
X2.3F1500S1000
X9.2F7000S0
X2.9F1500S1000
X.2F7000S0
X2.7F1500S1000
X9F7000S0
X3.1F1500S1000
X.4F7000S0
X2.4F1500S1000
X34.3F7000S0
X2.9F1500S1000
X.7F7000S0
X2.3F1500S1000
X9.2F7000S0
X2.9F1500S1000
X.3F7000S0
X2.6F1500S1000
X9.1F7000S0
X3.1F1500S1000
X.4F7000S0
X2.3F1500S1000
X34.4F7000S0
X2.9F1500S1000
X.7F7000S0
X2.3F1500S1000
X9.1F7000S0
X2.9F1500S1000
X.2F7000S0
X2.7F1500S1000
X9.1F7000S0
X3F1500S1000
X.4F7000S0
X2.4F1500S1000
X.625F7000S0
X.1Y.1
X-.625
X-2F1500S1000
X-1.5F7000S0
X-2.6F1500S1000
X-8.8F7000S0
X-1.9F1500S1000
X-1.6F7000S0
X-2.7F1500S1000
X-8.8F7000S0
X-1.9F1500S1000
X-1.6F7000S0
X-2.6F1500S1000
X-34F7000S0
X-2.1F1500S1000
X-1.6F7000S0
X-2.5F1500S1000
X-8.8F7000S0
X-2F1500S1000
X-1.5F7000S0
X-2.6F1500S1000
X-8.9F7000S0
X-2F1500S1000
X-1.4F7000S0
X-2.7F1500S1000
X-34.1F7000S0
X-2F1500S1000
X-1.5F7000S0
X-2.7F1500S1000
X-8.8F7000S0
X-1.8F1500S1000
X-1.7F7000S0
X-2.6F1500S1000
X-8.8F7000S0
X-1.9F1500S1000
X-1.6F7000S0
X-2.6F1500S1000
X-34.1F7000S0
X-1.9F1500S1000
X-1.7F7000S0
X-2.5F1500S1000
X-8.8F7000S0
X-2F1500S1000
X-1.5F7000S0
X-2.7F1500S1000
X-8.8F7000S0
X-2F1500S1000
X-1.5F7000S0
X-2.7F1500S1000
X-.625F7000S0
X-.1Y.1
X.625
X2.4F1500S1000
X2.2F7000S0
X1.7F1500S1000
X8.7F7000S0
X2.4F1500S1000
X2.2F7000S0
X1.8F1500S1000
X8.5F7000S0
X2.4F1500S1000
X2.2F7000S0
X1.8F1500S1000
X33.8F7000S0
X2.5F1500S1000
X2.1F7000S0
X1.8F1500S1000
X8.6F7000S0
X2.5F1500S1000
X2.1F7000S0
X1.8F1500S1000
X8.5F7000S0
X2.4F1500S1000
X2.3F7000S0
X1.8F1500S1000
X33.7F7000S0
X2.4F1500S1000
X2.2F7000S0
X1.8F1500S1000
X8.5F7000S0
X2.5F1500S1000
X2.2F7000S0
X1.8F1500S1000
X8.5F7000S0
X2.4F1500S1000
X2.3F7000S0
X1.7F1500S1000
X33.8F7000S0
X2.5F1500S1000
X2.2F7000S0
X1.8F1500S1000
X8.5F7000S0
X2.4F1500S1000
X2.3F7000S0
X1.7F1500S1000
X8.5F7000S0
X2.4F1500S1000
X2.3F7000S0
X1.8F1500S1000
X.625F7000S0
X.1Y.1
X-.625
X-1.6F1500S1000
X-2.8F7000S0
X-2.5F1500S1000
X-8.1F7000S0
X-1.6F1500S1000
X-2.8F7000S0
X-2.4F1500S1000
X-8.2F7000S0
X-1.6F1500S1000
X-2.6F7000S0
X-.1F1500S1000
X-.1F7000S0
X-2.4F1500S1000
X-33.3F7000S0
X-1.7F1500S1000
X-2.8F7000S0
X-2.4F1500S1000
X-8.1F7000S0
X-1.6F1500S1000
X-2.7F7000S0
X-.1F1500S1000
X-.1F7000S0
X-2.3F1500S1000
X-8.2F7000S0
X-1.6F1500S1000
X-2.8F7000S0
X-2.4F1500S1000
X-33.4F7000S0
X-1.5F1500S1000
X-2.8F7000S0
X-2.5F1500S1000
X-8.1F7000S0
X-1.6F1500S1000
X-2.8F7000S0
X-2.5F1500S1000
X-8.1F7000S0
X-1.6F1500S1000
X-2.8F7000S0
X-2.4F1500S1000
X-33.4F7000S0
X-1.6F1500S1000
X-2.8F7000S0
X-2.4F1500S1000
X-8.1F7000S0
X-1.6F1500S1000
X-2.9F7000S0
X-2.3F1500S1000
X-8.2F7000S0
X-1.6F1500S1000
X-2.8F7000S0
X-2.4F1500S1000
X-.625F7000S0
X-.1Y.1
X.625
X2.3F1500S1000
X3.2F7000S0
X1.5F1500S1000
X7.9F7000S0
X2.4F1500S1000
X3.2F7000S0
X1.5F1500S1000
X7.8F7000S0
X2.4F1500S1000
X3.3F7000S0
X1.4F1500S1000
X33.1F7000S0
X2.4F1500S1000
X3.2F7000S0
X1.6F1500S1000
X7.8F7000S0
X2.4F1500S1000
X3.2F7000S0
X1.5F1500S1000
X7.8F7000S0
X2.4F1500S1000
X3.2F7000S0
X1.5F1500S1000
X33.2F7000S0
X2.3F1500S1000
X3.2F7000S0
X1.5F1500S1000
X7.9F7000S0
X2.3F1500S1000
X3.3F7000S0
X1.5F1500S1000
X7.9F7000S0
X2.3F1500S1000
X3.3F7000S0
X1.4F1500S1000
X33.2F7000S0
X2.3F1500S1000
X3.2F7000S0
X1.6F1500S1000
X7.8F7000S0
X2.4F1500S1000
X3.2F7000S0
X1.5F1500S1000
X7.8F7000S0
X2.4F1500S1000
X3.3F7000S0
X1.4F1500S1000
X.625F7000S0
X.1Y.1
X-.625
X-1.3F1500S1000
X-3.7F7000S0
X-2.3F1500S1000
X-7.6F7000S0
X-1.4F1500S1000
X-3.7F7000S0
X-2.3F1500S1000
X-7.6F7000S0
X-1.5F1500S1000
X-3.5F7000S0
X-2.3F1500S1000
X-32.8F7000S0
X-1.5F1500S1000
X-3.6F7000S0
X-2.3F1500S1000
X-7.6F7000S0
X-1.5F1500S1000
X-3.6F7000S0
X-2.3F1500S1000
X-7.6F7000S0
X-1.4F1500S1000
X-3.7F7000S0
X-2.2F1500S1000
X-32.9F7000S0
X-1.4F1500S1000
X-3.6F7000S0
X-2.3F1500S1000
X-7.6F7000S0
X-1.5F1500S1000
X-3.6F7000S0
X-2.3F1500S1000
X-7.6F7000S0
X-1.5F1500S1000
X-3.5F7000S0
X-2.3F1500S1000
X-32.9F7000S0
X-1.3F1500S1000
X-3.8F7000S0
X-2.2F1500S1000
X-7.7F7000S0
X-1.4F1500S1000
X-3.6F7000S0
X-2.3F1500S1000
X-7.6F7000S0
X-1.5F1500S1000
X-3.5F7000S0
X-2.3F1500S1000
X-.625F7000S0
X-.2Y.1
X.625
X2.2F1500S1000
X3.9F7000S0
X1.5F1500S1000
X7.3F7000S0
X2.2F1500S1000
X4F7000S0
X1.4F1500S1000
X7.5F7000S0
X2.1F1500S1000
X4F7000S0
X1.4F1500S1000
X32.7F7000S0
X2.2F1500S1000
X3.8F7000S0
X1.4F1500S1000
X7.4F7000S0
X2.3F1500S1000
X3.9F7000S0
X1.4F1500S1000
X7.4F7000S0
X2.2F1500S1000
X4F7000S0
X1.4F1500S1000
X32.6F7000S0
X2.2F1500S1000
X3.9F7000S0
X1.5F1500S1000
X7.4F7000S0
X2.2F1500S1000
X4F7000S0
X1.3F1500S1000
X7.5F7000S0
X2.1F1500S1000
X4.1F7000S0
X1.3F1500S1000
X32.6F7000S0
X2.3F1500S1000
X3.8F7000S0
X1.5F1500S1000
X7.3F7000S0
X2.3F1500S1000
X3.9F7000S0
X1.4F1500S1000
X7.5F7000S0
X2.2F1500S1000
X3.9F7000S0
X1.4F1500S1000
X.625F7000S0
X.1Y.1
X-.625
X-1.4F1500S1000
X-4.2F7000S0
X-2.2F1500S1000
X-7.2F7000S0
X-1.3F1500S1000
X-4.2F7000S0
X-2.3F1500S1000
X-7.2F7000S0
X-1.3F1500S1000
X-4.2F7000S0
X-2.3F1500S1000
X-32.3F7000S0
X-1.3F1500S1000
X-4.3F7000S0
X-2.2F1500S1000
X-7.2F7000S0
X-1.3F1500S1000
X-4.3F7000S0
X-2.2F1500S1000
X-7.1F7000S0
X-1.5F1500S1000
X-4.1F7000S0
X-2.3F1500S1000
X-32.3F7000S0
X-1.4F1500S1000
X-4.3F7000S0
X-2.1F1500S1000
X-7.3F7000S0
X-1.2F1500S1000
X-4.3F7000S0
X-2.2F1500S1000
X-7.2F7000S0
X-1.3F1500S1000
X-4.2F7000S0
X-2.3F1500S1000
X-32.3F7000S0
X-1.3F1500S1000
X-4.3F7000S0
X-2.2F1500S1000
X-7.2F7000S0
X-1.4F1500S1000
X-4.2F7000S0
X-2.3F1500S1000
X-7.1F7000S0
X-1.4F1500S1000
X-4.2F7000S0
X-2.2F1500S1000
X-.625F7000S0
X-.3Y.1
X.625
X2.3F1500S1000
X4.5F7000S0
X1.4F1500S1000
X6.9F7000S0
X2.1F1500S1000
X4.7F7000S0
X1.3F1500S1000
X6.9F7000S0
X2.1F1500S1000
X4.6F7000S0
X1.4F1500S1000
X31.9F7000S0
X2.3F1500S1000
X4.6F7000S0
X1.3F1500S1000
X6.8F7000S0
X2.3F1500S1000
X4.6F7000S0
X1.3F1500S1000
X6.8F7000S0
X2.3F1500S1000
X4.5F7000S0
X1.4F1500S1000
X32F7000S0
X2.1F1500S1000
X4.7F7000S0
X1.3F1500S1000
X6.8F7000S0
X2.2F1500S1000
X4.7F7000S0
X1.3F1500S1000
X6.8F7000S0
X2.2F1500S1000
X4.7F7000S0
X1.3F1500S1000
X31.9F7000S0
X2.3F1500S1000
X4.6F7000S0
X1.3F1500S1000
X6.9F7000S0
X2.2F1500S1000
X4.6F7000S0
X1.3F1500S1000
X6.9F7000S0
X2.2F1500S1000
X4.6F7000S0
X1.3F1500S1000
X.625F7000S0
X.1Y.1
X-.625
X-1.3F1500S1000
X-4.9F7000S0
X-2.2F1500S1000
X-6.6F7000S0
X-1.3F1500S1000
X-5F7000S0
X-2.1F1500S1000
X-6.6F7000S0
X-1.3F1500S1000
X-4.9F7000S0
X-2.2F1500S1000
X-31.8F7000S0
X-1.2F1500S1000
X-5F7000S0
X-2.1F1500S1000
X-6.6F7000S0
X-1.2F1500S1000
X-5.2F7000S0
X-2F1500S1000
X-6.6F7000S0
X-1.3F1500S1000
X-5F7000S0
X-2.1F1500S1000
X-31.8F7000S0
X-1.3F1500S1000
X-4.8F7000S0
X-2.2F1500S1000
X-6.6F7000S0
X-1.3F1500S1000
X-5F7000S0
X-2.2F1500S1000
X-6.5F7000S0
X-1.3F1500S1000
X-5F7000S0
X-2.1F1500S1000
X-31.8F7000S0
X-1.2F1500S1000
X-5F7000S0
X-2.1F1500S1000
X-6.7F7000S0
X-1.2F1500S1000
X-5F7000S0
X-2.1F1500S1000
X-6.6F7000S0
X-1.3F1500S1000
X-4.9F7000S0
X-2.2F1500S1000
X-.625F7000S0
X-.1Y.1
X.625
X2F1500S1000
X5.3F7000S0
X1.2F1500S1000
X6.4F7000S0
X2.1F1500S1000
X5.3F7000S0
X1.2F1500S1000
X6.4F7000S0
X2.1F1500S1000
X5.3F7000S0
X1.2F1500S1000
X31.5F7000S0
X2.2F1500S1000
X5.2F7000S0
X1.2F1500S1000
X6.4F7000S0
X2.1F1500S1000
X5.3F7000S0
X1.2F1500S1000
X6.4F7000S0
X2.1F1500S1000
X5.3F7000S0
X1.2F1500S1000
X31.6F7000S0
X2F1500S1000
X5.3F7000S0
X1.2F1500S1000
X6.4F7000S0
X2.1F1500S1000
X5.3F7000S0
X1.3F1500S1000
X6.3F7000S0
X2.2F1500S1000
X5.2F7000S0
X1.2F1500S1000
X31.6F7000S0
X2.1F1500S1000
X5.2F7000S0
X1.2F1500S1000
X6.4F7000S0
X2.1F1500S1000
X5.3F7000S0
X1.2F1500S1000
X6.4F7000S0
X2.1F1500S1000
X5.2F7000S0
X1.3F1500S1000
X.625F7000S0
X.1Y.1
X-.625
X-1.2F1500S1000
X-5.5F7000S0
X-2.1F1500S1000
X-6.2F7000S0
X-1.2F1500S1000
X-5.6F7000S0
X-2.1F1500S1000
X-6.1F7000S0
X-1.2F1500S1000
X-5.5F7000S0
X-2.1F1500S1000
X-31.3F7000S0
X-1.2F1500S1000
X-5.5F7000S0
X-2.1F1500S1000
X-6.2F7000S0
X-1.2F1500S1000
X-5.5F7000S0
X-2.2F1500S1000
X-6.1F7000S0
X-1.2F1500S1000
X-5.6F7000S0
X-2F1500S1000
X-31.4F7000S0
X-1.2F1500S1000
X-5.4F7000S0
X-2.1F1500S1000
X-6.2F7000S0
X-1.2F1500S1000
X-5.6F7000S0
X-2.1F1500S1000
X-6.1F7000S0
X-1.2F1500S1000
X-5.5F7000S0
X-2.2F1500S1000
X-31.2F7000S0
X-1.3F1500S1000
X-5.4F7000S0
X-2.1F1500S1000
X-6.3F7000S0
X-1.1F1500S1000
X-5.6F7000S0
X-2.1F1500S1000
X-6.2F7000S0
X-1.1F1500S1000
X-5.6F7000S0
X-2F1500S1000
X-.625F7000S0
X-.2Y.1
X.625
X2.1F1500S1000
X5.7F7000S0
X1.2F1500S1000
X6F7000S0
X2.1F1500S1000
X5.7F7000S0
X1.2F1500S1000
X6F7000S0
X2.1F1500S1000
X5.7F7000S0
X1.1F1500S1000
X31.2F7000S0
X2.1F1500S1000
X5.7F7000S0
X1.2F1500S1000
X6F7000S0
X2.1F1500S1000
X5.7F7000S0
X1.2F1500S1000
X6F7000S0
X2.1F1500S1000
X5.7F7000S0
X1.2F1500S1000
X31.1F7000S0
X2.1F1500S1000
X5.7F7000S0
X1.2F1500S1000
X6F7000S0
X2.1F1500S1000
X5.8F7000S0
X1.1F1500S1000
X6F7000S0
X2.1F1500S1000
X5.8F7000S0
X1.1F1500S1000
X31.1F7000S0
X2.1F1500S1000
X5.7F7000S0
X1.2F1500S1000
X6F7000S0
X2.1F1500S1000
X5.8F7000S0
X1.1F1500S1000
X6F7000S0
X2.2F1500S1000
X5.6F7000S0
X1.2F1500S1000
X.625F7000S0
X.1Y.1
X-.625
X-1.2F1500S1000
X-5.9F7000S0
X-2.2F1500S1000
X-5.7F7000S0
X-1.2F1500S1000
X-5.9F7000S0
X-2.1F1500S1000
X-5.8F7000S0
X-1.2F1500S1000
X-6F7000S0
X-2F1500S1000
X-30.9F7000S0
X-1.2F1500S1000
X-6F7000S0
X-2F1500S1000
X-5.8F7000S0
X-1.2F1500S1000
X-6F7000S0
X-2.1F1500S1000
X-5.7F7000S0
X-1.2F1500S1000
X-6F7000S0
X-2.1F1500S1000
X-30.9F7000S0
X-1.1F1500S1000
X-6F7000S0
X-2F1500S1000
X-5.8F7000S0
X-1.2F1500S1000
X-6F7000S0
X-2F1500S1000
X-5.9F7000S0
X-1.1F1500S1000
X-6F7000S0
X-2F1500S1000
X-31F7000S0
X-1.1F1500S1000
X-6F7000S0
X-2.1F1500S1000
X-5.7F7000S0
X-1.2F1500S1000
X-6F7000S0
X-2.1F1500S1000
X-5.7F7000S0
X-1.2F1500S1000
X-6F7000S0
X-2F1500S1000
X-.625F7000S0
X-.3Y.1
X.625
X2.1F1500S1000
X6.3F7000S0
X1.1F1500S1000
X5.5F7000S0
X2.1F1500S1000
X6.3F7000S0
X1.1F1500S1000
X5.5F7000S0
X2.1F1500S1000
X6.3F7000S0
X1.1F1500S1000
X30.6F7000S0
X2.1F1500S1000
X6.3F7000S0
X1.1F1500S1000
X5.5F7000S0
X2F1500S1000
X6.4F7000S0
X1.1F1500S1000
X5.5F7000S0
X2.1F1500S1000
X6.3F7000S0
X1.1F1500S1000
X30.6F7000S0
X2.1F1500S1000
X6.3F7000S0
X1.1F1500S1000
X5.5F7000S0
X2.1F1500S1000
X6.3F7000S0
X1.1F1500S1000
X5.5F7000S0
X2F1500S1000
X6.3F7000S0
X1.2F1500S1000
X30.6F7000S0
X2.1F1500S1000
X6.4F7000S0
X1F1500S1000
X5.5F7000S0
X2.1F1500S1000
X6.3F7000S0
X1.2F1500S1000
X5.5F7000S0
X2F1500S1000
X6.3F7000S0
X1.1F1500S1000
X.625F7000S0
X.1Y.1
X-.625
X-1.1F1500S1000
X-6.6F7000S0
X-2F1500S1000
X-5.3F7000S0
X-1.1F1500S1000
X-6.6F7000S0
X-2.1F1500S1000
X-5.2F7000S0
X-1.1F1500S1000
X-6.6F7000S0
X-2.1F1500S1000
X-30.4F7000S0
X-1.1F1500S1000
X-6.5F7000S0
X-2F1500S1000
X-5.3F7000S0
X-1.2F1500S1000
X-6.5F7000S0
X-2F1500S1000
X-5.3F7000S0
X-1.1F1500S1000
X-6.6F7000S0
X-2F1500S1000
X-30.4F7000S0
X-1.2F1500S1000
X-6.5F7000S0
X-2.1F1500S1000
X-5.2F7000S0
X-1.2F1500S1000
X-6.5F7000S0
X-2.1F1500S1000
X-5.3F7000S0
X-1.1F1500S1000
X-6.6F7000S0
X-2F1500S1000
X-30.4F7000S0
X-1.1F1500S1000
X-6.5F7000S0
X-2F1500S1000
X-5.3F7000S0
X-1.1F1500S1000
X-6.6F7000S0
X-2.1F1500S1000
X-5.2F7000S0
X-1.1F1500S1000
X-6.6F7000S0
X-2.1F1500S1000
X-.625F7000S0
X-.2Y.1
X.625
X2.1F1500S1000
X6.9F7000S0
X1F1500S1000
X5.2F7000S0
X1.9F1500S1000
X6.8F7000S0
X1.1F1500S1000
X5.1F7000S0
X2F1500S1000
X6.8F7000S0
X1.1F1500S1000
X30.2F7000S0
X2.1F1500S1000
X6.7F7000S0
X1.1F1500S1000
X5.1F7000S0
X2.1F1500S1000
X6.7F7000S0
X1.1F1500S1000
X5.1F7000S0
X2F1500S1000
X6.8F7000S0
X1.1F1500S1000
X30.2F7000S0
X2F1500S1000
X6.9F7000S0
X1F1500S1000
X5.1F7000S0
X2F1500S1000
X6.8F7000S0
X1.1F1500S1000
X5.1F7000S0
X2.1F1500S1000
X6.7F7000S0
X1.1F1500S1000
X30.2F7000S0
X2.1F1500S1000
X6.7F7000S0
X1.2F1500S1000
X5.1F7000S0
X2F1500S1000
X6.7F7000S0
X1.2F1500S1000
X5.1F7000S0
X1.9F1500S1000
X6.8F7000S0
X1.1F1500S1000
X.625F7000S0
X.1Y.1
X-.625
X-1.1F1500S1000
X-7.1F7000S0
X-1.9F1500S1000
X-4.9F7000S0
X-1.1F1500S1000
X-7.1F7000S0
X-1.9F1500S1000
X-4.9F7000S0
X-1.1F1500S1000
X-7F7000S0
X-2F1500S1000
X-30.1F7000S0
X-1F1500S1000
X-7F7000S0
X-2.1F1500S1000
X-4.9F7000S0
X-1F1500S1000
X-7F7000S0
X-2F1500S1000
X-4.9F7000S0
X-1.1F1500S1000
X-7.1F7000S0
X-1.9F1500S1000
X-30F7000S0
X-1.1F1500S1000
X-7.1F7000S0
X-1.9F1500S1000
X-5F7000S0
X-1.1F1500S1000
X-7F7000S0
X-2F1500S1000
X-4.9F7000S0
X-1F1500S1000
X-7F7000S0
X-2.1F1500S1000
X-30F7000S0
X-1F1500S1000
X-7.1F7000S0
X-1.9F1500S1000
X-4.9F7000S0
X-1.1F1500S1000
X-7.1F7000S0
X-1.9F1500S1000
X-5F7000S0
X-1.1F1500S1000
X-7F7000S0
X-1.9F1500S1000
X-.625F7000S0
X-.2Y.1
X.625
X2F1500S1000
X7.3F7000S0
X1F1500S1000
X4.7F7000S0
X2F1500S1000
X7.2F7000S0
X1.1F1500S1000
X4.7F7000S0
X2F1500S1000
X7.2F7000S0
X1F1500S1000
X29.9F7000S0
X2F1500S1000
X7.2F7000S0
X1.1F1500S1000
X4.7F7000S0
X2F1500S1000
X7.2F7000S0
X1.1F1500S1000
X4.7F7000S0
X1.9F1500S1000
X7.3F7000S0
X1F1500S1000
X29.9F7000S0
X2F1500S1000
X7.3F7000S0
X1F1500S1000
X4.7F7000S0
X2F1500S1000
X7.2F7000S0
X1.1F1500S1000
X4.7F7000S0
X2F1500S1000
X7.2F7000S0
X1F1500S1000
X29.9F7000S0
X2F1500S1000
X7.3F7000S0
X1F1500S1000
X4.8F7000S0
X1.9F1500S1000
X7.2F7000S0
X1.1F1500S1000
X4.7F7000S0
X2F1500S1000
X7.2F7000S0
X1.1F1500S1000
X.625F7000S0
Y.1
X-.625
X-1F1500S1000
X-7.5F7000S0
X-2F1500S1000
X-4.4F7000S0
X-1.1F1500S1000
X-7.5F7000S0
X-1.9F1500S1000
X-4.6F7000S0
X-1F1500S1000
X-7.5F7000S0
X-2F1500S1000
X-29.7F7000S0
X-1F1500S1000
X-7.5F7000S0
X-1.9F1500S1000
X-4.5F7000S0
X-1F1500S1000
X-7.6F7000S0
X-1.9F1500S1000
X-4.5F7000S0
X-1F1500S1000
X-7.5F7000S0
X-2F1500S1000
X-29.6F7000S0
X-1.1F1500S1000
X-7.4F7000S0
X-2F1500S1000
X-4.5F7000S0
X-1F1500S1000
X-7.5F7000S0
X-2F1500S1000
X-4.5F7000S0
X-1F1500S1000
X-7.5F7000S0
X-2F1500S1000
X-29.7F7000S0
X-1F1500S1000
X-7.4F7000S0
X-2F1500S1000
X-4.5F7000S0
X-1.1F1500S1000
X-7.4F7000S0
X-2.1F1500S1000
X-4.4F7000S0
X-1F1500S1000
X-7.5F7000S0
X-2F1500S1000
X-.625F7000S0
X-.2Y.1
X.625
X2F1500S1000
X7.7F7000S0
X1F1500S1000
X4.3F7000S0
X2F1500S1000
X7.7F7000S0
X1.1F1500S1000
X4.2F7000S0
X2F1500S1000
X7.7F7000S0
X1F1500S1000
X29.4F7000S0
X2F1500S1000
X7.8F7000S0
X1F1500S1000
X4.2F7000S0
X1.9F1500S1000
X7.8F7000S0
X1F1500S1000
X4.4F7000S0
X1.9F1500S1000
X7.6F7000S0
X1.1F1500S1000
X29.4F7000S0
X2F1500S1000
X7.7F7000S0
X1.1F1500S1000
X4.2F7000S0
X2F1500S1000
X7.7F7000S0
X1F1500S1000
X4.3F7000S0
X2F1500S1000
X7.7F7000S0
X1F1500S1000
X29.5F7000S0
X1.9F1500S1000
X7.8F7000S0
X1F1500S1000
X4.2F7000S0
X2F1500S1000
X7.7F7000S0
X1F1500S1000
X4.4F7000S0
X1.9F1500S1000
X7.7F7000S0
X1F1500S1000
X.625F7000S0
X.1Y.1
X-.625
X-1.1F1500S1000
X-7.9F7000S0
X-1.9F1500S1000
X-4.1F7000S0
X-1.1F1500S1000
X-7.9F7000S0
X-1.9F1500S1000
X-4.1F7000S0
X-1F1500S1000
X-7.9F7000S0
X-2F1500S1000
X-29.2F7000S0
X-1.1F1500S1000
X-7.9F7000S0
X-1.9F1500S1000
X-4.1F7000S0
X-1F1500S1000
X-8.1F7000S0
X-1.9F1500S1000
X-4F7000S0
X-1F1500S1000
X-8F7000S0
X-1.9F1500S1000
X-29.3F7000S0
X-1F1500S1000
X-7.9F7000S0
X-1.9F1500S1000
X-4.2F7000S0
X-1F1500S1000
X-7.9F7000S0
X-1.9F1500S1000
X-4.1F7000S0
X-1F1500S1000
X-8F7000S0
X-1.9F1500S1000
X-29.2F7000S0
X-1.1F1500S1000
X-7.9F7000S0
X-2F1500S1000
X-4.1F7000S0
X-1F1500S1000
X-7.9F7000S0
X-2F1500S1000
X-4F7000S0
X-1F1500S1000
X-8F7000S0
X-1.9F1500S1000
X-.625F7000S0
X-.2Y.1
X.625
X2F1500S1000
X8.1F7000S0
X1F1500S1000
X3.9F7000S0
X2F1500S1000
X8.1F7000S0
X1F1500S1000
X3.9F7000S0
X1.9F1500S1000
X8.1F7000S0
X1.1F1500S1000
X29F7000S0
X1.9F1500S1000
X8.2F7000S0
X1F1500S1000
X3.9F7000S0
X2F1500S1000
X8.1F7000S0
X.9F1500S1000
X4F7000S0
X2F1500S1000
X8F7000S0
X1.1F1500S1000
X29F7000S0
X2F1500S1000
X8.1F7000S0
X1F1500S1000
X4F7000S0
X1.8F1500S1000
X8.2F7000S0
X1F1500S1000
X4F7000S0
X1.8F1500S1000
X8.2F7000S0
X1F1500S1000
X29F7000S0
X2F1500S1000
X8.1F7000S0
X1F1500S1000
X3.9F7000S0
X2F1500S1000
X8.1F7000S0
X1F1500S1000
X3.9F7000S0
X2F1500S1000
X8F7000S0
X1.1F1500S1000
X.625F7000S0
Y.1
X-.625
X-1F1500S1000
X-8.3F7000S0
X-1.9F1500S1000
X-3.8F7000S0
X-1F1500S1000
X-8.3F7000S0
X-1.9F1500S1000
X-3.8F7000S0
X-.9F1500S1000
X-8.4F7000S0
X-1.9F1500S1000
X-28.9F7000S0
X-1F1500S1000
X-8.2F7000S0
X-2F1500S1000
X-3.8F7000S0
X-1F1500S1000
X-8.3F7000S0
X-1.9F1500S1000
X-3.7F7000S0
X-1.1F1500S1000
X-8.3F7000S0
X-1.9F1500S1000
X-29F7000S0
X-.9F1500S1000
X-8.3F7000S0
X-2F1500S1000
X-3.7F7000S0
X-1F1500S1000
X-8.3F7000S0
X-2F1500S1000
X-3.7F7000S0
X-.9F1500S1000
X-8.4F7000S0
X-1.9F1500S1000
X-28.9F7000S0
X-1F1500S1000
X-8.3F7000S0
X-1.9F1500S1000
X-3.8F7000S0
X-1F1500S1000
X-8.3F7000S0
X-2F1500S1000
X-3.7F7000S0
X-1F1500S1000
X-8.3F7000S0
X-2F1500S1000
X-.625F7000S0
X-.1Y.1
X.625
X1.9F1500S1000
X8.5F7000S0
X1F1500S1000
X3.6F7000S0
X1.9F1500S1000
X8.5F7000S0
X1F1500S1000
X3.7F7000S0
X1.8F1500S1000
X8.5F7000S0
X1F1500S1000
X28.7F7000S0
X1.9F1500S1000
X8.6F7000S0
X1F1500S1000
X3.5F7000S0
X1.9F1500S1000
X8.6F7000S0
X.9F1500S1000
X3.6F7000S0
X1.9F1500S1000
X8.5F7000S0
X1F1500S1000
X28.8F7000S0
X1.8F1500S1000
X8.5F7000S0
X1F1500S1000
X3.6F7000S0
X1.9F1500S1000
X8.5F7000S0
X1F1500S1000
X3.6F7000S0
X2F1500S1000
X8.4F7000S0
X1F1500S1000
X28.7F7000S0
X1.9F1500S1000
X8.6F7000S0
X1F1500S1000
X3.5F7000S0
X1.9F1500S1000
X8.6F7000S0
X.9F1500S1000
X3.7F7000S0
X1.8F1500S1000
X8.5F7000S0
X1.1F1500S1000
X.625F7000S0
X-.1Y.1
X-.625
X-.9F1500S1000
X-8.7F7000S0
X-1.9F1500S1000
X-3.4F7000S0
X-1F1500S1000
X-8.7F7000S0
X-1.9F1500S1000
X-3.4F7000S0
X-1F1500S1000
X-8.8F7000S0
X-1.9F1500S1000
X-28.4F7000S0
X-1F1500S1000
X-8.8F7000S0
X-1.9F1500S1000
X-3.3F7000S0
X-1F1500S1000
X-8.7F7000S0
X-1.9F1500S1000
X-3.4F7000S0
X-1F1500S1000
X-8.7F7000S0
X-1.9F1500S1000
X-28.6F7000S0
X-1F1500S1000
X-8.7F7000S0
X-1.7F1500S1000
X-.1F7000S0
X-.1F1500S1000
X-3.3F7000S0
X-1F1500S1000
X-8.7F7000S0
X-2F1500S1000
X-3.3F7000S0
X-1.1F1500S1000
X-8.7F7000S0
X-1.9F1500S1000
X-28.4F7000S0
X-1.1F1500S1000
X-8.7F7000S0
X-1.9F1500S1000
X-3.4F7000S0
X-.9F1500S1000
X-8.7F7000S0
X-1.9F1500S1000
X-3.5F7000S0
X-.9F1500S1000
X-8.8F7000S0
X-1.7F1500S1000
X-.1F7000S0
X-.1F1500S1000
X-.625F7000S0
X-.1Y.1
X.625
X1.9F1500S1000
X8.9F7000S0
X1F1500S1000
X3.2F7000S0
X1.8F1500S1000
X9F7000S0
X.9F1500S1000
X3.3F7000S0
X1.9F1500S1000
X8.8F7000S0
X1F1500S1000
X28.4F7000S0
X1.9F1500S1000
X8.9F7000S0
X1F1500S1000
X3.2F7000S0
X1.9F1500S1000
X8.9F7000S0
X1F1500S1000
X3.2F7000S0
X1.8F1500S1000
X9F7000S0
X.9F1500S1000
X28.4F7000S0
X1.9F1500S1000
X8.9F7000S0
X1F1500S1000
X3.2F7000S0
X1.9F1500S1000
X8.8F7000S0
X1.1F1500S1000
X3.2F7000S0
X1.9F1500S1000
X8.9F7000S0
X1F1500S1000
X28.3F7000S0
X1.9F1500S1000
X9F7000S0
X.9F1500S1000
X3.3F7000S0
X1.8F1500S1000
X8.9F7000S0
X1F1500S1000
X3.2F7000S0
X1.9F1500S1000
X8.9F7000S0
X1F1500S1000
X.625F7000S0
Y.1
X-.625
X-1F1500S1000
X-9.1F7000S0
X-1.8F1500S1000
X-3.1F7000S0
X-1F1500S1000
X-9F7000S0
X-1.9F1500S1000
X-3.1F7000S0
X-.9F1500S1000
X-9.2F7000S0
X-1.8F1500S1000
X-28.2F7000S0
X-1F1500S1000
X-9.1F7000S0
X-1.8F1500S1000
X-3.1F7000S0
X-1F1500S1000
X-9F7000S0
X-1.9F1500S1000
X-3.1F7000S0
X-1F1500S1000
X-9F7000S0
X-1.9F1500S1000
X-28.3F7000S0
X-.9F1500S1000
X-9.1F7000S0
X-1.8F1500S1000
X-3.1F7000S0
X-1F1500S1000
X-9.1F7000S0
X-1.9F1500S1000
X-3F7000S0
X-.9F1500S1000
X-9.2F7000S0
X-1.9F1500S1000
X-28.1F7000S0
X-1.1F1500S1000
X-9F7000S0
X-1.8F1500S1000
X-3.1F7000S0
X-1F1500S1000
X-9F7000S0
X-1.9F1500S1000
X-3.1F7000S0
X-.9F1500S1000
X-9.2F7000S0
X-1.9F1500S1000
X-.625F7000S0
X-.1Y.1
X.625
X1.9F1500S1000
X9.3F7000S0
X.9F1500S1000
X2.9F7000S0
X1.9F1500S1000
X9.2F7000S0
X.9F1500S1000
X3F7000S0
X1.9F1500S1000
X9.1F7000S0
X1.1F1500S1000
X27.9F7000S0
X1.9F1500S1000
X9.3F7000S0
X1.1F1500S1000
X2.8F7000S0
X1.8F1500S1000
X9.4F7000S0
X.9F1500S1000
X2.9F7000S0
X1.9F1500S1000
X9.2F7000S0
X1F1500S1000
X28F7000S0
X1.9F1500S1000
X9.2F7000S0
X1F1500S1000
X2.9F7000S0
X1.9F1500S1000
X9.2F7000S0
X1F1500S1000
X2.9F7000S0
X1.8F1500S1000
X9.2F7000S0
X1.1F1500S1000
X28F7000S0
X1.8F1500S1000
X9.4F7000S0
X.9F1500S1000
X2.9F7000S0
X1.9F1500S1000
X9.3F7000S0
X.9F1500S1000
X2.9F7000S0
X1.9F1500S1000
X9.2F7000S0
X1F1500S1000
X.625F7000S0
Y.1
X-.625
X-1F1500S1000
X-9.4F7000S0
X-1.8F1500S1000
X-2.8F7000S0
X-.9F1500S1000
X-9.4F7000S0
X-1.9F1500S1000
X-2.7F7000S0
X-1F1500S1000
X-9.4F7000S0
X-1.9F1500S1000
X-27.9F7000S0
X-1F1500S1000
X-9.4F7000S0
X-1.8F1500S1000
X-2.8F7000S0
X-1F1500S1000
X-9.4F7000S0
X-1.8F1500S1000
X-2.8F7000S0
X-1F1500S1000
X-9.4F7000S0
X-1.9F1500S1000
X-27.8F7000S0
X-1F1500S1000
X-9.4F7000S0
X-1.8F1500S1000
X-2.8F7000S0
X-.9F1500S1000
X-9.5F7000S0
X-1.8F1500S1000
X-2.7F7000S0
X-1.1F1500S1000
X-9.4F7000S0
X-1.8F1500S1000
X-28F7000S0
X-.9F1500S1000
X-9.4F7000S0
X-1.9F1500S1000
X-2.8F7000S0
X-.8F1500S1000
X-9.5F7000S0
X-1.8F1500S1000
X-2.8F7000S0
X-.9F1500S1000
X-9.5F7000S0
X-1.9F1500S1000
X-.625F7000S0
X-.1Y.1
X.625
X1.9F1500S1000
X9.6F7000S0
X.9F1500S1000
X2.6F7000S0
X1.8F1500S1000
X9.7F7000S0
X.9F1500S1000
X2.5F7000S0
X1.9F1500S1000
X9.6F7000S0
X1F1500S1000
X27.7F7000S0
X1.8F1500S1000
X9.7F7000S0
X1F1500S1000
X2.5F7000S0
X1.9F1500S1000
X9.5F7000S0
X1F1500S1000
X2.6F7000S0
X1.9F1500S1000
X9.5F7000S0
X1F1500S1000
X27.7F7000S0
X1.8F1500S1000
X9.6F7000S0
X1F1500S1000
X2.6F7000S0
X1.8F1500S1000
X9.7F7000S0
X.9F1500S1000
X2.6F7000S0
X1.8F1500S1000
X9.6F7000S0
X1F1500S1000
X27.7F7000S0
X1.9F1500S1000
X9.6F7000S0
X1F1500S1000
X2.5F7000S0
X1.9F1500S1000
X9.6F7000S0
X.9F1500S1000
X2.6F7000S0
X1.9F1500S1000
X9.5F7000S0
X1.1F1500S1000
X.625F7000S0
X-.1Y.1
X-.625
X-1F1500S1000
X-9.8F7000S0
X-1.9F1500S1000
X-2.3F7000S0
X-.9F1500S1000
X-9.8F7000S0
X-1.9F1500S1000
X-2.3F7000S0
X-1F1500S1000
X-9.8F7000S0
X-1.9F1500S1000
X-27.5F7000S0
X-1F1500S1000
X-9.8F7000S0
X-1.8F1500S1000
X-2.4F7000S0
X-.9F1500S1000
X-9.8F7000S0
X-1.9F1500S1000
X-2.3F7000S0
X-1.1F1500S1000
X-9.7F7000S0
X-1.9F1500S1000
X-27.5F7000S0
X-1F1500S1000
X-9.8F7000S0
X-1.9F1500S1000
X-2.3F7000S0
X-.9F1500S1000
X-9.8F7000S0
X-1.9F1500S1000
X-2.3F7000S0
X-1.1F1500S1000
X-9.7F7000S0
X-1.9F1500S1000
X-27.5F7000S0
X-1F1500S1000
X-9.9F7000S0
X-1.8F1500S1000
X-2.4F7000S0
X-.8F1500S1000
X-9.8F7000S0
X-1.9F1500S1000
X-2.4F7000S0
X-.9F1500S1000
X-9.8F7000S0
X-1.9F1500S1000
X-.625F7000S0
X-.1Y.1
X.625
X1.9F1500S1000
X9.9F7000S0
X.9F1500S1000
X2.3F7000S0
X1.9F1500S1000
X9.9F7000S0
X.8F1500S1000
X2.3F7000S0
X1.9F1500S1000
X9.9F7000S0
X.9F1500S1000
X27.6F7000S0
X1.7F1500S1000
X10F7000S0
X1F1500S1000
X2.2F7000S0
X1.8F1500S1000
X10F7000S0
X.9F1500S1000
X2.3F7000S0
X1.8F1500S1000
X9.9F7000S0
X1F1500S1000
X27.4F7000S0
X1.9F1500S1000
X9.8F7000S0
X1F1500S1000
X2.3F7000S0
X1.8F1500S1000
X10F7000S0
X.9F1500S1000
X2.3F7000S0
X1.8F1500S1000
X10F7000S0
X.9F1500S1000
X27.5F7000S0
X1.8F1500S1000
X9.9F7000S0
X1F1500S1000
X2.2F7000S0
X1.9F1500S1000
X9.9F7000S0
X.9F1500S1000
X2.3F7000S0
X1.8F1500S1000
X9.9F7000S0
X1F1500S1000
X.625F7000S0
X.1Y.1
X-.625
X-1.1F1500S1000
X-9.9F7000S0
X-1.8F1500S1000
X-2.3F7000S0
X-.9F1500S1000
X-9.9F7000S0
X-1.8F1500S1000
X-2.3F7000S0
X-1F1500S1000
X-10F7000S0
X-1.7F1500S1000
X-27.5F7000S0
X-1F1500S1000
X-9.9F7000S0
X-1.9F1500S1000
X-2.3F7000S0
X-.9F1500S1000
X-9.8F7000S0
X-1.9F1500S1000
X-2.3F7000S0
X-1F1500S1000
X-9.8F7000S0
X-1.9F1500S1000
X-27.4F7000S0
X-1F1500S1000
X-9.9F7000S0
X-1.8F1500S1000
X-2.3F7000S0
X-.9F1500S1000
X-10F7000S0
X-1.8F1500S1000
X-2.3F7000S0
X-1F1500S1000
X-9.9F7000S0
X-1.8F1500S1000
X-27.4F7000S0
X-1F1500S1000
X-9.9F7000S0
X-1.9F1500S1000
X-2.2F7000S0
X-.9F1500S1000
X-9.9F7000S0
X-1.9F1500S1000
X-2.3F7000S0
X-.9F1500S1000
X-10F7000S0
X-1.7F1500S1000
X-.625F7000S0
X.1Y.1
X.625
X1.8F1500S1000
X9.8F7000S0
X.9F1500S1000
X2.5F7000S0
X1.7F1500S1000
X9.9F7000S0
X.8F1500S1000
X2.5F7000S0
X1.9F1500S1000
X9.7F7000S0
X1F1500S1000
X27.5F7000S0
X2F1500S1000
X9.7F7000S0
X1F1500S1000
X2.4F7000S0
X1.8F1500S1000
X9.7F7000S0
X1F1500S1000
X2.5F7000S0
X1.7F1500S1000
X9.8F7000S0
X1F1500S1000
X27.6F7000S0
X1.9F1500S1000
X9.6F7000S0
X1.1F1500S1000
X2.4F7000S0
X1.8F1500S1000
X9.7F7000S0
X1F1500S1000
X2.4F7000S0
X1.9F1500S1000
X9.8F7000S0
X.9F1500S1000
X27.5F7000S0
X1.9F1500S1000
X9.8F7000S0
X1F1500S1000
X2.4F7000S0
X1.8F1500S1000
X9.8F7000S0
X1F1500S1000
X2.4F7000S0
X1.8F1500S1000
X9.7F7000S0
X1F1500S1000
X.625F7000S0
Y.1
X-.625
X-1F1500S1000
X-7.9F7000S0
X-16.4F1500S1000
X-.3F7000S0
X-1.7F1500S1000
X-2.6F7000S0
X-1F1500S1000
X-9.6F7000S0
X-1.9F1500S1000
X-27.7F7000S0
X-1F1500S1000
X-8F7000S0
X-16.3F1500S1000
X-.3F7000S0
X-1.8F1500S1000
X-2.6F7000S0
X-1F1500S1000
X-9.6F7000S0
X-1.8F1500S1000
X-27.7F7000S0
X-1F1500S1000
X-8F7000S0
X-16.4F1500S1000
X-.2F7000S0
X-1.8F1500S1000
X-2.5F7000S0
X-1.1F1500S1000
X-9.5F7000S0
X-1.9F1500S1000
X-27.8F7000S0
X-.9F1500S1000
X-8F7000S0
X-16.3F1500S1000
X-.3F7000S0
X-1.8F1500S1000
X-2.6F7000S0
X-.9F1500S1000
X-9.7F7000S0
X-1.8F1500S1000
X-.625F7000S0
X.1Y.1
X.625
X1.9F1500S1000
X9.5F7000S0
X.9F1500S1000
X2.7F7000S0
X18.4F1500S1000
X7.9F7000S0
X1F1500S1000
X27.8F7000S0
X1.9F1500S1000
X9.5F7000S0
X1F1500S1000
X2.6F7000S0
X18.4F1500S1000
X7.9F7000S0
X1F1500S1000
X27.9F7000S0
X1.8F1500S1000
X9.4F7000S0
X1F1500S1000
X2.8F7000S0
X18.3F1500S1000
X7.9F7000S0
X1F1500S1000
X27.9F7000S0
X1.8F1500S1000
X9.5F7000S0
X1F1500S1000
X2.7F7000S0
X18.3F1500S1000
X7.9F7000S0
X1.1F1500S1000
X.625F7000S0
X-.1Y.1
X-.625
X-1F1500S1000
X-7.9F7000S0
X-18.1F1500S1000
X-2.9F7000S0
X-1F1500S1000
X-9.3F7000S0
X-1.9F1500S1000
X-28F7000S0
X-1F1500S1000
X-7.8F7000S0
X-18.2F1500S1000
X-2.9F7000S0
X-1.1F1500S1000
X-9.2F7000S0
X-1.8F1500S1000
X-28.1F7000S0
X-1F1500S1000
X-7.8F7000S0
X-18.3F1500S1000
X-2.8F7000S0
X-1.1F1500S1000
X-9.2F7000S0
X-1.9F1500S1000
X-28.1F7000S0
X-.9F1500S1000
X-7.9F7000S0
X-18.2F1500S1000
X-2.9F7000S0
X-.9F1500S1000
X-9.4F7000S0
X-1.8F1500S1000
X-.625F7000S0
X.1Y.1
X.625
X1.9F1500S1000
X9.1F7000S0
X1F1500S1000
X3.1F7000S0
X18.1F1500S1000
X7.8F7000S0
X1F1500S1000
X28.2F7000S0
X1.9F1500S1000
X9F7000S0
X1F1500S1000
X3.1F7000S0
X18.1F1500S1000
X7.8F7000S0
X1F1500S1000
X28.2F7000S0
X1.8F1500S1000
X9.1F7000S0
X1F1500S1000
X3.1F7000S0
X18.2F1500S1000
X7.7F7000S0
X1F1500S1000
X28.2F7000S0
X1.9F1500S1000
X9.1F7000S0
X.9F1500S1000
X3.1F7000S0
X18.1F1500S1000
X7.8F7000S0
X1F1500S1000
X.625F7000S0
Y.1
X-.625
X-1F1500S1000
X-7.7F7000S0
X-18.1F1500S1000
X-3.2F7000S0
X-1F1500S1000
X-8.8F7000S0
X-1.9F1500S1000
X-28.4F7000S0
X-1.1F1500S1000
X-7.7F7000S0
X-18F1500S1000
X-3.2F7000S0
X-1F1500S1000
X-8.9F7000S0
X-1.9F1500S1000
X-28.4F7000S0
X-.9F1500S1000
X-7.7F7000S0
X-18.1F1500S1000
X-3.2F7000S0
X-1F1500S1000
X-8.9F7000S0
X-1.8F1500S1000
X-28.4F7000S0
X-1.1F1500S1000
X-7.7F7000S0
X-18F1500S1000
X-3.2F7000S0
X-1F1500S1000
X-8.8F7000S0
X-1.9F1500S1000
X-.625F7000S0
X.1Y.1
X.625
X1.9F1500S1000
X8.6F7000S0
X1F1500S1000
X3.4F7000S0
X18F1500S1000
X7.6F7000S0
X1F1500S1000
X28.6F7000S0
X1.8F1500S1000
X8.8F7000S0
X1F1500S1000
X3.4F7000S0
X17.9F1500S1000
X7.6F7000S0
X1F1500S1000
X28.6F7000S0
X1.9F1500S1000
X8.6F7000S0
X1F1500S1000
X3.4F7000S0
X18F1500S1000
X7.7F7000S0
X1F1500S1000
X28.5F7000S0
X1.9F1500S1000
X8.7F7000S0
X1F1500S1000
X3.4F7000S0
X17.9F1500S1000
X7.6F7000S0
X1F1500S1000
X.625F7000S0
X.1Y.1
X-.625
X-1F1500S1000
X-7.5F7000S0
X-.8F1500S1000
X-15.6F7000S0
X-1.6F1500S1000
X-3.5F7000S0
X-1F1500S1000
X-8.6F7000S0
X-1.8F1500S1000
X-28.8F7000S0
X-1F1500S1000
X-7.5F7000S0
X-.7F1500S1000
X-15.7F7000S0
X-1.5F1500S1000
X-3.5F7000S0
X-1F1500S1000
X-8.5F7000S0
X-1.9F1500S1000
X-28.8F7000S0
X-1F1500S1000
X-7.5F7000S0
X-.7F1500S1000
X-15.7F7000S0
X-1.5F1500S1000
X-3.5F7000S0
X-1F1500S1000
X-8.5F7000S0
X-2F1500S1000
X-28.6F7000S0
X-1F1500S1000
X-7.6F7000S0
X-.7F1500S1000
X-15.7F7000S0
X-1.5F1500S1000
X-3.6F7000S0
X-1F1500S1000
X-8.5F7000S0
X-1.8F1500S1000
X-.625F7000S0
X.1Y.1
X.625
X2F1500S1000
X8.2F7000S0
X1F1500S1000
X3.8F7000S0
X1.2F1500S1000
X15.9F7000S0
X.6F1500S1000
X7.5F7000S0
X1F1500S1000
X28.9F7000S0
X2F1500S1000
X8.2F7000S0
X1F1500S1000
X3.9F7000S0
X1.1F1500S1000
X15.9F7000S0
X.6F1500S1000
X7.5F7000S0
X1F1500S1000
X28.9F7000S0
X1.9F1500S1000
X8.3F7000S0
X1F1500S1000
X3.9F7000S0
X1.1F1500S1000
X15.9F7000S0
X.6F1500S1000
X7.5F7000S0
X1F1500S1000
X28.9F7000S0
X2F1500S1000
X8.2F7000S0
X1.1F1500S1000
X3.8F7000S0
X1.1F1500S1000
X15.9F7000S0
X.6F1500S1000
X7.5F7000S0
X1.1F1500S1000
X.625F7000S0
X-.1Y.1
X-.625
X-1F1500S1000
X-7.4F7000S0
X-.6F1500S1000
X-16.1F7000S0
X-.9F1500S1000
X-4F7000S0
X-1F1500S1000
X-8.1F7000S0
X-1.8F1500S1000
X-29.2F7000S0
X-1F1500S1000
X-7.4F7000S0
X-.6F1500S1000
X-16.1F7000S0
X-1F1500S1000
X-3.9F7000S0
X-1F1500S1000
X-8F7000S0
X-2F1500S1000
X-29.1F7000S0
X-1.1F1500S1000
X-7.4F7000S0
X-.5F1500S1000
X-16.1F7000S0
X-.9F1500S1000
X-4F7000S0
X-1F1500S1000
X-8.1F7000S0
X-1.9F1500S1000
X-29.1F7000S0
X-1.1F1500S1000
X-7.3F7000S0
X-.6F1500S1000
X-16.1F7000S0
X-.9F1500S1000
X-4F7000S0
X-1F1500S1000
X-8.1F7000S0
X-1.8F1500S1000
X-.625F7000S0
X.1Y.1
X.625
X1.8F1500S1000
X7.9F7000S0
X1.1F1500S1000
X4.2F7000S0
X.7F1500S1000
X16.1F7000S0
X.7F1500S1000
X7.3F7000S0
X1F1500S1000
X29.2F7000S0
X2F1500S1000
X7.8F7000S0
X1.1F1500S1000
X4.1F7000S0
X.8F1500S1000
X16.1F7000S0
X.6F1500S1000
X7.3F7000S0
X1F1500S1000
X29.4F7000S0
X1.8F1500S1000
X7.9F7000S0
X1.1F1500S1000
X4.1F7000S0
X.8F1500S1000
X16.1F7000S0
X.8F1500S1000
X7.1F7000S0
X1F1500S1000
X29.4F7000S0
X1.9F1500S1000
X7.8F7000S0
X1.1F1500S1000
X4.2F7000S0
X.7F1500S1000
X16.2F7000S0
X.6F1500S1000
X7.3F7000S0
X1F1500S1000
X.625F7000S0
Y.1
X-.625
X-1.1F1500S1000
X-7.2F7000S0
X-.6F1500S1000
X-16.2F7000S0
X-.7F1500S1000
X-4.2F7000S0
X-1.1F1500S1000
X-7.6F7000S0
X-2F1500S1000
X-29.5F7000S0
X-1F1500S1000
X-7.2F7000S0
X-.6F1500S1000
X-16.3F7000S0
X-.6F1500S1000
X-4.2F7000S0
X-1F1500S1000
X-7.8F7000S0
X-1.9F1500S1000
X-29.4F7000S0
X-1.1F1500S1000
X-7.2F7000S0
X-.7F1500S1000
X-16.2F7000S0
X-.6F1500S1000
X-4.3F7000S0
X-1F1500S1000
X-7.6F7000S0
X-2F1500S1000
X-29.5F7000S0
X-1F1500S1000
X-7.2F7000S0
X-.6F1500S1000
X-16.3F7000S0
X-.6F1500S1000
X-4.2F7000S0
X-1.1F1500S1000
X-7.7F7000S0
X-2F1500S1000
X-.625F7000S0
X.2Y.1
X.625
X2F1500S1000
X7.5F7000S0
X1F1500S1000
X4.3F7000S0
X.6F1500S1000
X16.3F7000S0
X.7F1500S1000
X7F7000S0
X1.1F1500S1000
X29.7F7000S0
X1.9F1500S1000
X7.5F7000S0
X1F1500S1000
X4.2F7000S0
X.7F1500S1000
X16.3F7000S0
X.6F1500S1000
X7.1F7000S0
X1.1F1500S1000
X29.7F7000S0
X1.9F1500S1000
X7.5F7000S0
X1F1500S1000
X4.2F7000S0
X.7F1500S1000
X16.3F7000S0
X.7F1500S1000
X7.1F7000S0
X1F1500S1000
X29.6F7000S0
X2F1500S1000
X7.5F7000S0
X1F1500S1000
X4.3F7000S0
X.6F1500S1000
X16.3F7000S0
X.7F1500S1000
X7.1F7000S0
X1F1500S1000
X.625F7000S0
Y.1
X-.625
X-1.1F1500S1000
X-6.9F7000S0
X-.7F1500S1000
X-16.4F7000S0
X-.7F1500S1000
X-4.2F7000S0
X-1F1500S1000
X-7.3F7000S0
X-2F1500S1000
X-29.8F7000S0
X-1.1F1500S1000
X-7F7000S0
X-.6F1500S1000
X-16.5F7000S0
X-.6F1500S1000
X-4.2F7000S0
X-1.1F1500S1000
X-7.2F7000S0
X-2F1500S1000
X-29.8F7000S0
X-1.1F1500S1000
X-6.9F7000S0
X-.7F1500S1000
X-16.5F7000S0
X-.6F1500S1000
X-4.2F7000S0
X-1F1500S1000
X-7.3F7000S0
X-2F1500S1000
X-29.9F7000S0
X-1F1500S1000
X-7F7000S0
X-.6F1500S1000
X-16.5F7000S0
X-.6F1500S1000
X-4.2F7000S0
X-1.1F1500S1000
X-7.2F7000S0
X-2F1500S1000
X-.625F7000S0
X.2Y.1
X.625
X2F1500S1000
X6.9F7000S0
X1.2F1500S1000
X4.1F7000S0
X.6F1500S1000
X16.6F7000S0
X.7F1500S1000
X6.9F7000S0
X1F1500S1000
X30.1F7000S0
X2F1500S1000
X6.9F7000S0
X1.1F1500S1000
X4.2F7000S0
X.6F1500S1000
X16.7F7000S0
X.6F1500S1000
X6.9F7000S0
X1F1500S1000
X30.1F7000S0
X2F1500S1000
X7F7000S0
X1F1500S1000
X4.2F7000S0
X.7F1500S1000
X16.5F7000S0
X.7F1500S1000
X6.8F7000S0
X1.1F1500S1000
X30.1F7000S0
X2.1F1500S1000
X6.9F7000S0
X1.1F1500S1000
X4.1F7000S0
X.6F1500S1000
X16.7F7000S0
X.6F1500S1000
X6.9F7000S0
X1F1500S1000
X.625F7000S0
Y.1
X-.625
X-1.1F1500S1000
X-6.7F7000S0
X-.7F1500S1000
X-16.7F7000S0
X-.7F1500S1000
X-4F7000S0
X-1.2F1500S1000
X-6.8F7000S0
X-2F1500S1000
X-30.2F7000S0
X-1.1F1500S1000
X-6.8F7000S0
X-.6F1500S1000
X-16.7F7000S0
X-.6F1500S1000
X-4.2F7000S0
X-1.1F1500S1000
X-6.7F7000S0
X-2.1F1500S1000
X-30.2F7000S0
X-1.1F1500S1000
X-6.7F7000S0
X-.7F1500S1000
X-16.7F7000S0
X-.6F1500S1000
X-4.2F7000S0
X-1.1F1500S1000
X-6.8F7000S0
X-2F1500S1000
X-30.2F7000S0
X-1.1F1500S1000
X-6.7F7000S0
X-.7F1500S1000
X-16.7F7000S0
X-.7F1500S1000
X-4.1F7000S0
X-1F1500S1000
X-6.9F7000S0
X-2F1500S1000
X-.625F7000S0
X.2Y.1
X.625
X2F1500S1000
X6.6F7000S0
X1.1F1500S1000
X4.1F7000S0
X.6F1500S1000
X16.8F7000S0
X.9F1500S1000
X6.4F7000S0
X1.1F1500S1000
X30.5F7000S0
X2F1500S1000
X6.5F7000S0
X1.2F1500S1000
X4.1F7000S0
X.7F1500S1000
X16.8F7000S0
X.7F1500S1000
X6.6F7000S0
X1.1F1500S1000
X30.4F7000S0
X2.1F1500S1000
X6.5F7000S0
X1.1F1500S1000
X4.1F7000S0
X.6F1500S1000
X16.9F7000S0
X.8F1500S1000
X6.4F7000S0
X1.2F1500S1000
X30.4F7000S0
X2F1500S1000
X6.6F7000S0
X1.1F1500S1000
X4.1F7000S0
X.6F1500S1000
X16.9F7000S0
X.8F1500S1000
X6.4F7000S0
X1.2F1500S1000
X.625F7000S0
X-.1Y.1
X-.625
X-1.1F1500S1000
X-6.4F7000S0
X-.8F1500S1000
X-16.8F7000S0
X-.8F1500S1000
X-4F7000S0
X-1.1F1500S1000
X-6.4F7000S0
X-2F1500S1000
X-30.7F7000S0
X-1.1F1500S1000
X-6.3F7000S0
X-.9F1500S1000
X-16.9F7000S0
X-.6F1500S1000
X-4.2F7000S0
X-1.1F1500S1000
X-6.3F7000S0
X-2.1F1500S1000
X-30.6F7000S0
X-1.1F1500S1000
X-6.4F7000S0
X-.8F1500S1000
X-16.9F7000S0
X-.7F1500S1000
X-4.1F7000S0
X-1.1F1500S1000
X-6.3F7000S0
X-2.1F1500S1000
X-30.6F7000S0
X-1.2F1500S1000
X-6.2F7000S0
X-.9F1500S1000
X-16.9F7000S0
X-.7F1500S1000
X-4.1F7000S0
X-1.1F1500S1000
X-6.4F7000S0
X-1.9F1500S1000
X-.625F7000S0
X.2Y.1
X.625
X2F1500S1000
X6F7000S0
X1.2F1500S1000
X4.1F7000S0
X.7F1500S1000
X17F7000S0
X.9F1500S1000
X6.1F7000S0
X1.1F1500S1000
X30.9F7000S0
X2.1F1500S1000
X6F7000S0
X1.2F1500S1000
X4.1F7000S0
X.6F1500S1000
X17.1F7000S0
X1F1500S1000
X6F7000S0
X1.2F1500S1000
X30.9F7000S0
X2F1500S1000
X6F7000S0
X1.2F1500S1000
X4.1F7000S0
X.6F1500S1000
X17.1F7000S0
X1F1500S1000
X6F7000S0
X1.1F1500S1000
X31F7000S0
X2F1500S1000
X6.1F7000S0
X1.1F1500S1000
X4.1F7000S0
X.7F1500S1000
X17F7000S0
X1F1500S1000
X6F7000S0
X1.2F1500S1000
X.625F7000S0
X-.1Y.1
X-.625
X-1.1F1500S1000
X-5.8F7000S0
X-1.1F1500S1000
X-17.2F7000S0
X-.6F1500S1000
X-4.2F7000S0
X-1.2F1500S1000
X-5.7F7000S0
X-2.1F1500S1000
X-31.1F7000S0
X-1.2F1500S1000
X-5.7F7000S0
X-1.1F1500S1000
X-17.2F7000S0
X-.7F1500S1000
X-4.1F7000S0
X-1.2F1500S1000
X-5.7F7000S0
X-2.1F1500S1000
X-31.1F7000S0
X-1.2F1500S1000
X-5.7F7000S0
X-1.2F1500S1000
X-17.1F7000S0
X-.7F1500S1000
X-4.1F7000S0
X-1.2F1500S1000
X-5.7F7000S0
X-2.1F1500S1000
X-31.1F7000S0
X-1.2F1500S1000
X-5.7F7000S0
X-1.2F1500S1000
X-17.1F7000S0
X-.7F1500S1000
X-4.1F7000S0
X-1.2F1500S1000
X-5.7F7000S0
X-2.2F1500S1000
X-.625F7000S0
X.3Y.1
X.625
X2.1F1500S1000
X5.4F7000S0
X1.2F1500S1000
X4.2F7000S0
X.6F1500S1000
X17.3F7000S0
X1.3F1500S1000
X5.4F7000S0
X1.2F1500S1000
X31.4F7000S0
X2.1F1500S1000
X5.4F7000S0
X1.3F1500S1000
X4.1F7000S0
X.6F1500S1000
X17.3F7000S0
X1.3F1500S1000
X5.5F7000S0
X1.1F1500S1000
X31.4F7000S0
X2.1F1500S1000
X5.4F7000S0
X1.3F1500S1000
X4.1F7000S0
X.6F1500S1000
X17.3F7000S0
X1.3F1500S1000
X5.4F7000S0
X1.2F1500S1000
X31.4F7000S0
X2.2F1500S1000
X5.4F7000S0
X1.2F1500S1000
X4.1F7000S0
X.6F1500S1000
X17.3F7000S0
X1.3F1500S1000
X5.5F7000S0
X1.2F1500S1000
X.625F7000S0
X-.1Y.1
X-.625
X-1.2F1500S1000
X-5.2F7000S0
X-1.4F1500S1000
X-17.4F7000S0
X-.7F1500S1000
X-4.1F7000S0
X-1.3F1500S1000
X-5.1F7000S0
X-2.1F1500S1000
X-31.6F7000S0
X-1.3F1500S1000
X-5.1F7000S0
X-1.4F1500S1000
X-17.5F7000S0
X-.6F1500S1000
X-4.1F7000S0
X-1.2F1500S1000
X-5.2F7000S0
X-2.1F1500S1000
X-31.7F7000S0
X-1.2F1500S1000
X-5.1F7000S0
X-1.5F1500S1000
X-17.4F7000S0
X-.6F1500S1000
X-4.1F7000S0
X-1.3F1500S1000
X-5.1F7000S0
X-2.1F1500S1000
X-31.6F7000S0
X-1.3F1500S1000
X-5.1F7000S0
X-1.4F1500S1000
X-17.5F7000S0
X-.6F1500S1000
X-4.1F7000S0
X-1.2F1500S1000
X-5.2F7000S0
X-2.1F1500S1000
X-.625F7000S0
X.1Y.1
X.625
X2.1F1500S1000
X5F7000S0
X1.2F1500S1000
X4.2F7000S0
X.6F1500S1000
X17.5F7000S0
X1.6F1500S1000
X4.8F7000S0
X1.3F1500S1000
X31.8F7000S0
X2.2F1500S1000
X4.8F7000S0
X1.4F1500S1000
X4.1F7000S0
X.6F1500S1000
X17.5F7000S0
X1.5F1500S1000
X5F7000S0
X1.2F1500S1000
X31.8F7000S0
X2.2F1500S1000
X4.9F7000S0
X1.3F1500S1000
X4F7000S0
X.7F1500S1000
X17.5F7000S0
X1.6F1500S1000
X4.8F7000S0
X1.3F1500S1000
X31.8F7000S0
X2.2F1500S1000
X4.9F7000S0
X1.3F1500S1000
X4.1F7000S0
X.6F1500S1000
X17.5F7000S0
X1.6F1500S1000
X4.9F7000S0
X1.3F1500S1000
X.625F7000S0
X-.1Y.1
X-.625
X-1.3F1500S1000
X-4.6F7000S0
X-1.7F1500S1000
X-17.6F7000S0
X-.7F1500S1000
X-4.1F7000S0
X-1.3F1500S1000
X-4.6F7000S0
X-2.2F1500S1000
X-32.1F7000S0
X-1.3F1500S1000
X-4.5F7000S0
X-1.7F1500S1000
X-17.7F7000S0
X-.6F1500S1000
X-4.1F7000S0
X-1.3F1500S1000
X-4.6F7000S0
X-2.2F1500S1000
X-32F7000S0
X-1.3F1500S1000
X-4.7F7000S0
X-1.7F1500S1000
X-17.5F7000S0
X-.7F1500S1000
X-4.1F7000S0
X-1.4F1500S1000
X-4.5F7000S0
X-2.2F1500S1000
X-32.1F7000S0
X-1.2F1500S1000
X-4.6F7000S0
X-1.8F1500S1000
X-17.5F7000S0
X-.7F1500S1000
X-4.1F7000S0
X-1.3F1500S1000
X-4.6F7000S0
X-2.2F1500S1000
X-.625F7000S0
X.2Y.1
X.625
X2.2F1500S1000
X4.3F7000S0
X1.3F1500S1000
X4.2F7000S0
X.6F1500S1000
X17.7F7000S0
X1.8F1500S1000
X4.3F7000S0
X1.4F1500S1000
X32.3F7000S0
X2.2F1500S1000
X4.2F7000S0
X1.4F1500S1000
X4.1F7000S0
X.7F1500S1000
X17.7F7000S0
X1.8F1500S1000
X.1F7000S0
X.1F1500S1000
X4.2F7000S0
X1.3F1500S1000
X32.3F7000S0
X2.2F1500S1000
X4.3F7000S0
X1.3F1500S1000
X4.2F7000S0
X.5F1500S1000
X17.8F7000S0
X1.8F1500S1000
X4.3F7000S0
X1.4F1500S1000
X32.3F7000S0
X2.2F1500S1000
X4.3F7000S0
X1.3F1500S1000
X4.2F7000S0
X.6F1500S1000
X17.8F7000S0
X1.7F1500S1000
X4.4F7000S0
X1.3F1500S1000
X.625F7000S0
X-.1Y.1
X-.625
X-1.4F1500S1000
X-3.8F7000S0
X-2.1F1500S1000
X-17.7F7000S0
X-.1F1500S1000
X-.1F7000S0
X-.6F1500S1000
X-4.2F7000S0
X-1.4F1500S1000
X-3.8F7000S0
X-2.3F1500S1000
X-32.6F7000S0
X-1.4F1500S1000
X-3.9F7000S0
X-2F1500S1000
X-17.9F7000S0
X-.6F1500S1000
X-4.2F7000S0
X-1.4F1500S1000
X-3.8F7000S0
X-2.3F1500S1000
X-32.6F7000S0
X-1.4F1500S1000
X-3.8F7000S0
X-2.1F1500S1000
X-17.9F7000S0
X-.6F1500S1000
X-4.2F7000S0
X-1.4F1500S1000
X-3.9F7000S0
X-2.2F1500S1000
X-32.6F7000S0
X-1.4F1500S1000
X-3.9F7000S0
X-2F1500S1000
X-17.9F7000S0
X-.6F1500S1000
X-4.2F7000S0
X-1.4F1500S1000
X-3.8F7000S0
X-2.3F1500S1000
X-.625F7000S0
X.2Y.1
X.625
X2.2F1500S1000
X3.6F7000S0
X1.4F1500S1000
X4.2F7000S0
X.6F1500S1000
X18F7000S0
X2.3F1500S1000
X3.4F7000S0
X1.5F1500S1000
X32.9F7000S0
X2.2F1500S1000
X3.6F7000S0
X1.4F1500S1000
X4.2F7000S0
X.7F1500S1000
X18F7000S0
X2.1F1500S1000
X3.6F7000S0
X1.4F1500S1000
X32.9F7000S0
X2.3F1500S1000
X3.5F7000S0
X1.4F1500S1000
X4.3F7000S0
X.6F1500S1000
X17.9F7000S0
X2.3F1500S1000
X3.4F7000S0
X1.5F1500S1000
X32.9F7000S0
X2.3F1500S1000
X3.6F7000S0
X1.3F1500S1000
X4.2F7000S0
X.6F1500S1000
X18.1F7000S0
X2.2F1500S1000
X3.5F7000S0
X1.4F1500S1000
X.625F7000S0
Y.1
X-.625
X-1.6F1500S1000
X-3F7000S0
X-2.5F1500S1000
X-18.1F7000S0
X-.6F1500S1000
X-4.2F7000S0
X-1.6F1500S1000
X-3.1F7000S0
X-2.3F1500S1000
X-33.1F7000S0
X-1.6F1500S1000
X-3.1F7000S0
X-2.4F1500S1000
X-18.1F7000S0
X-.6F1500S1000
X-4.2F7000S0
X-1.6F1500S1000
X-3F7000S0
X-2.4F1500S1000
X-33.2F7000S0
X-1.5F1500S1000
X-3.1F7000S0
X-2.4F1500S1000
X-18.1F7000S0
X-.6F1500S1000
X-4.2F7000S0
X-1.6F1500S1000
X-3.1F7000S0
X-2.3F1500S1000
X-33.2F7000S0
X-1.5F1500S1000
X-3F7000S0
X-2.5F1500S1000
X-18.1F7000S0
X-.7F1500S1000
X-4.2F7000S0
X-1.5F1500S1000
X-3.1F7000S0
X-2.3F1500S1000
X-.625F7000S0
X.1Y.1
X.625
X2.3F1500S1000
X2.9F7000S0
X1.6F1500S1000
X4.3F7000S0
X.5F1500S1000
X18.2F7000S0
X2.5F1500S1000
X2.9F7000S0
X1.6F1500S1000
X33.3F7000S0
X2.4F1500S1000
X2.8F7000S0
X1.6F1500S1000
X4.2F7000S0
X.7F1500S1000
X18.1F7000S0
X2.6F1500S1000
X2.8F7000S0
X1.5F1500S1000
X33.5F7000S0
X2.2F1500S1000
X2.8F7000S0
X1.7F1500S1000
X4.2F7000S0
X.7F1500S1000
X18.1F7000S0
X2.6F1500S1000
X2.8F7000S0
X1.6F1500S1000
X33.3F7000S0
X2.4F1500S1000
X2.8F7000S0
X1.6F1500S1000
X4.2F7000S0
X.7F1500S1000
X18.2F7000S0
X2.5F1500S1000
X2.8F7000S0
X1.6F1500S1000
X.625F7000S0
X-.1Y.1
X-.625
X-1.8F1500S1000
X-2.2F7000S0
X-2.8F1500S1000
X-18.2F7000S0
X-.7F1500S1000
X-4.3F7000S0
X-1.8F1500S1000
X-2.2F7000S0
X-2.5F1500S1000
X-33.6F7000S0
X-1.7F1500S1000
X-2.4F7000S0
X-2.7F1500S1000
X-18.3F7000S0
X-.6F1500S1000
X-4.3F7000S0
X-1.8F1500S1000
X-2.3F7000S0
X-2.4F1500S1000
X-33.6F7000S0
X-1.8F1500S1000
X-2.2F7000S0
X-2.8F1500S1000
X-18.3F7000S0
X-.7F1500S1000
X-4.2F7000S0
X-1.8F1500S1000
X-2.3F7000S0
X-2.4F1500S1000
X-33.6F7000S0
X-1.8F1500S1000
X-2.2F7000S0
X-2.8F1500S1000
X-18.3F7000S0
X-.6F1500S1000
X-4.3F7000S0
X-1.8F1500S1000
X-2.2F7000S0
X-2.5F1500S1000
X-.625F7000S0
X.3Y.1
X.625
X2.6F1500S1000
X1.4F7000S0
X2.1F1500S1000
X4.3F7000S0
X.6F1500S1000
X18.5F7000S0
X3.1F1500S1000
X1.4F7000S0
X.1F1500S1000
X.1F7000S0
X1.8F1500S1000
X34.1F7000S0
X2.6F1500S1000
X1.4F7000S0
X2F1500S1000
X4.4F7000S0
X.6F1500S1000
X18.5F7000S0
X3.1F1500S1000
X1.4F7000S0
X.1F1500S1000
X.1F7000S0
X1.8F1500S1000
X34F7000S0
X2.7F1500S1000
X1.4F7000S0
X.1F1500S1000
X.1F7000S0
X1.9F1500S1000
X4.3F7000S0
X.6F1500S1000
X18.5F7000S0
X3.1F1500S1000
X1.4F7000S0
X.1F1500S1000
X.1F7000S0
X1.9F1500S1000
X34F7000S0
X2.6F1500S1000
X1.4F7000S0
X.1F1500S1000
X.1F7000S0
X1.9F1500S1000
X4.3F7000S0
X.6F1500S1000
X18.5F7000S0
X3.2F1500S1000
X1.3F7000S0
X.1F1500S1000
X.1F7000S0
X1.9F1500S1000
X.625F7000S0
X-.2Y.1
X-.625
X-6.4F1500S1000
X-18.5F7000S0
X-.6F1500S1000
X-4.5F7000S0
X-5.7F1500S1000
X-34.4F7000S0
X-1.9F1500S1000
X-.1F7000S0
X-4.4F1500S1000
X-18.5F7000S0
X-.7F1500S1000
X-4.4F7000S0
X-5.7F1500S1000
X-34.4F7000S0
X-2.2F1500S1000
X-.1F7000S0
X-4.1F1500S1000
X-18.6F7000S0
X-.5F1500S1000
X-4.5F7000S0
X-5.8F1500S1000
X-34.3F7000S0
X-6.4F1500S1000
X-18.5F7000S0
X-.7F1500S1000
X-4.4F7000S0
X-5.7F1500S1000
X-.625F7000S0
X.2Y.1
X.625
X5.4F1500S1000
X4.5F7000S0
X.6F1500S1000
X18.7F7000S0
X.6F1500S1000
X.2F7000S0
X5.5F1500S1000
X34.6F7000S0
X5.4F1500S1000
X4.5F7000S0
X.6F1500S1000
X18.7F7000S0
X.6F1500S1000
X.2F7000S0
X5.4F1500S1000
X34.7F7000S0
X5.4F1500S1000
X4.5F7000S0
X.6F1500S1000
X18.7F7000S0
X.7F1500S1000
X.1F7000S0
X5.5F1500S1000
X34.6F7000S0
X5.4F1500S1000
X4.5F7000S0
X.6F1500S1000
X18.7F7000S0
X.6F1500S1000
X.3F7000S0
X5.4F1500S1000
X.625F7000S0
X-.2Y.1
X-.625
X-5.1F1500S1000
X-.3F7000S0
X-.7F1500S1000
X-18.7F7000S0
X-.7F1500S1000
X-4.5F7000S0
X-5.1F1500S1000
X-35F7000S0
X-5.1F1500S1000
X-.3F7000S0
X-.6F1500S1000
X-18.9F7000S0
X-.6F1500S1000
X-4.5F7000S0
X-5.1F1500S1000
X-35F7000S0
X-5.2F1500S1000
X-.2F7000S0
X-.7F1500S1000
X-18.7F7000S0
X-.6F1500S1000
X-4.6F7000S0
X-5.1F1500S1000
X-35F7000S0
X-5.1F1500S1000
X-.4F7000S0
X-.6F1500S1000
X-18.8F7000S0
X-.6F1500S1000
X-4.5F7000S0
X-5.2F1500S1000
X-.625F7000S0
X.3Y.1
X.625
X4.7F1500S1000
X4.7F7000S0
X.6F1500S1000
X18.8F7000S0
X.7F1500S1000
X.4F7000S0
X4.9F1500S1000
X35.3F7000S0
X4.8F1500S1000
X4.6F7000S0
X.7F1500S1000
X18.8F7000S0
X.6F1500S1000
X.5F7000S0
X4.8F1500S1000
X35.3F7000S0
X4.8F1500S1000
X4.6F7000S0
X.6F1500S1000
X18.9F7000S0
X.7F1500S1000
X.4F7000S0
X4.8F1500S1000
X35.3F7000S0
X4.8F1500S1000
X4.6F7000S0
X.6F1500S1000
X18.9F7000S0
X.6F1500S1000
X.5F7000S0
X4.8F1500S1000
X.625F7000S0
X-.1Y.1
X-.625
X-4.5F1500S1000
X-.5F7000S0
X-.7F1500S1000
X-18.9F7000S0
X-.8F1500S1000
X-4.7F7000S0
X-4.3F1500S1000
X-35.8F7000S0
X-4.4F1500S1000
X-.6F7000S0
X-.7F1500S1000
X-18.9F7000S0
X-.7F1500S1000
X-4.6F7000S0
X-4.5F1500S1000
X-35.7F7000S0
X-4.4F1500S1000
X-.6F7000S0
X-.7F1500S1000
X-18.9F7000S0
X-.7F1500S1000
X-4.7F7000S0
X-4.4F1500S1000
X-35.7F7000S0
X-4.5F1500S1000
X-.5F7000S0
X-.6F1500S1000
X-19F7000S0
X-.7F1500S1000
X-4.7F7000S0
X-4.3F1500S1000
X-.625F7000S0
X.2Y.1
X.625
X3.9F1500S1000
X4.8F7000S0
X.7F1500S1000
X19.1F7000S0
X.6F1500S1000
X.8F7000S0
X4F1500S1000
X36.2F7000S0
X.1F1500S1000
X.1F7000S0
X3.8F1500S1000
X4.7F7000S0
X.6F1500S1000
X19.2F7000S0
X.7F1500S1000
X.8F7000S0
X4F1500S1000
X36.1F7000S0
X.1F1500S1000
X.1F7000S0
X3.7F1500S1000
X4.9F7000S0
X.6F1500S1000
X19.1F7000S0
X.6F1500S1000
X.7F7000S0
X4.1F1500S1000
X36.2F7000S0
X4F1500S1000
X4.8F7000S0
X.6F1500S1000
X19.2F7000S0
X.6F1500S1000
X.8F7000S0
X4F1500S1000
X.625F7000S0
X-.2Y.1
X-.625
X-3.5F1500S1000
X-1.1F7000S0
X-.6F1500S1000
X-19.3F7000S0
X-.6F1500S1000
X-4.9F7000S0
X-3.5F1500S1000
X-36.7F7000S0
X-3.5F1500S1000
X-1F7000S0
X-.6F1500S1000
X-19.2F7000S0
X-.7F1500S1000
X-4.9F7000S0
X-3.5F1500S1000
X-36.6F7000S0
X-3.6F1500S1000
X-1F7000S0
X-.6F1500S1000
X-19.3F7000S0
X-.6F1500S1000
X-5F7000S0
X-3.4F1500S1000
X-36.6F7000S0
X-3.6F1500S1000
X-1F7000S0
X-.6F1500S1000
X-19.3F7000S0
X-.6F1500S1000
X-4.9F7000S0
X-3.5F1500S1000
X-.625F7000S0
X.3Y.1
X.625
X2.9F1500S1000
X5.1F7000S0
X.7F1500S1000
X19.3F7000S0
X.7F1500S1000
X1.1F7000S0
X3.1F1500S1000
X37.2F7000S0
X3F1500S1000
X5F7000S0
X.7F1500S1000
X19.3F7000S0
X.6F1500S1000
X1.3F7000S0
X3F1500S1000
X37.1F7000S0
X3F1500S1000
X5.2F7000S0
X.6F1500S1000
X19.3F7000S0
X.8F1500S1000
X1.1F7000S0
X3.1F1500S1000
X37.1F7000S0
X3F1500S1000
X5.1F7000S0
X.6F1500S1000
X19.4F7000S0
X.6F1500S1000
X1.2F7000S0
X3F1500S1000
X.625F7000S0
X-.2Y.1
X-.625
X-2.5F1500S1000
X-1.5F7000S0
X-.6F1500S1000
X-19.5F7000S0
X-.6F1500S1000
X-5.3F7000S0
X-2.4F1500S1000
X-37.7F7000S0
X-2.6F1500S1000
X-1.4F7000S0
X-.6F1500S1000
X-19.5F7000S0
X-.6F1500S1000
X-5.3F7000S0
X-2.4F1500S1000
X-37.8F7000S0
X-2.4F1500S1000
X-1.5F7000S0
X-.6F1500S1000
X-19.5F7000S0
X-.6F1500S1000
X-5.3F7000S0
X-2.4F1500S1000
X-37.7F7000S0
X-2.6F1500S1000
X-1.4F7000S0
X-.6F1500S1000
X-19.5F7000S0
X-.6F1500S1000
X-5.4F7000S0
X-2.3F1500S1000
X-.625F7000S0
X.2Y.1
X.625
X1.9F1500S1000
X5.5F7000S0
X.7F1500S1000
X19.5F7000S0
X.7F1500S1000
X1.6F7000S0
X1.5F1500S1000
X.1F7000S0
X.4F1500S1000
X38.3F7000S0
X1.8F1500S1000
X5.5F7000S0
X.6F1500S1000
X19.6F7000S0
X.6F1500S1000
X1.7F7000S0
X2F1500S1000
X38.2F7000S0
X2F1500S1000
X5.4F7000S0
X.7F1500S1000
X19.5F7000S0
X.7F1500S1000
X1.6F7000S0
X2F1500S1000
X38.2F7000S0
X1.9F1500S1000
X5.5F7000S0
X.7F1500S1000
X19.5F7000S0
X.7F1500S1000
X1.7F7000S0
X1.5F1500S1000
X.1F7000S0
X.4F1500S1000
X.625F7000S0
X-.8Y.1
X-.625
X-.1F1500S1000
X-.2F7000S0
X-.1F1500S1000
X-.1F7000S0
X-.1F1500S1000
X-.1F7000S0
X-.1F1500S1000
X-2F7000S0
X-.7F1500S1000
X-19.6F7000S0
X-.7F1500S1000
X-5.8F7000S0
X-.1F1500S1000
X-.2F7000S0
X-.1F1500S1000
X-.2F7000S0
X-.1F1500S1000
X-.1F7000S0
X-.2F1500S1000
X-39.7F7000S0
X-.1F1500S1000
X-.1F7000S0
X-.1F1500S1000
X-.1F7000S0
X-.2F1500S1000
X-2.1F7000S0
X-.6F1500S1000
X-19.7F7000S0
X-.6F1500S1000
X-5.8F7000S0
X-.1F1500S1000
X-.2F7000S0
X-.1F1500S1000
X-.2F7000S0
X-.1F1500S1000
X-.1F7000S0
X-.1F1500S1000
X-.1F7000S0
X-.1F1500S1000
X-39.5F7000S0
X-.1F1500S1000
X-.1F7000S0
X-.1F1500S1000
X-.1F7000S0
X-.1F1500S1000
X-.1F7000S0
X-.1F1500S1000
X-2F7000S0
X-.7F1500S1000
X-19.7F7000S0
X-.6F1500S1000
X-5.9F7000S0
X-.1F1500S1000
X-.2F7000S0
X-.1F1500S1000
X-.2F7000S0
X-.1F1500S1000
X-.1F7000S0
X-.1F1500S1000
X-39.5F7000S0
X-.1F1500S1000
X-.2F7000S0
X-.1F1500S1000
X-.1F7000S0
X-.2F1500S1000
X-.1F7000S0
X-.1F1500S1000
X-2F7000S0
X-.6F1500S1000
X-19.7F7000S0
X-.7F1500S1000
X-5.7F7000S0
X-.1F1500S1000
X-.2F7000S0
X-.1F1500S1000
X-.2F7000S0
X-.1F1500S1000
X-.1F7000S0
X-.1F1500S1000
X-.1F7000S0
X-.1F1500S1000
X-.625F7000S0
X6.8Y.1
X.625
X.6F1500S1000
X19.8F7000S0
X.6F1500S1000
X49.1F7000S0
X.6F1500S1000
X19.9F7000S0
X.6F1500S1000
X49F7000S0
X.7F1500S1000
X19.8F7000S0
X.6F1500S1000
X49F7000S0
X.6F1500S1000
X19.9F7000S0
X.6F1500S1000
X.625F7000S0
Y.1
X-.625
X-.6F1500S1000
X-19.9F7000S0
X-.6F1500S1000
X-49F7000S0
X-.6F1500S1000
X-19.9F7000S0
X-.6F1500S1000
X-48.9F7000S0
X-.7F1500S1000
X-19.9F7000S0
X-.6F1500S1000
X-49F7000S0
X-.6F1500S1000
X-19.9F7000S0
X-.7F1500S1000
X-.625F7000S0
Y.1
X.625
X.6F1500S1000
X20F7000S0
X.7F1500S1000
X48.8F7000S0
X.7F1500S1000
X20F7000S0
X.6F1500S1000
X48.8F7000S0
X.6F1500S1000
X20.1F7000S0
X.7F1500S1000
X48.7F7000S0
X.6F1500S1000
X20.1F7000S0
X.6F1500S1000
X.625F7000S0
X.1Y.1
X-.625
X-.7F1500S1000
X-20F7000S0
X-.8F1500S1000
X-48.7F7000S0
X-.6F1500S1000
X-20.1F7000S0
X-.7F1500S1000
X-48.6F7000S0
X-.7F1500S1000
X-20.1F7000S0
X-.7F1500S1000
X-48.6F7000S0
X-.7F1500S1000
X-20.2F7000S0
X-.6F1500S1000
X-.625F7000S0
Y.1
X.625
X.6F1500S1000
X20.3F7000S0
X.6F1500S1000
X48.6F7000S0
X.6F1500S1000
X20.3F7000S0
X.6F1500S1000
X48.6F7000S0
X.6F1500S1000
X20.3F7000S0
X.6F1500S1000
X48.6F7000S0
X.6F1500S1000
X20.3F7000S0
X.6F1500S1000
X.625F7000S0
X.1Y.1
X-.625
X-.6F1500S1000
X-20.3F7000S0
X-.8F1500S1000
X-48.4F7000S0
X-.7F1500S1000
X-20.3F7000S0
X-.7F1500S1000
X-48.4F7000S0
X-.7F1500S1000
X-20.3F7000S0
X-.7F1500S1000
X-48.4F7000S0
X-.7F1500S1000
X-20.3F7000S0
X-.7F1500S1000
X-.625F7000S0
Y.1
X.625
X.6F1500S1000
X20.5F7000S0
X.7F1500S1000
X48.3F7000S0
X.5F1500S1000
X20.6F7000S0
X.6F1500S1000
X48.4F7000S0
X.6F1500S1000
X20.5F7000S0
X.6F1500S1000
X48.4F7000S0
X.6F1500S1000
X20.5F7000S0
X.7F1500S1000
X.625F7000S0
Y.1
X-.625
X-.6F1500S1000
X-20.7F7000S0
X-.5F1500S1000
X-48.3F7000S0
X-.6F1500S1000
X-20.7F7000S0
X-.6F1500S1000
X-48.3F7000S0
X-.6F1500S1000
X-20.6F7000S0
X-.6F1500S1000
X-48.2F7000S0
X-.6F1500S1000
X-20.7F7000S0
X-.6F1500S1000
X-.625F7000S0
Y.1
X.625
X.6F1500S1000
X20.7F7000S0
X.6F1500S1000
X48.1F7000S0
X.7F1500S1000
X20.7F7000S0
X.6F1500S1000
X48.1F7000S0
X.7F1500S1000
X20.7F7000S0
X.8F1500S1000
X48F7000S0
X.6F1500S1000
X20.8F7000S0
X.5F1500S1000
X.625F7000S0
X.1Y.1
X-.625
X-.6F1500S1000
X-20.8F7000S0
X-.7F1500S1000
X-48F7000S0
X-.6F1500S1000
X-20.9F7000S0
X-.6F1500S1000
X-48F7000S0
X-.7F1500S1000
X-20.8F7000S0
X-.6F1500S1000
X-48F7000S0
X-.6F1500S1000
X-20.9F7000S0
X-.6F1500S1000
X-.625F7000S0
X-.1Y.1
X.625
X.7F1500S1000
X20.9F7000S0
X.7F1500S1000
X47.8F7000S0
X.7F1500S1000
X20.9F7000S0
X.6F1500S1000
X47.9F7000S0
X.7F1500S1000
X20.9F7000S0
X.7F1500S1000
X47.9F7000S0
X.6F1500S1000
X20.9F7000S0
X.7F1500S1000
X.625F7000S0
X.1Y.1
X-.625
X-.7F1500S1000
X-21.1F7000S0
X-.6F1500S1000
X-47.8F7000S0
X-.6F1500S1000
X-21.1F7000S0
X-.6F1500S1000
X-47.7F7000S0
X-.7F1500S1000
X-21.1F7000S0
X-.6F1500S1000
X-47.8F7000S0
X-.6F1500S1000
X-21.1F7000S0
X-.6F1500S1000
X-.625F7000S0
X-.1Y.1
X.625
X.6F1500S1000
X21.2F7000S0
X.7F1500S1000
X47.6F7000S0
X.6F1500S1000
X21.3F7000S0
X.6F1500S1000
X47.6F7000S0
X.7F1500S1000
X21.2F7000S0
X.5F1500S1000
X47.7F7000S0
X.7F1500S1000
X21.2F7000S0
X.6F1500S1000
X.625F7000S0
X.1Y.1
X-.625
X-.7F1500S1000
X-21.3F7000S0
X-.7F1500S1000
X-47.5F7000S0
X-.6F1500S1000
X-21.3F7000S0
X-.6F1500S1000
X-47.5F7000S0
X-.7F1500S1000
X-21.3F7000S0
X-.6F1500S1000
X-47.6F7000S0
X-.6F1500S1000
X-21.3F7000S0
X-.7F1500S1000
X-.625F7000S0
Y.1
X.625
X.6F1500S1000
X21.4F7000S0
X.7F1500S1000
X47.4F7000S0
X.7F1500S1000
X21.4F7000S0
X.6F1500S1000
X47.4F7000S0
X.6F1500S1000
X21.4F7000S0
X.8F1500S1000
X47.3F7000S0
X.6F1500S1000
X21.5F7000S0
X.6F1500S1000
X.625F7000S0
X.1Y.1
X-.625
X-.7F1500S1000
X-21.4F7000S0
X-.7F1500S1000
X-47.4F7000S0
X-.6F1500S1000
X-21.5F7000S0
X-.6F1500S1000
X-47.4F7000S0
X-.6F1500S1000
X-21.5F7000S0
X-.7F1500S1000
X-47.2F7000S0
X-.7F1500S1000
X-21.5F7000S0
X-.6F1500S1000
X-.625F7000S0
X-.1Y.1
X.625
X.7F1500S1000
X21.6F7000S0
X.6F1500S1000
X47.2F7000S0
X.6F1500S1000
X21.7F7000S0
X.6F1500S1000
X47.2F7000S0
X.6F1500S1000
X21.7F7000S0
X.6F1500S1000
X47.2F7000S0
X.7F1500S1000
X21.6F7000S0
X.7F1500S1000
X.625F7000S0
Y.1
X-.625
X-.6F1500S1000
X-21.8F7000S0
X-.6F1500S1000
X-47.1F7000S0
X-.6F1500S1000
X-21.8F7000S0
X-.7F1500S1000
X-47F7000S0
X-.7F1500S1000
X-21.7F7000S0
X-.7F1500S1000
X-47F7000S0
X-.7F1500S1000
X-21.7F7000S0
X-.7F1500S1000
X-.625F7000S0
Y.1
X.625
X.6F1500S1000
X21.9F7000S0
X.6F1500S1000
X47F7000S0
X.6F1500S1000
X21.9F7000S0
X.6F1500S1000
X46.9F7000S0
X.7F1500S1000
X21.9F7000S0
X.7F1500S1000
X46.9F7000S0
X.6F1500S1000
X21.9F7000S0
X.6F1500S1000
X.625F7000S0
X.1Y.1
X-.625
X-.6F1500S1000
X-22F7000S0
X-.7F1500S1000
X-46.8F7000S0
X-.6F1500S1000
X-22.1F7000S0
X-.6F1500S1000
X-46.8F7000S0
X-.7F1500S1000
X-22F7000S0
X-.5F1500S1000
X-47F7000S0
X-.6F1500S1000
X-22F7000S0
X-.6F1500S1000
X-.625F7000S0
Y.1
X.625
X.6F1500S1000
X22.1F7000S0
X.6F1500S1000
X46.8F7000S0
X.6F1500S1000
X22.1F7000S0
X.6F1500S1000
X46.7F7000S0
X.7F1500S1000
X22.1F7000S0
X.7F1500S1000
X46.7F7000S0
X.6F1500S1000
X22.1F7000S0
X.6F1500S1000
X.625F7000S0
X.2Y.1
X-.625
X-.7F1500S1000
X-22.1F7000S0
X-.8F1500S1000
X-46.6F7000S0
X-.6F1500S1000
X-22.3F7000S0
X-.6F1500S1000
X-46.6F7000S0
X-.7F1500S1000
X-22.2F7000S0
X-.6F1500S1000
X-46.6F7000S0
X-.6F1500S1000
X-22.2F7000S0
X-.7F1500S1000
X-.625F7000S0
X-.1Y.1
X.625
X.7F1500S1000
X22.3F7000S0
X.6F1500S1000
X46.5F7000S0
X.7F1500S1000
X22.3F7000S0
X.6F1500S1000
X46.6F7000S0
X.5F1500S1000
X22.4F7000S0
X.6F1500S1000
X46.5F7000S0
X.7F1500S1000
X22.3F7000S0
X.7F1500S1000
X.625F7000S0
Y.1
X-.625
X-.6F1500S1000
X-22.4F7000S0
X-.7F1500S1000
X-46.4F7000S0
X-.6F1500S1000
X-22.4F7000S0
X-.7F1500S1000
X-46.4F7000S0
X-.6F1500S1000
X-22.5F7000S0
X-.6F1500S1000
X-46.4F7000S0
X-.6F1500S1000
X-22.5F7000S0
X-.6F1500S1000
X-.625F7000S0
X-.1Y.1
X.625
X.7F1500S1000
X22.5F7000S0
X.7F1500S1000
X46.2F7000S0
X.7F1500S1000
X22.6F7000S0
X.6F1500S1000
X46.3F7000S0
X.6F1500S1000
X22.5F7000S0
X.8F1500S1000
X46.1F7000S0
X.6F1500S1000
X22.7F7000S0
X.6F1500S1000
X.625F7000S0
X.1Y.1
X-.625
X-.7F1500S1000
X-22.7F7000S0
X-.6F1500S1000
X-46.2F7000S0
X-.6F1500S1000
X-22.7F7000S0
X-.6F1500S1000
X-46.2F7000S0
X-.6F1500S1000
X-22.7F7000S0
X-.6F1500S1000
X-46.2F7000S0
X-.6F1500S1000
X-22.7F7000S0
X-.7F1500S1000
X-.625F7000S0
Y.1
X.625
X.6F1500S1000
X22.8F7000S0
X.7F1500S1000
X46F7000S0
X.7F1500S1000
X22.7F7000S0
X.7F1500S1000
X46F7000S0
X.7F1500S1000
X22.7F7000S0
X.8F1500S1000
X45.9F7000S0
X.7F1500S1000
X22.8F7000S0
X.6F1500S1000
X.625F7000S0
X9.6Y.1
X-.625
X-.1F1500S1000
X-.2F7000S0
X-.1F1500S1000
X-9.1F7000S0
X-.7F1500S1000
X-22.8F7000S0
X-.7F1500S1000
X-36.4F7000S0
X-.1F1500S1000
X-.2F7000S0
X-.1F1500S1000
X-9.2F7000S0
X-.6F1500S1000
X-22.9F7000S0
X-.6F1500S1000
X-36.7F7000S0
X-.1F1500S1000
X-9.1F7000S0
X-.7F1500S1000
X-22.9F7000S0
X-.7F1500S1000
X-36.6F7000S0
X-.1F1500S1000
X-9.1F7000S0
X-.7F1500S1000
X-22.9F7000S0
X-.7F1500S1000
X-.625F7000S0
Y.1
X.625
X.6F1500S1000
X23.1F7000S0
X.5F1500S1000
X8.8F7000S0
X1.2F1500S1000
X35.9F7000S0
X.6F1500S1000
X23.1F7000S0
X.6F1500S1000
X8.7F7000S0
X1.2F1500S1000
X35.9F7000S0
X.6F1500S1000
X23.1F7000S0
X.6F1500S1000
X8.7F7000S0
X.2F1500S1000
X.1F7000S0
X.7F1500S1000
X.1F7000S0
X.1F1500S1000
X35.9F7000S0
X.6F1500S1000
X23.1F7000S0
X.6F1500S1000
X8.7F7000S0
X1.2F1500S1000
X.625F7000S0
X.6Y.1
X-.625
X-2.3F1500S1000
X-8.2F7000S0
X-.6F1500S1000
X-23.1F7000S0
X-.6F1500S1000
X-35.4F7000S0
X-2.2F1500S1000
X-8.1F7000S0
X-.7F1500S1000
X-23.1F7000S0
X-.7F1500S1000
X-35.3F7000S0
X-2.2F1500S1000
X-8.1F7000S0
X-.7F1500S1000
X-23.2F7000S0
X-.5F1500S1000
X-35.4F7000S0
X-2.2F1500S1000
X-8.2F7000S0
X-.6F1500S1000
X-23.1F7000S0
X-.7F1500S1000
X-.625F7000S0
Y.1
X.625
X.6F1500S1000
X23.2F7000S0
X.7F1500S1000
X7.7F7000S0
X2.8F1500S1000
X35.1F7000S0
X.7F1500S1000
X23.2F7000S0
X.6F1500S1000
X7.7F7000S0
X2.8F1500S1000
X35.1F7000S0
X.6F1500S1000
X23.3F7000S0
X.7F1500S1000
X7.7F7000S0
X2.8F1500S1000
X35F7000S0
X.6F1500S1000
X23.3F7000S0
X.6F1500S1000
X7.8F7000S0
X2.7F1500S1000
X.625F7000S0
X.3Y.1
X-.625
X-3.2F1500S1000
X-7.5F7000S0
X-.7F1500S1000
X-23.3F7000S0
X-.7F1500S1000
X-34.7F7000S0
X-3.3F1500S1000
X-7.4F7000S0
X-.6F1500S1000
X-23.4F7000S0
X-.7F1500S1000
X-34.7F7000S0
X-3.3F1500S1000
X-7.4F7000S0
X-.7F1500S1000
X-23.3F7000S0
X-.6F1500S1000
X-34.8F7000S0
X-3.3F1500S1000
X-7.5F7000S0
X-.6F1500S1000
X-23.4F7000S0
X-.6F1500S1000
X-.625F7000S0
Y.1
X.625
X.6F1500S1000
X23.5F7000S0
X.6F1500S1000
X7.2F7000S0
X3.7F1500S1000
X34.5F7000S0
X.6F1500S1000
X23.5F7000S0
X.6F1500S1000
X7.2F7000S0
X3.7F1500S1000
X34.5F7000S0
X.6F1500S1000
X23.5F7000S0
X.6F1500S1000
X7.2F7000S0
X3.7F1500S1000
X34.5F7000S0
X.6F1500S1000
X23.5F7000S0
X.6F1500S1000
X7.2F7000S0
X3.7F1500S1000
X.625F7000S0
X.3Y.1
X-.625
X-4.2F1500S1000
X-.1F7000S0
X-.1F1500S1000
X-6.6F7000S0
X-.7F1500S1000
X-23.5F7000S0
X-.8F1500S1000
X-34.2F7000S0
X-4.2F1500S1000
X-6.8F7000S0
X-.7F1500S1000
X-23.5F7000S0
X-.7F1500S1000
X-34.2F7000S0
X-4.3F1500S1000
X-6.7F7000S0
X-.7F1500S1000
X-23.6F7000S0
X-.6F1500S1000
X-34.2F7000S0
X-4.2F1500S1000
X-6.8F7000S0
X-.7F1500S1000
X-23.5F7000S0
X-.7F1500S1000
X-.625F7000S0
X-.1Y.1
X.625
X.7F1500S1000
X23.7F7000S0
X.6F1500S1000
X6.5F7000S0
X4.6F1500S1000
X34F7000S0
X.6F1500S1000
X23.8F7000S0
X.6F1500S1000
X6.5F7000S0
X4.6F1500S1000
X34.1F7000S0
X.6F1500S1000
X23.7F7000S0
X.6F1500S1000
X6.5F7000S0
X4.6F1500S1000
X34.1F7000S0
X.6F1500S1000
X23.8F7000S0
X.6F1500S1000
X6.4F7000S0
X4.7F1500S1000
X.625F7000S0
X.1Y.1
X-.625
X-4.9F1500S1000
X-6.3F7000S0
X-.6F1500S1000
X-23.9F7000S0
X-.6F1500S1000
X-33.8F7000S0
X-5F1500S1000
X-6.2F7000S0
X-.6F1500S1000
X-23.8F7000S0
X-.7F1500S1000
X-33.8F7000S0
X-5F1500S1000
X-6.2F7000S0
X-.6F1500S1000
X-23.9F7000S0
X-.6F1500S1000
X-33.8F7000S0
X-5F1500S1000
X-6.2F7000S0
X-.6F1500S1000
X-23.9F7000S0
X-.6F1500S1000
X-.625F7000S0
Y.1
X.625
X.6F1500S1000
X23.9F7000S0
X.7F1500S1000
X5.9F7000S0
X5.2F1500S1000
X33.7F7000S0
X.7F1500S1000
X23.9F7000S0
X.6F1500S1000
X6F7000S0
X5.3F1500S1000
X33.6F7000S0
X.7F1500S1000
X23.9F7000S0
X.8F1500S1000
X5.8F7000S0
X5.3F1500S1000
X33.7F7000S0
X.6F1500S1000
X24F7000S0
X.6F1500S1000
X6F7000S0
X5.2F1500S1000
X.625F7000S0
X.1Y.1
X-.625
X-5.5F1500S1000
X-5.8F7000S0
X-.6F1500S1000
X-24.1F7000S0
X-.6F1500S1000
X-33.4F7000S0
X-5.7F1500S1000
X-5.7F7000S0
X-.6F1500S1000
X-24.1F7000S0
X-.6F1500S1000
X-33.5F7000S0
X-5.5F1500S1000
X-5.8F7000S0
X-.6F1500S1000
X-24.1F7000S0
X-.6F1500S1000
X-33.5F7000S0
X-5.5F1500S1000
X-5.8F7000S0
X-.6F1500S1000
X-24.1F7000S0
X-.6F1500S1000
X-.625F7000S0
X-.1Y.1
X.625
X.7F1500S1000
X24.1F7000S0
X.7F1500S1000
X5.5F7000S0
X2.5F1500S1000
X.1F7000S0
X.2F1500S1000
X.1F7000S0
X.1F1500S1000
X.2F7000S0
X.1F1500S1000
X.1F7000S0
X.2F1500S1000
X.1F7000S0
X2.2F1500S1000
X33.2F7000S0
X.7F1500S1000
X24.1F7000S0
X.7F1500S1000
X5.4F7000S0
X2.8F1500S1000
X.1F7000S0
X.2F1500S1000
X.2F7000S0
X.2F1500S1000
X.1F7000S0
X.2F1500S1000
X.1F7000S0
X2F1500S1000
X33.3F7000S0
X.7F1500S1000
X24.1F7000S0
X.7F1500S1000
X5.5F7000S0
X2.6F1500S1000
X.1F7000S0
X.2F1500S1000
X.1F7000S0
X.1F1500S1000
X.1F7000S0
X.2F1500S1000
X.1F7000S0
X.2F1500S1000
X.1F7000S0
X2.1F1500S1000
X33.2F7000S0
X.7F1500S1000
X24.1F7000S0
X.7F1500S1000
X5.5F7000S0
X2.6F1500S1000
X.1F7000S0
X.2F1500S1000
X.1F7000S0
X.2F1500S1000
X.1F7000S0
X.2F1500S1000
X.1F7000S0
X.2F1500S1000
X.1F7000S0
X2F1500S1000
X.625F7000S0
X.1Y.1
X-.625
X-1.8F1500S1000
X-2F7000S0
X-2.5F1500S1000
X-5.1F7000S0
X-.7F1500S1000
X-11.6F7000S0
X-.1F1500S1000
X-.1F7000S0
X-.2F1500S1000
X-.1F7000S0
X-.2F1500S1000
X-.1F7000S0
X-.2F1500S1000
X-.1F7000S0
X-.2F1500S1000
X-.1F7000S0
X-.1F1500S1000
X-11.1F7000S0
X-.7F1500S1000
X-33.1F7000S0
X-1.9F1500S1000
X-1.7F7000S0
X-.1F1500S1000
X-.1F7000S0
X-2.5F1500S1000
X-5.2F7000S0
X-.6F1500S1000
X-11.8F7000S0
X-.2F1500S1000
X-.1F7000S0
X-.1F1500S1000
X-.1F7000S0
X-.2F1500S1000
X-.1F7000S0
X-.2F1500S1000
X-.1F7000S0
X-.2F1500S1000
X-11.2F7000S0
X-.6F1500S1000
X-33.2F7000S0
X-1.7F1500S1000
X-2F7000S0
X-2.5F1500S1000
X-5.1F7000S0
X-.7F1500S1000
X-11.8F7000S0
X-.2F1500S1000
X-.1F7000S0
X-.2F1500S1000
X-.1F7000S0
X-.2F1500S1000
X-.1F7000S0
X-.2F1500S1000
X-.1F7000S0
X-.1F1500S1000
X-11.2F7000S0
X-.6F1500S1000
X-33.2F7000S0
X-1.7F1500S1000
X-2F7000S0
X-2.5F1500S1000
X-5.2F7000S0
X-.6F1500S1000
X-11.7F7000S0
X-.2F1500S1000
X-.1F7000S0
X-.1F1500S1000
X-.1F7000S0
X-.2F1500S1000
X-.1F7000S0
X-.1F1500S1000
X-.1F7000S0
X-.2F1500S1000
X-.1F7000S0
X-.1F1500S1000
X-11.2F7000S0
X-.7F1500S1000
X-.625F7000S0
Y.1
X.625
X.6F1500S1000
X8F7000S0
X7F1500S1000
X9.4F7000S0
X.7F1500S1000
X5F7000S0
X2.3F1500S1000
X2.4F7000S0
X1.8F1500S1000
X32.9F7000S0
X.6F1500S1000
X8F7000S0
X7F1500S1000
X9.5F7000S0
X.6F1500S1000
X4.9F7000S0
X2.5F1500S1000
X2.3F7000S0
X1.7F1500S1000
X33F7000S0
X.7F1500S1000
X7.8F7000S0
X7F1500S1000
X9.5F7000S0
X.7F1500S1000
X4.9F7000S0
X2.5F1500S1000
X2.3F7000S0
X1.8F1500S1000
X32.9F7000S0
X.6F1500S1000
X8.1F7000S0
X7F1500S1000
X9.4F7000S0
X.6F1500S1000
X5F7000S0
X2.4F1500S1000
X2.4F7000S0
X1.6F1500S1000
X.625F7000S0
X.2Y.1
X-.625
X-1.7F1500S1000
X-2.7F7000S0
X-2.4F1500S1000
X-4.8F7000S0
X-.6F1500S1000
X-9.1F7000S0
X-7.5F1500S1000
X-7.9F7000S0
X-.6F1500S1000
X-32.8F7000S0
X-1.6F1500S1000
X-2.9F7000S0
X-2.4F1500S1000
X-4.7F7000S0
X-.5F1500S1000
X-9.3F7000S0
X-7.5F1500S1000
X-7.8F7000S0
X-.6F1500S1000
X-32.9F7000S0
X-1.6F1500S1000
X-2.8F7000S0
X-2.4F1500S1000
X-4.6F7000S0
X-.7F1500S1000
X-9.2F7000S0
X-7.4F1500S1000
X-7.9F7000S0
X-.6F1500S1000
X-32.9F7000S0
X-1.6F1500S1000
X-2.8F7000S0
X-2.4F1500S1000
X-4.7F7000S0
X-.6F1500S1000
X-9.2F7000S0
X-7.4F1500S1000
X-7.9F7000S0
X-.7F1500S1000
X-.625F7000S0
Y.1
X.625
X.6F1500S1000
X8F7000S0
X7.6F1500S1000
X9F7000S0
X.7F1500S1000
X4.5F7000S0
X2.3F1500S1000
X3.2F7000S0
X1.5F1500S1000
X32.7F7000S0
X.7F1500S1000
X7.9F7000S0
X7.5F1500S1000
X9.2F7000S0
X.6F1500S1000
X4.5F7000S0
X2.3F1500S1000
X3.2F7000S0
X1.5F1500S1000
X32.7F7000S0
X.6F1500S1000
X8F7000S0
X7.5F1500S1000
X9.1F7000S0
X.8F1500S1000
X4.4F7000S0
X2.3F1500S1000
X3.2F7000S0
X1.5F1500S1000
X32.7F7000S0
X.6F1500S1000
X8F7000S0
X7.5F1500S1000
X9.2F7000S0
X.6F1500S1000
X4.5F7000S0
X2.3F1500S1000
X3.2F7000S0
X1.5F1500S1000
X.625F7000S0
X.1Y.1
X-.625
X-1.4F1500S1000
X-3.6F7000S0
X-2.3F1500S1000
X-4.2F7000S0
X-.7F1500S1000
X-9.1F7000S0
X-7.6F1500S1000
X-7.9F7000S0
X-.8F1500S1000
X-32.5F7000S0
X-1.5F1500S1000
X-3.5F7000S0
X-2.4F1500S1000
X-4.2F7000S0
X-.6F1500S1000
X-9.2F7000S0
X-7.6F1500S1000
X-7.9F7000S0
X-.7F1500S1000
X-32.5F7000S0
X-1.4F1500S1000
X-3.6F7000S0
X-2.3F1500S1000
X-4.3F7000S0
X-.6F1500S1000
X-9.2F7000S0
X-7.5F1500S1000
X-8F7000S0
X-.7F1500S1000
X-32.5F7000S0
X-1.5F1500S1000
X-3.5F7000S0
X-2.3F1500S1000
X-4.2F7000S0
X-.7F1500S1000
X-9.2F7000S0
X-7.5F1500S1000
X-8.1F7000S0
X-.6F1500S1000
X-.625F7000S0
Y.1
X.625
X.6F1500S1000
X8.1F7000S0
X7.5F1500S1000
X9.3F7000S0
X.6F1500S1000
X4F7000S0
X2.2F1500S1000
X4F7000S0
X1.4F1500S1000
X32.4F7000S0
X.6F1500S1000
X8F7000S0
X7.6F1500S1000
X9.3F7000S0
X.6F1500S1000
X3.9F7000S0
X2.2F1500S1000
X4.1F7000S0
X1.4F1500S1000
X32.3F7000S0
X.7F1500S1000
X8F7000S0
X7.6F1500S1000
X9.3F7000S0
X.6F1500S1000
X4F7000S0
X2.2F1500S1000
X4F7000S0
X1.4F1500S1000
X32.4F7000S0
X.7F1500S1000
X8F7000S0
X7.5F1500S1000
X9.3F7000S0
X.6F1500S1000
X4F7000S0
X2.2F1500S1000
X4F7000S0
X1.4F1500S1000
X.625F7000S0
X.1Y.1
X-.625
X-1.3F1500S1000
X-4.4F7000S0
X-2.3F1500S1000
X-3.6F7000S0
X-.6F1500S1000
X-9.4F7000S0
X-7.6F1500S1000
X-8F7000S0
X-.7F1500S1000
X-32.2F7000S0
X-1.4F1500S1000
X-4.3F7000S0
X-2.2F1500S1000
X-3.7F7000S0
X-.6F1500S1000
X-9.4F7000S0
X-7.6F1500S1000
X-8F7000S0
X-.7F1500S1000
X-32.2F7000S0
X-1.4F1500S1000
X-4.4F7000S0
X-2.2F1500S1000
X-3.6F7000S0
X-.7F1500S1000
X-9.3F7000S0
X-7.6F1500S1000
X-8.1F7000S0
X-.6F1500S1000
X-32.2F7000S0
X-1.4F1500S1000
X-4.4F7000S0
X-2.2F1500S1000
X-3.6F7000S0
X-.6F1500S1000
X-9.3F7000S0
X-7.7F1500S1000
X-8F7000S0
X-.7F1500S1000
X-.625F7000S0
X-.2Y.1
X.625
X.8F1500S1000
X8.1F7000S0
X7.6F1500S1000
X9.4F7000S0
X.6F1500S1000
X3.5F7000S0
X2.1F1500S1000
X4.8F7000S0
X1.2F1500S1000
X32.1F7000S0
X.7F1500S1000
X8.1F7000S0
X7.5F1500S1000
X9.5F7000S0
X.6F1500S1000
X3.4F7000S0
X2.2F1500S1000
X4.8F7000S0
X1.2F1500S1000
X32F7000S0
X.8F1500S1000
X8F7000S0
X7.7F1500S1000
X9.4F7000S0
X.6F1500S1000
X3.5F7000S0
X2.1F1500S1000
X4.7F7000S0
X1.3F1500S1000
X32.1F7000S0
X.7F1500S1000
X8.1F7000S0
X7.7F1500S1000
X9.3F7000S0
X.7F1500S1000
X3.4F7000S0
X2.1F1500S1000
X4.8F7000S0
X1.3F1500S1000
X.625F7000S0
X.1Y.1
X-.625
X-1.3F1500S1000
X-5F7000S0
X-2.1F1500S1000
X-3.3F7000S0
X-.6F1500S1000
X-9.6F7000S0
X-7.6F1500S1000
X-8F7000S0
X-.9F1500S1000
X-31.8F7000S0
X-1.2F1500S1000
X-5.1F7000S0
X-2.1F1500S1000
X-3.2F7000S0
X-.6F1500S1000
X-9.6F7000S0
X-7.6F1500S1000
X-8.1F7000S0
X-.8F1500S1000
X-31.8F7000S0
X-1.2F1500S1000
X-5F7000S0
X-2.2F1500S1000
X-3.3F7000S0
X-.6F1500S1000
X-9.5F7000S0
X-7.6F1500S1000
X-8.1F7000S0
X-.8F1500S1000
X-31.8F7000S0
X-1.2F1500S1000
X-5.1F7000S0
X-2.1F1500S1000
X-3.2F7000S0
X-.6F1500S1000
X-9.6F7000S0
X-7.6F1500S1000
X-8F7000S0
X-1F1500S1000
X-.625F7000S0
X-.1Y.1
X.625
X1F1500S1000
X8.1F7000S0
X7.7F1500S1000
X9.5F7000S0
X.7F1500S1000
X3F7000S0
X2.1F1500S1000
X5.3F7000S0
X1.2F1500S1000
X31.5F7000S0
X1F1500S1000
X8.1F7000S0
X7.6F1500S1000
X9.6F7000S0
X.6F1500S1000
X3.1F7000S0
X2.1F1500S1000
X5.2F7000S0
X1.3F1500S1000
X31.5F7000S0
X1F1500S1000
X8.1F7000S0
X7.6F1500S1000
X9.6F7000S0
X.7F1500S1000
X3F7000S0
X2.1F1500S1000
X5.3F7000S0
X1.2F1500S1000
X31.5F7000S0
X1F1500S1000
X8.1F7000S0
X7.7F1500S1000
X9.5F7000S0
X.6F1500S1000
X3.1F7000S0
X2.1F1500S1000
X5.3F7000S0
X1.2F1500S1000
X.625F7000S0
Y.1
X-.625
X-1.1F1500S1000
X-5.6F7000S0
X-2F1500S1000
X-2.8F7000S0
X-.7F1500S1000
X-9.6F7000S0
X-7.7F1500S1000
X-8.1F7000S0
X-1.2F1500S1000
X-31.3F7000S0
X-1.2F1500S1000
X-5.5F7000S0
X-2.1F1500S1000
X-2.8F7000S0
X-.6F1500S1000
X-9.7F7000S0
X-7.6F1500S1000
X-8.2F7000S0
X-1F1500S1000
X-31.4F7000S0
X-1.1F1500S1000
X-5.6F7000S0
X-2.1F1500S1000
X-2.8F7000S0
X-.7F1500S1000
X-9.6F7000S0
X-7.6F1500S1000
X-8.2F7000S0
X-1.1F1500S1000
X-31.3F7000S0
X-1.2F1500S1000
X-5.5F7000S0
X-2.1F1500S1000
X-2.8F7000S0
X-.7F1500S1000
X-9.6F7000S0
X-7.6F1500S1000
X-8.2F7000S0
X-1.1F1500S1000
X-.625F7000S0
X-.2Y.1
X.625
X1.3F1500S1000
X8.2F7000S0
X7.6F1500S1000
X9.7F7000S0
X.7F1500S1000
X2.5F7000S0
X2.1F1500S1000
X5.8F7000S0
X1.1F1500S1000
X31F7000S0
X1.4F1500S1000
X8.2F7000S0
X7.6F1500S1000
X9.7F7000S0
X.7F1500S1000
X2.5F7000S0
X2.1F1500S1000
X5.8F7000S0
X1.2F1500S1000
X31F7000S0
X1.3F1500S1000
X8.2F7000S0
X7.6F1500S1000
X9.7F7000S0
X.7F1500S1000
X2.4F7000S0
X2.2F1500S1000
X5.9F7000S0
X1.1F1500S1000
X31F7000S0
X1.3F1500S1000
X8.2F7000S0
X7.6F1500S1000
X9.8F7000S0
X.6F1500S1000
X2.5F7000S0
X2.1F1500S1000
X5.8F7000S0
X1.2F1500S1000
X.625F7000S0
X.1Y.1
X-.625
X-1.2F1500S1000
X-6.1F7000S0
X-2.1F1500S1000
X-2.3F7000S0
X-.6F1500S1000
X-9.8F7000S0
X-7.6F1500S1000
X-8.3F7000S0
X-1.3F1500S1000
X-30.9F7000S0
X-1.1F1500S1000
X-6.1F7000S0
X-2F1500S1000
X-2.4F7000S0
X-.6F1500S1000
X-9.9F7000S0
X-7.6F1500S1000
X-8.2F7000S0
X-1.4F1500S1000
X-30.7F7000S0
X-1.2F1500S1000
X-6.1F7000S0
X-2.1F1500S1000
X-2.3F7000S0
X-.6F1500S1000
X-9.9F7000S0
X-7.5F1500S1000
X-8.3F7000S0
X-1.3F1500S1000
X-30.9F7000S0
X-1.1F1500S1000
X-6.1F7000S0
X-2.1F1500S1000
X-2.3F7000S0
X-.6F1500S1000
X-9.8F7000S0
X-7.6F1500S1000
X-8.3F7000S0
X-1.4F1500S1000
X-.625F7000S0
X-.2Y.1
X.625
X1.5F1500S1000
X8.4F7000S0
X7.6F1500S1000
X9.8F7000S0
X.7F1500S1000
X2F7000S0
X2.1F1500S1000
X6.3F7000S0
X1.1F1500S1000
X30.7F7000S0
X1.4F1500S1000
X8.4F7000S0
X7.5F1500S1000
X10F7000S0
X.6F1500S1000
X2F7000S0
X2.1F1500S1000
X6.4F7000S0
X1.1F1500S1000
X30.5F7000S0
X1.6F1500S1000
X8.3F7000S0
X7.5F1500S1000
X9.9F7000S0
X.6F1500S1000
X2.2F7000S0
X2F1500S1000
X6.3F7000S0
X1.2F1500S1000
X30.6F7000S0
X1.4F1500S1000
X8.4F7000S0
X7.6F1500S1000
X9.9F7000S0
X.6F1500S1000
X2F7000S0
X2.2F1500S1000
X6.3F7000S0
X1.1F1500S1000
X.625F7000S0
Y.1
X-.625
X-1.1F1500S1000
X-6.5F7000S0
X-2.1F1500S1000
X-1.8F7000S0
X-.7F1500S1000
X-9.9F7000S0
X-7.6F1500S1000
X-8.4F7000S0
X-1.6F1500S1000
X-30.4F7000S0
X-1.1F1500S1000
X-6.6F7000S0
X-2F1500S1000
X-1.9F7000S0
X-.6F1500S1000
X-10F7000S0
X-7.5F1500S1000
X-8.4F7000S0
X-1.6F1500S1000
X-30.4F7000S0
X-1.1F1500S1000
X-6.5F7000S0
X-2.1F1500S1000
X-1.8F7000S0
X-.7F1500S1000
X-9.9F7000S0
X-7.6F1500S1000
X-8.4F7000S0
X-1.6F1500S1000
X-30.4F7000S0
X-1.1F1500S1000
X-6.6F7000S0
X-2F1500S1000
X-1.9F7000S0
X-.6F1500S1000
X-9.9F7000S0
X-7.6F1500S1000
X-8.5F7000S0
X-1.5F1500S1000
X-.625F7000S0
X-.2Y.1
X.625
X1.8F1500S1000
X8.5F7000S0
X7.4F1500S1000
X10F7000S0
X.7F1500S1000
X1.7F7000S0
X2F1500S1000
X6.7F7000S0
X1.1F1500S1000
X30.3F7000S0
X1.7F1500S1000
X8.5F7000S0
X7.4F1500S1000
X10F7000S0
X.7F1500S1000
X1.6F7000S0
X2.1F1500S1000
X6.8F7000S0
X1.1F1500S1000
X30.2F7000S0
X1.6F1500S1000
X8.5F7000S0
X7.5F1500S1000
X10.1F7000S0
X.7F1500S1000
X1.6F7000S0
X1.9F1500S1000
X6.9F7000S0
X1F1500S1000
X30.3F7000S0
X1.7F1500S1000
X8.5F7000S0
X7.5F1500S1000
X10F7000S0
X.6F1500S1000
X1.7F7000S0
X2F1500S1000
X6.8F7000S0
X1.1F1500S1000
X.625F7000S0
Y.1
X-.625
X-1F1500S1000
X-7.1F7000S0
X-2F1500S1000
X-1.4F7000S0
X-.7F1500S1000
X-10.1F7000S0
X-3.7F1500S1000
X-.2F7000S0
X-.1F1500S1000
X-.2F7000S0
X-2F1500S1000
X-.1F7000S0
X-.2F1500S1000
X-.1F7000S0
X-.2F1500S1000
X-.1F7000S0
X-.2F1500S1000
X-8.8F7000S0
X-1.9F1500S1000
X-30F7000S0
X-1F1500S1000
X-7.1F7000S0
X-2F1500S1000
X-1.5F7000S0
X-.6F1500S1000
X-10.2F7000S0
X-3.7F1500S1000
X-.2F7000S0
X-.1F1500S1000
X-.2F7000S0
X-2.1F1500S1000
X-.1F7000S0
X-.1F1500S1000
X-.1F7000S0
X-.2F1500S1000
X-.1F7000S0
X-.2F1500S1000
X-8.8F7000S0
X-1.8F1500S1000
X-30F7000S0
X-1.1F1500S1000
X-7.1F7000S0
X-2F1500S1000
X-1.4F7000S0
X-.6F1500S1000
X-10.2F7000S0
X-3.6F1500S1000
X-.1F7000S0
X-.1F1500S1000
X-.2F7000S0
X-.1F1500S1000
X-.1F7000S0
X-2F1500S1000
X-.1F7000S0
X-.1F1500S1000
X-.1F7000S0
X-.2F1500S1000
X-.1F7000S0
X-.3F1500S1000
X-8.8F7000S0
X-1.8F1500S1000
X-30F7000S0
X-1.1F1500S1000
X-7F7000S0
X-2F1500S1000
X-1.4F7000S0
X-.7F1500S1000
X-10.2F7000S0
X-3.6F1500S1000
X-.2F7000S0
X-.1F1500S1000
X-.2F7000S0
X-2.1F1500S1000
X-.1F7000S0
X-.1F1500S1000
X-.1F7000S0
X-.2F1500S1000
X-.1F7000S0
X-.2F1500S1000
X-8.9F7000S0
X-1.8F1500S1000
X-.625F7000S0
X-.3Y.1
X.625
X2.1F1500S1000
X12.3F7000S0
X1.7F1500S1000
X12.2F7000S0
X.6F1500S1000
X1.2F7000S0
X1.9F1500S1000
X7.4F7000S0
X1F1500S1000
X29.8F7000S0
X1.9F1500S1000
X12.4F7000S0
X1.6F1500S1000
X12.3F7000S0
X.6F1500S1000
X1.2F7000S0
X1.9F1500S1000
X7.4F7000S0
X1F1500S1000
X29.8F7000S0
X1.9F1500S1000
X12.4F7000S0
X1.7F1500S1000
X12.2F7000S0
X.6F1500S1000
X1.2F7000S0
X2F1500S1000
X7.3F7000S0
X1F1500S1000
X29.8F7000S0
X2F1500S1000
X12.3F7000S0
X1.8F1500S1000
X12.1F7000S0
X.7F1500S1000
X1.1F7000S0
X1.9F1500S1000
X7.4F7000S0
X1F1500S1000
X.625F7000S0
X.1Y.1
X-.625
X-1F1500S1000
X-7.6F7000S0
X-1.9F1500S1000
X-1F7000S0
X-.6F1500S1000
X-12.3F7000S0
X-1.7F1500S1000
X-12.4F7000S0
X-2F1500S1000
X-29.7F7000S0
X-1F1500S1000
X-7.5F7000S0
X-2F1500S1000
X-.9F7000S0
X-.6F1500S1000
X-12.4F7000S0
X-1.7F1500S1000
X-12.3F7000S0
X-2.1F1500S1000
X-29.6F7000S0
X-1F1500S1000
X-7.5F7000S0
X-2F1500S1000
X-.9F7000S0
X-.7F1500S1000
X-12.3F7000S0
X-1.7F1500S1000
X-12.3F7000S0
X-2.1F1500S1000
X-29.6F7000S0
X-1F1500S1000
X-7.5F7000S0
X-2F1500S1000
X-1F7000S0
X-.6F1500S1000
X-12.3F7000S0
X-1.6F1500S1000
X-12.4F7000S0
X-2.1F1500S1000
X-.625F7000S0
X-.1Y.1
X.625
X2.1F1500S1000
X12.5F7000S0
X1.6F1500S1000
X12.4F7000S0
X.6F1500S1000
X.8F7000S0
X2F1500S1000
X7.7F7000S0
X1F1500S1000
X29.4F7000S0
X2.1F1500S1000
X12.4F7000S0
X1.6F1500S1000
X12.5F7000S0
X.6F1500S1000
X.8F7000S0
X1.9F1500S1000
X7.7F7000S0
X1.1F1500S1000
X29.4F7000S0
X2.1F1500S1000
X12.4F7000S0
X1.6F1500S1000
X12.5F7000S0
X.7F1500S1000
X.6F7000S0
X2.1F1500S1000
X7.7F7000S0
X1F1500S1000
X29.4F7000S0
X2.1F1500S1000
X12.5F7000S0
X1.6F1500S1000
X12.4F7000S0
X.6F1500S1000
X.8F7000S0
X2F1500S1000
X7.7F7000S0
X1F1500S1000
X.625F7000S0
X.1Y.1
X-.625
X-1.1F1500S1000
X-7.9F7000S0
X-2F1500S1000
X-.5F7000S0
X-.7F1500S1000
X-12.4F7000S0
X-1.7F1500S1000
X-12.4F7000S0
X-2.2F1500S1000
X-29.3F7000S0
X-1F1500S1000
X-8F7000S0
X-1.9F1500S1000
X-.5F7000S0
X-.6F1500S1000
X-12.6F7000S0
X-1.6F1500S1000
X-12.5F7000S0
X-2.1F1500S1000
X-29.3F7000S0
X-1F1500S1000
X-8F7000S0
X-1.9F1500S1000
X-.5F7000S0
X-.7F1500S1000
X-12.4F7000S0
X-1.7F1500S1000
X-12.4F7000S0
X-2.3F1500S1000
X-29.2F7000S0
X-1F1500S1000
X-8F7000S0
X-1.9F1500S1000
X-.6F7000S0
X-.6F1500S1000
X-12.4F7000S0
X-1.7F1500S1000
X-12.5F7000S0
X-2.1F1500S1000
X-.625F7000S0
X-.2Y.1
X.625
X2.3F1500S1000
X12.5F7000S0
X1.6F1500S1000
X12.6F7000S0
X.7F1500S1000
X.2F7000S0
X1.9F1500S1000
X8.2F7000S0
X1F1500S1000
X29.1F7000S0
X2.3F1500S1000
X12.4F7000S0
X1.7F1500S1000
X12.6F7000S0
X.6F1500S1000
X.3F7000S0
X2F1500S1000
X8.1F7000S0
X1F1500S1000
X29.1F7000S0
X2.3F1500S1000
X12.4F7000S0
X1.7F1500S1000
X12.6F7000S0
X.7F1500S1000
X.2F7000S0
X1.9F1500S1000
X8.2F7000S0
X1.1F1500S1000
X29F7000S0
X2.3F1500S1000
X12.5F7000S0
X1.7F1500S1000
X12.5F7000S0
X.6F1500S1000
X.2F7000S0
X2.1F1500S1000
X8.2F7000S0
X1F1500S1000
X.625F7000S0
Y.1
X-.625
X-1F1500S1000
X-8.4F7000S0
X-2.6F1500S1000
X-12.7F7000S0
X-1.6F1500S1000
X-12.5F7000S0
X-2.5F1500S1000
X-28.8F7000S0
X-1F1500S1000
X-8.4F7000S0
X-2.7F1500S1000
X-12.7F7000S0
X-1.6F1500S1000
X-12.5F7000S0
X-2.4F1500S1000
X-28.8F7000S0
X-1F1500S1000
X-8.4F7000S0
X-1.9F1500S1000
X-.1F7000S0
X-.7F1500S1000
X-12.6F7000S0
X-1.6F1500S1000
X-12.6F7000S0
X-2.4F1500S1000
X-28.8F7000S0
X-1.1F1500S1000
X-8.4F7000S0
X-2.5F1500S1000
X-12.7F7000S0
X-1.6F1500S1000
X-12.5F7000S0
X-2.5F1500S1000
X-.625F7000S0
X-.2Y.1
X.625
X2.5F1500S1000
X12.6F7000S0
X1.7F1500S1000
X12.7F7000S0
X2.4F1500S1000
X8.6F7000S0
X1F1500S1000
X28.7F7000S0
X2.4F1500S1000
X12.6F7000S0
X1.6F1500S1000
X12.9F7000S0
X2.3F1500S1000
X8.6F7000S0
X1F1500S1000
X28.6F7000S0
X2.6F1500S1000
X12.4F7000S0
X1.7F1500S1000
X12.8F7000S0
X2.4F1500S1000
X8.6F7000S0
X1F1500S1000
X28.7F7000S0
X2.5F1500S1000
X12.5F7000S0
X1.7F1500S1000
X12.8F7000S0
X2.3F1500S1000
X8.6F7000S0
X1F1500S1000
X.625F7000S0
X.1Y.1
X-.625
X-1.1F1500S1000
X-8.8F7000S0
X-2.1F1500S1000
X-12.8F7000S0
X-1.7F1500S1000
X-12.6F7000S0
X-2.6F1500S1000
X-28.5F7000S0
X-.9F1500S1000
X-8.8F7000S0
X-2.2F1500S1000
X-12.9F7000S0
X-1.7F1500S1000
X-12.4F7000S0
X-.7F1500S1000
X-.1F7000S0
X-1.9F1500S1000
X-28.5F7000S0
X-1F1500S1000
X-8.8F7000S0
X-2.1F1500S1000
X-12.9F7000S0
X-1.7F1500S1000
X-12.5F7000S0
X-2.6F1500S1000
X-28.5F7000S0
X-1F1500S1000
X-8.8F7000S0
X-2.1F1500S1000
X-12.9F7000S0
X-1.6F1500S1000
X-12.6F7000S0
X-.6F1500S1000
X-.1F7000S0
X-1.9F1500S1000
X-.625F7000S0
X-.1Y.1
X.625
X1.8F1500S1000
X.3F7000S0
X.6F1500S1000
X12.6F7000S0
X1.6F1500S1000
X12.9F7000S0
X2F1500S1000
X8.9F7000S0
X1F1500S1000
X28.4F7000S0
X1.8F1500S1000
X.2F7000S0
X.7F1500S1000
X12.6F7000S0
X1.6F1500S1000
X12.9F7000S0
X1.9F1500S1000
X9F7000S0
X1F1500S1000
X28.4F7000S0
X1.8F1500S1000
X.2F7000S0
X.7F1500S1000
X12.5F7000S0
X1.6F1500S1000
X13F7000S0
X2F1500S1000
X9F7000S0
X.9F1500S1000
X28.4F7000S0
X1.8F1500S1000
X.3F7000S0
X.5F1500S1000
X12.7F7000S0
X1.6F1500S1000
X13F7000S0
X1.9F1500S1000
X8.9F7000S0
X1F1500S1000
X.625F7000S0
X.1Y.1
X-.625
X-1.1F1500S1000
X-9F7000S0
X-1.8F1500S1000
X-13F7000S0
X-1.6F1500S1000
X-12.6F7000S0
X-.7F1500S1000
X-.3F7000S0
X-1.9F1500S1000
X-28.1F7000S0
X-1F1500S1000
X-9.2F7000S0
X-1.7F1500S1000
X-13.1F7000S0
X-1.7F1500S1000
X-12.5F7000S0
X-.6F1500S1000
X-.4F7000S0
X-1.7F1500S1000
X-28.3F7000S0
X-1F1500S1000
X-9.1F7000S0
X-1.7F1500S1000
X-13.1F7000S0
X-1.6F1500S1000
X-12.6F7000S0
X-.6F1500S1000
X-.3F7000S0
X-1.9F1500S1000
X-28.1F7000S0
X-1F1500S1000
X-9.2F7000S0
X-1.7F1500S1000
X-13F7000S0
X-1.7F1500S1000
X-12.6F7000S0
X-.6F1500S1000
X-.3F7000S0
X-1.9F1500S1000
X-.625F7000S0
X-.2Y.1
X.625
X1.9F1500S1000
X.4F7000S0
X.7F1500S1000
X12.6F7000S0
X1.6F1500S1000
X13.1F7000S0
X1.6F1500S1000
X9.2F7000S0
X1.1F1500S1000
X28F7000S0
X1.8F1500S1000
X.4F7000S0
X.7F1500S1000
X12.6F7000S0
X1.6F1500S1000
X13.1F7000S0
X1.6F1500S1000
X9.2F7000S0
X1F1500S1000
X28.1F7000S0
X1.8F1500S1000
X.4F7000S0
X.7F1500S1000
X12.6F7000S0
X1.6F1500S1000
X13.1F7000S0
X1.6F1500S1000
X9.2F7000S0
X1.1F1500S1000
X28F7000S0
X1.8F1500S1000
X.4F7000S0
X.7F1500S1000
X12.6F7000S0
X1.6F1500S1000
X13.2F7000S0
X1.5F1500S1000
X9.3F7000S0
X.9F1500S1000
X.625F7000S0
X.1Y.1
X-.625
X-1F1500S1000
X-9.5F7000S0
X-1.3F1500S1000
X-13.2F7000S0
X-1.7F1500S1000
X-12.6F7000S0
X-.6F1500S1000
X-.7F7000S0
X-1.7F1500S1000
X-27.8F7000S0
X-1F1500S1000
X-9.5F7000S0
X-1.3F1500S1000
X-13.2F7000S0
X-1.7F1500S1000
X-12.6F7000S0
X-.7F1500S1000
X-.5F7000S0
X-1.9F1500S1000
X-27.8F7000S0
X-1F1500S1000
X-9.5F7000S0
X-1.2F1500S1000
X-13.2F7000S0
X-1.7F1500S1000
X-12.6F7000S0
X-.6F1500S1000
X-.7F7000S0
X-1.8F1500S1000
X-27.8F7000S0
X-1F1500S1000
X-9.4F7000S0
X-1.3F1500S1000
X-13.2F7000S0
X-1.7F1500S1000
X-12.6F7000S0
X-.7F1500S1000
X-.6F7000S0
X-1.7F1500S1000
X-.625F7000S0
X-.2Y.1
X.625
X1.8F1500S1000
X.7F7000S0
X.6F1500S1000
X12.7F7000S0
X1.6F1500S1000
X13.3F7000S0
X1.2F1500S1000
X9.5F7000S0
X1.1F1500S1000
X27.6F7000S0
X1.8F1500S1000
X.7F7000S0
X.6F1500S1000
X12.7F7000S0
X1.6F1500S1000
X13.4F7000S0
X1.1F1500S1000
X9.6F7000S0
X.9F1500S1000
X27.7F7000S0
X1.9F1500S1000
X.6F7000S0
X.6F1500S1000
X12.6F7000S0
X1.7F1500S1000
X13.4F7000S0
X1F1500S1000
X9.7F7000S0
X1F1500S1000
X27.6F7000S0
X1.9F1500S1000
X.6F7000S0
X.6F1500S1000
X12.7F7000S0
X1.6F1500S1000
X13.4F7000S0
X1.1F1500S1000
X9.6F7000S0
X1F1500S1000
X.625F7000S0
X-.1Y.1
X-.625
X-.9F1500S1000
X-9.8F7000S0
X-.9F1500S1000
X-13.4F7000S0
X-1.7F1500S1000
X-12.6F7000S0
X-.6F1500S1000
X-.8F7000S0
X-1.8F1500S1000
X-27.5F7000S0
X-1F1500S1000
X-9.9F7000S0
X-.7F1500S1000
X-13.5F7000S0
X-1.7F1500S1000
X-12.6F7000S0
X-.6F1500S1000
X-.8F7000S0
X-1.8F1500S1000
X-27.6F7000S0
X-.9F1500S1000
X-9.8F7000S0
X-.9F1500S1000
X-13.4F7000S0
X-1.7F1500S1000
X-12.6F7000S0
X-.6F1500S1000
X-.8F7000S0
X-1.9F1500S1000
X-27.5F7000S0
X-.9F1500S1000
X-9.9F7000S0
X-.8F1500S1000
X-13.4F7000S0
X-1.7F1500S1000
X-12.6F7000S0
X-.7F1500S1000
X-.7F7000S0
X-1.8F1500S1000
X-.625F7000S0
X-.1Y.1
X.625
X1.8F1500S1000
X.8F7000S0
X.6F1500S1000
X12.7F7000S0
X1.7F1500S1000
X13.4F7000S0
X.7F1500S1000
X9.9F7000S0
X1.1F1500S1000
X27.4F7000S0
X1.7F1500S1000
X.9F7000S0
X.7F1500S1000
X12.6F7000S0
X1.7F1500S1000
X13.5F7000S0
X.7F1500S1000
X9.9F7000S0
X1F1500S1000
X27.4F7000S0
X1.8F1500S1000
X.8F7000S0
X.6F1500S1000
X12.7F7000S0
X1.7F1500S1000
X13.5F7000S0
X.7F1500S1000
X9.8F7000S0
X1.1F1500S1000
X27.4F7000S0
X1.8F1500S1000
X.8F7000S0
X.6F1500S1000
X12.7F7000S0
X1.7F1500S1000
X13.5F7000S0
X.7F1500S1000
X9.9F7000S0
X1F1500S1000
X.625F7000S0
X-.1Y.1
X-.625
X-.9F1500S1000
X-9.9F7000S0
X-.7F1500S1000
X-13.5F7000S0
X-1.8F1500S1000
X-12.6F7000S0
X-.7F1500S1000
X-.7F7000S0
X-1.8F1500S1000
X-27.4F7000S0
X-1F1500S1000
X-9.8F7000S0
X-.8F1500S1000
X-13.6F7000S0
X-1.7F1500S1000
X-12.6F7000S0
X-.7F1500S1000
X-.7F7000S0
X-1.8F1500S1000
X-27.4F7000S0
X-1F1500S1000
X-9.9F7000S0
X-.7F1500S1000
X-13.6F7000S0
X-1.7F1500S1000
X-12.6F7000S0
X-.6F1500S1000
X-.8F7000S0
X-1.8F1500S1000
X-27.4F7000S0
X-1.1F1500S1000
X-9.7F7000S0
X-.8F1500S1000
X-13.5F7000S0
X-1.8F1500S1000
X-12.7F7000S0
X-.6F1500S1000
X-.7F7000S0
X-1.8F1500S1000
X-.625F7000S0
X.1Y.1
X.625
X1.9F1500S1000
X.5F7000S0
X.6F1500S1000
X12.7F7000S0
X1.7F1500S1000
X13.7F7000S0
X.7F1500S1000
X9.8F7000S0
X.9F1500S1000
X27.6F7000S0
X1.9F1500S1000
X.4F7000S0
X.7F1500S1000
X12.7F7000S0
X1.7F1500S1000
X13.7F7000S0
X.7F1500S1000
X9.8F7000S0
X.9F1500S1000
X27.6F7000S0
X1.8F1500S1000
X.6F7000S0
X.6F1500S1000
X12.6F7000S0
X1.7F1500S1000
X13.8F7000S0
X.7F1500S1000
X9.8F7000S0
X1F1500S1000
X27.5F7000S0
X1.9F1500S1000
X.5F7000S0
X.7F1500S1000
X12.6F7000S0
X1.7F1500S1000
X13.7F7000S0
X.7F1500S1000
X9.8F7000S0
X1F1500S1000
X.625F7000S0
Y.1
X-.625
X-1F1500S1000
X-9.5F7000S0
X-.9F1500S1000
X-13.8F7000S0
X-1.7F1500S1000
X-12.7F7000S0
X-.7F1500S1000
X-.2F7000S0
X-1.8F1500S1000
X-27.8F7000S0
X-1F1500S1000
X-9.5F7000S0
X-1F1500S1000
X-13.8F7000S0
X-1.7F1500S1000
X-12.6F7000S0
X-.7F1500S1000
X-.3F7000S0
X-1.8F1500S1000
X-27.8F7000S0
X-.9F1500S1000
X-9.5F7000S0
X-1F1500S1000
X-13.8F7000S0
X-1.7F1500S1000
X-12.7F7000S0
X-.6F1500S1000
X-.2F7000S0
X-1.8F1500S1000
X-27.8F7000S0
X-1.1F1500S1000
X-9.5F7000S0
X-.8F1500S1000
X-13.8F7000S0
X-1.7F1500S1000
X-12.7F7000S0
X-.7F1500S1000
X-.3F7000S0
X-1.8F1500S1000
X-.625F7000S0
X.2Y.1
X.625
X2.5F1500S1000
X9.8F7000S0
X6.4F1500S1000
X12.1F7000S0
X1F1500S1000
X9.3F7000S0
X1F1500S1000
X27.9F7000S0
X2.5F1500S1000
X9.9F7000S0
X6.4F1500S1000
X12.1F7000S0
X1F1500S1000
X9.4F7000S0
X.9F1500S1000
X27.9F7000S0
X2.6F1500S1000
X9.7F7000S0
X6.6F1500S1000
X12F7000S0
X1F1500S1000
X9.3F7000S0
X1.1F1500S1000
X27.9F7000S0
X2.5F1500S1000
X9.8F7000S0
X6.5F1500S1000
X12.1F7000S0
X.9F1500S1000
X9.4F7000S0
X.9F1500S1000
X.625F7000S0
X.1Y.1
X-.625
X-1.1F1500S1000
X-9.1F7000S0
X-1.1F1500S1000
X-11F7000S0
X-7.7F1500S1000
X-9.8F7000S0
X-2.2F1500S1000
X-28.1F7000S0
X-1F1500S1000
X-9.2F7000S0
X-1.1F1500S1000
X-11.1F7000S0
X-7.6F1500S1000
X-9.7F7000S0
X-2.4F1500S1000
X-28.1F7000S0
X-1F1500S1000
X-9.2F7000S0
X-1F1500S1000
X-11.1F7000S0
X-7.6F1500S1000
X-9.8F7000S0
X-2.3F1500S1000
X-28F7000S0
X-1.1F1500S1000
X-9.1F7000S0
X-1.1F1500S1000
X-11F7000S0
X-7.7F1500S1000
X-9.8F7000S0
X-2.2F1500S1000
X-.625F7000S0
Y.1
X.625
X2.2F1500S1000
X9.7F7000S0
X7.8F1500S1000
X11F7000S0
X1.3F1500S1000
X9F7000S0
X.9F1500S1000
X28.2F7000S0
X2.2F1500S1000
X9.7F7000S0
X7.8F1500S1000
X11F7000S0
X1.2F1500S1000
X9F7000S0
X1F1500S1000
X28.3F7000S0
X2.1F1500S1000
X9.7F7000S0
X7.8F1500S1000
X11F7000S0
X1.2F1500S1000
X9.1F7000S0
X.9F1500S1000
X28.2F7000S0
X2.2F1500S1000
X9.7F7000S0
X7.9F1500S1000
X10.9F7000S0
X1.2F1500S1000
X9.1F7000S0
X.9F1500S1000
X.625F7000S0
Y.1
X-.625
X-1F1500S1000
X-8.8F7000S0
X-1.3F1500S1000
X-11F7000S0
X-7.9F1500S1000
X-9.8F7000S0
X-1.9F1500S1000
X-28.4F7000S0
X-1F1500S1000
X-8.8F7000S0
X-1.3F1500S1000
X-11F7000S0
X-7.9F1500S1000
X-9.8F7000S0
X-1.9F1500S1000
X-28.4F7000S0
X-1F1500S1000
X-8.8F7000S0
X-1.4F1500S1000
X-10.9F7000S0
X-7.9F1500S1000
X-9.8F7000S0
X-1.9F1500S1000
X-28.4F7000S0
X-1F1500S1000
X-8.9F7000S0
X-1.2F1500S1000
X-11F7000S0
X-7.9F1500S1000
X-9.8F7000S0
X-1.9F1500S1000
X-.625F7000S0
X.1Y.1
X.625
X1.8F1500S1000
X9.8F7000S0
X7.9F1500S1000
X11F7000S0
X1.4F1500S1000
X8.7F7000S0
X1F1500S1000
X28.6F7000S0
X1.7F1500S1000
X9.8F7000S0
X7.9F1500S1000
X11F7000S0
X1.5F1500S1000
X8.6F7000S0
X1F1500S1000
X28.6F7000S0
X1.7F1500S1000
X9.8F7000S0
X7.9F1500S1000
X11F7000S0
X1.4F1500S1000
X8.7F7000S0
X1F1500S1000
X28.6F7000S0
X1.7F1500S1000
X9.8F7000S0
X7.9F1500S1000
X11F7000S0
X1.5F1500S1000
X8.6F7000S0
X1F1500S1000
X.625F7000S0
Y.1
X-.625
X-1F1500S1000
X-8.5F7000S0
X-1.5F1500S1000
X-11.1F7000S0
X-7.9F1500S1000
X-9.9F7000S0
X-1.4F1500S1000
X-28.9F7000S0
X-.9F1500S1000
X-8.4F7000S0
X-1.6F1500S1000
X-11.2F7000S0
X-7.9F1500S1000
X-9.8F7000S0
X-1.4F1500S1000
X-28.9F7000S0
X-1F1500S1000
X-8.4F7000S0
X-1.5F1500S1000
X-11.2F7000S0
X-7.8F1500S1000
X-9.9F7000S0
X-1.4F1500S1000
X-28.9F7000S0
X-1F1500S1000
X-8.4F7000S0
X-1.5F1500S1000
X-11.1F7000S0
X-7.9F1500S1000
X-9.9F7000S0
X-1.5F1500S1000
X-.625F7000S0
X.2Y.1
X.625
X1.2F1500S1000
X10F7000S0
X7.8F1500S1000
X11.2F7000S0
X1.7F1500S1000
X8.3F7000S0
X.9F1500S1000
X29F7000S0
X1.2F1500S1000
X10F7000S0
X7.8F1500S1000
X11.3F7000S0
X1.6F1500S1000
X8.2F7000S0
X1F1500S1000
X29F7000S0
X1.2F1500S1000
X10F7000S0
X7.8F1500S1000
X11.3F7000S0
X1.6F1500S1000
X8.2F7000S0
X1F1500S1000
X29F7000S0
X1.2F1500S1000
X10F7000S0
X7.9F1500S1000
X11.2F7000S0
X1.6F1500S1000
X8.2F7000S0
X1.1F1500S1000
X.625F7000S0
Y.1
X-.625
X-1F1500S1000
X-8.1F7000S0
X-1.8F1500S1000
X-11.3F7000S0
X-7.8F1500S1000
X-10F7000S0
X-1F1500S1000
X-29.2F7000S0
X-1F1500S1000
X-8.1F7000S0
X-1.7F1500S1000
X-11.3F7000S0
X-7.8F1500S1000
X-10F7000S0
X-1.1F1500S1000
X-29F7000S0
X-1.1F1500S1000
X-8F7000S0
X-1.8F1500S1000
X-11.3F7000S0
X-7.9F1500S1000
X-9.9F7000S0
X-1F1500S1000
X-29.2F7000S0
X-1F1500S1000
X-8.1F7000S0
X-1.7F1500S1000
X-11.3F7000S0
X-7.9F1500S1000
X-9.9F7000S0
X-1.1F1500S1000
X-.625F7000S0
X.2Y.1
X.625
X.8F1500S1000
X10.1F7000S0
X7.8F1500S1000
X11.3F7000S0
X1.9F1500S1000
X7.9F7000S0
X1F1500S1000
X29.3F7000S0
X.9F1500S1000
X9.9F7000S0
X7.9F1500S1000
X11.4F7000S0
X1.8F1500S1000
X7.8F7000S0
X1.1F1500S1000
X29.3F7000S0
X.9F1500S1000
X9.9F7000S0
X7.9F1500S1000
X11.4F7000S0
X1.8F1500S1000
X7.9F7000S0
X1F1500S1000
X29.4F7000S0
X.7F1500S1000
X10.1F7000S0
X7.8F1500S1000
X11.4F7000S0
X1.9F1500S1000
X7.8F7000S0
X1F1500S1000
X.625F7000S0
Y.1
X-.625
X-1.1F1500S1000
X-7.6F7000S0
X-2F1500S1000
X-11.4F7000S0
X-7.8F1500S1000
X-10F7000S0
X-.7F1500S1000
X-29.5F7000S0
X-1.1F1500S1000
X-7.6F7000S0
X-2F1500S1000
X-11.4F7000S0
X-7.8F1500S1000
X-10.1F7000S0
X-.7F1500S1000
X-29.4F7000S0
X-1.1F1500S1000
X-7.6F7000S0
X-2F1500S1000
X-11.4F7000S0
X-7.8F1500S1000
X-10.1F7000S0
X-.7F1500S1000
X-29.5F7000S0
X-1F1500S1000
X-7.6F7000S0
X-2F1500S1000
X-11.3F7000S0
X-7.9F1500S1000
X-10.2F7000S0
X-.6F1500S1000
X-.625F7000S0
Y.1
X.625
X.6F1500S1000
X10.2F7000S0
X7.8F1500S1000
X11.5F7000S0
X2.1F1500S1000
X7.4F7000S0
X1F1500S1000
X29.5F7000S0
X.6F1500S1000
X10.2F7000S0
X7.8F1500S1000
X11.4F7000S0
X2.2F1500S1000
X7.4F7000S0
X1F1500S1000
X29.5F7000S0
X.6F1500S1000
X10.2F7000S0
X7.7F1500S1000
X11.6F7000S0
X2.1F1500S1000
X7.4F7000S0
X1F1500S1000
X29.5F7000S0
X.7F1500S1000
X10.1F7000S0
X7.9F1500S1000
X11.4F7000S0
X2.2F1500S1000
X7.3F7000S0
X1F1500S1000
X.625F7000S0
Y.1
X-.625
X-1.1F1500S1000
X-7.1F7000S0
X-2.2F1500S1000
X-11.6F7000S0
X-7.8F1500S1000
X-10.2F7000S0
X-.6F1500S1000
X-29.5F7000S0
X-1.1F1500S1000
X-7.1F7000S0
X-2.2F1500S1000
X-11.7F7000S0
X-7.8F1500S1000
X-10.1F7000S0
X-.7F1500S1000
X-29.4F7000S0
X-1.1F1500S1000
X-7.1F7000S0
X-2.3F1500S1000
X-11.6F7000S0
X-7.7F1500S1000
X-10.3F7000S0
X-.6F1500S1000
X-29.4F7000S0
X-1.1F1500S1000
X-7.1F7000S0
X-2.2F1500S1000
X-11.7F7000S0
X-7.7F1500S1000
X-10.2F7000S0
X-.7F1500S1000
X-.625F7000S0
Y.1
X.625
X.6F1500S1000
X10.3F7000S0
X7.8F1500S1000
X11.6F7000S0
X2.3F1500S1000
X7F7000S0
X1.1F1500S1000
X29.3F7000S0
X.7F1500S1000
X10.3F7000S0
X7.7F1500S1000
X11.7F7000S0
X2.3F1500S1000
X7F7000S0
X1.1F1500S1000
X29.4F7000S0
X.6F1500S1000
X10.3F7000S0
X7.7F1500S1000
X11.7F7000S0
X2.4F1500S1000
X6.8F7000S0
X1.2F1500S1000
X29.4F7000S0
X.6F1500S1000
X10.3F7000S0
X7.7F1500S1000
X11.8F7000S0
X2.2F1500S1000
X7F7000S0
X1.1F1500S1000
X.625F7000S0
Y.1
X-.625
X-1.1F1500S1000
X-6.8F7000S0
X-2.5F1500S1000
X-11.6F7000S0
X-7.8F1500S1000
X-10.3F7000S0
X-.6F1500S1000
X-29.5F7000S0
X-1.1F1500S1000
X-6.7F7000S0
X-2.4F1500S1000
X-11.9F7000S0
X-7.6F1500S1000
X-10.4F7000S0
X-.6F1500S1000
X-29.3F7000S0
X-1.2F1500S1000
X-6.7F7000S0
X-2.5F1500S1000
X-11.8F7000S0
X-7.6F1500S1000
X-10.4F7000S0
X-.5F1500S1000
X-29.5F7000S0
X-1.1F1500S1000
X-6.7F7000S0
X-2.5F1500S1000
X-11.7F7000S0
X-7.7F1500S1000
X-10.4F7000S0
X-.6F1500S1000
X-.625F7000S0
Y.1
X.625
X.6F1500S1000
X10.5F7000S0
X7.6F1500S1000
X11.8F7000S0
X2.6F1500S1000
X6.5F7000S0
X1.1F1500S1000
X29.3F7000S0
X.7F1500S1000
X10.4F7000S0
X7.7F1500S1000
X11.8F7000S0
X2.6F1500S1000
X6.5F7000S0
X1.1F1500S1000
X29.3F7000S0
X.7F1500S1000
X10.4F7000S0
X7.6F1500S1000
X11.9F7000S0
X2.6F1500S1000
X6.5F7000S0
X1.1F1500S1000
X29.4F7000S0
X.6F1500S1000
X10.5F7000S0
X7.6F1500S1000
X11.8F7000S0
X2.6F1500S1000
X6.5F7000S0
X1.1F1500S1000
X.625F7000S0
Y.1
X-.625
X-1.2F1500S1000
X-6.1F7000S0
X-2.8F1500S1000
X-12F7000S0
X-4.1F1500S1000
X-.1F7000S0
X-.1F1500S1000
X-.1F7000S0
X-.1F1500S1000
X-.1F7000S0
X-.1F1500S1000
X-.1F7000S0
X-.1F1500S1000
X-.1F7000S0
X-.1F1500S1000
X-.1F7000S0
X-.1F1500S1000
X-.1F7000S0
X-.1F1500S1000
X-.2F7000S0
X-.1F1500S1000
X-.2F7000S0
X-.1F1500S1000
X-.2F7000S0
X-.1F1500S1000
X-.2F7000S0
X-.1F1500S1000
X-.2F7000S0
X-.1F1500S1000
X-.2F7000S0
X-.1F1500S1000
X-10.7F7000S0
X-.7F1500S1000
X-29.3F7000S0
X-1.2F1500S1000
X-6.2F7000S0
X-2.7F1500S1000
X-12F7000S0
X-4.2F1500S1000
X-.1F7000S0
X-.1F1500S1000
X-.1F7000S0
X-.1F1500S1000
X-.1F7000S0
X-.1F1500S1000
X-.1F7000S0
X-.1F1500S1000
X-.1F7000S0
X-.1F1500S1000
X-.2F7000S0
X-.1F1500S1000
X-.2F7000S0
X-.1F1500S1000
X-.2F7000S0
X-.1F1500S1000
X-.2F7000S0
X-.1F1500S1000
X-.1F7000S0
X-.1F1500S1000
X-.1F7000S0
X-.1F1500S1000
X-.1F7000S0
X-.2F1500S1000
X-.1F7000S0
X-.3F1500S1000
X-10.6F7000S0
X-.6F1500S1000
X-29.4F7000S0
X-1.1F1500S1000
X-6.2F7000S0
X-2.7F1500S1000
X-12F7000S0
X-4.4F1500S1000
X-.1F7000S0
X-.1F1500S1000
X-.1F7000S0
X-.1F1500S1000
X-.1F7000S0
X-.1F1500S1000
X-.1F7000S0
X-.1F1500S1000
X-.1F7000S0
X-.1F1500S1000
X-.2F7000S0
X-.1F1500S1000
X-.2F7000S0
X-.1F1500S1000
X-.2F7000S0
X-.1F1500S1000
X-.2F7000S0
X-.1F1500S1000
X-.1F7000S0
X-.1F1500S1000
X-.1F7000S0
X-.1F1500S1000
X-.1F7000S0
X-.1F1500S1000
X-.1F7000S0
X-.1F1500S1000
X-10.7F7000S0
X-.6F1500S1000
X-29.4F7000S0
X-1.1F1500S1000
X-6.1F7000S0
X-2.8F1500S1000
X-12F7000S0
X-4.3F1500S1000
X-.1F7000S0
X-.1F1500S1000
X-.1F7000S0
X-.1F1500S1000
X-.1F7000S0
X-.1F1500S1000
X-.1F7000S0
X-.1F1500S1000
X-.1F7000S0
X-.1F1500S1000
X-.2F7000S0
X-.1F1500S1000
X-.2F7000S0
X-.1F1500S1000
X-.2F7000S0
X-.1F1500S1000
X-.2F7000S0
X-.1F1500S1000
X-.2F7000S0
X-.1F1500S1000
X-.2F7000S0
X-.1F1500S1000
X-.2F7000S0
X-.1F1500S1000
X-10.7F7000S0
X-.6F1500S1000
X-.625F7000S0
X-.1Y.1
X.625
X.7F1500S1000
X14.5F7000S0
X.1F1500S1000
X.4F7000S0
X.1F1500S1000
X2.3F7000S0
X.1F1500S1000
X.2F7000S0
X.1F1500S1000
X12.3F7000S0
X.8F1500S1000
X.1F7000S0
X2.1F1500S1000
X5.8F7000S0
X1.2F1500S1000
X29.3F7000S0
X.7F1500S1000
X14.3F7000S0
X.1F1500S1000
X.2F7000S0
X.1F1500S1000
X.2F7000S0
X.1F1500S1000
X.3F7000S0
X.1F1500S1000
X2F7000S0
X.1F1500S1000
X.2F7000S0
X.1F1500S1000
X12.3F7000S0
X.6F1500S1000
X.3F7000S0
X2F1500S1000
X5.9F7000S0
X1.1F1500S1000
X29.5F7000S0
X.6F1500S1000
X14.3F7000S0
X.1F1500S1000
X.4F7000S0
X.1F1500S1000
X2.6F7000S0
X.1F1500S1000
X12.5F7000S0
X.6F1500S1000
X.3F7000S0
X2F1500S1000
X6F7000S0
X1.1F1500S1000
X29.3F7000S0
X.8F1500S1000
X14.6F7000S0
X.1F1500S1000
X.4F7000S0
X.1F1500S1000
X.4F7000S0
X.1F1500S1000
X1.9F7000S0
X.1F1500S1000
X12.4F7000S0
X.7F1500S1000
X.1F7000S0
X2.1F1500S1000
X5.9F7000S0
X1.1F1500S1000
X.625F7000S0
X-.1Y.1
X-.625
X-1.1F1500S1000
X-5.7F7000S0
X-2.1F1500S1000
X-.3F7000S0
X-.6F1500S1000
X-30.3F7000S0
X-.6F1500S1000
X-29.3F7000S0
X-1.2F1500S1000
X-5.7F7000S0
X-2.1F1500S1000
X-.3F7000S0
X-.6F1500S1000
X-30.3F7000S0
X-.6F1500S1000
X-29.4F7000S0
X-1.2F1500S1000
X-5.6F7000S0
X-2.1F1500S1000
X-.3F7000S0
X-.6F1500S1000
X-30.3F7000S0
X-.6F1500S1000
X-29.4F7000S0
X-1.1F1500S1000
X-5.7F7000S0
X-2.1F1500S1000
X-.3F7000S0
X-.6F1500S1000
X-30.3F7000S0
X-.6F1500S1000
X-.625F7000S0
X-.1Y.1
X.625
X.6F1500S1000
X30.4F7000S0
X.7F1500S1000
X.4F7000S0
X2.1F1500S1000
X5.4F7000S0
X1.2F1500S1000
X29.3F7000S0
X.6F1500S1000
X30.5F7000S0
X.6F1500S1000
X.4F7000S0
X2.1F1500S1000
X5.4F7000S0
X1.2F1500S1000
X29.3F7000S0
X.7F1500S1000
X30.3F7000S0
X.8F1500S1000
X.3F7000S0
X2.1F1500S1000
X5.4F7000S0
X1.2F1500S1000
X29.3F7000S0
X.6F1500S1000
X30.5F7000S0
X.6F1500S1000
X.4F7000S0
X2.1F1500S1000
X5.4F7000S0
X1.2F1500S1000
X.625F7000S0
Y.1
X-.625
X-1.2F1500S1000
X-5.2F7000S0
X-2.1F1500S1000
X-.5F7000S0
X-.7F1500S1000
X-30.5F7000S0
X-.6F1500S1000
X-29.3F7000S0
X-1.3F1500S1000
X-5.1F7000S0
X-2.2F1500S1000
X-.5F7000S0
X-.6F1500S1000
X-30.5F7000S0
X-.6F1500S1000
X-29.4F7000S0
X-1.2F1500S1000
X-5.1F7000S0
X-2.1F1500S1000
X-.6F7000S0
X-.6F1500S1000
X-30.5F7000S0
X-.6F1500S1000
X-29.3F7000S0
X-1.3F1500S1000
X-5.2F7000S0
X-2.1F1500S1000
X-.5F7000S0
X-.6F1500S1000
X-30.5F7000S0
X-.6F1500S1000
X-.625F7000S0
X-.1Y.1
X.625
X.6F1500S1000
X30.6F7000S0
X.7F1500S1000
X.6F7000S0
X2.2F1500S1000
X4.8F7000S0
X1.2F1500S1000
X29.4F7000S0
X.7F1500S1000
X30.5F7000S0
X.7F1500S1000
X.5F7000S0
X2.2F1500S1000
X4.9F7000S0
X1.3F1500S1000
X29.3F7000S0
X.6F1500S1000
X30.7F7000S0
X.7F1500S1000
X.5F7000S0
X2F1500S1000
X5F7000S0
X1.3F1500S1000
X29.3F7000S0
X.7F1500S1000
X30.6F7000S0
X.6F1500S1000
X.6F7000S0
X2.1F1500S1000
X.1F7000S0
X.1F1500S1000
X4.8F7000S0
X1.2F1500S1000
X.625F7000S0
X-.1Y.1
X-.625
X-1.3F1500S1000
X-4.5F7000S0
X-2.1F1500S1000
X-.8F7000S0
X-.7F1500S1000
X-30.7F7000S0
X-.6F1500S1000
X-29.4F7000S0
X-1.3F1500S1000
X-4.5F7000S0
X-2.2F1500S1000
X-.7F7000S0
X-.7F1500S1000
X-30.7F7000S0
X-.7F1500S1000
X-29.3F7000S0
X-1.3F1500S1000
X-4.5F7000S0
X-2.2F1500S1000
X-.8F7000S0
X-.6F1500S1000
X-30.7F7000S0
X-.7F1500S1000
X-29.3F7000S0
X-1.3F1500S1000
X-4.5F7000S0
X-2.2F1500S1000
X-.7F7000S0
X-.7F1500S1000
X-30.7F7000S0
X-.6F1500S1000
X-.625F7000S0
X-.1Y.1
X.625
X.7F1500S1000
X30.8F7000S0
X.5F1500S1000
X1F7000S0
X2.3F1500S1000
X4.1F7000S0
X1.3F1500S1000
X29.4F7000S0
X.6F1500S1000
X30.9F7000S0
X.6F1500S1000
X.8F7000S0
X2.3F1500S1000
X4.2F7000S0
X1.3F1500S1000
X29.4F7000S0
X.6F1500S1000
X30.9F7000S0
X.6F1500S1000
X.9F7000S0
X2.2F1500S1000
X4.2F7000S0
X1.3F1500S1000
X29.4F7000S0
X.7F1500S1000
X30.8F7000S0
X.6F1500S1000
X.9F7000S0
X2.3F1500S1000
X4.1F7000S0
X1.3F1500S1000
X.625F7000S0
Y.1
X-.625
X-1.4F1500S1000
X-3.9F7000S0
X-2.3F1500S1000
X-1F7000S0
X-.5F1500S1000
X-31F7000S0
X-.6F1500S1000
X-29.4F7000S0
X-1.4F1500S1000
X-3.9F7000S0
X-2.3F1500S1000
X-.9F7000S0
X-.6F1500S1000
X-31F7000S0
X-.7F1500S1000
X-29.3F7000S0
X-1.5F1500S1000
X-3.8F7000S0
X-2.3F1500S1000
X-.9F7000S0
X-.7F1500S1000
X-31F7000S0
X-.5F1500S1000
X-29.5F7000S0
X-1.3F1500S1000
X-4F7000S0
X-2.2F1500S1000
X-1F7000S0
X-.6F1500S1000
X-30.9F7000S0
X-.7F1500S1000
X-.625F7000S0
Y.1
X.625
X.6F1500S1000
X31.1F7000S0
X.6F1500S1000
X1.1F7000S0
X2.3F1500S1000
X3.5F7000S0
X1.4F1500S1000
X29.5F7000S0
X.7F1500S1000
X31F7000S0
X.6F1500S1000
X1.1F7000S0
X2.3F1500S1000
X3.5F7000S0
X1.5F1500S1000
X29.4F7000S0
X.6F1500S1000
X31.1F7000S0
X.7F1500S1000
X1F7000S0
X2.3F1500S1000
X3.5F7000S0
X1.5F1500S1000
X29.4F7000S0
X.6F1500S1000
X31.1F7000S0
X.6F1500S1000
X1.1F7000S0
X2.3F1500S1000
X3.6F7000S0
X1.4F1500S1000
X.625F7000S0
X-.1Y.1
X-.625
X-1.5F1500S1000
X-3.1F7000S0
X-2.4F1500S1000
X-1.2F7000S0
X-.7F1500S1000
X-31.1F7000S0
X-.7F1500S1000
X-29.4F7000S0
X-1.6F1500S1000
X-3.1F7000S0
X-2.3F1500S1000
X-1.2F7000S0
X-.7F1500S1000
X-31.2F7000S0
X-.6F1500S1000
X-29.4F7000S0
X-1.5F1500S1000
X-3.1F7000S0
X-2.4F1500S1000
X-1.2F7000S0
X-.7F1500S1000
X-31.1F7000S0
X-.7F1500S1000
X-29.4F7000S0
X-1.6F1500S1000
X-3.1F7000S0
X-2.4F1500S1000
X-1.1F7000S0
X-.7F1500S1000
X-31.2F7000S0
X-.6F1500S1000
X-.625F7000S0
Y.1
X.625
X.6F1500S1000
X31.3F7000S0
X.6F1500S1000
X1.4F7000S0
X2.5F1500S1000
X2.5F7000S0
X1.6F1500S1000
X29.5F7000S0
X.7F1500S1000
X31.3F7000S0
X.6F1500S1000
X1.4F7000S0
X2.4F1500S1000
X2.6F7000S0
X1.7F1500S1000
X29.5F7000S0
X.6F1500S1000
X31.3F7000S0
X.7F1500S1000
X1.3F7000S0
X2.4F1500S1000
X2.6F7000S0
X1.7F1500S1000
X29.5F7000S0
X.6F1500S1000
X31.3F7000S0
X.7F1500S1000
X1.3F7000S0
X2.4F1500S1000
X2.6F7000S0
X1.7F1500S1000
X.625F7000S0
X-.1Y.1
X-.625
X-1.9F1500S1000
X-1.9F7000S0
X-2.5F1500S1000
X-1.6F7000S0
X-.6F1500S1000
X-17.3F7000S0
X-.2F1500S1000
X-.1F7000S0
X-.3F1500S1000
X-.1F7000S0
X-1.7F1500S1000
X-11.7F7000S0
X-.7F1500S1000
X-29.6F7000S0
X-1.8F1500S1000
X-1.8F7000S0
X-2.6F1500S1000
X-1.6F7000S0
X-.7F1500S1000
X-17.2F7000S0
X-.1F1500S1000
X-.1F7000S0
X-1.2F1500S1000
X-.1F7000S0
X-.3F1500S1000
X-.1F7000S0
X-.2F1500S1000
X-.1F7000S0
X-.3F1500S1000
X-11.6F7000S0
X-.7F1500S1000
X-29.5F7000S0
X-1.9F1500S1000
X-1.8F7000S0
X-2.7F1500S1000
X-1.5F7000S0
X-.7F1500S1000
X-17.2F7000S0
X-.3F1500S1000
X-.1F7000S0
X-1.2F1500S1000
X-.1F7000S0
X-.4F1500S1000
X-.1F7000S0
X-.3F1500S1000
X-11.7F7000S0
X-.6F1500S1000
X-29.6F7000S0
X-1.8F1500S1000
X-1.9F7000S0
X-2.5F1500S1000
X-1.6F7000S0
X-.6F1500S1000
X-17.2F7000S0
X-.1F1500S1000
X-.1F7000S0
X-.3F1500S1000
X-.1F7000S0
X-2F1500S1000
X-11.6F7000S0
X-.7F1500S1000
X-.625F7000S0
X-.1Y.1
X.625
X.7F1500S1000
X11.7F7000S0
X4F1500S1000
X1.6F7000S0
X1.4F1500S1000
X12.8F7000S0
X.7F1500S1000
X1.7F7000S0
X2.6F1500S1000
X1.3F7000S0
X2F1500S1000
X29.6F7000S0
X.6F1500S1000
X11.8F7000S0
X4F1500S1000
X1.6F7000S0
X1.4F1500S1000
X12.9F7000S0
X.6F1500S1000
X1.6F7000S0
X2.7F1500S1000
X1.3F7000S0
X2.1F1500S1000
X29.6F7000S0
X.6F1500S1000
X11.7F7000S0
X4F1500S1000
X1.6F7000S0
X1.4F1500S1000
X12.8F7000S0
X.6F1500S1000
X1.8F7000S0
X2.6F1500S1000
X1.3F7000S0
X2.1F1500S1000
X29.6F7000S0
X.6F1500S1000
X11.7F7000S0
X4F1500S1000
X1.7F7000S0
X1.4F1500S1000
X12.8F7000S0
X.6F1500S1000
X1.7F7000S0
X2.6F1500S1000
X1.3F7000S0
X2.1F1500S1000
X.625F7000S0
X-.1Y.1
X-.625
X-5.8F1500S1000
X-1.8F7000S0
X-.6F1500S1000
X-12.5F7000S0
X-7.4F1500S1000
X-11.8F7000S0
X-.6F1500S1000
X-29.6F7000S0
X-5.8F1500S1000
X-1.8F7000S0
X-.6F1500S1000
X-12.6F7000S0
X-7.3F1500S1000
X-11.7F7000S0
X-.7F1500S1000
X-29.6F7000S0
X-5.8F1500S1000
X-1.8F7000S0
X-.6F1500S1000
X-12.6F7000S0
X-7.3F1500S1000
X-11.8F7000S0
X-.6F1500S1000
X-29.7F7000S0
X-5.7F1500S1000
X-1.8F7000S0
X-.6F1500S1000
X-12.6F7000S0
X-7.3F1500S1000
X-11.8F7000S0
X-.6F1500S1000
X-.625F7000S0
X-.1Y.1
X.625
X.7F1500S1000
X11.7F7000S0
X7.5F1500S1000
X12.5F7000S0
X.7F1500S1000
X1.9F7000S0
X5.5F1500S1000
X29.6F7000S0
X.7F1500S1000
X11.8F7000S0
X7.4F1500S1000
X12.5F7000S0
X.6F1500S1000
X2F7000S0
X5.5F1500S1000
X29.6F7000S0
X.7F1500S1000
X11.8F7000S0
X7.4F1500S1000
X12.5F7000S0
X.8F1500S1000
X1.8F7000S0
X5.5F1500S1000
X29.7F7000S0
X.6F1500S1000
X11.8F7000S0
X7.5F1500S1000
X12.5F7000S0
X.6F1500S1000
X1.9F7000S0
X5.5F1500S1000
X.625F7000S0
X-.2Y.1
X-.625
X-5.1F1500S1000
X-2.1F7000S0
X-.6F1500S1000
X-12.5F7000S0
X-7.5F1500S1000
X-11.9F7000S0
X-.6F1500S1000
X-29.7F7000S0
X-5.2F1500S1000
X-2.1F7000S0
X-.6F1500S1000
X-12.6F7000S0
X-7.4F1500S1000
X-11.9F7000S0
X-.6F1500S1000
X-29.8F7000S0
X-5.1F1500S1000
X-2.1F7000S0
X-.6F1500S1000
X-12.6F7000S0
X-7.4F1500S1000
X-11.9F7000S0
X-.6F1500S1000
X-29.8F7000S0
X-5.1F1500S1000
X-2.1F7000S0
X-.6F1500S1000
X-12.5F7000S0
X-7.5F1500S1000
X-11.9F7000S0
X-.6F1500S1000
X-.625F7000S0
X-.1Y.1
X.625
X.7F1500S1000
X12F7000S0
X7.4F1500S1000
X12.5F7000S0
X.7F1500S1000
X2.3F7000S0
X4.7F1500S1000
X29.8F7000S0
X.6F1500S1000
X12F7000S0
X7.5F1500S1000
X12.5F7000S0
X.7F1500S1000
X2.3F7000S0
X4.6F1500S1000
X29.9F7000S0
X.7F1500S1000
X11.9F7000S0
X7.5F1500S1000
X12.6F7000S0
X.6F1500S1000
X2.3F7000S0
X4.7F1500S1000
X29.8F7000S0
X.7F1500S1000
X11.9F7000S0
X7.5F1500S1000
X12.5F7000S0
X.8F1500S1000
X2.3F7000S0
X4.6F1500S1000
X.625F7000S0
X-.2Y.1
X-.625
X-4.3F1500S1000
X-2.5F7000S0
X-.6F1500S1000
X-12.6F7000S0
X-7.4F1500S1000
X-12.1F7000S0
X-.6F1500S1000
X-29.9F7000S0
X-4.4F1500S1000
X-2.5F7000S0
