; LightBurn Pro 2.0.05
; GRBL-LPC device profile, absolute coords
; Bounds: X17.46 Y12.6 to X282.81 Y197.4
G00 G17 G40 G21 G54
G90
M4
; Image @ 1500 мм/мин, 100% power
M8
G0 X31.956Y62.699
; Layer C00
G91
G1 X.625F7000S0
X.7F1500S1000
X69.4F7000S0
X.7F1500S1000
X69.4F7000S0
X.7F1500S1000
X69.4F7000S0
X.8F1500S1000
X.625F7000S0
X.1Y.1
X-.625
X-1.1F1500S1000
X-68.9F7000S0
X-1.1F1500S1000
X-69.1F7000S0
X-1.1F1500S1000
X-69F7000S0
X-1.1F1500S1000
X-.625F7000S0
X-.1Y.1
X.625
X1.4F1500S1000
X68.7F7000S0
X1.3F1500S1000
X68.8F7000S0
X1.4F1500S1000
X68.7F7000S0
X1.4F1500S1000
X.625F7000S0
X.1Y.1
X-.625
X-1.6F1500S1000
X-68.5F7000S0
X-1.6F1500S1000
X-68.5F7000S0
X-1.6F1500S1000
X-68.6F7000S0
X-1.5F1500S1000
X-.625F7000S0
X-.1Y.1
X.625
X.4F1500S1000
X.2F7000S0
X.1F1500S1000
X.4F7000S0
X.7F1500S1000
X68.3F7000S0
X.5F1500S1000
X.6F7000S0
X.7F1500S1000
X68.3F7000S0
X.5F1500S1000
X.7F7000S0
X.6F1500S1000
X68.3F7000S0
X.5F1500S1000
X.6F7000S0
X.8F1500S1000
X.625F7000S0
Y.1
X-.625
X-.7F1500S1000
X-1F7000S0
X-.3F1500S1000
X-68.1F7000S0
X-.8F1500S1000
X-.9F7000S0
X-.3F1500S1000
X-68.2F7000S0
X-.7F1500S1000
X-.9F7000S0
X-.3F1500S1000
X-68.1F7000S0
X-.7F1500S1000
X-.9F7000S0
X-.4F1500S1000
X-.625F7000S0
X-.1Y.1
X.625
X.4F1500S1000
X.8F7000S0
X.9F1500S1000
X68F7000S0
X.3F1500S1000
X.9F7000S0
X.9F1500S1000
X68.1F7000S0
X.3F1500S1000
X.8F7000S0
X.9F1500S1000
X68F7000S0
X.4F1500S1000
X.8F7000S0
X.9F1500S1000
X.625F7000S0
Y.1
X-.625
X-1.1F1500S1000
X-.7F7000S0
X-.4F1500S1000
X-67.8F7000S0
X-1.2F1500S1000
X-.7F7000S0
X-.4F1500S1000
X-67.9F7000S0
X-1.2F1500S1000
X-.6F7000S0
X-.4F1500S1000
X-67.9F7000S0
X-1.1F1500S1000
X-.7F7000S0
X-.4F1500S1000
X-.625F7000S0
Y.1
X.625
X.3F1500S1000
X.6F7000S0
X.6F1500S1000
X.2F7000S0
X.6F1500S1000
X67.8F7000S0
X.2F1500S1000
X.7F7000S0
X.6F1500S1000
X.3F7000S0
X.5F1500S1000
X67.8F7000S0
X.3F1500S1000
X.6F7000S0
X.6F1500S1000
X.3F7000S0
X.6F1500S1000
X67.7F7000S0
X.2F1500S1000
X.7F7000S0
X.6F1500S1000
X.3F7000S0
X.5F1500S1000
X.625F7000S0
X.1Y.1
X-.625
X-.6F1500S1000
X-.5F7000S0
X-.5F1500S1000
X-.7F7000S0
X-.1F1500S1000
X-67.8F7000S0
X-.6F1500S1000
X-.4F7000S0
X-.6F1500S1000
X-.5F7000S0
X-.3F1500S1000
X-67.6F7000S0
X-.6F1500S1000
X-.5F7000S0
X-.6F1500S1000
X-.6F7000S0
X-.1F1500S1000
X-67.7F7000S0
X-.7F1500S1000
X-.4F7000S0
X-.5F1500S1000
X-.6F7000S0
X-.3F1500S1000
X-.625F7000S0
Y.1
X.625
X.2F1500S1000
X.5F7000S0
X.6F1500S1000
X.4F7000S0
X.8F1500S1000
X67.6F7000S0
X.2F1500S1000
X.4F7000S0
X.6F1500S1000
X.5F7000S0
X.8F1500S1000
X67.6F7000S0
X.2F1500S1000
X.5F7000S0
X.6F1500S1000
X.4F7000S0
X.8F1500S1000
X67.7F7000S0
X.1F1500S1000
X.5F7000S0
X.6F1500S1000
X.4F7000S0
X.8F1500S1000
X.625F7000S0
Y.1
X-.625
X-1F1500S1000
X-.3F7000S0
X-.6F1500S1000
X-.4F7000S0
X-.2F1500S1000
X-67.6F7000S0
X-1F1500S1000
X-.4F7000S0
X-.5F1500S1000
X-.4F7000S0
X-.3F1500S1000
X-67.5F7000S0
X-1F1500S1000
X-.4F7000S0
X-.6F1500S1000
X-.3F7000S0
X-.3F1500S1000
X-67.5F7000S0
X-1F1500S1000
X-.4F7000S0
X-.5F1500S1000
X-.4F7000S0
X-.2F1500S1000
X-.625F7000S0
X-.1Y.1
X.625
X.2F1500S1000
X.3F7000S0
X.6F1500S1000
X.3F7000S0
X.6F1500S1000
X.3F7000S0
X.4F1500S1000
X67.4F7000S0
X.2F1500S1000
X.3F7000S0
X.6F1500S1000
X.3F7000S0
X.6F1500S1000
X.2F7000S0
X.5F1500S1000
X67.4F7000S0
X.3F1500S1000
X.2F7000S0
X.5F1500S1000
X.4F7000S0
X.6F1500S1000
X.3F7000S0
X.4F1500S1000
X67.5F7000S0
X.2F1500S1000
X.2F7000S0
X.6F1500S1000
X.3F7000S0
X.6F1500S1000
X.3F7000S0
X.4F1500S1000
X.625F7000S0
Y.1
X-.625
X-.4F1500S1000
X-.5F7000S0
X-.5F1500S1000
X-.3F7000S0
X-.5F1500S1000
X-.3F7000S0
X-.2F1500S1000
X-67.5F7000S0
X-.3F1500S1000
X-.5F7000S0
X-.5F1500S1000
X-.4F7000S0
X-.4F1500S1000
X-.3F7000S0
X-.2F1500S1000
X-67.4F7000S0
X-.4F1500S1000
X-.5F7000S0
X-.5F1500S1000
X-.4F7000S0
X-.4F1500S1000
X-.3F7000S0
X-.2F1500S1000
X-67.4F7000S0
X-.4F1500S1000
X-.5F7000S0
X-.6F1500S1000
X-.2F7000S0
X-.5F1500S1000
X-.3F7000S0
X-.2F1500S1000
X-.625F7000S0
X-.1Y.1
X.625
X.3F1500S1000
X.3F7000S0
X.1F1500S1000
X.1F7000S0
X.1F1500S1000
X.3F7000S0
X.4F1500S1000
X.7F7000S0
X.5F1500S1000
X67.3F7000S0
X.3F1500S1000
X.3F7000S0
X.2F1500S1000
X.4F7000S0
X.5F1500S1000
X.6F7000S0
X.5F1500S1000
X67.3F7000S0
X.2F1500S1000
X.5F7000S0
X.1F1500S1000
X.3F7000S0
X.6F1500S1000
X.7F7000S0
X.4F1500S1000
X67.3F7000S0
X.3F1500S1000
X.3F7000S0
X.3F1500S1000
X.3F7000S0
X.4F1500S1000
X.1F7000S0
X.1F1500S1000
X.5F7000S0
X.5F1500S1000
X.625F7000S0
X.1Y.1
X-.625
X-.7F1500S1000
X-.7F7000S0
X-.5F1500S1000
X-.7F7000S0
X-.3F1500S1000
X-67.3F7000S0
X-.6F1500S1000
X-.8F7000S0
X-.4F1500S1000
X-.8F7000S0
X-.2F1500S1000
X-67.2F7000S0
X-.7F1500S1000
X-.7F7000S0
X-.6F1500S1000
X-.7F7000S0
X-.2F1500S1000
X-67.2F7000S0
X-.7F1500S1000
X-.8F7000S0
X-.4F1500S1000
X-.8F7000S0
X-.2F1500S1000
X-.625F7000S0
Y.1
X.625
X.2F1500S1000
X.7F7000S0
X.4F1500S1000
X.7F7000S0
X.9F1500S1000
X67.2F7000S0
X.2F1500S1000
X.6F7000S0
X.5F1500S1000
X.6F7000S0
X.9F1500S1000
X67.2F7000S0
X.3F1500S1000
X.7F7000S0
X.4F1500S1000
X.7F7000S0
X.8F1500S1000
X67.3F7000S0
X.3F1500S1000
X.6F7000S0
X.4F1500S1000
X.7F7000S0
X.9F1500S1000
X.625F7000S0
Y.1
X-.625
X-.4F1500S1000
X-.2F7000S0
X-.4F1500S1000
X-.8F7000S0
X-.3F1500S1000
X-.6F7000S0
X-.3F1500S1000
X-67.2F7000S0
X-.3F1500S1000
X-.2F7000S0
X-.5F1500S1000
X-.7F7000S0
X-.3F1500S1000
X-.6F7000S0
X-.3F1500S1000
X-67.1F7000S0
X-.4F1500S1000
X-.2F7000S0
X-.5F1500S1000
X-.7F7000S0
X-.4F1500S1000
X-.5F7000S0
X-.3F1500S1000
X-67.1F7000S0
X-.4F1500S1000
X-.2F7000S0
X-.5F1500S1000
X-.8F7000S0
X-.2F1500S1000
X-.6F7000S0
X-.3F1500S1000
X-.625F7000S0
Y.1
X.625
X.2F1500S1000
X.7F7000S0
X.1F1500S1000
X.8F7000S0
X.4F1500S1000
X.4F7000S0
X.4F1500S1000
X67.1F7000S0
X.2F1500S1000
X.7F7000S0
X.1F1500S1000
X.8F7000S0
X.5F1500S1000
X.3F7000S0
X.4F1500S1000
X67.2F7000S0
X.1F1500S1000
X.7F7000S0
X.1F1500S1000
X.8F7000S0
X.4F1500S1000
X.5F7000S0
X.3F1500S1000
X67.1F7000S0
X.3F1500S1000
X.6F7000S0
X.1F1500S1000
X.8F7000S0
X.5F1500S1000
X.3F7000S0
X.4F1500S1000
X.625F7000S0
X.1Y.1
X-.625
X-.4F1500S1000
X-.6F7000S0
X-.5F1500S1000
X-1.3F7000S0
X-.3F1500S1000
X-67.1F7000S0
X-.4F1500S1000
X-.5F7000S0
X-.6F1500S1000
X-1.3F7000S0
X-.2F1500S1000
X-67.1F7000S0
X-.4F1500S1000
X-.6F7000S0
X-.4F1500S1000
X-1.4F7000S0
X-.2F1500S1000
X-67.1F7000S0
X-.4F1500S1000
X-.5F7000S0
X-.5F1500S1000
X-1.4F7000S0
X-.2F1500S1000
X-.625F7000S0
Y.1
X.625
X.2F1500S1000
X1.1F7000S0
X.6F1500S1000
X.7F7000S0
X.4F1500S1000
X67.1F7000S0
X.3F1500S1000
X1.1F7000S0
X.5F1500S1000
X.7F7000S0
X.4F1500S1000
X67.1F7000S0
X.2F1500S1000
X1.2F7000S0
X.5F1500S1000
X.6F7000S0
X.5F1500S1000
X67.1F7000S0
X.2F1500S1000
X1.1F7000S0
X.6F1500S1000
X.7F7000S0
X.5F1500S1000
X.625F7000S0
Y.1
X-.625
X-.7F1500S1000
X-.7F7000S0
X-.6F1500S1000
X-.9F7000S0
X-.2F1500S1000
X-67.1F7000S0
X-.7F1500S1000
X-.6F7000S0
X-.5F1500S1000
X-1F7000S0
X-.1F1500S1000
X-67.2F7000S0
X-.6F1500S1000
X-.7F7000S0
X-.6F1500S1000
X-.9F7000S0
X-.2F1500S1000
X-67.1F7000S0
X-.6F1500S1000
X-.7F7000S0
X-.6F1500S1000
X-.9F7000S0
X-.2F1500S1000
X-.625F7000S0
X-.1Y.1
X.625
X.3F1500S1000
X.8F7000S0
X.5F1500S1000
X.7F7000S0
X.8F1500S1000
X67.1F7000S0
X.2F1500S1000
X.8F7000S0
X.5F1500S1000
X.7F7000S0
X.9F1500S1000
X67F7000S0
X.1F1500S1000
X.9F7000S0
X.5F1500S1000
X.8F7000S0
X.7F1500S1000
X67.1F7000S0
X.2F1500S1000
X.8F7000S0
X.5F1500S1000
X.7F7000S0
X.9F1500S1000
X.625F7000S0
Y.1
X-.625
X-1.1F1500S1000
X-.6F7000S0
X-.4F1500S1000
X-.8F7000S0
X-.3F1500S1000
X-67F7000S0
X-.9F1500S1000
X-.7F7000S0
X-.4F1500S1000
X-.9F7000S0
X-.2F1500S1000
X-67F7000S0
X-1F1500S1000
X-.7F7000S0
X-.4F1500S1000
X-.7F7000S0
X-.3F1500S1000
X-66.9F7000S0
X-1.1F1500S1000
X-.6F7000S0
X-.5F1500S1000
X-.7F7000S0
X-.3F1500S1000
X-.625F7000S0
Y.1
X.625
X.3F1500S1000
X.8F7000S0
X.2F1500S1000
X.7F7000S0
X1.1F1500S1000
X67F7000S0
X.2F1500S1000
X.8F7000S0
X.2F1500S1000
X.8F7000S0
X1.1F1500S1000
X67.1F7000S0
X.1F1500S1000
X.9F7000S0
X.2F1500S1000
X.7F7000S0
X1.1F1500S1000
X67F7000S0
X.3F1500S1000
X.8F7000S0
X.2F1500S1000
X.7F7000S0
X1.2F1500S1000
X.625F7000S0
X-.1Y.1
X-.625
X-.3F1500S1000
X-.5F7000S0
X-.5F1500S1000
X-1.5F7000S0
X-.3F1500S1000
X-67F7000S0
X-.3F1500S1000
X-.5F7000S0
X-.5F1500S1000
X-1.5F7000S0
X-.2F1500S1000
X-67.1F7000S0
X-.4F1500S1000
X-.4F7000S0
X-.6F1500S1000
X-1.4F7000S0
X-.3F1500S1000
X-67F7000S0
X-.3F1500S1000
X-.6F7000S0
X-.4F1500S1000
X-1.6F7000S0
X-.2F1500S1000
X-.625F7000S0
Y.1
X.625
X.2F1500S1000
X1.4F7000S0
X.5F1500S1000
X.6F7000S0
X.4F1500S1000
X33.6F7000S0
X.3F1500S1000
X33.1F7000S0
X.2F1500S1000
X1.4F7000S0
X.5F1500S1000
X.6F7000S0
X.4F1500S1000
X33.6F7000S0
X.3F1500S1000
X33.1F7000S0
X.2F1500S1000
X1.4F7000S0
X.4F1500S1000
X.7F7000S0
X.3F1500S1000
X33.6F7000S0
X.5F1500S1000
X33F7000S0
X.2F1500S1000
X1.4F7000S0
X.5F1500S1000
X.6F7000S0
X.4F1500S1000
X33.6F7000S0
X.4F1500S1000
X.625F7000S0
X.3Y.1
X-.625
X-1F1500S1000
X-33.3F7000S0
X-.6F1500S1000
X-.7F7000S0
X-.4F1500S1000
X-1.2F7000S0
X-.2F1500S1000
X-32.6F7000S0
X-1F1500S1000
X-33.5F7000S0
X-.5F1500S1000
X-.7F7000S0
X-.5F1500S1000
X-1.2F7000S0
X-.1F1500S1000
X-32.7F7000S0
X-1F1500S1000
X-33.4F7000S0
X-.5F1500S1000
X-.7F7000S0
X-.4F1500S1000
X-1.2F7000S0
X-.3F1500S1000
X-32.6F7000S0
X-1F1500S1000
X-33.3F7000S0
X-.6F1500S1000
X-.7F7000S0
X-.5F1500S1000
X-1.1F7000S0
X-.2F1500S1000
X-.625F7000S0
X-.1Y.1
X.625
X.3F1500S1000
X1F7000S0
X.5F1500S1000
X.6F7000S0
X.8F1500S1000
X33.2F7000S0
X1.3F1500S1000
X32.4F7000S0
X.3F1500S1000
X1.1F7000S0
X.4F1500S1000
X.7F7000S0
X.7F1500S1000
X33.2F7000S0
X1.3F1500S1000
X32.5F7000S0
X.2F1500S1000
X1.1F7000S0
X.5F1500S1000
X.5F7000S0
X.7F1500S1000
X33.3F7000S0
X1.3F1500S1000
X32.4F7000S0
X.3F1500S1000
X1.1F7000S0
X.4F1500S1000
X.7F7000S0
X.7F1500S1000
X33.2F7000S0
X1.3F1500S1000
X.625F7000S0
X.1Y.1
X-.625
X-.8F1500S1000
X-.3F7000S0
X-.4F1500S1000
X-33.2F7000S0
X-.8F1500S1000
X-.7F7000S0
X-.3F1500S1000
X-1F7000S0
X-.2F1500S1000
X-32.5F7000S0
X-.8F1500S1000
X-.2F7000S0
X-.5F1500S1000
X-33.2F7000S0
X-.7F1500S1000
X-.7F7000S0
X-.3F1500S1000
X-1F7000S0
X-.2F1500S1000
X-32.4F7000S0
X-.9F1500S1000
X-.3F7000S0
X-.4F1500S1000
X-33.1F7000S0
X-.8F1500S1000
X-.7F7000S0
X-.3F1500S1000
X-1.1F7000S0
X-.2F1500S1000
X-32.3F7000S0
X-.8F1500S1000
X-.3F7000S0
X-.5F1500S1000
X-33.1F7000S0
X-.9F1500S1000
X-.7F7000S0
X-.2F1500S1000
X-1F7000S0
X-.3F1500S1000
X-.625F7000S0
Y.1
X.625
X.2F1500S1000
X1.9F7000S0
X1F1500S1000
X33.1F7000S0
X.3F1500S1000
X.4F7000S0
X.3F1500S1000
X.1F7000S0
X.6F1500S1000
X32.1F7000S0
X.3F1500S1000
X1.1F7000S0
X.1F1500S1000
X.7F7000S0
X.9F1500S1000
X33.1F7000S0
X.4F1500S1000
X.3F7000S0
X.4F1500S1000
X.1F7000S0
X.6F1500S1000
X32.2F7000S0
X.2F1500S1000
X1.1F7000S0
X.1F1500S1000
X.7F7000S0
X.5F1500S1000
X.1F7000S0
X.3F1500S1000
X33.1F7000S0
X.4F1500S1000
X.4F7000S0
X.2F1500S1000
X.2F7000S0
X.6F1500S1000
X32.2F7000S0
X.2F1500S1000
X1.2F7000S0
X.1F1500S1000
X.6F7000S0
X1F1500S1000
X33.1F7000S0
X.4F1500S1000
X.3F7000S0
X1F1500S1000
X.625F7000S0
X.1Y.1
X-.625
X-.6F1500S1000
X-.3F7000S0
X-.3F1500S1000
X-.3F7000S0
X-.5F1500S1000
X-33F7000S0
X-.3F1500S1000
X-.3F7000S0
X-.5F1500S1000
X-1.7F7000S0
X-.3F1500S1000
X-32F7000S0
X-.6F1500S1000
X-.4F7000S0
X-.2F1500S1000
X-.4F7000S0
X-.4F1500S1000
X-32.9F7000S0
X-.4F1500S1000
X-.3F7000S0
X-.5F1500S1000
X-1.6F7000S0
X-.4F1500S1000
X-32F7000S0
X-.6F1500S1000
X-.4F7000S0
X-.3F1500S1000
X-.3F7000S0
X-.4F1500S1000
X-33F7000S0
X-.3F1500S1000
X-.4F7000S0
X-.5F1500S1000
X-1.6F7000S0
X-.3F1500S1000
X-32.1F7000S0
X-.5F1500S1000
X-.3F7000S0
X-.4F1500S1000
X-.3F7000S0
X-.4F1500S1000
X-33F7000S0
X-.3F1500S1000
X-.3F7000S0
X-.5F1500S1000
X-1.7F7000S0
X-.3F1500S1000
X-.625F7000S0
X-.1Y.1
X.625
X.3F1500S1000
X1.6F7000S0
X.5F1500S1000
X.5F7000S0
X.2F1500S1000
X33F7000S0
X.5F1500S1000
X.2F7000S0
X.3F1500S1000
X.3F7000S0
X.8F1500S1000
X31.9F7000S0
X.3F1500S1000
X1.6F7000S0
X.5F1500S1000
X.4F7000S0
X.3F1500S1000
X33F7000S0
X.5F1500S1000
X.2F7000S0
X.3F1500S1000
X.4F7000S0
X.8F1500S1000
X31.8F7000S0
X.4F1500S1000
X1.5F7000S0
X.5F1500S1000
X.5F7000S0
X.3F1500S1000
X33F7000S0
X.4F1500S1000
X.2F7000S0
X.3F1500S1000
X.3F7000S0
X.8F1500S1000
X32F7000S0
X.3F1500S1000
X1.6F7000S0
X.4F1500S1000
X.5F7000S0
X.2F1500S1000
X33F7000S0
X.5F1500S1000
X.2F7000S0
X.3F1500S1000
X.4F7000S0
X.8F1500S1000
X.625F7000S0
X.1Y.1
X-.625
X-.5F1500S1000
X-.2F7000S0
X-.3F1500S1000
X-.4F7000S0
X-.3F1500S1000
X-.1F7000S0
X-.5F1500S1000
X-33F7000S0
X-.2F1500S1000
X-.6F7000S0
X-.5F1500S1000
X-1.5F7000S0
X-.3F1500S1000
X-31.8F7000S0
X-.4F1500S1000
X-.2F7000S0
X-.4F1500S1000
X-.3F7000S0
X-.3F1500S1000
X-.2F7000S0
X-.4F1500S1000
X-33F7000S0
X-.3F1500S1000
X-.5F7000S0
X-.6F1500S1000
X-1.3F7000S0
X-.4F1500S1000
X-31.8F7000S0
X-.4F1500S1000
X-.2F7000S0
X-.3F1500S1000
X-.4F7000S0
X-.3F1500S1000
X-.2F7000S0
X-.4F1500S1000
X-33F7000S0
X-.2F1500S1000
X-.7F7000S0
X-.4F1500S1000
X-1.5F7000S0
X-.3F1500S1000
X-31.8F7000S0
X-.4F1500S1000
X-.2F7000S0
X-.3F1500S1000
X-.4F7000S0
X-.4F1500S1000
X-.1F7000S0
X-.4F1500S1000
X-33F7000S0
X-.3F1500S1000
X-.5F7000S0
X-.6F1500S1000
X-1.4F7000S0
X-.3F1500S1000
X-.625F7000S0
X-.1Y.1
X.625
X.4F1500S1000
X1.4F7000S0
X.4F1500S1000
X.7F7000S0
X.2F1500S1000
X33F7000S0
X.5F1500S1000
X.2F7000S0
X.2F1500S1000
X.3F7000S0
X.4F1500S1000
X.4F7000S0
X.3F1500S1000
X31.8F7000S0
X.3F1500S1000
X1.4F7000S0
X.4F1500S1000
X.7F7000S0
X.2F1500S1000
X33F7000S0
X.5F1500S1000
X.1F7000S0
X.3F1500S1000
X.3F7000S0
X.4F1500S1000
X.4F7000S0
X.3F1500S1000
X31.7F7000S0
X.4F1500S1000
X1.3F7000S0
X.5F1500S1000
X.7F7000S0
X.3F1500S1000
X33F7000S0
X.4F1500S1000
X.1F7000S0
X.3F1500S1000
X.4F7000S0
X.3F1500S1000
X.3F7000S0
X.5F1500S1000
X31.7F7000S0
X.3F1500S1000
X1.4F7000S0
X.5F1500S1000
X.6F7000S0
X.2F1500S1000
X33F7000S0
X.5F1500S1000
X.1F7000S0
X.4F1500S1000
X.2F7000S0
X.5F1500S1000
X.3F7000S0
X.3F1500S1000
X.625F7000S0
X.1Y.1
X-.625
X-.4F1500S1000
X-.5F7000S0
X-.4F1500S1000
X-.2F7000S0
X-.8F1500S1000
X-33.1F7000S0
X-.2F1500S1000
X-.8F7000S0
X-.5F1500S1000
X-1.2F7000S0
X-.4F1500S1000
X-31.6F7000S0
X-.5F1500S1000
X-.4F7000S0
X-.4F1500S1000
X-.3F7000S0
X-.7F1500S1000
X-33.1F7000S0
X-.3F1500S1000
X-.8F7000S0
X-.4F1500S1000
X-1.2F7000S0
X-.5F1500S1000
X-31.5F7000S0
X-.5F1500S1000
X-.4F7000S0
X-.4F1500S1000
X-.2F7000S0
X-.9F1500S1000
X-33F7000S0
X-.3F1500S1000
X-.7F7000S0
X-.5F1500S1000
X-1.3F7000S0
X-.3F1500S1000
X-31.7F7000S0
X-.4F1500S1000
X-.4F7000S0
X-.4F1500S1000
X-.3F7000S0
X-.8F1500S1000
X-33F7000S0
X-.3F1500S1000
X-.8F7000S0
X-.4F1500S1000
X-1.2F7000S0
X-.4F1500S1000
X-.625F7000S0
X-.2Y.1
X.625
X.5F1500S1000
X1.1F7000S0
X.5F1500S1000
X.9F7000S0
X.2F1500S1000
X33F7000S0
X.8F1500S1000
X.3F7000S0
X.3F1500S1000
X.5F7000S0
X.6F1500S1000
X31.5F7000S0
X.4F1500S1000
X1.2F7000S0
X.4F1500S1000
X.8F7000S0
X.3F1500S1000
X33.1F7000S0
X.8F1500S1000
X.2F7000S0
X.3F1500S1000
X.5F7000S0
X.6F1500S1000
X31.4F7000S0
X.5F1500S1000
X1.1F7000S0
X.5F1500S1000
X.8F7000S0
X.3F1500S1000
X33F7000S0
X.9F1500S1000
X.2F7000S0
X.4F1500S1000
X.4F7000S0
X.6F1500S1000
X31.5F7000S0
X.4F1500S1000
X1.2F7000S0
X.4F1500S1000
X.9F7000S0
X.3F1500S1000
X33F7000S0
X.8F1500S1000
X.3F7000S0
X.2F1500S1000
X.6F7000S0
X.5F1500S1000
X.625F7000S0
Y.1
X-.625
X-.7F1500S1000
X-.5F7000S0
X-.2F1500S1000
X-.3F7000S0
X-.8F1500S1000
X-33F7000S0
X-.3F1500S1000
X-1F7000S0
X-.3F1500S1000
X-1.1F7000S0
X-.6F1500S1000
X-31.3F7000S0
X-.7F1500S1000
X-.5F7000S0
X-.2F1500S1000
X-.4F7000S0
X-.7F1500S1000
X-33.1F7000S0
X-.3F1500S1000
X-.9F7000S0
X-.4F1500S1000
X-1F7000S0
X-.6F1500S1000
X-31.3F7000S0
X-.7F1500S1000
X-.6F7000S0
X-.1F1500S1000
X-.4F7000S0
X-.7F1500S1000
X-33F7000S0
X-.4F1500S1000
X-.9F7000S0
X-.4F1500S1000
X-1F7000S0
X-.6F1500S1000
X-31.3F7000S0
X-.7F1500S1000
X-.6F7000S0
X-.2F1500S1000
X-.2F7000S0
X-.8F1500S1000
X-33F7000S0
X-.4F1500S1000
X-.9F7000S0
X-.4F1500S1000
X-1F7000S0
X-.6F1500S1000
X-.625F7000S0
X-.1Y.1
X.625
X.6F1500S1000
X1F7000S0
X.4F1500S1000
X.9F7000S0
X.4F1500S1000
X33.1F7000S0
X.6F1500S1000
X.3F7000S0
X.3F1500S1000
X.5F7000S0
X.4F1500S1000
X.1F7000S0
X.3F1500S1000
X31.2F7000S0
X.6F1500S1000
X1F7000S0
X.4F1500S1000
X.9F7000S0
X.4F1500S1000
X33F7000S0
X.7F1500S1000
X.4F7000S0
X.2F1500S1000
X.5F7000S0
X.4F1500S1000
X.1F7000S0
X.4F1500S1000
X31F7000S0
X.7F1500S1000
X1F7000S0
X.4F1500S1000
X.8F7000S0
X.5F1500S1000
X33.1F7000S0
X.7F1500S1000
X.2F7000S0
X.3F1500S1000
X.4F7000S0
X.5F1500S1000
X.1F7000S0
X.3F1500S1000
X31.2F7000S0
X.7F1500S1000
X.9F7000S0
X.4F1500S1000
X.9F7000S0
X.4F1500S1000
X33.1F7000S0
X.7F1500S1000
X.3F7000S0
X.2F1500S1000
X.5F7000S0
X.4F1500S1000
X.1F7000S0
X.4F1500S1000
X.625F7000S0
Y.1
X-.625
X-.3F1500S1000
X-.3F7000S0
X-.4F1500S1000
X-.5F7000S0
X-.2F1500S1000
X-.3F7000S0
X-.6F1500S1000
X-33.1F7000S0
X-.6F1500S1000
X-.8F7000S0
X-.4F1500S1000
X-.9F7000S0
X-.8F1500S1000
X-30.9F7000S0
X-.4F1500S1000
X-.3F7000S0
X-.3F1500S1000
X-.5F7000S0
X-.2F1500S1000
X-.3F7000S0
X-.7F1500S1000
X-33F7000S0
X-.6F1500S1000
X-.8F7000S0
X-.4F1500S1000
X-1F7000S0
X-.7F1500S1000
X-30.9F7000S0
X-.3F1500S1000
X-.3F7000S0
X-.4F1500S1000
X-.5F7000S0
X-.2F1500S1000
X-.4F7000S0
X-.5F1500S1000
X-33.2F7000S0
X-.5F1500S1000
X-.9F7000S0
X-.3F1500S1000
X-.9F7000S0
X-.8F1500S1000
X-31F7000S0
X-.2F1500S1000
X-.4F7000S0
X-.3F1500S1000
X-.5F7000S0
X-.3F1500S1000
X-.2F7000S0
X-.6F1500S1000
X-33.1F7000S0
X-.6F1500S1000
X-.9F7000S0
X-.3F1500S1000
X-.9F7000S0
X-.8F1500S1000
X-.625F7000S0
X-.1Y.1
X.625
X.8F1500S1000
X.9F7000S0
X.3F1500S1000
X.8F7000S0
X.8F1500S1000
X33F7000S0
X.6F1500S1000
X.2F7000S0
X.3F1500S1000
X.5F7000S0
X.3F1500S1000
X.5F7000S0
X.2F1500S1000
X30.9F7000S0
X.8F1500S1000
X.9F7000S0
X.3F1500S1000
X.9F7000S0
X.7F1500S1000
X33F7000S0
X.6F1500S1000
X.2F7000S0
X.3F1500S1000
X.5F7000S0
X.4F1500S1000
X.3F7000S0
X.4F1500S1000
X30.8F7000S0
X.8F1500S1000
X.9F7000S0
X.3F1500S1000
X.8F7000S0
X.8F1500S1000
X33F7000S0
X.6F1500S1000
X.3F7000S0
X.1F1500S1000
X.6F7000S0
X.3F1500S1000
X.4F7000S0
X.3F1500S1000
X30.9F7000S0
X.8F1500S1000
X.9F7000S0
X.3F1500S1000
X.9F7000S0
X.7F1500S1000
X33F7000S0
X.6F1500S1000
X.3F7000S0
X.2F1500S1000
X.5F7000S0
X.4F1500S1000
X.4F7000S0
X.3F1500S1000
X.625F7000S0
Y.1
X-.625
X-.4F1500S1000
X-.5F7000S0
X-.3F1500S1000
X-.5F7000S0
X-.2F1500S1000
X-.2F7000S0
X-.6F1500S1000
X-33F7000S0
X-.9F1500S1000
X-.8F7000S0
X-.2F1500S1000
X-1F7000S0
X-.8F1500S1000
X-30.7F7000S0
X-.4F1500S1000
X-.4F7000S0
X-.4F1500S1000
X-.5F7000S0
X-.2F1500S1000
X-.3F7000S0
X-.5F1500S1000
X-33F7000S0
X-.9F1500S1000
X-.9F7000S0
X-.1F1500S1000
X-1F7000S0
X-.8F1500S1000
X-30.7F7000S0
X-.4F1500S1000
X-.5F7000S0
X-.3F1500S1000
X-.5F7000S0
X-.2F1500S1000
X-.2F7000S0
X-.6F1500S1000
X-33F7000S0
X-.9F1500S1000
X-.9F7000S0
X-.1F1500S1000
X-1F7000S0
X-.8F1500S1000
X-30.7F7000S0
X-.5F1500S1000
X-.4F7000S0
X-.3F1500S1000
X-.5F7000S0
X-.1F1500S1000
X-.4F7000S0
X-.5F1500S1000
X-33F7000S0
X-.9F1500S1000
X-.8F7000S0
X-.2F1500S1000
X-1F7000S0
X-.8F1500S1000
X-.625F7000S0
X-.2Y.1
X.625
X.9F1500S1000
X1.8F7000S0
X.6F1500S1000
X.1F7000S0
X.5F1500S1000
X33F7000S0
X.5F1500S1000
X.3F7000S0
X.1F1500S1000
X.4F7000S0
X.4F1500S1000
X.4F7000S0
X.6F1500S1000
X30.5F7000S0
X.9F1500S1000
X1.8F7000S0
X.7F1500S1000
X.1F7000S0
X.3F1500S1000
X33F7000S0
X.6F1500S1000
X.3F7000S0
X.1F1500S1000
X.5F7000S0
X.3F1500S1000
X.5F7000S0
X.5F1500S1000
X30.6F7000S0
X.8F1500S1000
X1.9F7000S0
X.4F1500S1000
X.1F7000S0
X.1F1500S1000
X.1F7000S0
X.4F1500S1000
X33F7000S0
X.5F1500S1000
X.3F7000S0
X.1F1500S1000
X.4F7000S0
X.4F1500S1000
X.4F7000S0
X.6F1500S1000
X30.5F7000S0
X.9F1500S1000
X1.8F7000S0
X.6F1500S1000
X.1F7000S0
X.5F1500S1000
X33F7000S0
X.5F1500S1000
X.9F7000S0
X.3F1500S1000
X.5F7000S0
X.6F1500S1000
X.625F7000S0
X.1Y.1
X-.625
X-.9F1500S1000
X-.5F7000S0
X-.2F1500S1000
X-.8F7000S0
X-.5F1500S1000
X-33F7000S0
X-.3F1500S1000
X-.5F7000S0
X-.4F1500S1000
X-1.9F7000S0
X-.9F1500S1000
X-30.3F7000S0
X-.8F1500S1000
X-.4F7000S0
X-.4F1500S1000
X-.8F7000S0
X-.4F1500S1000
X-33F7000S0
X-.4F1500S1000
X-.4F7000S0
X-.5F1500S1000
X-1.9F7000S0
X-.8F1500S1000
X-30.3F7000S0
X-.8F1500S1000
X-.4F7000S0
X-.3F1500S1000
X-.8F7000S0
X-.5F1500S1000
X-33F7000S0
X-.3F1500S1000
X-.5F7000S0
X-.5F1500S1000
X-1.8F7000S0
X-.9F1500S1000
X-30.3F7000S0
X-.8F1500S1000
X-.5F7000S0
X-.3F1500S1000
X-.8F7000S0
X-.4F1500S1000
X-33F7000S0
X-.3F1500S1000
X-.5F7000S0
X-.5F1500S1000
X-1.9F7000S0
X-.8F1500S1000
X-.625F7000S0
X-.1Y.1
X.625
X.8F1500S1000
X1.9F7000S0
X.4F1500S1000
X.6F7000S0
X.4F1500S1000
X32.9F7000S0
X.5F1500S1000
X.8F7000S0
X.1F1500S1000
X.6F7000S0
X.4F1500S1000
X.1F7000S0
X.6F1500S1000
X30.1F7000S0
X.7F1500S1000
X1.8F7000S0
X.4F1500S1000
X.7F7000S0
X.4F1500S1000
X32.9F7000S0
X.5F1500S1000
X.8F7000S0
X.2F1500S1000
X.4F7000S0
X.5F1500S1000
X.1F7000S0
X.6F1500S1000
X30.1F7000S0
X.6F1500S1000
X1.9F7000S0
X.5F1500S1000
X.6F7000S0
X.4F1500S1000
X33F7000S0
X.4F1500S1000
X.8F7000S0
X.2F1500S1000
X.5F7000S0
X.4F1500S1000
X.1F7000S0
X.7F1500S1000
X30F7000S0
X.7F1500S1000
X1.9F7000S0
X.4F1500S1000
X.7F7000S0
X.4F1500S1000
X32.8F7000S0
X.5F1500S1000
X.8F7000S0
X.2F1500S1000
X.5F7000S0
X1.2F1500S1000
X.625F7000S0
X.2Y.1
X-.625
X-.8F1500S1000
X-.3F7000S0
X-.4F1500S1000
X-.4F7000S0
X-.2F1500S1000
X-.8F7000S0
X-.4F1500S1000
X-32.9F7000S0
X-.5F1500S1000
X-.8F7000S0
X-.4F1500S1000
X-1.9F7000S0
X-.6F1500S1000
X-29.7F7000S0
X-.9F1500S1000
X-.3F7000S0
X-.3F1500S1000
X-.5F7000S0
X-.1F1500S1000
X-.8F7000S0
X-.5F1500S1000
X-32.8F7000S0
X-.6F1500S1000
X-.7F7000S0
X-.5F1500S1000
X-1.8F7000S0
X-.6F1500S1000
X-29.7F7000S0
X-.9F1500S1000
X-.2F7000S0
X-.5F1500S1000
X-.4F7000S0
X-.2F1500S1000
X-.7F7000S0
X-.4F1500S1000
X-32.9F7000S0
X-.6F1500S1000
X-.7F7000S0
X-.5F1500S1000
X-1.8F7000S0
X-.6F1500S1000
X-29.7F7000S0
X-.9F1500S1000
X-.2F7000S0
X-.4F1500S1000
X-.4F7000S0
X-.2F1500S1000
X-.8F7000S0
X-.5F1500S1000
X-32.8F7000S0
X-.6F1500S1000
X-.7F7000S0
X-.4F1500S1000
X-1.9F7000S0
X-.7F1500S1000
X-.625F7000S0
Y.1
X.625
X.5F1500S1000
X2F7000S0
X.3F1500S1000
X.9F7000S0
X.6F1500S1000
X32.8F7000S0
X.5F1500S1000
X1.2F7000S0
X.5F1500S1000
X.3F7000S0
X1.1F1500S1000
X29.4F7000S0
X.5F1500S1000
X2F7000S0
X.4F1500S1000
X.7F7000S0
X.6F1500S1000
X32.9F7000S0
X.5F1500S1000
X1.2F7000S0
X.5F1500S1000
X.3F7000S0
X1.1F1500S1000
X29.4F7000S0
X.6F1500S1000
X1.9F7000S0
X.3F1500S1000
X.8F7000S0
X.7F1500S1000
X32.8F7000S0
X.4F1500S1000
X1.3F7000S0
X.4F1500S1000
X.4F7000S0
X1.1F1500S1000
X29.4F7000S0
X.5F1500S1000
X2F7000S0
X.4F1500S1000
X.8F7000S0
X.6F1500S1000
X32.9F7000S0
X.4F1500S1000
X1.3F7000S0
X.4F1500S1000
X.4F7000S0
X1.1F1500S1000
X.625F7000S0
X.2Y.1
X-.625
X-1.4F1500S1000
X-.5F7000S0
X-.3F1500S1000
X-1.3F7000S0
X-.3F1500S1000
X-32.8F7000S0
X-.9F1500S1000
X-.8F7000S0
X-.4F1500S1000
X-1.9F7000S0
X-.4F1500S1000
X-29.1F7000S0
X-.8F1500S1000
X-.1F7000S0
X-.5F1500S1000
X-.5F7000S0
X-.4F1500S1000
X-1.2F7000S0
X-.4F1500S1000
X-32.7F7000S0
X-.9F1500S1000
X-.8F7000S0
X-.4F1500S1000
X-1.9F7000S0
X-.4F1500S1000
X-29.1F7000S0
X-1.4F1500S1000
X-.6F7000S0
X-.3F1500S1000
X-1.2F7000S0
X-.3F1500S1000
X-32.8F7000S0
X-1F1500S1000
X-.7F7000S0
X-.4F1500S1000
X-1.9F7000S0
X-.4F1500S1000
X-29.1F7000S0
X-1.4F1500S1000
X-.5F7000S0
X-.4F1500S1000
X-1.2F7000S0
X-.4F1500S1000
X-32.7F7000S0
X-.9F1500S1000
X-.8F7000S0
X-.4F1500S1000
X-2F7000S0
X-.3F1500S1000
X-.625F7000S0
X-.1Y.1
X.625
X.3F1500S1000
X1.8F7000S0
X.5F1500S1000
X.7F7000S0
X.7F1500S1000
X.1F7000S0
X.4F1500S1000
X32.7F7000S0
X.4F1500S1000
X1.1F7000S0
X.3F1500S1000
X.6F7000S0
X.4F1500S1000
X.5F7000S0
X.8F1500S1000
X28.8F7000S0
X.4F1500S1000
X1.8F7000S0
X.4F1500S1000
X.7F7000S0
X.6F1500S1000
X.2F7000S0
X.4F1500S1000
X32.8F7000S0
X.3F1500S1000
X1.1F7000S0
X.3F1500S1000
X.6F7000S0
X.4F1500S1000
X.5F7000S0
X.8F1500S1000
X28.8F7000S0
X.4F1500S1000
X1.7F7000S0
X.5F1500S1000
X.7F7000S0
X.5F1500S1000
X.2F7000S0
X.6F1500S1000
X32.6F7000S0
X.4F1500S1000
X1.1F7000S0
X.3F1500S1000
X.5F7000S0
X.5F1500S1000
X.4F7000S0
X1F1500S1000
X28.7F7000S0
X.4F1500S1000
X1.8F7000S0
X.3F1500S1000
X.8F7000S0
X.7F1500S1000
X.1F7000S0
X.4F1500S1000
X32.8F7000S0
X.3F1500S1000
X1.2F7000S0
X.3F1500S1000
X.5F7000S0
X.4F1500S1000
X.5F7000S0
X.8F1500S1000
X.625F7000S0
X.3Y.1
X-.625
X-1F1500S1000
X-.8F7000S0
X-.3F1500S1000
X-.6F7000S0
X-.2F1500S1000
X-1F7000S0
X-.4F1500S1000
X-16.6F7000S0
X-.1F1500S1000
X-16F7000S0
X-.4F1500S1000
X-.5F7000S0
X-.5F1500S1000
X-.8F7000S0
X-.4F1500S1000
X-1.7F7000S0
X-.3F1500S1000
X-28.6F7000S0
X-1F1500S1000
X-.7F7000S0
X-.3F1500S1000
X-.7F7000S0
X-.1F1500S1000
X-1.1F7000S0
X-.3F1500S1000
X-16.5F7000S0
X-.2F1500S1000
X-16F7000S0
X-.4F1500S1000
X-.5F7000S0
X-.5F1500S1000
X-.8F7000S0
X-.4F1500S1000
X-1.7F7000S0
X-.3F1500S1000
X-28.5F7000S0
X-1.1F1500S1000
X-.7F7000S0
X-.3F1500S1000
X-.6F7000S0
X-.2F1500S1000
X-1.1F7000S0
X-.4F1500S1000
X-16.5F7000S0
X-.1F1500S1000
X-16F7000S0
X-.4F1500S1000
X-.5F7000S0
X-.5F1500S1000
X-.8F7000S0
X-.4F1500S1000
X-1.7F7000S0
X-.4F1500S1000
X-28.5F7000S0
X-1F1500S1000
X-.7F7000S0
X-.3F1500S1000
X-.7F7000S0
X-.1F1500S1000
X-1.1F7000S0
X-.4F1500S1000
X-16.5F7000S0
X-.1F1500S1000
X-16F7000S0
X-.5F1500S1000
X-.4F7000S0
X-.6F1500S1000
X-.8F7000S0
X-.3F1500S1000
X-1.8F7000S0
X-.2F1500S1000
X-.625F7000S0
Y.1
X.625
X.2F1500S1000
X1.7F7000S0
X.3F1500S1000
X.8F7000S0
X.5F1500S1000
X.5F7000S0
X.7F1500S1000
X15.7F7000S0
X.4F1500S1000
X16.4F7000S0
X.4F1500S1000
X1.7F7000S0
X.4F1500S1000
X.8F7000S0
X1.1F1500S1000
X28.4F7000S0
X.3F1500S1000
X1.7F7000S0
X.3F1500S1000
X.8F7000S0
X.5F1500S1000
X.6F7000S0
X.6F1500S1000
X15.8F7000S0
X.4F1500S1000
X16.4F7000S0
X.3F1500S1000
X1.7F7000S0
X.4F1500S1000
X.8F7000S0
X1.2F1500S1000
X28.4F7000S0
X.2F1500S1000
X1.7F7000S0
X.3F1500S1000
X.8F7000S0
X.6F1500S1000
X.5F7000S0
X.6F1500S1000
X15.7F7000S0
X.5F1500S1000
X16.3F7000S0
X.4F1500S1000
X1.8F7000S0
X.3F1500S1000
X.9F7000S0
X1F1500S1000
X28.5F7000S0
X.2F1500S1000
X1.7F7000S0
X.3F1500S1000
X.8F7000S0
X.5F1500S1000
X.6F7000S0
X.6F1500S1000
X15.8F7000S0
X.4F1500S1000
X16.4F7000S0
X.3F1500S1000
X1.7F7000S0
X.5F1500S1000
X.7F7000S0
X1.2F1500S1000
X.625F7000S0
X.2Y.1
X-.625
X-1.5F1500S1000
X-.9F7000S0
X-.3F1500S1000
X-1.6F7000S0
X-.3F1500S1000
X-16.2F7000S0
X-.8F1500S1000
X-15.6F7000S0
X-.7F1500S1000
X-.6F7000S0
X-.6F1500S1000
X-.7F7000S0
X-.2F1500S1000
X-1.7F7000S0
X-.2F1500S1000
X-28.3F7000S0
X-1.3F1500S1000
X-1F7000S0
X-.2F1500S1000
X-1.7F7000S0
X-.4F1500S1000
X-16.2F7000S0
X-.7F1500S1000
X-15.6F7000S0
X-.7F1500S1000
X-.6F7000S0
X-.5F1500S1000
X-2.7F7000S0
X-.2F1500S1000
X-28.3F7000S0
X-1.4F1500S1000
X-.9F7000S0
X-.3F1500S1000
X-1.6F7000S0
X-.3F1500S1000
X-16.2F7000S0
X-.8F1500S1000
X-15.6F7000S0
X-.7F1500S1000
X-.7F7000S0
X-.5F1500S1000
X-.8F7000S0
X-.1F1500S1000
X-1.7F7000S0
X-.3F1500S1000
X-28.2F7000S0
X-1.4F1500S1000
X-.9F7000S0
X-.3F1500S1000
X-1.5F7000S0
X-.5F1500S1000
X-16.2F7000S0
X-.7F1500S1000
X-15.6F7000S0
X-.7F1500S1000
X-.7F7000S0
X-.5F1500S1000
X-.7F7000S0
X-.2F1500S1000
X-1.8F7000S0
X-.1F1500S1000
X-.625F7000S0
X-.1Y.1
X.625
X.2F1500S1000
X2.6F7000S0
X.5F1500S1000
X.6F7000S0
X1F1500S1000
X15.3F7000S0
X1F1500S1000
X16.1F7000S0
X.4F1500S1000
X1.5F7000S0
X.3F1500S1000
X.9F7000S0
X.5F1500S1000
X.4F7000S0
X.8F1500S1000
X28F7000S0
X.2F1500S1000
X2.5F7000S0
X.6F1500S1000
X.6F7000S0
X1F1500S1000
X15.4F7000S0
X1F1500S1000
X16F7000S0
X.5F1500S1000
X1.5F7000S0
X.2F1500S1000
X.8F7000S0
X.6F1500S1000
X.4F7000S0
X.7F1500S1000
X28.2F7000S0
X.1F1500S1000
X2.6F7000S0
X.5F1500S1000
X.7F7000S0
X.9F1500S1000
X15.4F7000S0
X.9F1500S1000
X16.1F7000S0
X.5F1500S1000
X1.5F7000S0
X.3F1500S1000
X.8F7000S0
X.5F1500S1000
X.4F7000S0
X.8F1500S1000
X28F7000S0
X.2F1500S1000
X2.6F7000S0
X.5F1500S1000
X.6F7000S0
X1F1500S1000
X15.4F7000S0
X1F1500S1000
X16.1F7000S0
X.4F1500S1000
X1.5F7000S0
X.2F1500S1000
X.9F7000S0
X.5F1500S1000
X.4F7000S0
X.8F1500S1000
X.625F7000S0
X.1Y.1
X-.625
X-.8F1500S1000
X-.7F7000S0
X-.4F1500S1000
X-.9F7000S0
X-.1F1500S1000
X-1.5F7000S0
X-.4F1500S1000
X-16F7000S0
X-1.3F1500S1000
X-15.2F7000S0
X-.4F1500S1000
X-.2F7000S0
X-.6F1500S1000
X-.6F7000S0
X-.4F1500S1000
X-2.5F7000S0
X-.2F1500S1000
X-27.9F7000S0
X-.9F1500S1000
X-.5F7000S0
X-.5F1500S1000
X-.9F7000S0
X-.2F1500S1000
X-1.5F7000S0
X-.3F1500S1000
X-16F7000S0
X-1.3F1500S1000
X-15.2F7000S0
X-.4F1500S1000
X-.2F7000S0
X-.5F1500S1000
X-.7F7000S0
X-.4F1500S1000
X-2.5F7000S0
X-.2F1500S1000
X-27.9F7000S0
X-.8F1500S1000
X-.8F7000S0
X-.3F1500S1000
X-.9F7000S0
X-.1F1500S1000
X-1.5F7000S0
X-.4F1500S1000
X-16F7000S0
X-1.3F1500S1000
X-15.2F7000S0
X-.4F1500S1000
X-.2F7000S0
X-.6F1500S1000
X-.7F7000S0
X-.3F1500S1000
X-2.5F7000S0
X-.2F1500S1000
X-27.9F7000S0
X-.8F1500S1000
X-.7F7000S0
X-.5F1500S1000
X-.9F7000S0
X-.1F1500S1000
X-1.4F7000S0
X-.5F1500S1000
X-15.8F7000S0
X-1.4F1500S1000
X-15.2F7000S0
X-.4F1500S1000
X-.2F7000S0
X-.6F1500S1000
X-.6F7000S0
X-.4F1500S1000
X-2.4F7000S0
X-.3F1500S1000
X-.625F7000S0
Y.1
X.625
X.2F1500S1000
X2.4F7000S0
X.3F1500S1000
X.6F7000S0
X.6F1500S1000
X.5F7000S0
X.4F1500S1000
X14.9F7000S0
X1.7F1500S1000
X15.8F7000S0
X.4F1500S1000
X2.3F7000S0
X.4F1500S1000
X.7F7000S0
X1.1F1500S1000
X27.7F7000S0
X.2F1500S1000
X2.5F7000S0
X.3F1500S1000
X.6F7000S0
X.5F1500S1000
X.6F7000S0
X.4F1500S1000
X14.9F7000S0
X1.7F1500S1000
X15.8F7000S0
X.4F1500S1000
X2.3F7000S0
X.3F1500S1000
X.8F7000S0
X.3F1500S1000
X.2F7000S0
X.6F1500S1000
X27.8F7000S0
X.2F1500S1000
X2.4F7000S0
X.3F1500S1000
X.6F7000S0
X.6F1500S1000
X.5F7000S0
X.3F1500S1000
X15.1F7000S0
X1.6F1500S1000
X15.8F7000S0
X.4F1500S1000
X2.3F7000S0
X.4F1500S1000
X.7F7000S0
X1.1F1500S1000
X27.8F7000S0
X.2F1500S1000
X2.4F7000S0
X.3F1500S1000
X.7F7000S0
X.5F1500S1000
X.5F7000S0
X.4F1500S1000
X14.9F7000S0
X1.8F1500S1000
X15.7F7000S0
X.5F1500S1000
X2.2F7000S0
X.5F1500S1000
X.6F7000S0
X.4F1500S1000
X.1F7000S0
X.6F1500S1000
X.625F7000S0
X.1Y.1
X-.625
X-.6F1500S1000
X-.3F7000S0
X-.4F1500S1000
X-.7F7000S0
X-.4F1500S1000
X-2.1F7000S0
X-.5F1500S1000
X-15.6F7000S0
X-2F1500S1000
X-14.8F7000S0
X-.3F1500S1000
X-.8F7000S0
X-.4F1500S1000
X-3.3F7000S0
X-.2F1500S1000
X-27.8F7000S0
X-.6F1500S1000
X-.3F7000S0
X-.3F1500S1000
X-.7F7000S0
X-.4F1500S1000
X-2.2F7000S0
X-.4F1500S1000
X-15.7F7000S0
X-1.9F1500S1000
X-14.9F7000S0
X-.3F1500S1000
X-.7F7000S0
X-.5F1500S1000
X-3.2F7000S0
X-.2F1500S1000
X-27.8F7000S0
X-.6F1500S1000
X-.2F7000S0
X-.4F1500S1000
X-.7F7000S0
X-.4F1500S1000
X-2.1F7000S0
X-.6F1500S1000
X-15.6F7000S0
X-1.9F1500S1000
X-14.9F7000S0
X-.3F1500S1000
X-.7F7000S0
X-.5F1500S1000
X-3.3F7000S0
X-.1F1500S1000
X-27.8F7000S0
X-.6F1500S1000
X-.3F7000S0
X-.3F1500S1000
X-.7F7000S0
X-.4F1500S1000
X-2.1F7000S0
X-.5F1500S1000
X-15.7F7000S0
X-1.9F1500S1000
X-14.8F7000S0
X-.4F1500S1000
X-.7F7000S0
X-.5F1500S1000
X-3.2F7000S0
X-.2F1500S1000
X-.625F7000S0
Y.1
X.625
X.1F1500S1000
X3.2F7000S0
X.4F1500S1000
X.8F7000S0
X.5F1500S1000
X14.7F7000S0
X.9F1500S1000
X.2F7000S0
X1.1F1500S1000
X15.5F7000S0
X.5F1500S1000
X2.1F7000S0
X.3F1500S1000
X.7F7000S0
X.3F1500S1000
X.5F7000S0
X.6F1500S1000
X27.6F7000S0
X.2F1500S1000
X3.2F7000S0
X.5F1500S1000
X.7F7000S0
X.5F1500S1000
X14.6F7000S0
X1.1F1500S1000
X.2F7000S0
X1F1500S1000
X15.5F7000S0
X.5F1500S1000
X2F7000S0
X.3F1500S1000
X.7F7000S0
X.4F1500S1000
X.5F7000S0
X.7F1500S1000
X27.6F7000S0
X.2F1500S1000
X3.1F7000S0
X.4F1500S1000
X.8F7000S0
X.5F1500S1000
X14.7F7000S0
X.9F1500S1000
X.3F7000S0
X1F1500S1000
X15.5F7000S0
X.5F1500S1000
X2.1F7000S0
X.3F1500S1000
X.7F7000S0
X.3F1500S1000
X.5F7000S0
X.6F1500S1000
X27.7F7000S0
X.2F1500S1000
X3.1F7000S0
X.5F1500S1000
X.8F7000S0
X.4F1500S1000
X14.7F7000S0
X1F1500S1000
X.2F7000S0
X1F1500S1000
X15.5F7000S0
X.5F1500S1000
X2.1F7000S0
X.3F1500S1000
X.7F7000S0
X.4F1500S1000
X.4F7000S0
X.7F1500S1000
X.625F7000S0
X.1Y.1
X-.625
X-.7F1500S1000
X-.7F7000S0
X-.3F1500S1000
X-.8F7000S0
X-.2F1500S1000
X-2F7000S0
X-.4F1500S1000
X-15.4F7000S0
X-1.1F1500S1000
X-.5F7000S0
X-.9F1500S1000
X-14.5F7000S0
X-.8F1500S1000
X-.7F7000S0
X-.4F1500S1000
X-3.1F7000S0
X-.1F1500S1000
X-27.6F7000S0
X-.7F1500S1000
X-.6F7000S0
X-.3F1500S1000
X-.8F7000S0
X-.2F1500S1000
X-2F7000S0
X-.5F1500S1000
X-15.4F7000S0
X-.9F1500S1000
X-.6F7000S0
X-1F1500S1000
X-14.5F7000S0
X-.7F1500S1000
X-.7F7000S0
X-.5F1500S1000
X-2.9F7000S0
X-.2F1500S1000
X-27.6F7000S0
X-.6F1500S1000
X-.7F7000S0
X-.4F1500S1000
X-.7F7000S0
X-.3F1500S1000
X-1.9F7000S0
X-.5F1500S1000
X-15.4F7000S0
X-1F1500S1000
X-.5F7000S0
X-1F1500S1000
X-14.5F7000S0
X-.7F1500S1000
X-.7F7000S0
X-.5F1500S1000
X-3F7000S0
X-.1F1500S1000
X-27.6F7000S0
X-.7F1500S1000
X-.6F7000S0
X-.3F1500S1000
X-.8F7000S0
X-.3F1500S1000
X-1.9F7000S0
X-.4F1500S1000
X-15.5F7000S0
X-1F1500S1000
X-.5F7000S0
X-1F1500S1000
X-14.5F7000S0
X-.7F1500S1000
X-.7F7000S0
X-.5F1500S1000
X-2.9F7000S0
X-.2F1500S1000
X-.625F7000S0
Y.1
X.625
X.2F1500S1000
X2.7F7000S0
X.5F1500S1000
X.7F7000S0
X.9F1500S1000
X14.4F7000S0
X.9F1500S1000
X.8F7000S0
X1F1500S1000
X15.4F7000S0
X.5F1500S1000
X1.8F7000S0
X.2F1500S1000
X.7F7000S0
X.4F1500S1000
X.7F7000S0
X.8F1500S1000
X27.4F7000S0
X.2F1500S1000
X2.9F7000S0
X.4F1500S1000
X.8F7000S0
X.8F1500S1000
X14.4F7000S0
X1F1500S1000
X.8F7000S0
X.9F1500S1000
X15.4F7000S0
X.5F1500S1000
X1.8F7000S0
X.1F1500S1000
X.8F7000S0
X.4F1500S1000
X.6F7000S0
X.9F1500S1000
X27.5F7000S0
X.2F1500S1000
X2.7F7000S0
X.6F1500S1000
X.5F7000S0
X1F1500S1000
X14.4F7000S0
X1F1500S1000
X.7F7000S0
X1.1F1500S1000
X15.3F7000S0
X.4F1500S1000
X1.9F7000S0
X.2F1500S1000
X.7F7000S0
X.4F1500S1000
X.7F7000S0
X.8F1500S1000
X27.5F7000S0
X.2F1500S1000
X2.8F7000S0
X.5F1500S1000
X.7F7000S0
X.9F1500S1000
X14.3F7000S0
X1F1500S1000
X.8F7000S0
X1F1500S1000
X15.3F7000S0
X.5F1500S1000
X1.9F7000S0
X.1F1500S1000
X.8F7000S0
X.3F1500S1000
X.7F7000S0
X.8F1500S1000
X.625F7000S0
X.1Y.1
X-.625
X-1F1500S1000
X-.7F7000S0
X-.4F1500S1000
X-2.6F7000S0
X-.4F1500S1000
X-15.2F7000S0
X-1F1500S1000
X-1.2F7000S0
X-1F1500S1000
X-14.2F7000S0
X-1F1500S1000
X-.1F7000S0
X-.1F1500S1000
X-.5F7000S0
X-.4F1500S1000
X-2.7F7000S0
X-.2F1500S1000
X-27.4F7000S0
X-1.1F1500S1000
X-.6F7000S0
X-.4F1500S1000
X-2.5F7000S0
X-.5F1500S1000
X-15.2F7000S0
X-1F1500S1000
X-1.2F7000S0
X-1F1500S1000
X-14.2F7000S0
X-.3F1500S1000
X-.2F7000S0
X-.6F1500S1000
X-.7F7000S0
X-.4F1500S1000
X-2.6F7000S0
X-.2F1500S1000
X-27.4F7000S0
X-1F1500S1000
X-.8F7000S0
X-.4F1500S1000
X-2.5F7000S0
X-.5F1500S1000
X-15.2F7000S0
X-1F1500S1000
X-1.1F7000S0
X-1F1500S1000
X-14.2F7000S0
X-.3F1500S1000
X-.2F7000S0
X-.6F1500S1000
X-.6F7000S0
X-.4F1500S1000
X-2.8F7000S0
X-.1F1500S1000
X-27.4F7000S0
X-1.1F1500S1000
X-.7F7000S0
X-.3F1500S1000
X-2.6F7000S0
X-.5F1500S1000
X-15.2F7000S0
X-1F1500S1000
X-1.1F7000S0
X-1F1500S1000
X-14.2F7000S0
X-.3F1500S1000
X-.3F7000S0
X-.6F1500S1000
X-.5F7000S0
X-.5F1500S1000
X-2.7F7000S0
X-.1F1500S1000
X-.625F7000S0
Y.1
X.625
X.2F1500S1000
X2.6F7000S0
X.3F1500S1000
X.5F7000S0
X.7F1500S1000
X.4F7000S0
X.3F1500S1000
X14F7000S0
X1F1500S1000
X1.5F7000S0
X.9F1500S1000
X15.2F7000S0
X.5F1500S1000
X2.3F7000S0
X.4F1500S1000
X.7F7000S0
X.4F1500S1000
X.2F7000S0
X.6F1500S1000
X27.3F7000S0
X.2F1500S1000
X2.7F7000S0
X.2F1500S1000
X.7F7000S0
X.6F1500S1000
X.4F7000S0
X.2F1500S1000
X14.1F7000S0
X1F1500S1000
X1.5F7000S0
X1F1500S1000
X15.1F7000S0
X.5F1500S1000
X2.3F7000S0
X.4F1500S1000
X.7F7000S0
X.4F1500S1000
X.3F7000S0
X.5F1500S1000
X27.4F7000S0
X.2F1500S1000
X2.6F7000S0
X.3F1500S1000
X.6F7000S0
X.6F1500S1000
X.5F7000S0
X.1F1500S1000
X14.1F7000S0
X1.1F1500S1000
X1.4F7000S0
X1F1500S1000
X15.1F7000S0
X.5F1500S1000
X2.3F7000S0
X.4F1500S1000
X.7F7000S0
X.4F1500S1000
X.2F7000S0
X.7F1500S1000
X27.3F7000S0
X.1F1500S1000
X2.8F7000S0
X.2F1500S1000
X.6F7000S0
X.6F1500S1000
X.4F7000S0
X.3F1500S1000
X14.1F7000S0
X1F1500S1000
X1.4F7000S0
X1F1500S1000
X15.1F7000S0
X.6F1500S1000
X2.3F7000S0
X.3F1500S1000
X.7F7000S0
X.4F1500S1000
X.3F7000S0
X.5F1500S1000
X.625F7000S0
X.1Y.1
X-.625
X-.6F1500S1000
X-.4F7000S0
X-.4F1500S1000
X-.7F7000S0
X-.3F1500S1000
X-2.2F7000S0
X-.6F1500S1000
X-14.9F7000S0
X-1F1500S1000
X-1.8F7000S0
X-1F1500S1000
X-13.9F7000S0
X-.3F1500S1000
X-.5F7000S0
X-.7F1500S1000
X-3.3F7000S0
X-.2F1500S1000
X-27.3F7000S0
X-.6F1500S1000
X-.4F7000S0
X-.5F1500S1000
X-.6F7000S0
X-.4F1500S1000
X-2.2F7000S0
X-.4F1500S1000
X-15.1F7000S0
X-1F1500S1000
X-1.7F7000S0
X-1F1500S1000
X-14F7000S0
X-.2F1500S1000
X-.5F7000S0
X-.7F1500S1000
X-3.3F7000S0
X-.2F1500S1000
X-27.3F7000S0
X-.6F1500S1000
X-.4F7000S0
X-.4F1500S1000
X-.7F7000S0
X-.4F1500S1000
X-2.2F7000S0
X-.5F1500S1000
X-15F7000S0
X-.9F1500S1000
X-1.8F7000S0
X-1F1500S1000
X-13.9F7000S0
X-.3F1500S1000
X-.6F7000S0
X-.6F1500S1000
X-3.4F7000S0
X-.1F1500S1000
X-27.3F7000S0
X-.6F1500S1000
X-.4F7000S0
X-.5F1500S1000
X-.6F7000S0
X-.3F1500S1000
X-2.2F7000S0
X-.6F1500S1000
X-15F7000S0
X-1F1500S1000
X-1.7F7000S0
X-1F1500S1000
X-14F7000S0
X-.3F1500S1000
X-.5F7000S0
X-.5F1500S1000
X-3.4F7000S0
X-.2F1500S1000
X-.625F7000S0
Y.1
X.625
X.1F1500S1000
X3.3F7000S0
X.5F1500S1000
X.7F7000S0
X.3F1500S1000
X13.8F7000S0
X1.1F1500S1000
X2F7000S0
X.9F1500S1000
X14.9F7000S0
X.6F1500S1000
X2.1F7000S0
X.2F1500S1000
X.7F7000S0
X.4F1500S1000
X.6F7000S0
X.6F1500S1000
X27.2F7000S0
X.2F1500S1000
X3.2F7000S0
X.6F1500S1000
X.7F7000S0
X.3F1500S1000
X13.9F7000S0
X.9F1500S1000
X2F7000S0
X1.1F1500S1000
X14.8F7000S0
X.6F1500S1000
X2.1F7000S0
X.3F1500S1000
X.7F7000S0
X.4F1500S1000
X.6F7000S0
X.6F1500S1000
X27.2F7000S0
X.2F1500S1000
X3.2F7000S0
X.5F1500S1000
X.7F7000S0
X.3F1500S1000
X13.9F7000S0
X1F1500S1000
X2F7000S0
X1F1500S1000
X14.9F7000S0
X.5F1500S1000
X2F7000S0
X.4F1500S1000
X.6F7000S0
X.5F1500S1000
X.6F7000S0
X.5F1500S1000
X27.3F7000S0
X.2F1500S1000
X3.2F7000S0
X.6F1500S1000
X.6F7000S0
X.3F1500S1000
X13.9F7000S0
X1F1500S1000
X2F7000S0
X1F1500S1000
X14.8F7000S0
X.6F1500S1000
X2.1F7000S0
X.3F1500S1000
X.7F7000S0
X.4F1500S1000
X.6F7000S0
X.6F1500S1000
X.625F7000S0
Y.1
X-.625
X-.6F1500S1000
X-.7F7000S0
X-.5F1500S1000
X-.6F7000S0
X-.4F1500S1000
X-1.8F7000S0
X-.6F1500S1000
X-14.8F7000S0
X-.9F1500S1000
X-2.3F7000S0
X-1.1F1500S1000
X-13.7F7000S0
X-.3F1500S1000
X-.8F7000S0
X-.6F1500S1000
X-3F7000S0
X-.2F1500S1000
X-27.2F7000S0
X-.6F1500S1000
X-.8F7000S0
X-.4F1500S1000
X-.6F7000S0
X-.4F1500S1000
X-1.8F7000S0
X-.6F1500S1000
X-14.8F7000S0
X-1F1500S1000
X-2.3F7000S0
X-1F1500S1000
X-13.8F7000S0
X-.3F1500S1000
X-.8F7000S0
X-.5F1500S1000
X-3F7000S0
X-.2F1500S1000
X-27.2F7000S0
X-.6F1500S1000
X-.7F7000S0
X-.5F1500S1000
X-.6F7000S0
X-.4F1500S1000
X-1.8F7000S0
X-.6F1500S1000
X-14.8F7000S0
X-1F1500S1000
X-2.3F7000S0
X-1F1500S1000
X-13.7F7000S0
X-.4F1500S1000
X-.8F7000S0
X-.5F1500S1000
X-3.1F7000S0
X-.2F1500S1000
X-27.1F7000S0
X-.6F1500S1000
X-.8F7000S0
X-.4F1500S1000
X-.7F7000S0
X-.3F1500S1000
X-1.9F7000S0
X-.5F1500S1000
X-14.8F7000S0
X-.9F1500S1000
X-2.4F7000S0
X-1F1500S1000
X-13.7F7000S0
X-.4F1500S1000
X-.7F7000S0
X-.6F1500S1000
X-3F7000S0
X-.2F1500S1000
X-.625F7000S0
Y.1
X.625
X.2F1500S1000
X2.9F7000S0
X.5F1500S1000
X.8F7000S0
X.5F1500S1000
X13.5F7000S0
X1.1F1500S1000
X2.6F7000S0
X.9F1500S1000
X14.8F7000S0
X.5F1500S1000
X1.7F7000S0
X.3F1500S1000
X.6F7000S0
X.5F1500S1000
X.9F7000S0
X.6F1500S1000
X27.2F7000S0
X.1F1500S1000
X3.1F7000S0
X.4F1500S1000
X.7F7000S0
X.6F1500S1000
X13.6F7000S0
X.9F1500S1000
X2.7F7000S0
X1F1500S1000
X14.6F7000S0
X.6F1500S1000
X1.7F7000S0
X.3F1500S1000
X.7F7000S0
X.4F1500S1000
X.8F7000S0
X.8F1500S1000
X27.1F7000S0
X.2F1500S1000
X2.9F7000S0
X.4F1500S1000
X1F7000S0
X.3F1500S1000
X13.7F7000S0
X.9F1500S1000
X2.7F7000S0
X.9F1500S1000
X14.8F7000S0
X.5F1500S1000
X1.7F7000S0
X.3F1500S1000
X.7F7000S0
X.3F1500S1000
X1F7000S0
X.6F1500S1000
X27.2F7000S0
X.1F1500S1000
X3.1F7000S0
X.4F1500S1000
X.8F7000S0
X.5F1500S1000
X13.6F7000S0
X1F1500S1000
X2.5F7000S0
X1.1F1500S1000
X14.7F7000S0
X.6F1500S1000
X1.6F7000S0
X.3F1500S1000
X.6F7000S0
X.5F1500S1000
X.9F7000S0
X.7F1500S1000
X.625F7000S0
X.1Y.1
X-.625
X-.9F1500S1000
X-1F7000S0
X-.3F1500S1000
X-.7F7000S0
X-.3F1500S1000
X-1.4F7000S0
X-.6F1500S1000
X-14.6F7000S0
X-1F1500S1000
X-2.9F7000S0
X-1.1F1500S1000
X-13.4F7000S0
X-.7F1500S1000
X-.9F7000S0
X-.2F1500S1000
X-2.9F7000S0
X-.3F1500S1000
X-27F7000S0
X-.8F1500S1000
X-.9F7000S0
X-.5F1500S1000
X-.6F7000S0
X-.3F1500S1000
X-1.5F7000S0
X-.5F1500S1000
X-14.7F7000S0
X-.9F1500S1000
X-3.1F7000S0
X-.9F1500S1000
X-13.4F7000S0
X-.7F1500S1000
X-.9F7000S0
X-.2F1500S1000
X-2.9F7000S0
X-.3F1500S1000
X-27F7000S0
X-.9F1500S1000
X-.9F7000S0
X-.3F1500S1000
X-.8F7000S0
X-.2F1500S1000
X-1.5F7000S0
X-.5F1500S1000
X-14.7F7000S0
X-.9F1500S1000
X-3.1F7000S0
X-.9F1500S1000
X-13.4F7000S0
X-.8F1500S1000
X-.8F7000S0
X-.2F1500S1000
X-3F7000S0
X-.2F1500S1000
X-27F7000S0
X-.8F1500S1000
X-1F7000S0
X-.4F1500S1000
X-.5F7000S0
X-.1F1500S1000
X-.1F7000S0
X-.2F1500S1000
X-1.5F7000S0
X-.5F1500S1000
X-14.7F7000S0
X-.9F1500S1000
X-3F7000S0
X-1.1F1500S1000
X-13.3F7000S0
X-.7F1500S1000
X-.9F7000S0
X-.2F1500S1000
X-3F7000S0
X-.2F1500S1000
X-.625F7000S0
Y.1
X.625
X.3F1500S1000
X3.8F7000S0
X1F1500S1000
X13.2F7000S0
X.9F1500S1000
X3.3F7000S0
X1F1500S1000
X14.5F7000S0
X.6F1500S1000
X1.3F7000S0
X.2F1500S1000
X.6F7000S0
X.4F1500S1000
X1F7000S0
X1F1500S1000
X27F7000S0
X.2F1500S1000
X3.9F7000S0
X.9F1500S1000
X13.2F7000S0
X1.1F1500S1000
X3.2F7000S0
X1F1500S1000
X14.5F7000S0
X.6F1500S1000
X1.3F7000S0
X.3F1500S1000
X.6F7000S0
X.3F1500S1000
X1F7000S0
X1F1500S1000
X27F7000S0
X.3F1500S1000
X3.8F7000S0
X1F1500S1000
X13.2F7000S0
X.9F1500S1000
X3.3F7000S0
X1F1500S1000
X14.5F7000S0
X.6F1500S1000
X1.3F7000S0
X.3F1500S1000
X.6F7000S0
X.4F1500S1000
X.9F7000S0
X1F1500S1000
X27F7000S0
X.2F1500S1000
X4F7000S0
X.9F1500S1000
X13.1F7000S0
X1.1F1500S1000
X3.2F7000S0
X1F1500S1000
X14.6F7000S0
X.5F1500S1000
X1.4F7000S0
X.1F1500S1000
X.7F7000S0
X.4F1500S1000
X.9F7000S0
X1.1F1500S1000
X.625F7000S0
Y.1
X-.625
X-.5F1500S1000
X-.3F7000S0
X-.3F1500S1000
X-1F7000S0
X-.4F1500S1000
X-.6F7000S0
X-.2F1500S1000
X-1.1F7000S0
X-.7F1500S1000
X-14.4F7000S0
X-1.1F1500S1000
X-3.4F7000S0
X-1F1500S1000
X-13F7000S0
X-.5F1500S1000
X-.2F7000S0
X-.6F1500S1000
X-3.6F7000S0
X-.4F1500S1000
X-26.8F7000S0
X-.6F1500S1000
X-.2F7000S0
X-.4F1500S1000
X-.9F7000S0
X-.4F1500S1000
X-.7F7000S0
X-.2F1500S1000
X-1F7000S0
X-.8F1500S1000
X-14.4F7000S0
X-.9F1500S1000
X-3.7F7000S0
X-.9F1500S1000
X-12.9F7000S0
X-.5F1500S1000
X-.2F7000S0
X-.7F1500S1000
X-3.5F7000S0
X-.4F1500S1000
X-26.8F7000S0
X-.6F1500S1000
X-.2F7000S0
X-.4F1500S1000
X-.9F7000S0
X-.4F1500S1000
X-.7F7000S0
X-.2F1500S1000
X-1.1F7000S0
X-.6F1500S1000
X-14.5F7000S0
X-.9F1500S1000
X-3.6F7000S0
X-1F1500S1000
X-12.9F7000S0
X-.6F1500S1000
X-.1F7000S0
X-.6F1500S1000
X-3.6F7000S0
X-.4F1500S1000
X-26.8F7000S0
X-.5F1500S1000
X-.3F7000S0
X-.4F1500S1000
X-.9F7000S0
X-.4F1500S1000
X-.7F7000S0
X-.1F1500S1000
X-1.1F7000S0
X-.7F1500S1000
X-14.5F7000S0
X-1F1500S1000
X-3.5F7000S0
X-1F1500S1000
X-13F7000S0
X-.4F1500S1000
X-.2F7000S0
X-.6F1500S1000
X-3.6F7000S0
X-.4F1500S1000
X-.625F7000S0
X-.1Y.1
X.625
X.5F1500S1000
X3.4F7000S0
X.5F1500S1000
X.6F7000S0
X.5F1500S1000
X12.7F7000S0
X.9F1500S1000
X3.9F7000S0
X1F1500S1000
X14.3F7000S0
X.7F1500S1000
X1.8F7000S0
X.3F1500S1000
X.9F7000S0
X.5F1500S1000
X.4F7000S0
X.5F1500S1000
X26.7F7000S0
X.5F1500S1000
X3.4F7000S0
X.6F1500S1000
X.5F7000S0
X.6F1500S1000
X12.5F7000S0
X1.1F1500S1000
X3.8F7000S0
X.9F1500S1000
X14.4F7000S0
X.7F1500S1000
X1.8F7000S0
X.3F1500S1000
X1F7000S0
X.4F1500S1000
X.3F7000S0
X.5F1500S1000
X26.9F7000S0
X.4F1500S1000
X3.4F7000S0
X.5F1500S1000
X.6F7000S0
X.6F1500S1000
X12.6F7000S0
X.9F1500S1000
X3.9F7000S0
X1F1500S1000
X14.3F7000S0
X.7F1500S1000
X1.8F7000S0
X.3F1500S1000
X.9F7000S0
X.5F1500S1000
X.3F7000S0
X.6F1500S1000
X26.7F7000S0
X.5F1500S1000
X3.4F7000S0
X.6F1500S1000
X.5F7000S0
X.6F1500S1000
X12.6F7000S0
X.9F1500S1000
X3.9F7000S0
X.9F1500S1000
X14.5F7000S0
X.6F1500S1000
X1.8F7000S0
X.4F1500S1000
X.9F7000S0
X.4F1500S1000
X.3F7000S0
X.6F1500S1000
X.625F7000S0
X.1Y.1
X-.625
X-.6F1500S1000
X-.5F7000S0
X-.4F1500S1000
X-.9F7000S0
X-.5F1500S1000
X-1.4F7000S0
X-.7F1500S1000
X-14.4F7000S0
X-1F1500S1000
X-4F7000S0
X-1F1500S1000
X-12.4F7000S0
X-.8F1500S1000
X-.6F7000S0
X-.6F1500S1000
X-3.1F7000S0
X-.8F1500S1000
X-26.4F7000S0
X-.7F1500S1000
X-.4F7000S0
X-.5F1500S1000
X-.9F7000S0
X-.3F1500S1000
X-1.6F7000S0
X-.7F1500S1000
X-14.3F7000S0
X-1F1500S1000
X-4.1F7000S0
X-1F1500S1000
X-12.2F7000S0
X-.9F1500S1000
X-.6F7000S0
X-.6F1500S1000
X-3.2F7000S0
X-.6F1500S1000
X-26.6F7000S0
X-.5F1500S1000
X-.6F7000S0
X-.3F1500S1000
X-1F7000S0
X-.4F1500S1000
X-1.5F7000S0
X-.7F1500S1000
X-14.3F7000S0
X-.9F1500S1000
X-4.2F7000S0
X-1F1500S1000
X-12.3F7000S0
X-.8F1500S1000
X-.6F7000S0
X-.6F1500S1000
X-3.2F7000S0
X-.6F1500S1000
X-26.6F7000S0
X-.6F1500S1000
X-.4F7000S0
X-.5F1500S1000
X-.9F7000S0
X-.4F1500S1000
X-1.4F7000S0
X-.8F1500S1000
X-14.4F7000S0
X-.9F1500S1000
X-4.1F7000S0
X-1F1500S1000
X-12.3F7000S0
X-.8F1500S1000
X-.6F7000S0
X-.7F1500S1000
X-3.1F7000S0
X-.7F1500S1000
X-.625F7000S0
X-.2Y.1
X.625
X.9F1500S1000
X2.9F7000S0
X.6F1500S1000
X.8F7000S0
X1.2F1500S1000
X11.8F7000S0
X1F1500S1000
X4.5F7000S0
X1F1500S1000
X14.2F7000S0
X.8F1500S1000
X1.1F7000S0
X.4F1500S1000
X.9F7000S0
X.5F1500S1000
X.6F7000S0
X.7F1500S1000
X26.2F7000S0
X.9F1500S1000
X2.9F7000S0
X.6F1500S1000
X.8F7000S0
X1.1F1500S1000
X12F7000S0
X.9F1500S1000
X4.5F7000S0
X1F1500S1000
X14.2F7000S0
X.8F1500S1000
X1.2F7000S0
X.3F1500S1000
X.9F7000S0
X.6F1500S1000
X.5F7000S0
X.6F1500S1000
X26.3F7000S0
X.9F1500S1000
X2.9F7000S0
X.6F1500S1000
X.9F7000S0
X1.1F1500S1000
X11.8F7000S0
X1.1F1500S1000
X4.3F7000S0
X1.1F1500S1000
X14.2F7000S0
X.8F1500S1000
X1.3F7000S0
X.2F1500S1000
X1F7000S0
X.3F1500S1000
X.7F7000S0
X.7F1500S1000
X26.2F7000S0
X.9F1500S1000
X2.9F7000S0
X.6F1500S1000
X.8F7000S0
X1.2F1500S1000
X11.9F7000S0
X1F1500S1000
X4.4F7000S0
X1F1500S1000
X14.2F7000S0
X.8F1500S1000
X1.2F7000S0
X.3F1500S1000
X.9F7000S0
X.6F1500S1000
X.5F7000S0
X.6F1500S1000
X.625F7000S0
X.1Y.1
X-.625
X-.8F1500S1000
X-.6F7000S0
X-.5F1500S1000
X-.9F7000S0
X-.3F1500S1000
X-.9F7000S0
X-.9F1500S1000
X-14.2F7000S0
X-.9F1500S1000
X-4.9F7000S0
X-.9F1500S1000
X-11.6F7000S0
X-.7F1500S1000
X-.4F7000S0
X-.4F1500S1000
X-.8F7000S0
X-.4F1500S1000
X-2.9F7000S0
X-1.1F1500S1000
X-25.9F7000S0
X-.9F1500S1000
X-.7F7000S0
X-.4F1500S1000
X-.9F7000S0
X-.3F1500S1000
X-.9F7000S0
X-.9F1500S1000
X-14F7000S0
X-1.1F1500S1000
X-4.8F7000S0
X-1F1500S1000
X-11.7F7000S0
X-.7F1500S1000
X-.2F7000S0
X-.5F1500S1000
X-.9F7000S0
X-.3F1500S1000
X-2.9F7000S0
X-1F1500S1000
X-26.1F7000S0
X-.8F1500S1000
X-.7F7000S0
X-.4F1500S1000
X-1F7000S0
X-.2F1500S1000
X-1F7000S0
X-.8F1500S1000
X-14.2F7000S0
X-.9F1500S1000
X-4.8F7000S0
X-1F1500S1000
X-11.6F7000S0
X-.7F1500S1000
X-.4F7000S0
X-.3F1500S1000
X-.9F7000S0
X-.4F1500S1000
X-2.9F7000S0
X-1.1F1500S1000
X-26F7000S0
X-.8F1500S1000
X-.7F7000S0
X-.4F1500S1000
X-.9F7000S0
X-.4F1500S1000
X-.9F7000S0
X-.8F1500S1000
X-14.2F7000S0
X-.9F1500S1000
X-4.9F7000S0
X-.9F1500S1000
X-11.6F7000S0
X-.8F1500S1000
X-.3F7000S0
X-.5F1500S1000
X-.8F7000S0
X-.3F1500S1000
X-2.8F7000S0
X-1.1F1500S1000
X-.625F7000S0
X-.2Y.1
X.625
X1.2F1500S1000
X4F7000S0
X.4F1500S1000
X.6F7000S0
X.6F1500S1000
X11.4F7000S0
X1F1500S1000
X5.1F7000S0
X1F1500S1000
X14.2F7000S0
X.8F1500S1000
X.6F7000S0
X.3F1500S1000
X.9F7000S0
X.5F1500S1000
X.7F7000S0
X.9F1500S1000
X25.8F7000S0
X1.3F1500S1000
X3.9F7000S0
X.4F1500S1000
X.7F7000S0
X.7F1500S1000
X11.4F7000S0
X.9F1500S1000
X5.2F7000S0
X.9F1500S1000
X14.2F7000S0
X.8F1500S1000
X.7F7000S0
X.3F1500S1000
X.9F7000S0
X.4F1500S1000
X.7F7000S0
X.9F1500S1000
X25.9F7000S0
X1.2F1500S1000
X3.9F7000S0
X.5F1500S1000
X.7F7000S0
X.6F1500S1000
X11.3F7000S0
X1F1500S1000
X5.1F7000S0
X1F1500S1000
X14.1F7000S0
X1F1500S1000
X.6F7000S0
X.2F1500S1000
X1F7000S0
X.4F1500S1000
X.7F7000S0
X1F1500S1000
X25.8F7000S0
X1.2F1500S1000
X4F7000S0
X.4F1500S1000
X.6F7000S0
X.7F1500S1000
X11.4F7000S0
X1F1500S1000
X5F7000S0
X1F1500S1000
X14.2F7000S0
X.8F1500S1000
X.7F7000S0
X.3F1500S1000
X.9F7000S0
X.4F1500S1000
X.7F7000S0
X1F1500S1000
X.625F7000S0
Y.1
X-.625
X-1.1F1500S1000
X-.7F7000S0
X-.5F1500S1000
X-.8F7000S0
X-.2F1500S1000
X-.6F7000S0
X-.8F1500S1000
X-14.2F7000S0
X-.9F1500S1000
X-5.4F7000S0
X-1F1500S1000
X-11.1F7000S0
X-.8F1500S1000
X-.7F7000S0
X-.4F1500S1000
X-3.8F7000S0
X-.2F1500S1000
X-.5F7000S0
X-.7F1500S1000
X-25.7F7000S0
X-1.1F1500S1000
X-.7F7000S0
X-.5F1500S1000
X-.8F7000S0
X-.2F1500S1000
X-.6F7000S0
X-.9F1500S1000
X-14F7000S0
X-1.1F1500S1000
X-5.2F7000S0
X-1.1F1500S1000
X-11.1F7000S0
X-.7F1500S1000
X-.8F7000S0
X-.5F1500S1000
X-3.8F7000S0
X-.2F1500S1000
X-.4F7000S0
X-.7F1500S1000
X-25.7F7000S0
X-.6F1500S1000
X-.1F7000S0
X-.4F1500S1000
X-.8F7000S0
X-.4F1500S1000
X-.8F7000S0
X-.2F1500S1000
X-.6F7000S0
X-.9F1500S1000
X-14.1F7000S0
X-1F1500S1000
X-5.3F7000S0
X-1F1500S1000
X-11F7000S0
X-.9F1500S1000
X-.7F7000S0
X-.5F1500S1000
X-3.8F7000S0
X-.2F1500S1000
X-.4F7000S0
X-.7F1500S1000
X-25.7F7000S0
X-1.2F1500S1000
X-.6F7000S0
X-.5F1500S1000
X-.9F7000S0
X-.2F1500S1000
X-.5F7000S0
X-.8F1500S1000
X-14.2F7000S0
X-.9F1500S1000
X-5.4F7000S0
X-1F1500S1000
X-11.1F7000S0
X-.8F1500S1000
X-.7F7000S0
X-.5F1500S1000
X-3.8F7000S0
X-.1F1500S1000
X-.5F7000S0
X-.7F1500S1000
X-.625F7000S0
X-.1Y.1
X.625
X.6F1500S1000
X.7F7000S0
X.2F1500S1000
X3.6F7000S0
X.3F1500S1000
X1F7000S0
X.9F1500S1000
X10.8F7000S0
X1.1F1500S1000
X5.6F7000S0
X1F1500S1000
X14F7000S0
X.9F1500S1000
X1.4F7000S0
X.4F1500S1000
X.7F7000S0
X.5F1500S1000
X.2F7000S0
X.6F1500S1000
X25.6F7000S0
X.5F1500S1000
X.7F7000S0
X.2F1500S1000
X3.6F7000S0
X.5F1500S1000
X.9F7000S0
X.9F1500S1000
X10.9F7000S0
X.9F1500S1000
X5.7F7000S0
X1F1500S1000
X13.9F7000S0
X1.1F1500S1000
X1.3F7000S0
X.5F1500S1000
X.7F7000S0
X.3F1500S1000
X.4F7000S0
X.5F1500S1000
X25.6F7000S0
X.6F1500S1000
X.7F7000S0
X.1F1500S1000
X3.7F7000S0
X.3F1500S1000
X1F7000S0
X.9F1500S1000
X10.9F7000S0
X.9F1500S1000
X5.7F7000S0
X.9F1500S1000
X14.1F7000S0
X.9F1500S1000
X1.4F7000S0
X.4F1500S1000
X.8F7000S0
X.4F1500S1000
X.3F7000S0
X.5F1500S1000
X25.7F7000S0
X.5F1500S1000
X.7F7000S0
X.1F1500S1000
X3.7F7000S0
X.4F1500S1000
X.9F7000S0
X.9F1500S1000
X10.9F7000S0
X1F1500S1000
X5.7F7000S0
X.9F1500S1000
X14F7000S0
X1F1500S1000
X1.4F7000S0
X.4F1500S1000
X.7F7000S0
X.4F1500S1000
X.3F7000S0
X.5F1500S1000
X.625F7000S0
X.1Y.1
X-.625
X-.6F1500S1000
X-.4F7000S0
X-.5F1500S1000
X-.7F7000S0
X-.4F1500S1000
X-1F7000S0
X-1.2F1500S1000
X-13.9F7000S0
X-1F1500S1000
X-5.9F7000S0
X-1F1500S1000
X-10.6F7000S0
X-1.2F1500S1000
X-.9F7000S0
X-.3F1500S1000
X-3.6F7000S0
X-.2F1500S1000
X-.8F7000S0
X-.4F1500S1000
X-25.5F7000S0
X-.6F1500S1000
X-.5F7000S0
X-.4F1500S1000
X-.7F7000S0
X-.4F1500S1000
X-1F7000S0
X-1.2F1500S1000
X-13.8F7000S0
X-1.1F1500S1000
X-5.9F7000S0
X-1F1500S1000
X-10.6F7000S0
X-1.2F1500S1000
X-.9F7000S0
X-.5F1500S1000
X-3.4F7000S0
X-.1F1500S1000
X-.9F7000S0
X-.5F1500S1000
X-25.5F7000S0
X-.5F1500S1000
X-.4F7000S0
X-.5F1500S1000
X-.7F7000S0
X-.5F1500S1000
X-.9F7000S0
X-1.2F1500S1000
X-13.9F7000S0
X-1F1500S1000
X-5.9F7000S0
X-1F1500S1000
X-10.6F7000S0
X-1.3F1500S1000
X-.8F7000S0
X-.4F1500S1000
X-3.5F7000S0
X-.2F1500S1000
X-.8F7000S0
X-.5F1500S1000
X-25.5F7000S0
X-.5F1500S1000
X-.5F7000S0
X-.4F1500S1000
X-.7F7000S0
X-.4F1500S1000
X-1.1F7000S0
X-1.1F1500S1000
X-13.9F7000S0
X-1F1500S1000
X-5.9F7000S0
X-1F1500S1000
X-10.6F7000S0
X-1.2F1500S1000
X-.9F7000S0
X-.5F1500S1000
X-3.4F7000S0
X-.1F1500S1000
X-.9F7000S0
X-.5F1500S1000
X-.625F7000S0
X-.1Y.1
X.625
X.4F1500S1000
X1F7000S0
X.2F1500S1000
X3.3F7000S0
X.4F1500S1000
X.9F7000S0
X.5F1500S1000
X.4F7000S0
X.5F1500S1000
X10.4F7000S0
X1F1500S1000
X6.3F7000S0
X1F1500S1000
X13.7F7000S0
X.4F1500S1000
X.4F7000S0
X.4F1500S1000
X.8F7000S0
X.4F1500S1000
X.8F7000S0
X.3F1500S1000
X.8F7000S0
X.5F1500S1000
X25.3F7000S0
X.4F1500S1000
X1.1F7000S0
X.1F1500S1000
X3.2F7000S0
X.5F1500S1000
X.9F7000S0
X.5F1500S1000
X.5F7000S0
X.4F1500S1000
X10.4F7000S0
X1F1500S1000
X6.3F7000S0
X1F1500S1000
X13.6F7000S0
X.5F1500S1000
X.3F7000S0
X.1F1500S1000
X.1F7000S0
X.1F1500S1000
X.1F7000S0
X.2F1500S1000
X.7F7000S0
X.4F1500S1000
X.7F7000S0
X.5F1500S1000
X.6F7000S0
X.6F1500S1000
X25.3F7000S0
X.4F1500S1000
X1.1F7000S0
X.1F1500S1000
X3.2F7000S0
X.5F1500S1000
X.1F7000S0
X.1F1500S1000
X.7F7000S0
X.5F1500S1000
X.5F7000S0
X.5F1500S1000
X10.4F7000S0
X.9F1500S1000
X6.3F7000S0
X1.1F1500S1000
X13.6F7000S0
X.4F1500S1000
X.3F7000S0
X.1F1500S1000
X.1F7000S0
X.3F1500S1000
X.8F7000S0
X.4F1500S1000
X.8F7000S0
X.4F1500S1000
X.7F7000S0
X.5F1500S1000
X25.3F7000S0
X.5F1500S1000
X1F7000S0
X.1F1500S1000
X3.3F7000S0
X.5F1500S1000
X.8F7000S0
X.5F1500S1000
X.5F7000S0
X.5F1500S1000
X10.3F7000S0
X1F1500S1000
X.1F7000S0
X.1F1500S1000
X6.2F7000S0
X.9F1500S1000
X13.7F7000S0
X.4F1500S1000
X.3F7000S0
X.1F1500S1000
X.1F7000S0
X.4F1500S1000
X.8F7000S0
X.4F1500S1000
X.7F7000S0
X.4F1500S1000
X.7F7000S0
X.5F1500S1000
X.625F7000S0
Y.1
X-.625
X-.4F1500S1000
X-.9F7000S0
X-.4F1500S1000
X-.8F7000S0
X-.3F1500S1000
X-.7F7000S0
X-.1F1500S1000
X-.8F7000S0
X-.4F1500S1000
X-13.5F7000S0
X-1F1500S1000
X-6.6F7000S0
X-1F1500S1000
X-10.2F7000S0
X-.5F1500S1000
X-.7F7000S0
X-.4F1500S1000
X-1F7000S0
X-.3F1500S1000
X-3.2F7000S0
X-.1F1500S1000
X-1.1F7000S0
X-.5F1500S1000
X-25.3F7000S0
X-.4F1500S1000
X-.9F7000S0
X-.4F1500S1000
X-.8F7000S0
X-.3F1500S1000
X-.6F7000S0
X-.1F1500S1000
X-.8F7000S0
X-.4F1500S1000
X-13.6F7000S0
X-.9F1500S1000
X-6.7F7000S0
X-.9F1500S1000
X-10.2F7000S0
X-.5F1500S1000
X-.7F7000S0
X-.5F1500S1000
X-.9F7000S0
X-.4F1500S1000
X-4.4F7000S0
X-.3F1500S1000
X-25.3F7000S0
X-.5F1500S1000
X-.9F7000S0
X-.4F1500S1000
X-.8F7000S0
X-.3F1500S1000
X-.6F7000S0
X-.1F1500S1000
X-.9F7000S0
X-.3F1500S1000
X-13.6F7000S0
X-.9F1500S1000
X-6.6F7000S0
X-1F1500S1000
X-10.2F7000S0
X-.5F1500S1000
X-.7F7000S0
X-.5F1500S1000
X-.9F7000S0
X-.3F1500S1000
X-3.2F7000S0
X-.1F1500S1000
X-1.2F7000S0
X-.4F1500S1000
X-25.2F7000S0
X-.5F1500S1000
X-.8F7000S0
X-.5F1500S1000
X-.8F7000S0
X-.3F1500S1000
X-.6F7000S0
X-.1F1500S1000
X-.9F7000S0
X-.3F1500S1000
X-13.5F7000S0
X-1F1500S1000
X-6.6F7000S0
X-1F1500S1000
X-10.2F7000S0
X-.5F1500S1000
X-.7F7000S0
X-.5F1500S1000
X-1F7000S0
X-.2F1500S1000
X-3.2F7000S0
X-.1F1500S1000
X-1.2F7000S0
X-.3F1500S1000
X-.625F7000S0
X-.1Y.1
X.625
X.3F1500S1000
X1.3F7000S0
X.1F1500S1000
X3.2F7000S0
X.1F1500S1000
X1F7000S0
X.4F1500S1000
X.9F7000S0
X.6F1500S1000
X10F7000S0
X.9F1500S1000
X6.9F7000S0
X1F1500S1000
X13.4F7000S0
X.3F1500S1000
X1.5F7000S0
X.3F1500S1000
X.8F7000S0
X.4F1500S1000
X1F7000S0
X.5F1500S1000
X25.2F7000S0
X.3F1500S1000
X1.3F7000S0
X.1F1500S1000
X4.3F7000S0
X.5F1500S1000
X.8F7000S0
X.6F1500S1000
X9.9F7000S0
X1F1500S1000
X6.9F7000S0
X.9F1500S1000
X13.4F7000S0
X.4F1500S1000
X1.5F7000S0
X.3F1500S1000
X.8F7000S0
X.4F1500S1000
X1F7000S0
X.5F1500S1000
X25.2F7000S0
X.3F1500S1000
X4.6F7000S0
X.1F1500S1000
X1F7000S0
X.4F1500S1000
X.9F7000S0
X.6F1500S1000
X10F7000S0
X.9F1500S1000
X7F7000S0
X1F1500S1000
X13.3F7000S0
X.3F1500S1000
X1.5F7000S0
X.4F1500S1000
X.7F7000S0
X.4F1500S1000
X1F7000S0
X.5F1500S1000
X25.2F7000S0
X.4F1500S1000
X1.3F7000S0
X.1F1500S1000
X4.2F7000S0
X.5F1500S1000
X.9F7000S0
X.5F1500S1000
X10F7000S0
X.9F1500S1000
X6.9F7000S0
X1F1500S1000
X13.4F7000S0
X.3F1500S1000
X1.6F7000S0
X.2F1500S1000
X.9F7000S0
X.4F1500S1000
X.9F7000S0
X.5F1500S1000
X.625F7000S0
X.1Y.1
X-.625
X-.7F1500S1000
X-1F7000S0
X-.4F1500S1000
X-.8F7000S0
X-.2F1500S1000
X-1.5F7000S0
X-.3F1500S1000
X-13.3F7000S0
X-.9F1500S1000
X-7.2F7000S0
X-1F1500S1000
X-9.8F7000S0
X-.6F1500S1000
X-1F7000S0
X-.4F1500S1000
X-5.6F7000S0
X-.3F1500S1000
X-25.2F7000S0
X-.6F1500S1000
X-1.1F7000S0
X-.3F1500S1000
X-.8F7000S0
X-.2F1500S1000
X-1.6F7000S0
X-.2F1500S1000
X-13.3F7000S0
X-1F1500S1000
X-7.2F7000S0
X-.9F1500S1000
X-9.7F7000S0
X-.7F1500S1000
X-1F7000S0
X-.5F1500S1000
X-5.6F7000S0
X-.2F1500S1000
X-25.1F7000S0
X-.7F1500S1000
X-1F7000S0
X-.5F1500S1000
X-.7F7000S0
X-.2F1500S1000
X-1.5F7000S0
X-.3F1500S1000
X-13.3F7000S0
X-.9F1500S1000
X-7.2F7000S0
X-1F1500S1000
X-9.8F7000S0
X-.7F1500S1000
X-.9F7000S0
X-.4F1500S1000
X-4.2F7000S0
X-.1F1500S1000
X-1.3F7000S0
X-.4F1500S1000
X-25.1F7000S0
X-.7F1500S1000
X-1F7000S0
X-.3F1500S1000
X-.8F7000S0
X-.2F1500S1000
X-1.5F7000S0
X-.3F1500S1000
X-13.3F7000S0
X-1F1500S1000
X-7.1F7000S0
X-1F1500S1000
X-9.8F7000S0
X-.6F1500S1000
X-1F7000S0
X-.5F1500S1000
X-5.5F7000S0
X-.4F1500S1000
X-.625F7000S0
Y.1
X.625
X.3F1500S1000
X5.5F7000S0
X.4F1500S1000
X1F7000S0
X.9F1500S1000
X9.6F7000S0
X.9F1500S1000
X7.5F7000S0
X1F1500S1000
X13.1F7000S0
X.3F1500S1000
X1.5F7000S0
X.1F1500S1000
X.7F7000S0
X.4F1500S1000
X1.1F7000S0
X.8F1500S1000
X25F7000S0
X.3F1500S1000
X5.5F7000S0
X.5F1500S1000
X.9F7000S0
X.9F1500S1000
X9.6F7000S0
X.9F1500S1000
X7.5F7000S0
X.9F1500S1000
X13.1F7000S0
X.4F1500S1000
X1.5F7000S0
X.1F1500S1000
X.8F7000S0
X.3F1500S1000
X1F7000S0
X.9F1500S1000
X25F7000S0
X.3F1500S1000
X5.5F7000S0
X.4F1500S1000
X1F7000S0
X.9F1500S1000
X9.6F7000S0
X1F1500S1000
X7.4F7000S0
X1F1500S1000
X13.1F7000S0
X.3F1500S1000
X1.5F7000S0
X.1F1500S1000
X.7F7000S0
X.5F1500S1000
X.9F7000S0
X.8F1500S1000
X25.1F7000S0
X.3F1500S1000
X5.5F7000S0
X.4F1500S1000
X1F7000S0
X.9F1500S1000
X9.6F7000S0
X.9F1500S1000
X7.5F7000S0
X1F1500S1000
X13.1F7000S0
X.3F1500S1000
X2.4F7000S0
X.3F1500S1000
X1F7000S0
X.9F1500S1000
X.625F7000S0
Y.1
X-.625
X-1F1500S1000
X-1F7000S0
X-.4F1500S1000
X-2.2F7000S0
X-.3F1500S1000
X-12.9F7000S0
X-1F1500S1000
X-7.9F7000S0
X-.9F1500S1000
X-9.3F7000S0
X-.5F1500S1000
X-.1F7000S0
X-.5F1500S1000
X-1F7000S0
X-.6F1500S1000
X-5.3F7000S0
X-.2F1500S1000
X-25F7000S0
X-1F1500S1000
X-1F7000S0
X-.4F1500S1000
X-2.2F7000S0
X-.3F1500S1000
X-12.9F7000S0
X-1F1500S1000
X-7.8F7000S0
X-1.1F1500S1000
X-9.3F7000S0
X-1.1F1500S1000
X-.9F7000S0
X-.5F1500S1000
X-5.4F7000S0
X-.2F1500S1000
X-25F7000S0
X-1F1500S1000
X-1F7000S0
X-.4F1500S1000
X-2.2F7000S0
X-.3F1500S1000
X-13F7000S0
X-.9F1500S1000
X-7.9F7000S0
X-.9F1500S1000
X-9.4F7000S0
X-.5F1500S1000
X-.1F7000S0
X-.5F1500S1000
X-.9F7000S0
X-.5F1500S1000
X-5.5F7000S0
X-.2F1500S1000
X-24.9F7000S0
X-1F1500S1000
X-1F7000S0
X-.4F1500S1000
X-2.2F7000S0
X-.3F1500S1000
X-13F7000S0
X-1F1500S1000
X-7.7F7000S0
X-1F1500S1000
X-9.4F7000S0
X-.5F1500S1000
X-.1F7000S0
X-.4F1500S1000
X-1F7000S0
X-.6F1500S1000
X-5.3F7000S0
X-.2F1500S1000
X-.625F7000S0
X-.1Y.1
X.625
X.2F1500S1000
X5.3F7000S0
X.5F1500S1000
X.9F7000S0
X.5F1500S1000
X.5F7000S0
X.4F1500S1000
X9.1F7000S0
X1F1500S1000
X8.1F7000S0
X1F1500S1000
X12.8F7000S0
X.3F1500S1000
X2.1F7000S0
X.3F1500S1000
X1F7000S0
X.5F1500S1000
X.1F7000S0
X.6F1500S1000
X24.9F7000S0
X.2F1500S1000
X5.3F7000S0
X.4F1500S1000
X1F7000S0
X.4F1500S1000
X.6F7000S0
X.4F1500S1000
X9.1F7000S0
X1F1500S1000
X8.2F7000S0
X.9F1500S1000
X12.7F7000S0
X.4F1500S1000
X2.1F7000S0
X.3F1500S1000
X1F7000S0
X.4F1500S1000
X.2F7000S0
X.6F1500S1000
X24.9F7000S0
X.2F1500S1000
X5.3F7000S0
X.5F1500S1000
X.9F7000S0
X.5F1500S1000
X.5F7000S0
X.4F1500S1000
X9.1F7000S0
X1F1500S1000
X8.1F7000S0
X1F1500S1000
X12.8F7000S0
X.2F1500S1000
X2.2F7000S0
X.3F1500S1000
X1F7000S0
X.5F1500S1000
X.1F7000S0
X.5F1500S1000
X25.1F7000S0
X.1F1500S1000
X5.3F7000S0
X.5F1500S1000
X.9F7000S0
X.5F1500S1000
X.5F7000S0
X.4F1500S1000
X9.1F7000S0
X1F1500S1000
X8.2F7000S0
X1F1500S1000
X12.7F7000S0
X.3F1500S1000
X2.1F7000S0
X.3F1500S1000
X1.1F7000S0
X.3F1500S1000
X.3F7000S0
X.5F1500S1000
X.625F7000S0
Y.1
X-.625
X-.5F1500S1000
X-.4F7000S0
X-.4F1500S1000
X-1F7000S0
X-.3F1500S1000
X-2F7000S0
X-.3F1500S1000
X-12.6F7000S0
X-1F1500S1000
X-8.5F7000S0
X-.9F1500S1000
X-9F7000S0
X-.4F1500S1000
X-.7F7000S0
X-.4F1500S1000
X-1F7000S0
X-.4F1500S1000
X-5.2F7000S0
X-.2F1500S1000
X-25F7000S0
X-.5F1500S1000
X-.3F7000S0
X-.4F1500S1000
X-1F7000S0
X-.3F1500S1000
X-2F7000S0
X-.3F1500S1000
X-12.6F7000S0
X-1F1500S1000
X-8.4F7000S0
X-1.1F1500S1000
X-8.9F7000S0
X-.4F1500S1000
X-.7F7000S0
X-.4F1500S1000
X-.9F7000S0
X-.5F1500S1000
X-5.2F7000S0
X-.3F1500S1000
X-24.8F7000S0
X-.5F1500S1000
X-.4F7000S0
X-.4F1500S1000
X-1F7000S0
X-.3F1500S1000
X-2F7000S0
X-.3F1500S1000
X-12.7F7000S0
X-.9F1500S1000
X-8.5F7000S0
X-.9F1500S1000
X-9F7000S0
X-.4F1500S1000
X-.7F7000S0
X-.4F1500S1000
X-1F7000S0
X-.4F1500S1000
X-5.2F7000S0
X-.2F1500S1000
X-24.9F7000S0
X-.6F1500S1000
X-.3F7000S0
X-.4F1500S1000
X-1F7000S0
X-.3F1500S1000
X-1.9F7000S0
X-.4F1500S1000
X-12.7F7000S0
X-.9F1500S1000
X-8.4F7000S0
X-1F1500S1000
X-9F7000S0
X-.4F1500S1000
X-.7F7000S0
X-.4F1500S1000
X-1F7000S0
X-.4F1500S1000
X-5.2F7000S0
X-.2F1500S1000
X-.625F7000S0
Y.1
X.625
X.1F1500S1000
X5.1F7000S0
X.4F1500S1000
X1F7000S0
X.4F1500S1000
X.9F7000S0
X.4F1500S1000
X8.8F7000S0
X1F1500S1000
X8.7F7000S0
X1F1500S1000
X12.5F7000S0
X.3F1500S1000
X3.2F7000S0
X.3F1500S1000
X.5F7000S0
X.6F1500S1000
X24.9F7000S0
X.2F1500S1000
X5F7000S0
X.4F1500S1000
X1.1F7000S0
X.3F1500S1000
X.8F7000S0
X.5F1500S1000
X8.9F7000S0
X.9F1500S1000
X8.7F7000S0
X1F1500S1000
X12.4F7000S0
X.4F1500S1000
X3.1F7000S0
X.4F1500S1000
X.5F7000S0
X.6F1500S1000
X24.9F7000S0
X.2F1500S1000
X5.1F7000S0
X.3F1500S1000
X1F7000S0
X.5F1500S1000
X.8F7000S0
X.4F1500S1000
X8.9F7000S0
X.9F1500S1000
X8.7F7000S0
X1F1500S1000
X12.5F7000S0
X.3F1500S1000
X3.2F7000S0
X.3F1500S1000
X.5F7000S0
X.6F1500S1000
X24.9F7000S0
X.3F1500S1000
X4.9F7000S0
X.5F1500S1000
X1F7000S0
X.3F1500S1000
X.9F7000S0
X.4F1500S1000
X8.8F7000S0
X1.1F1500S1000
X8.7F7000S0
X1F1500S1000
X12.4F7000S0
X.3F1500S1000
X3.2F7000S0
X.4F1500S1000
X.5F7000S0
X.5F1500S1000
X.625F7000S0
Y.1
X-.625
X-.5F1500S1000
X-.7F7000S0
X-.4F1500S1000
X-2.9F7000S0
X-.4F1500S1000
X-12.3F7000S0
X-1F1500S1000
X-9F7000S0
X-1F1500S1000
X-8.6F7000S0
X-.6F1500S1000
X-.9F7000S0
X-.4F1500S1000
X-1F7000S0
X-.4F1500S1000
X-4.9F7000S0
X-.2F1500S1000
X-25F7000S0
X-.5F1500S1000
X-.6F7000S0
X-.4F1500S1000
X-3.1F7000S0
X-.2F1500S1000
X-12.3F7000S0
X-1F1500S1000
X-9F7000S0
X-1F1500S1000
X-8.6F7000S0
X-.6F1500S1000
X-.9F7000S0
X-.4F1500S1000
X-1.1F7000S0
X-.3F1500S1000
X-4.9F7000S0
X-.3F1500S1000
X-24.9F7000S0
X-.4F1500S1000
X-.7F7000S0
X-.4F1500S1000
X-3F7000S0
X-.3F1500S1000
X-12.4F7000S0
X-1F1500S1000
X-9F7000S0
X-.9F1500S1000
X-8.7F7000S0
X-.5F1500S1000
X-1F7000S0
X-.3F1500S1000
X-1F7000S0
X-.5F1500S1000
X-4.8F7000S0
X-.3F1500S1000
X-24.9F7000S0
X-.5F1500S1000
X-.6F7000S0
X-.4F1500S1000
X-3F7000S0
X-.3F1500S1000
X-12.4F7000S0
X-.9F1500S1000
X-9F7000S0
X-1F1500S1000
X-8.6F7000S0
X-.6F1500S1000
X-1F7000S0
X-.3F1500S1000
X-1F7000S0
X-.4F1500S1000
X-4.9F7000S0
X-.2F1500S1000
X-.625F7000S0
Y.1
X.625
X.1F1500S1000
X4.8F7000S0
X.5F1500S1000
X.9F7000S0
X.4F1500S1000
X1F7000S0
X.7F1500S1000
X8.4F7000S0
X1F1500S1000
X9.3F7000S0
X1F1500S1000
X12.2F7000S0
X.3F1500S1000
X2.9F7000S0
X.3F1500S1000
X.8F7000S0
X.5F1500S1000
X24.9F7000S0
X.3F1500S1000
X4.7F7000S0
X.5F1500S1000
X.9F7000S0
X.4F1500S1000
X1F7000S0
X.7F1500S1000
X8.4F7000S0
X1F1500S1000
X9.3F7000S0
X1F1500S1000
X12.1F7000S0
X.4F1500S1000
X3F7000S0
X.2F1500S1000
X.6F7000S0
X.1F1500S1000
X.1F7000S0
X.5F1500S1000
X24.9F7000S0
X.3F1500S1000
X4.7F7000S0
X.5F1500S1000
X.9F7000S0
X.4F1500S1000
X1F7000S0
X.7F1500S1000
X8.5F7000S0
X.9F1500S1000
X9.3F7000S0
X.9F1500S1000
X12.3F7000S0
X.3F1500S1000
X2.9F7000S0
X.4F1500S1000
X.7F7000S0
X.5F1500S1000
X24.9F7000S0
X.3F1500S1000
X4.7F7000S0
X.5F1500S1000
X.9F7000S0
X.4F1500S1000
X1F7000S0
X.7F1500S1000
X8.4F7000S0
X1.1F1500S1000
X9.2F7000S0
X1.1F1500S1000
X12.1F7000S0
X.3F1500S1000
X3F7000S0
X.2F1500S1000
X.8F7000S0
X.5F1500S1000
X.625F7000S0
Y.1
X-.625
X-.9F1500S1000
X-.5F7000S0
X-.1F1500S1000
X-3F7000S0
X-.3F1500S1000
X-12F7000S0
X-1F1500S1000
X-9.6F7000S0
X-.9F1500S1000
X-.1F7000S0
X-.1F1500S1000
X-8.2F7000S0
X-.9F1500S1000
X-.9F7000S0
X-.6F1500S1000
X-.9F7000S0
X-.2F1500S1000
X-4.7F7000S0
X-.3F1500S1000
X-25F7000S0
X-.8F1500S1000
X-.5F7000S0
X-.1F1500S1000
X-3F7000S0
X-.3F1500S1000
X-12F7000S0
X-1F1500S1000
X-9.7F7000S0
X-.9F1500S1000
X-8.3F7000S0
X-.4F1500S1000
X-.1F7000S0
X-.4F1500S1000
X-1F7000S0
X-.4F1500S1000
X-1F7000S0
X-.3F1500S1000
X-4.7F7000S0
X-.2F1500S1000
X-24.9F7000S0
X-.9F1500S1000
X-3.6F7000S0
X-.3F1500S1000
X-12F7000S0
X-1.1F1500S1000
X-9.6F7000S0
X-1F1500S1000
X-8.3F7000S0
X-.8F1500S1000
X-1F7000S0
X-.5F1500S1000
X-.9F7000S0
X-.3F1500S1000
X-4.7F7000S0
X-.2F1500S1000
X-24.9F7000S0
X-.5F1500S1000
X-.1F7000S0
X-.3F1500S1000
X-.6F7000S0
X-.1F1500S1000
X-2.9F7000S0
X-.3F1500S1000
X-12F7000S0
X-1.1F1500S1000
X-9.6F7000S0
X-.8F1500S1000
X-.1F7000S0
X-.1F1500S1000
X-8.2F7000S0
X-.9F1500S1000
X-1F7000S0
X-.5F1500S1000
X-.9F7000S0
X-.3F1500S1000
X-4.7F7000S0
X-.2F1500S1000
X-.625F7000S0
Y.1
X.625
X.2F1500S1000
X5.8F7000S0
X.4F1500S1000
X1F7000S0
X.4F1500S1000
X.4F7000S0
X.3F1500S1000
X8.1F7000S0
X1F1500S1000
X9.9F7000S0
X1F1500S1000
X11.8F7000S0
X.4F1500S1000
X3.4F7000S0
X.4F1500S1000
X.1F7000S0
X.6F1500S1000
X24.9F7000S0
X.2F1500S1000
X5.8F7000S0
X.4F1500S1000
X1F7000S0
X.4F1500S1000
X.4F7000S0
X.3F1500S1000
X8.1F7000S0
X1F1500S1000
X9.9F7000S0
X1F1500S1000
X11.8F7000S0
X.4F1500S1000
X3.4F7000S0
X.4F1500S1000
X.2F7000S0
X.5F1500S1000
X24.9F7000S0
X.2F1500S1000
X5.8F7000S0
X.4F1500S1000
X1F7000S0
X.4F1500S1000
X.4F7000S0
X.3F1500S1000
X8.1F7000S0
X1F1500S1000
X10F7000S0
X1F1500S1000
X11.8F7000S0
X.2F1500S1000
X3.6F7000S0
X.3F1500S1000
X.1F7000S0
X.6F1500S1000
X25F7000S0
X.2F1500S1000
X4.7F7000S0
X.1F1500S1000
X1F7000S0
X.3F1500S1000
X1F7000S0
X.4F1500S1000
X.4F7000S0
X.3F1500S1000
X8.1F7000S0
X1F1500S1000
X9.9F7000S0
X1.1F1500S1000
X11.8F7000S0
X.3F1500S1000
X3.4F7000S0
X.5F1500S1000
X.1F7000S0
X.5F1500S1000
X.625F7000S0
X-.1Y.1
X-.625
X-.4F1500S1000
X-.3F7000S0
X-.4F1500S1000
X-3.2F7000S0
X-.4F1500S1000
X-11.6F7000S0
X-1.1F1500S1000
X-10.2F7000S0
X-1F1500S1000
X-7.9F7000S0
X-.4F1500S1000
X-.5F7000S0
X-.5F1500S1000
X-1F7000S0
X-.3F1500S1000
X-5.7F7000S0
X-.1F1500S1000
X-25F7000S0
X-.5F1500S1000
X-.4F7000S0
X-.3F1500S1000
X-3.3F7000S0
X-.3F1500S1000
X-11.7F7000S0
X-1F1500S1000
X-10.3F7000S0
X-.9F1500S1000
X-8F7000S0
X-.2F1500S1000
X-.6F7000S0
X-.4F1500S1000
X-1.1F7000S0
X-.4F1500S1000
X-5.6F7000S0
X-.2F1500S1000
X-25F7000S0
X-.4F1500S1000
X-.4F7000S0
X-.4F1500S1000
X-3.1F7000S0
X-.4F1500S1000
X-11.8F7000S0
X-.9F1500S1000
X-10.2F7000S0
X-1.1F1500S1000
X-7.9F7000S0
X-.3F1500S1000
X-.5F7000S0
X-.5F1500S1000
X-1F7000S0
X-.4F1500S1000
X-5.6F7000S0
X-.1F1500S1000
X-25.1F7000S0
X-.5F1500S1000
X-.2F7000S0
X-.5F1500S1000
X-3.2F7000S0
X-.3F1500S1000
X-11.7F7000S0
X-1.1F1500S1000
X-10.2F7000S0
X-.9F1500S1000
X-7.9F7000S0
X-.4F1500S1000
X-.5F7000S0
X-.5F1500S1000
X-1F7000S0
X-.3F1500S1000
X-5.6F7000S0
X-.2F1500S1000
X-.625F7000S0
Y.1
X.625
X.1F1500S1000
X5.5F7000S0
X.3F1500S1000
X1F7000S0
X.5F1500S1000
X.7F7000S0
X.4F1500S1000
X7.8F7000S0
X.9F1500S1000
X10.5F7000S0
X.9F1500S1000
X11.7F7000S0
X.3F1500S1000
X3.1F7000S0
X.4F1500S1000
X.3F7000S0
X.6F1500S1000
X25F7000S0
X.2F1500S1000
X5.5F7000S0
X.4F1500S1000
X1F7000S0
X.4F1500S1000
X.7F7000S0
X.3F1500S1000
X7.8F7000S0
X1F1500S1000
X10.5F7000S0
X1F1500S1000
X11.5F7000S0
X.5F1500S1000
X3F7000S0
X.4F1500S1000
X.4F7000S0
X.5F1500S1000
X25F7000S0
X.2F1500S1000
X5.5F7000S0
X.3F1500S1000
X1.1F7000S0
X.5F1500S1000
X.7F7000S0
X.2F1500S1000
X7.8F7000S0
X1F1500S1000
X10.5F7000S0
X1F1500S1000
X11.6F7000S0
X.4F1500S1000
X3F7000S0
X.4F1500S1000
X.3F7000S0
X.6F1500S1000
X25.1F7000S0
X.2F1500S1000
X5.4F7000S0
X.4F1500S1000
X1F7000S0
X.4F1500S1000
X.7F7000S0
X.4F1500S1000
X7.8F7000S0
X.9F1500S1000
X10.5F7000S0
X1F1500S1000
X11.6F7000S0
X.4F1500S1000
X3.1F7000S0
X.3F1500S1000
X.4F7000S0
X.5F1500S1000
X.625F7000S0
Y.1
X-.625
X-.6F1500S1000
X-.5F7000S0
X-.3F1500S1000
X-2.9F7000S0
X-.4F1500S1000
X-11.4F7000S0
X-1F1500S1000
X-10.8F7000S0
X-1F1500S1000
X-7.6F7000S0
X-.4F1500S1000
X-.8F7000S0
X-.5F1500S1000
X-1F7000S0
X-.4F1500S1000
X-5.3F7000S0
X-.1F1500S1000
X-25F7000S0
X-.8F1500S1000
X-.4F7000S0
X-.3F1500S1000
X-3F7000S0
X-.3F1500S1000
X-11.4F7000S0
X-1F1500S1000
X-10.8F7000S0
X-1F1500S1000
X-7.7F7000S0
X-.3F1500S1000
X-.7F7000S0
X-.6F1500S1000
X-1F7000S0
X-.4F1500S1000
X-5.3F7000S0
X-.2F1500S1000
X-25F7000S0
X-.6F1500S1000
X-.5F7000S0
X-.3F1500S1000
X-2.9F7000S0
X-.4F1500S1000
X-11.5F7000S0
X-.9F1500S1000
X-10.8F7000S0
X-1F1500S1000
X-7.6F7000S0
X-.4F1500S1000
X-.8F7000S0
X-.5F1500S1000
X-1F7000S0
X-.4F1500S1000
X-5.4F7000S0
X-.1F1500S1000
X-25F7000S0
X-.6F1500S1000
X-.5F7000S0
X-.3F1500S1000
X-2.9F7000S0
X-.4F1500S1000
X-11.5F7000S0
X-1F1500S1000
X-10.8F7000S0
X-.9F1500S1000
X-7.7F7000S0
X-.3F1500S1000
X-.8F7000S0
X-.5F1500S1000
X-1F7000S0
X-.4F1500S1000
X-5.3F7000S0
X-.1F1500S1000
X-.625F7000S0
X-.1Y.1
X.625
X.2F1500S1000
X5F7000S0
X.5F1500S1000
X1F7000S0
X.6F1500S1000
X.8F7000S0
X.5F1500S1000
X7.4F7000S0
X1F1500S1000
X11.1F7000S0
X1F1500S1000
X11.3F7000S0
X.4F1500S1000
X2.8F7000S0
X.2F1500S1000
X.6F7000S0
X.7F1500S1000
X25F7000S0
X.1F1500S1000
X5.2F7000S0
X.4F1500S1000
X1F7000S0
X.5F1500S1000
X.9F7000S0
X.4F1500S1000
X7.5F7000S0
X1F1500S1000
X11.1F7000S0
X1F1500S1000
X11.3F7000S0
X.4F1500S1000
X2.9F7000S0
X.1F1500S1000
X.6F7000S0
X.7F1500S1000
X25F7000S0
X.1F1500S1000
X5.1F7000S0
X.6F1500S1000
X.9F7000S0
X.6F1500S1000
X.8F7000S0
X.4F1500S1000
X7.5F7000S0
X1.1F1500S1000
X11F7000S0
X1F1500S1000
X11.3F7000S0
X.4F1500S1000
X2.9F7000S0
X.2F1500S1000
X.5F7000S0
X.7F1500S1000
X25F7000S0
X.2F1500S1000
X5.1F7000S0
X.4F1500S1000
X1.1F7000S0
X.5F1500S1000
X.8F7000S0
X.4F1500S1000
X7.5F7000S0
X1F1500S1000
X11.1F7000S0
X1F1500S1000
X11.3F7000S0
X.5F1500S1000
X2.8F7000S0
X.2F1500S1000
X.5F7000S0
X.7F1500S1000
X.625F7000S0
Y.1
X-.625
X-1F1500S1000
X-3.2F7000S0
X-.5F1500S1000
X-11.1F7000S0
X-1F1500S1000
X-11.5F7000S0
X-.9F1500S1000
X-7.3F7000S0
X-.6F1500S1000
X-.9F7000S0
X-.5F1500S1000
X-1.1F7000S0
X-.3F1500S1000
X-5F7000S0
X-.2F1500S1000
X-25F7000S0
X-.9F1500S1000
X-3.3F7000S0
X-.4F1500S1000
X-11.2F7000S0
X-1F1500S1000
X-11.4F7000S0
X-1.1F1500S1000
X-7.3F7000S0
X-.5F1500S1000
X-.9F7000S0
X-.5F1500S1000
X-1.1F7000S0
X-.4F1500S1000
X-5F7000S0
X-.1F1500S1000
X-25F7000S0
X-.9F1500S1000
X-3.3F7000S0
X-.5F1500S1000
X-11.1F7000S0
X-1F1500S1000
X-11.5F7000S0
X-.9F1500S1000
X-7.4F7000S0
X-.5F1500S1000
X-.9F7000S0
X-.6F1500S1000
X-1.1F7000S0
X-.2F1500S1000
X-5F7000S0
X-.2F1500S1000
X-25F7000S0
X-.9F1500S1000
X-3.3F7000S0
X-.5F1500S1000
X-11.2F7000S0
X-.9F1500S1000
X-11.5F7000S0
X-1F1500S1000
X-7.2F7000S0
X-.7F1500S1000
X-.8F7000S0
X-.5F1500S1000
X-1.1F7000S0
X-.4F1500S1000
X-4.9F7000S0
X-.2F1500S1000
X-.625F7000S0
X-.1Y.1
X.625
X.3F1500S1000
X4.9F7000S0
X.2F1500S1000
X1.1F7000S0
X.6F1500S1000
X.8F7000S0
X.7F1500S1000
X7.2F7000S0
X1F1500S1000
X11.7F7000S0
X1F1500S1000
X11.1F7000S0
X.4F1500S1000
X3.1F7000S0
X.4F1500S1000
X.1F7000S0
X.6F1500S1000
X24.9F7000S0
X.2F1500S1000
X5F7000S0
X.2F1500S1000
X1.1F7000S0
X.6F1500S1000
X.8F7000S0
X.8F1500S1000
X7.1F7000S0
X1F1500S1000
X11.8F7000S0
X.9F1500S1000
X11.1F7000S0
X.4F1500S1000
X3.1F7000S0
X.4F1500S1000
X.2F7000S0
X.4F1500S1000
X25.1F7000S0
X.1F1500S1000
X4.9F7000S0
X.3F1500S1000
X1.1F7000S0
X.5F1500S1000
X1F7000S0
X.6F1500S1000
X7.2F7000S0
X1F1500S1000
X11.7F7000S0
X1F1500S1000
X11.1F7000S0
X.4F1500S1000
X3.1F7000S0
X.4F1500S1000
X.1F7000S0
X.6F1500S1000
X24.9F7000S0
X.3F1500S1000
X4.9F7000S0
X.2F1500S1000
X1.1F7000S0
X.6F1500S1000
X.8F7000S0
X.8F1500S1000
X7.1F7000S0
X1F1500S1000
X11.8F7000S0
X1F1500S1000
X11F7000S0
X.5F1500S1000
X3.1F7000S0
X.3F1500S1000
X.1F7000S0
X.5F1500S1000
X.625F7000S0
X.1Y.1
X-.625
X-.5F1500S1000
X-.3F7000S0
X-.4F1500S1000
X-2.9F7000S0
X-.5F1500S1000
X-10.9F7000S0
X-1F1500S1000
X-12F7000S0
X-1F1500S1000
X-7.1F7000S0
X-.3F1500S1000
X-.1F7000S0
X-.5F1500S1000
X-.8F7000S0
X-.5F1500S1000
X-1.1F7000S0
X-.3F1500S1000
X-4.7F7000S0
X-.4F1500S1000
X-24.9F7000S0
X-.4F1500S1000
X-.4F7000S0
X-.4F1500S1000
X-2.8F7000S0
X-.5F1500S1000
X-10.9F7000S0
X-1F1500S1000
X-12F7000S0
X-1F1500S1000
X-7.1F7000S0
X-.3F1500S1000
X-.1F7000S0
X-.4F1500S1000
X-.9F7000S0
X-.6F1500S1000
X-1.1F7000S0
X-.1F1500S1000
X-4.9F7000S0
X-.2F1500S1000
X-25F7000S0
X-.4F1500S1000
X-.4F7000S0
X-.4F1500S1000
X-2.9F7000S0
X-.4F1500S1000
X-10.9F7000S0
X-1.1F1500S1000
X-12F7000S0
X-.9F1500S1000
X-7.1F7000S0
X-.3F1500S1000
X-.1F7000S0
X-.5F1500S1000
X-.8F7000S0
X-.5F1500S1000
X-1.1F7000S0
X-.3F1500S1000
X-4.8F7000S0
X-.3F1500S1000
X-24.9F7000S0
X-.5F1500S1000
X-.3F7000S0
X-.3F1500S1000
X-2.9F7000S0
X-.5F1500S1000
X-11F7000S0
X-.9F1500S1000
X-12F7000S0
X-1.1F1500S1000
X-6.9F7000S0
X-.4F1500S1000
X-.2F7000S0
X-.4F1500S1000
X-.8F7000S0
X-.6F1500S1000
X-1F7000S0
X-.3F1500S1000
X-4.8F7000S0
X-.3F1500S1000
X-.625F7000S0
X-.1Y.1
X.625
X.5F1500S1000
X4.7F7000S0
X.1F1500S1000
X1.1F7000S0
X.6F1500S1000
X.8F7000S0
X.5F1500S1000
X.3F7000S0
X.3F1500S1000
X6.8F7000S0
X1F1500S1000
X12.3F7000S0
X1F1500S1000
X10.9F7000S0
X.5F1500S1000
X2.7F7000S0
X.2F1500S1000
X.5F7000S0
X.4F1500S1000
X25F7000S0
X.4F1500S1000
X4.7F7000S0
X.2F1500S1000
X1F7000S0
X.6F1500S1000
X.8F7000S0
X.4F1500S1000
X.4F7000S0
X.2F1500S1000
X6.9F7000S0
X1F1500S1000
X12.3F7000S0
X1F1500S1000
X10.9F7000S0
X.4F1500S1000
X2.7F7000S0
X.4F1500S1000
X.4F7000S0
X.4F1500S1000
X25F7000S0
X.3F1500S1000
X4.8F7000S0
X.1F1500S1000
X1.1F7000S0
X.6F1500S1000
X.8F7000S0
X.5F1500S1000
X.3F7000S0
X.2F1500S1000
X7F7000S0
X.9F1500S1000
X12.3F7000S0
X1F1500S1000
X10.9F7000S0
X.5F1500S1000
X2.6F7000S0
X.3F1500S1000
X.6F7000S0
X.4F1500S1000
X24.9F7000S0
X.4F1500S1000
X4.7F7000S0
X.2F1500S1000
X1F7000S0
X.6F1500S1000
X.8F7000S0
X.5F1500S1000
X.3F7000S0
X.3F1500S1000
X6.8F7000S0
X1.1F1500S1000
X12.3F7000S0
X1F1500S1000
X10.8F7000S0
X.5F1500S1000
X2.7F7000S0
X.3F1500S1000
X.5F7000S0
X.4F1500S1000
X.625F7000S0
X-.1Y.1
X-.625
X-.4F1500S1000
X-.6F7000S0
X-.2F1500S1000
X-1.7F7000S0
X-1.4F1500S1000
X-10.7F7000S0
X-1.1F1500S1000
X-12.5F7000S0
X-1F1500S1000
X-6.7F7000S0
X-.3F1500S1000
X-.5F7000S0
X-.4F1500S1000
X-.9F7000S0
X-.6F1500S1000
X-4.8F7000S0
X-1.4F1500S1000
X-24.8F7000S0
X-.5F1500S1000
X-.5F7000S0
X-.4F1500S1000
X-1.7F7000S0
X-1.3F1500S1000
X-10.8F7000S0
X-.9F1500S1000
X-12.6F7000S0
X-1F1500S1000
X-6.8F7000S0
X-.2F1500S1000
X-.5F7000S0
X-.5F1500S1000
X-.9F7000S0
X-.4F1500S1000
X-4.8F7000S0
X-1.5F1500S1000
X-24.9F7000S0
X-.4F1500S1000
X-.7F7000S0
X-.2F1500S1000
X-1.6F7000S0
X-1.4F1500S1000
X-10.8F7000S0
X-1F1500S1000
X-12.6F7000S0
X-.9F1500S1000
X-6.7F7000S0
X-.3F1500S1000
X-.5F7000S0
X-.5F1500S1000
X-.8F7000S0
X-.6F1500S1000
X-4.8F7000S0
X-1.4F1500S1000
X-24.8F7000S0
X-.5F1500S1000
X-.6F7000S0
X-.2F1500S1000
X-1.7F7000S0
X-1.4F1500S1000
X-10.8F7000S0
X-.9F1500S1000
X-12.6F7000S0
X-1.1F1500S1000
X-6.7F7000S0
X-.2F1500S1000
X-.5F7000S0
X-.5F1500S1000
X-.9F7000S0
X-.5F1500S1000
X-4.8F7000S0
X-1.5F1500S1000
X-.625F7000S0
X-.2Y.1
X.625
X1.9F1500S1000
X4.4F7000S0
X.6F1500S1000
X.9F7000S0
X.4F1500S1000
X.7F7000S0
X.3F1500S1000
X6.5F7000S0
X1F1500S1000
X12.8F7000S0
X1.1F1500S1000
X10.6F7000S0
X1.4F1500S1000
X1.6F7000S0
X.2F1500S1000
X.5F7000S0
X.6F1500S1000
X24.6F7000S0
X1.9F1500S1000
X4.4F7000S0
X.7F1500S1000
X.7F7000S0
X.6F1500S1000
X.6F7000S0
X.2F1500S1000
X6.6F7000S0
X1F1500S1000
X12.9F7000S0
X1F1500S1000
X10.6F7000S0
X1.3F1500S1000
X1.7F7000S0
X.1F1500S1000
X.7F7000S0
X.6F1500S1000
X24.5F7000S0
X1.9F1500S1000
X4.4F7000S0
X.7F1500S1000
X.7F7000S0
X.5F1500S1000
X.7F7000S0
X.2F1500S1000
X6.6F7000S0
X1F1500S1000
X12.9F7000S0
X1F1500S1000
X10.7F7000S0
X1.2F1500S1000
X1.7F7000S0
X.1F1500S1000
X.6F7000S0
X.7F1500S1000
X24.5F7000S0
X1.9F1500S1000
X4.4F7000S0
X.7F1500S1000
X.7F7000S0
X.5F1500S1000
X.7F7000S0
X.2F1500S1000
X6.6F7000S0
X1.1F1500S1000
X12.9F7000S0
X1F1500S1000
X10.6F7000S0
X1.3F1500S1000
X1.6F7000S0
X.2F1500S1000
X.6F7000S0
X.6F1500S1000
X.625F7000S0
X-.1Y.1
X-.625
X-.6F1500S1000
X-2.6F7000S0
X-1F1500S1000
X-10.4F7000S0
X-1.1F1500S1000
X-13.2F7000S0
X-1.1F1500S1000
X-6.3F7000S0
X-.3F1500S1000
X-.9F7000S0
X-.4F1500S1000
X-.9F7000S0
X-.6F1500S1000
X-4.4F7000S0
X-1.8F1500S1000
X-24.5F7000S0
X-.6F1500S1000
X-2.5F7000S0
X-.1F1500S1000
X-.1F7000S0
X-1F1500S1000
X-10.4F7000S0
X-1F1500S1000
X-13.3F7000S0
X-.9F1500S1000
X-6.5F7000S0
X-.2F1500S1000
X-.9F7000S0
X-.5F1500S1000
X-.7F7000S0
X-.6F1500S1000
X-4.3F7000S0
X-.1F1500S1000
X-.2F7000S0
X-1.8F1500S1000
X-24.4F7000S0
X-.6F1500S1000
X-2.6F7000S0
X-1.1F1500S1000
X-10.4F7000S0
X-1F1500S1000
X-13.2F7000S0
X-1.1F1500S1000
X-6.4F7000S0
X-.3F1500S1000
X-.8F7000S0
X-.4F1500S1000
X-.8F7000S0
X-.7F1500S1000
X-4.5F7000S0
X-1.8F1500S1000
X-24.4F7000S0
X-.7F1500S1000
X-2.6F7000S0
X-1F1500S1000
X-10.4F7000S0
X-1F1500S1000
X-13.3F7000S0
X-1F1500S1000
X-6.3F7000S0
X-.4F1500S1000
X-.8F7000S0
X-.5F1500S1000
X-.7F7000S0
X-.7F1500S1000
X-4.5F7000S0
X-1.7F1500S1000
X-.625F7000S0
X-.2Y.1
X.625
X1.6F1500S1000
X4.7F7000S0
X.5F1500S1000
X.9F7000S0
X.4F1500S1000
X1F7000S0
X.4F1500S1000
X6.2F7000S0
X1F1500S1000
X13.5F7000S0
X1F1500S1000
X10.3F7000S0
X.8F1500S1000
X2.7F7000S0
X.8F1500S1000
X24.2F7000S0
X1.7F1500S1000
X4.7F7000S0
X.5F1500S1000
X.9F7000S0
X.5F1500S1000
X.9F7000S0
X.4F1500S1000
X6.2F7000S0
X1F1500S1000
X13.5F7000S0
X1F1500S1000
X10.3F7000S0
X.8F1500S1000
X2.8F7000S0
X.6F1500S1000
X24.4F7000S0
X1.5F1500S1000
X4.8F7000S0
X.6F1500S1000
X.7F7000S0
X.5F1500S1000
X1F7000S0
X.3F1500S1000
X6.3F7000S0
X1F1500S1000
X13.6F7000S0
X.9F1500S1000
X10.3F7000S0
X.8F1500S1000
X2.7F7000S0
X.8F1500S1000
X24.3F7000S0
X1.6F1500S1000
X4.7F7000S0
X.5F1500S1000
X.9F7000S0
X.5F1500S1000
X.9F7000S0
X.4F1500S1000
X6.3F7000S0
X1F1500S1000
X13.4F7000S0
X1.1F1500S1000
X10.2F7000S0
X.8F1500S1000
X2.7F7000S0
X.8F1500S1000
X.625F7000S0
Y.1
X-.625
X-.9F1500S1000
X-2.7F7000S0
X-.8F1500S1000
X-10F7000S0
X-1F1500S1000
X-13.8F7000S0
X-1F1500S1000
X-6.1F7000S0
X-.4F1500S1000
X-1.1F7000S0
X-.5F1500S1000
X-.8F7000S0
X-.4F1500S1000
X-5.2F7000S0
X-1.2F1500S1000
X-24.3F7000S0
X-.8F1500S1000
X-2.7F7000S0
X-.8F1500S1000
X-10F7000S0
X-1F1500S1000
X-13.8F7000S0
X-1F1500S1000
X-6.2F7000S0
X-.4F1500S1000
X-1F7000S0
X-.4F1500S1000
X-.8F7000S0
X-.6F1500S1000
X-5F7000S0
X-1.4F1500S1000
X-24.1F7000S0
X-.9F1500S1000
X-2.7F7000S0
X-.8F1500S1000
X-10.1F7000S0
X-.9F1500S1000
X-13.8F7000S0
X-1.1F1500S1000
X-6.1F7000S0
X-.4F1500S1000
X-1F7000S0
X-.5F1500S1000
X-.8F7000S0
X-.5F1500S1000
X-5.1F7000S0
X-1.2F1500S1000
X-24.2F7000S0
X-.9F1500S1000
X-2.8F7000S0
X-.7F1500S1000
X-10F7000S0
X-1.1F1500S1000
X-13.8F7000S0
X-.9F1500S1000
X-6.2F7000S0
X-.3F1500S1000
X-1.1F7000S0
X-.5F1500S1000
X-.7F7000S0
X-.5F1500S1000
X-5.2F7000S0
X-1.3F1500S1000
X-.625F7000S0
X-.1Y.1
X.625
X1.1F1500S1000
X5.3F7000S0
X.4F1500S1000
X.8F7000S0
X.5F1500S1000
X1.2F7000S0
X.4F1500S1000
X6F7000S0
X1F1500S1000
X14.1F7000S0
X.9F1500S1000
X9.9F7000S0
X.6F1500S1000
X2.8F7000S0
X1F1500S1000
X24.1F7000S0
X1.1F1500S1000
X5.2F7000S0
X.5F1500S1000
X.9F7000S0
X.4F1500S1000
X1.1F7000S0
X.5F1500S1000
X6.1F7000S0
X.9F1500S1000
X14.1F7000S0
X1F1500S1000
X9.8F7000S0
X.7F1500S1000
X2.8F7000S0
X.9F1500S1000
X24.1F7000S0
X1.1F1500S1000
X5.2F7000S0
X.5F1500S1000
X.9F7000S0
X.5F1500S1000
X1F7000S0
X.5F1500S1000
X6F7000S0
X1F1500S1000
X14.1F7000S0
X1F1500S1000
X9.8F7000S0
X.7F1500S1000
X2.8F7000S0
X.9F1500S1000
X24.1F7000S0
X1.1F1500S1000
X5.3F7000S0
X.5F1500S1000
X.8F7000S0
X.4F1500S1000
X1.1F7000S0
X.5F1500S1000
X6.1F7000S0
X1F1500S1000
X14F7000S0
X1F1500S1000
X9.9F7000S0
X.6F1500S1000
X2.8F7000S0
X.9F1500S1000
X.625F7000S0
Y.1
X-.625
X-.6F1500S1000
X-.1F7000S0
X-.4F1500S1000
X-2.8F7000S0
X-.6F1500S1000
X-9.5F7000S0
X-1F1500S1000
X-14.4F7000S0
X-1F1500S1000
X-5.9F7000S0
X-.7F1500S1000
X-1F7000S0
X-.5F1500S1000
X-.8F7000S0
X-.5F1500S1000
X-5.5F7000S0
X-.8F1500S1000
X-24F7000S0
X-1F1500S1000
X-2.8F7000S0
X-.7F1500S1000
X-9.5F7000S0
X-1.1F1500S1000
X-14.3F7000S0
X-1F1500S1000
X-5.9F7000S0
X-.6F1500S1000
X-1.1F7000S0
X-.5F1500S1000
X-.9F7000S0
X-.4F1500S1000
X-5.4F7000S0
X-.9F1500S1000
X-24.1F7000S0
X-1F1500S1000
X-2.8F7000S0
X-.6F1500S1000
X-9.6F7000S0
X-.9F1500S1000
X-14.4F7000S0
X-1F1500S1000
X-6F7000S0
X-.6F1500S1000
X-1.1F7000S0
X-.4F1500S1000
X-.9F7000S0
X-.5F1500S1000
X-5.4F7000S0
X-.8F1500S1000
X-24.1F7000S0
X-1F1500S1000
X-2.8F7000S0
X-.6F1500S1000
X-9.6F7000S0
X-1F1500S1000
X-14.4F7000S0
X-.9F1500S1000
X-5.9F7000S0
X-.6F1500S1000
X-1.1F7000S0
X-.5F1500S1000
X-.8F7000S0
X-.5F1500S1000
X-5.5F7000S0
X-.8F1500S1000
X-.625F7000S0
X-.1Y.1
X.625
X.7F1500S1000
X5.4F7000S0
X.6F1500S1000
X.8F7000S0
X.5F1500S1000
X1F7000S0
X.9F1500S1000
X5.7F7000S0
X.9F1500S1000
X14.8F7000S0
X1F1500S1000
X9.2F7000S0
X.7F1500S1000
X2.8F7000S0
X.3F1500S1000
X.3F7000S0
X.4F1500S1000
X24F7000S0
X.7F1500S1000
X5.6F7000S0
X.4F1500S1000
X.9F7000S0
X.4F1500S1000
X1.1F7000S0
X.9F1500S1000
X5.7F7000S0
X1F1500S1000
X14.7F7000S0
X1F1500S1000
X9.1F7000S0
X.7F1500S1000
X2.9F7000S0
X.3F1500S1000
X.3F7000S0
X.4F1500S1000
X24.1F7000S0
X.6F1500S1000
X5.5F7000S0
X.6F1500S1000
X.9F7000S0
X.4F1500S1000
X.9F7000S0
X.1F1500S1000
X.1F7000S0
X.8F1500S1000
X5.7F7000S0
X1F1500S1000
X14.8F7000S0
X.9F1500S1000
X9.2F7000S0
X.6F1500S1000
X3F7000S0
X.2F1500S1000
X.3F7000S0
X.5F1500S1000
X24F7000S0
X.7F1500S1000
X5.5F7000S0
X.5F1500S1000
X.8F7000S0
X.5F1500S1000
X1F7000S0
X.9F1500S1000
X5.7F7000S0
X1F1500S1000
X14.8F7000S0
X1F1500S1000
X9.1F7000S0
X.7F1500S1000
X2.8F7000S0
X.3F1500S1000
X.4F7000S0
X.3F1500S1000
X.625F7000S0
Y.1
X-.625
X-.4F1500S1000
X-.5F7000S0
X-.2F1500S1000
X-2.9F7000S0
X-.6F1500S1000
X-8.9F7000S0
X-1F1500S1000
X-15F7000S0
X-1F1500S1000
X-5.7F7000S0
X-.3F1500S1000
X-.2F7000S0
X-.6F1500S1000
X-.9F7000S0
X-.4F1500S1000
X-1F7000S0
X-.4F1500S1000
X-5.5F7000S0
X-.6F1500S1000
X-24F7000S0
X-.5F1500S1000
X-.3F7000S0
X-.3F1500S1000
X-3F7000S0
X-.5F1500S1000
X-8.9F7000S0
X-1F1500S1000
X-15.1F7000S0
X-1F1500S1000
X-5.6F7000S0
X-.3F1500S1000
X-.1F7000S0
X-.6F1500S1000
X-1.1F7000S0
X-.3F1500S1000
X-.9F7000S0
X-.6F1500S1000
X-5.5F7000S0
X-.5F1500S1000
X-24F7000S0
X-.4F1500S1000
X-.5F7000S0
X-.2F1500S1000
X-3F7000S0
X-.6F1500S1000
X-8.8F7000S0
X-1F1500S1000
X-15.1F7000S0
X-.9F1500S1000
X-5.7F7000S0
X-.3F1500S1000
X-.2F7000S0
X-.6F1500S1000
X-1F7000S0
X-.4F1500S1000
X-.9F7000S0
X-.4F1500S1000
X-5.5F7000S0
X-.6F1500S1000
X-24.1F7000S0
X-.3F1500S1000
X-.5F7000S0
X-.3F1500S1000
X-2.9F7000S0
X-.5F1500S1000
X-9F7000S0
X-.9F1500S1000
X-15.1F7000S0
X-1F1500S1000
X-5.6F7000S0
X-.3F1500S1000
X-.2F7000S0
X-.6F1500S1000
X-.9F7000S0
X-.4F1500S1000
X-1F7000S0
X-.4F1500S1000
X-5.5F7000S0
X-.6F1500S1000
X-.625F7000S0
X-.1Y.1
X.625
X.5F1500S1000
X5.6F7000S0
X.3F1500S1000
X1F7000S0
X.4F1500S1000
X.9F7000S0
X.6F1500S1000
X.4F7000S0
X.3F1500S1000
X5.5F7000S0
X1F1500S1000
X15.4F7000S0
X.9F1500S1000
X8.6F7000S0
X.6F1500S1000
X3F7000S0
X.2F1500S1000
X.5F7000S0
X.4F1500S1000
X24F7000S0
X.5F1500S1000
X5.6F7000S0
X.4F1500S1000
X.9F7000S0
X.4F1500S1000
X.9F7000S0
X.7F1500S1000
X.3F7000S0
X.3F1500S1000
X5.5F7000S0
X1F1500S1000
X15.3F7000S0
X1F1500S1000
X8.6F7000S0
X.5F1500S1000
X3.1F7000S0
X.2F1500S1000
X.5F7000S0
X.4F1500S1000
X24F7000S0
X.5F1500S1000
X5.6F7000S0
X.4F1500S1000
X.9F7000S0
X.4F1500S1000
X1F7000S0
X.6F1500S1000
X.4F7000S0
X.2F1500S1000
X5.5F7000S0
X1F1500S1000
X15.3F7000S0
X1F1500S1000
X8.6F7000S0
X.5F1500S1000
X3.1F7000S0
X.2F1500S1000
X.5F7000S0
X.4F1500S1000
X24F7000S0
X.5F1500S1000
X5.6F7000S0
X.4F1500S1000
X1F7000S0
X.3F1500S1000
X.9F7000S0
X.7F1500S1000
X.3F7000S0
X.3F1500S1000
X5.5F7000S0
X1F1500S1000
X15.4F7000S0
X.9F1500S1000
X8.7F7000S0
X.5F1500S1000
X3F7000S0
X.3F1500S1000
X.4F7000S0
X.4F1500S1000
X.625F7000S0
Y.1
X-.625
X-.6F1500S1000
X-.4F7000S0
X-.2F1500S1000
X-3.1F7000S0
X-.4F1500S1000
X-8.4F7000S0
X-1F1500S1000
X-15.5F7000S0
X-1.1F1500S1000
X-5.4F7000S0
X-.3F1500S1000
X-.5F7000S0
X-.6F1500S1000
X-1F7000S0
X-.3F1500S1000
X-.9F7000S0
X-.4F1500S1000
X-5.7F7000S0
X-.3F1500S1000
X-24F7000S0
X-.5F1500S1000
X-.5F7000S0
X-.3F1500S1000
X-3F7000S0
X-.5F1500S1000
X-8.4F7000S0
X-.9F1500S1000
X-15.7F7000S0
X-.9F1500S1000
X-5.5F7000S0
X-.2F1500S1000
X-.5F7000S0
X-.7F1500S1000
X-.9F7000S0
X-.4F1500S1000
X-.9F7000S0
X-.3F1500S1000
X-5.7F7000S0
X-.4F1500S1000
X-23.9F7000S0
X-.6F1500S1000
X-.4F7000S0
X-.3F1500S1000
X-3F7000S0
X-.4F1500S1000
X-8.4F7000S0
X-1.1F1500S1000
X-15.6F7000S0
X-.9F1500S1000
X-5.4F7000S0
X-.4F1500S1000
X-.4F7000S0
X-.7F1500S1000
X-.9F7000S0
X-.4F1500S1000
X-.9F7000S0
X-.3F1500S1000
X-5.7F7000S0
X-.3F1500S1000
X-24.1F7000S0
X-.5F1500S1000
X-.5F7000S0
X-.1F1500S1000
X-3.1F7000S0
X-.5F1500S1000
X-8.4F7000S0
X-.9F1500S1000
X-15.6F7000S0
X-1.1F1500S1000
X-5.3F7000S0
X-.4F1500S1000
X-.4F7000S0
X-.7F1500S1000
X-.9F7000S0
X-.3F1500S1000
X-.9F7000S0
X-.4F1500S1000
X-5.7F7000S0
X-.4F1500S1000
X-.625F7000S0
Y.1
X.625
X.3F1500S1000
X5.7F7000S0
X.2F1500S1000
X1F7000S0
X.4F1500S1000
X.8F7000S0
X.7F1500S1000
X.7F7000S0
X.2F1500S1000
X5.3F7000S0
X1F1500S1000
X15.9F7000S0
X1F1500S1000
X8.1F7000S0
X.4F1500S1000
X3.3F7000S0
X.1F1500S1000
X.5F7000S0
X.5F1500S1000
X24F7000S0
X.2F1500S1000
X5.8F7000S0
X.2F1500S1000
X1F7000S0
X.4F1500S1000
X.8F7000S0
X.7F1500S1000
X.6F7000S0
X.3F1500S1000
X5.3F7000S0
X1F1500S1000
X15.9F7000S0
X1F1500S1000
X8.1F7000S0
X.4F1500S1000
X3.8F7000S0
X.6F1500S1000
X24F7000S0
X.3F1500S1000
X5.8F7000S0
X.1F1500S1000
X1F7000S0
X.4F1500S1000
X.8F7000S0
X.8F1500S1000
X.6F7000S0
X.3F1500S1000
X5.3F7000S0
X.9F1500S1000
X15.9F7000S0
X1.1F1500S1000
X8F7000S0
X.5F1500S1000
X3.8F7000S0
X.5F1500S1000
X24.1F7000S0
X.2F1500S1000
X5.8F7000S0
X.1F1500S1000
X1F7000S0
X.4F1500S1000
X.9F7000S0
X.6F1500S1000
X.7F7000S0
X.2F1500S1000
X5.3F7000S0
X1.1F1500S1000
X15.8F7000S0
X1F1500S1000
X8.2F7000S0
X.4F1500S1000
X3.8F7000S0
X.5F1500S1000
X.625F7000S0
X-.1Y.1
X-.625
X-.6F1500S1000
X-3.7F7000S0
X-.4F1500S1000
X-7.9F7000S0
X-1F1500S1000
X-16.2F7000S0
X-1F1500S1000
X-5.2F7000S0
X-.3F1500S1000
X-.8F7000S0
X-.6F1500S1000
X-.8F7000S0
X-.6F1500S1000
X-6.7F7000S0
X-.3F1500S1000
X-24F7000S0
X-.6F1500S1000
X-3.8F7000S0
X-.4F1500S1000
X-7.8F7000S0
X-1F1500S1000
X-16.3F7000S0
X-.9F1500S1000
X-5.2F7000S0
X-.2F1500S1000
X-.9F7000S0
X-.7F1500S1000
X-.8F7000S0
X-.4F1500S1000
X-6.9F7000S0
X-.2F1500S1000
X-24F7000S0
X-.5F1500S1000
X-3.9F7000S0
X-.3F1500S1000
X-8F7000S0
X-1F1500S1000
X-16.1F7000S0
X-1.1F1500S1000
X-5.1F7000S0
X-.3F1500S1000
X-.9F7000S0
X-.6F1500S1000
X-.8F7000S0
X-.5F1500S1000
X-6.7F7000S0
X-.3F1500S1000
X-24F7000S0
X-.6F1500S1000
X-3.8F7000S0
X-.3F1500S1000
X-8F7000S0
X-.9F1500S1000
X-16.2F7000S0
X-1.1F1500S1000
X-5.1F7000S0
X-.3F1500S1000
X-.9F7000S0
X-.5F1500S1000
X-.9F7000S0
X-.5F1500S1000
X-6.8F7000S0
X-.1F1500S1000
X-.625F7000S0
X-.1Y.1
X.625
X.2F1500S1000
X6.7F7000S0
X.4F1500S1000
X.8F7000S0
X.6F1500S1000
X1F7000S0
X.4F1500S1000
X5F7000S0
X1F1500S1000
X16.5F7000S0
X1F1500S1000
X7.7F7000S0
X.3F1500S1000
X3.7F7000S0
X.7F1500S1000
X24.1F7000S0
X.2F1500S1000
X6.7F7000S0
X.4F1500S1000
X.8F7000S0
X.7F1500S1000
X1F7000S0
X.2F1500S1000
X5.1F7000S0
X1F1500S1000
X16.6F7000S0
X.9F1500S1000
X7.6F7000S0
X.4F1500S1000
X3.8F7000S0
X.6F1500S1000
X24.1F7000S0
X.1F1500S1000
X6.9F7000S0
X.4F1500S1000
X.7F7000S0
X.6F1500S1000
X1F7000S0
X.4F1500S1000
X5F7000S0
X.9F1500S1000
X16.7F7000S0
X.9F1500S1000
X7.7F7000S0
X.2F1500S1000
X3.9F7000S0
X.6F1500S1000
X24.1F7000S0
X.2F1500S1000
X6.8F7000S0
X.3F1500S1000
X.8F7000S0
X.7F1500S1000
X1F7000S0
X.3F1500S1000
X5F7000S0
X1.1F1500S1000
X16.5F7000S0
X1F1500S1000
X7.6F7000S0
X.3F1500S1000
X3.8F7000S0
X.6F1500S1000
X.625F7000S0
X-.1Y.1
X-.625
X-.7F1500S1000
X-3.7F7000S0
X-.3F1500S1000
X-7.4F7000S0
X-1F1500S1000
X-16.9F7000S0
X-.9F1500S1000
X-5F7000S0
X-.4F1500S1000
X-1F7000S0
X-.6F1500S1000
X-.8F7000S0
X-.3F1500S1000
X-6.7F7000S0
X-.3F1500S1000
X-24F7000S0
X-.8F1500S1000
X-3.7F7000S0
X-.3F1500S1000
X-7.3F7000S0
X-1F1500S1000
X-17F7000S0
X-.9F1500S1000
X-4.9F7000S0
X-.5F1500S1000
X-1.1F7000S0
X-.6F1500S1000
X-.7F7000S0
X-.3F1500S1000
X-6.8F7000S0
X-.1F1500S1000
X-24.2F7000S0
X-.7F1500S1000
X-3.7F7000S0
X-.3F1500S1000
X-7.4F7000S0
X-1F1500S1000
X-16.8F7000S0
X-1.1F1500S1000
X-4.9F7000S0
X-.4F1500S1000
X-1F7000S0
X-.6F1500S1000
X-.9F7000S0
X-.2F1500S1000
X-6.8F7000S0
X-.2F1500S1000
X-24.1F7000S0
X-.7F1500S1000
X-3.7F7000S0
X-.3F1500S1000
X-7.4F7000S0
X-1F1500S1000
X-16.9F7000S0
X-.9F1500S1000
X-5F7000S0
X-.4F1500S1000
X-1F7000S0
X-.7F1500S1000
X-.8F7000S0
X-.3F1500S1000
X-6.7F7000S0
X-.2F1500S1000
X-.625F7000S0
Y.1
X.625
X.2F1500S1000
X6.7F7000S0
X.2F1500S1000
X.7F7000S0
X.6F1500S1000
X1F7000S0
X.6F1500S1000
X4.9F7000S0
X1F1500S1000
X17.1F7000S0
X1F1500S1000
X7.3F7000S0
X.3F1500S1000
X3.6F7000S0
X.8F1500S1000
X24.1F7000S0
X.2F1500S1000
X6.8F7000S0
X.1F1500S1000
X.8F7000S0
X.5F1500S1000
X1F7000S0
X.6F1500S1000
X4.9F7000S0
X1F1500S1000
X17.2F7000S0
X.9F1500S1000
X7.2F7000S0
X.4F1500S1000
X3.6F7000S0
X.8F1500S1000
X24.1F7000S0
X.3F1500S1000
X6.6F7000S0
X.2F1500S1000
X.8F7000S0
X.6F1500S1000
X1F7000S0
X.6F1500S1000
X4.8F7000S0
X1F1500S1000
X17.1F7000S0
X1F1500S1000
X7.3F7000S0
X.2F1500S1000
X3.8F7000S0
X.7F1500S1000
X24.1F7000S0
X.2F1500S1000
X6.8F7000S0
X.2F1500S1000
X.7F7000S0
X.5F1500S1000
X1.1F7000S0
X.6F1500S1000
X4.9F7000S0
X1F1500S1000
X17F7000S0
X1F1500S1000
X7.3F7000S0
X.3F1500S1000
X3.7F7000S0
X.7F1500S1000
X.625F7000S0
X-.1Y.1
X-.625
X-.8F1500S1000
X-3.6F7000S0
X-.3F1500S1000
X-7.1F7000S0
X-.9F1500S1000
X-17.5F7000S0
X-.9F1500S1000
X-4.8F7000S0
X-.7F1500S1000
X-1F7000S0
X-.6F1500S1000
X-7.5F7000S0
X-.2F1500S1000
X-24.1F7000S0
X-.8F1500S1000
X-3.7F7000S0
X-.3F1500S1000
X-6.9F7000S0
X-1.1F1500S1000
X-17.4F7000S0
X-1F1500S1000
X-4.7F7000S0
X-.8F1500S1000
X-1F7000S0
X-.6F1500S1000
X-7.5F7000S0
X-.2F1500S1000
X-24.2F7000S0
X-.8F1500S1000
X-3.6F7000S0
X-.4F1500S1000
X-7F7000S0
X-.9F1500S1000
X-17.4F7000S0
X-1F1500S1000
X-4.8F7000S0
X-.8F1500S1000
X-1F7000S0
X-.5F1500S1000
X-7.5F7000S0
X-.3F1500S1000
X-24.1F7000S0
X-.7F1500S1000
X-3.7F7000S0
X-.3F1500S1000
X-7F7000S0
X-1F1500S1000
X-17.5F7000S0
X-.9F1500S1000
X-4.8F7000S0
X-.7F1500S1000
X-1.1F7000S0
X-.5F1500S1000
X-7.5F7000S0
X-.3F1500S1000
X-.625F7000S0
X.1Y.1
X.625
X.1F1500S1000
X7.4F7000S0
X.5F1500S1000
X1F7000S0
X.9F1500S1000
X4.7F7000S0
X1F1500S1000
X17.7F7000S0
X1F1500S1000
X6.9F7000S0
X.3F1500S1000
X3.5F7000S0
X1F1500S1000
X24F7000S0
X.2F1500S1000
X7.4F7000S0
X.6F1500S1000
X1F7000S0
X.4F1500S1000
X.1F7000S0
X.4F1500S1000
X4.6F7000S0
X1F1500S1000
X17.8F7000S0
X.9F1500S1000
X6.9F7000S0
X.3F1500S1000
X3.5F7000S0
X.9F1500S1000
X24.2F7000S0
X.1F1500S1000
X7.5F7000S0
X.5F1500S1000
X.8F7000S0
X1F1500S1000
X4.7F7000S0
X1F1500S1000
X17.7F7000S0
X1F1500S1000
X6.9F7000S0
X.3F1500S1000
X3.5F7000S0
X1F1500S1000
X24F7000S0
X.2F1500S1000
X7.5F7000S0
X.5F1500S1000
X1F7000S0
X.9F1500S1000
X4.7F7000S0
X1F1500S1000
X17.6F7000S0
X1F1500S1000
X6.9F7000S0
X.3F1500S1000
X3.6F7000S0
X.8F1500S1000
X.625F7000S0
X.1Y.1
X-.625
X-.6F1500S1000
X-.1F7000S0
X-.4F1500S1000
X-3.4F7000S0
X-.3F1500S1000
X-6.7F7000S0
X-.9F1500S1000
X-18.1F7000S0
X-1F1500S1000
X-4.6F7000S0
X-.2F1500S1000
X-.3F7000S0
X-.8F1500S1000
X-.8F7000S0
X-.4F1500S1000
X-7.3F7000S0
X-.2F1500S1000
X-24F7000S0
X-1.2F1500S1000
X-3.3F7000S0
X-.3F1500S1000
X-6.7F7000S0
X-1F1500S1000
X-18F7000S0
X-1.1F1500S1000
X-4.5F7000S0
X-.2F1500S1000
X-.4F7000S0
X-.6F1500S1000
X-.9F7000S0
X-.5F1500S1000
X-7.2F7000S0
X-.2F1500S1000
X-24F7000S0
X-.6F1500S1000
X-.1F7000S0
X-.5F1500S1000
X-3.3F7000S0
X-.4F1500S1000
X-6.6F7000S0
X-1F1500S1000
X-18.1F7000S0
X-.9F1500S1000
X-4.6F7000S0
X-.2F1500S1000
X-.3F7000S0
X-.6F1500S1000
X-.1F7000S0
X-.1F1500S1000
X-.8F7000S0
X-.5F1500S1000
X-7.3F7000S0
X-.1F1500S1000
X-24F7000S0
X-.6F1500S1000
X-.1F7000S0
X-.5F1500S1000
X-3.3F7000S0
X-.4F1500S1000
X-6.6F7000S0
X-1F1500S1000
X-18.1F7000S0
X-1F1500S1000
X-4.5F7000S0
X-.3F1500S1000
X-.2F7000S0
X-.6F1500S1000
X-.1F7000S0
X-.1F1500S1000
X-.8F7000S0
X-.5F1500S1000
X-7.2F7000S0
X-.2F1500S1000
X-.625F7000S0
Y.1
X.625
X.1F1500S1000
X7.2F7000S0
X.3F1500S1000
X.9F7000S0
X.7F1500S1000
X.5F7000S0
X.3F1500S1000
X4.4F7000S0
X1F1500S1000
X18.4F7000S0
X.9F1500S1000
X6.5F7000S0
X.4F1500S1000
X3.3F7000S0
X.3F1500S1000
X.3F7000S0
X.7F1500S1000
X23.8F7000S0
X.2F1500S1000
X7.1F7000S0
X.4F1500S1000
X.9F7000S0
X.7F1500S1000
X.4F7000S0
X.3F1500S1000
X4.5F7000S0
X1F1500S1000
X18.4F7000S0
X.9F1500S1000
X6.5F7000S0
X.4F1500S1000
X3.2F7000S0
X.4F1500S1000
X.4F7000S0
X.6F1500S1000
X23.9F7000S0
X.2F1500S1000
X7F7000S0
X.4F1500S1000
X.9F7000S0
X.7F1500S1000
X.5F7000S0
X.2F1500S1000
X4.5F7000S0
X1F1500S1000
X18.4F7000S0
X1F1500S1000
X6.4F7000S0
X.4F1500S1000
X3.2F7000S0
X.4F1500S1000
X.3F7000S0
X.7F1500S1000
X23.9F7000S0
X.1F1500S1000
X7.2F7000S0
X.4F1500S1000
X.9F7000S0
X.7F1500S1000
X.3F7000S0
X.4F1500S1000
X4.4F7000S0
X.9F1500S1000
X18.5F7000S0
X.9F1500S1000
X6.5F7000S0
X.4F1500S1000
X3.2F7000S0
X.5F1500S1000
X.3F7000S0
X.7F1500S1000
X.625F7000S0
Y.1
X-.625
X-.8F1500S1000
X-.4F7000S0
X-.3F1500S1000
X-3.2F7000S0
X-.4F1500S1000
X-6.3F7000S0
X-.9F1500S1000
X-18.7F7000S0
X-1F1500S1000
X-4.4F7000S0
X-.4F1500S1000
X-.5F7000S0
X-.6F1500S1000
X-1F7000S0
X-.2F1500S1000
X-7.1F7000S0
X-.1F1500S1000
X-23.9F7000S0
X-.6F1500S1000
X-.6F7000S0
X-.3F1500S1000
X-3.2F7000S0
X-.3F1500S1000
X-6.3F7000S0
X-1F1500S1000
X-18.7F7000S0
X-1F1500S1000
X-4.3F7000S0
X-.3F1500S1000
X-.6F7000S0
X-.7F1500S1000
X-.9F7000S0
X-.2F1500S1000
X-7.1F7000S0
X-.1F1500S1000
X-23.8F7000S0
X-.8F1500S1000
X-.4F7000S0
X-.4F1500S1000
X-3.1F7000S0
X-.4F1500S1000
X-6.2F7000S0
X-1.1F1500S1000
X-18.7F7000S0
X-.9F1500S1000
X-4.4F7000S0
X-.4F1500S1000
X-.6F7000S0
X-.6F1500S1000
X-.9F7000S0
X-.2F1500S1000
X-7.1F7000S0
X-.2F1500S1000
X-23.7F7000S0
X-.8F1500S1000
X-.4F7000S0
X-.4F1500S1000
X-3.1F7000S0
X-.4F1500S1000
X-6.3F7000S0
X-1F1500S1000
X-18.7F7000S0
X-1F1500S1000
X-4.3F7000S0
X-.3F1500S1000
X-.6F7000S0
X-.7F1500S1000
X-.9F7000S0
X-.2F1500S1000
X-7.1F7000S0
X-.2F1500S1000
X-.625F7000S0
Y.1
X.625
X.2F1500S1000
X8F7000S0
X.7F1500S1000
X.7F7000S0
X.3F1500S1000
X4.3F7000S0
X1F1500S1000
X19F7000S0
X.9F1500S1000
X6.2F7000S0
X.4F1500S1000
X3F7000S0
X.3F1500S1000
X.5F7000S0
X.4F1500S1000
X.1F7000S0
X.4F1500S1000
X23.7F7000S0
X.2F1500S1000
X8F7000S0
X.7F1500S1000
X.6F7000S0
X.4F1500S1000
X4.3F7000S0
X1F1500S1000
X18.9F7000S0
X1F1500S1000
X6.2F7000S0
X.4F1500S1000
X3F7000S0
X.3F1500S1000
X.5F7000S0
X.3F1500S1000
X.2F7000S0
X.4F1500S1000
X23.7F7000S0
X.2F1500S1000
X8F7000S0
X.7F1500S1000
X.7F7000S0
X.3F1500S1000
X4.4F7000S0
X.9F1500S1000
X19F7000S0
X1F1500S1000
X6.1F7000S0
X.4F1500S1000
X3F7000S0
X.4F1500S1000
X.4F7000S0
X.4F1500S1000
X.1F7000S0
X.4F1500S1000
X23.7F7000S0
X.2F1500S1000
X8F7000S0
X.8F1500S1000
X.6F7000S0
X.3F1500S1000
X4.3F7000S0
X1F1500S1000
X19F7000S0
X.9F1500S1000
X6.2F7000S0
X.4F1500S1000
X3.1F7000S0
X.2F1500S1000
X.5F7000S0
X.4F1500S1000
X.1F7000S0
X.5F1500S1000
X.625F7000S0
Y.1
X-.625
X-.4F1500S1000
X-.3F7000S0
X-.4F1500S1000
X-.5F7000S0
X-.3F1500S1000
X-2.9F7000S0
X-.4F1500S1000
X-6F7000S0
X-1F1500S1000
X-19.1F7000S0
X-1.2F1500S1000
X-4.2F7000S0
X-.3F1500S1000
X-.8F7000S0
X-.6F1500S1000
X-7.9F7000S0
X-.2F1500S1000
X-23.6F7000S0
X-.4F1500S1000
X-.3F7000S0
X-.3F1500S1000
X-.6F7000S0
X-.3F1500S1000
X-2.9F7000S0
X-.5F1500S1000
X-6F7000S0
X-.9F1500S1000
X-19.3F7000S0
X-.9F1500S1000
X-4.2F7000S0
X-.4F1500S1000
X-.8F7000S0
X-.7F1500S1000
X-7.8F7000S0
X-.2F1500S1000
X-23.6F7000S0
X-.4F1500S1000
X-.3F7000S0
X-.4F1500S1000
X-.5F7000S0
X-.3F1500S1000
X-2.9F7000S0
X-.5F1500S1000
X-5.9F7000S0
X-1F1500S1000
X-19.3F7000S0
X-.9F1500S1000
X-4.3F7000S0
X-.3F1500S1000
X-.8F7000S0
X-.6F1500S1000
X-8F7000S0
X-.1F1500S1000
X-23.6F7000S0
X-.4F1500S1000
X-.3F7000S0
X-.4F1500S1000
X-.6F7000S0
X-.2F1500S1000
X-2.9F7000S0
X-.4F1500S1000
X-6F7000S0
X-1F1500S1000
X-19.2F7000S0
X-1.1F1500S1000
X-4.2F7000S0
X-.3F1500S1000
X-.7F7000S0
X-.1F1500S1000
X-.1F7000S0
X-.6F1500S1000
X-7.9F7000S0
X-.1F1500S1000
X-.625F7000S0
Y.1
X.625
X.2F1500S1000
X7.7F7000S0
X.6F1500S1000
X.9F7000S0
X.3F1500S1000
X4.2F7000S0
X1F1500S1000
X19.5F7000S0
X1F1500S1000
X5.8F7000S0
X.4F1500S1000
X3F7000S0
X.1F1500S1000
X.4F7000S0
X.5F1500S1000
X.5F7000S0
X.4F1500S1000
X23.5F7000S0
X.2F1500S1000
X7.7F7000S0
X.7F1500S1000
X.9F7000S0
X.3F1500S1000
X4.2F7000S0
X1F1500S1000
X19.5F7000S0
X1F1500S1000
X5.8F7000S0
X.4F1500S1000
X3F7000S0
X.1F1500S1000
X.5F7000S0
X.4F1500S1000
X.5F7000S0
X.5F1500S1000
X23.5F7000S0
X.2F1500S1000
X7.7F7000S0
X.5F1500S1000
X1F7000S0
X.3F1500S1000
X4.2F7000S0
X.9F1500S1000
X19.7F7000S0
X1F1500S1000
X5.7F7000S0
X.4F1500S1000
X3F7000S0
X.1F1500S1000
X.5F7000S0
X.4F1500S1000
X.6F7000S0
X.4F1500S1000
X23.5F7000S0
X.1F1500S1000
X7.7F7000S0
X.7F1500S1000
X1F7000S0
X.2F1500S1000
X4.2F7000S0
X1F1500S1000
X19.5F7000S0
X1F1500S1000
X5.8F7000S0
X.5F1500S1000
X2.9F7000S0
X.2F1500S1000
X.4F7000S0
X.4F1500S1000
X.5F7000S0
X.5F1500S1000
X.625F7000S0
Y.1
X-.625
X-.5F1500S1000
X-.6F7000S0
X-.4F1500S1000
X-3.5F7000S0
X-.3F1500S1000
X-5.7F7000S0
X-1F1500S1000
X-19.9F7000S0
X-1F1500S1000
X-4F7000S0
X-.4F1500S1000
X-.9F7000S0
X-.7F1500S1000
X-7.5F7000S0
X-.2F1500S1000
X-23.5F7000S0
X-.5F1500S1000
X-.6F7000S0
X-.4F1500S1000
X-3.5F7000S0
X-.4F1500S1000
X-5.5F7000S0
X-1F1500S1000
X-20F7000S0
X-.9F1500S1000
X-4.1F7000S0
X-.4F1500S1000
X-1F7000S0
X-.6F1500S1000
X-7.5F7000S0
X-.2F1500S1000
X-23.5F7000S0
X-.5F1500S1000
X-.6F7000S0
X-.4F1500S1000
X-3.5F7000S0
X-.3F1500S1000
X-5.7F7000S0
X-1F1500S1000
X-19.9F7000S0
X-1F1500S1000
X-4.1F7000S0
X-.3F1500S1000
X-1F7000S0
X-.6F1500S1000
X-7.6F7000S0
X-.1F1500S1000
X-23.5F7000S0
X-.5F1500S1000
X-.6F7000S0
X-.4F1500S1000
X-3.5F7000S0
X-.4F1500S1000
X-5.6F7000S0
X-1F1500S1000
X-19.9F7000S0
X-1F1500S1000
X-4.1F7000S0
X-.3F1500S1000
X-1F7000S0
X-.7F1500S1000
X-7.4F7000S0
X-.2F1500S1000
X-.625F7000S0
X-.1Y.1
X.625
X.2F1500S1000
X7.4F7000S0
X.6F1500S1000
X1.1F7000S0
X.4F1500S1000
X4.1F7000S0
X.9F1500S1000
X20.1F7000S0
X1F1500S1000
X5.5F7000S0
X.5F1500S1000
X3.2F7000S0
X.5F1500S1000
X.6F7000S0
X.7F1500S1000
X23.3F7000S0
X.2F1500S1000
X7.3F7000S0
X.6F1500S1000
X1.1F7000S0
X.5F1500S1000
X4F7000S0
X1F1500S1000
X20.2F7000S0
X.9F1500S1000
X5.6F7000S0
X.3F1500S1000
X3.3F7000S0
X.5F1500S1000
X.5F7000S0
X.8F1500S1000
X23.3F7000S0
X.3F1500S1000
X7.2F7000S0
X.7F1500S1000
X1F7000S0
X.4F1500S1000
X4.1F7000S0
X.9F1500S1000
X20.3F7000S0
X.9F1500S1000
X5.6F7000S0
X.3F1500S1000
X3.4F7000S0
X.4F1500S1000
X.5F7000S0
X.8F1500S1000
X23.3F7000S0
X.3F1500S1000
X7.3F7000S0
X.6F1500S1000
X1.1F7000S0
X.4F1500S1000
X4.1F7000S0
X.9F1500S1000
X20.2F7000S0
X1F1500S1000
X5.5F7000S0
X.3F1500S1000
X3.4F7000S0
X.4F1500S1000
X.6F7000S0
X.7F1500S1000
X.625F7000S0
X.1Y.1
X-.625
X-1F1500S1000
X-.5F7000S0
X-.4F1500S1000
X-3.2F7000S0
X-.4F1500S1000
X-5.5F7000S0
X-.9F1500S1000
X-20.5F7000S0
X-.8F1500S1000
X-4.1F7000S0
X-.5F1500S1000
X-1.1F7000S0
X-.6F1500S1000
X-7.2F7000S0
X-.2F1500S1000
X-23.3F7000S0
X-.9F1500S1000
X-.6F7000S0
X-.3F1500S1000
X-3.3F7000S0
X-.4F1500S1000
X-5.5F7000S0
X-.8F1500S1000
X-20.5F7000S0
X-.8F1500S1000
X-4.2F7000S0
X-.4F1500S1000
X-1.1F7000S0
X-.6F1500S1000
X-7.1F7000S0
X-.3F1500S1000
X-23.2F7000S0
X-1F1500S1000
X-.6F7000S0
X-.4F1500S1000
X-3.2F7000S0
X-.4F1500S1000
X-5.5F7000S0
X-.8F1500S1000
X-20.5F7000S0
X-.8F1500S1000
X-4.1F7000S0
X-.6F1500S1000
X-1F7000S0
X-.7F1500S1000
X-7.1F7000S0
X-.2F1500S1000
X-23.3F7000S0
X-.9F1500S1000
X-.5F7000S0
X-.4F1500S1000
X-3.3F7000S0
X-.4F1500S1000
X-5.4F7000S0
X-.9F1500S1000
X-20.5F7000S0
X-.9F1500S1000
X-4F7000S0
X-.5F1500S1000
X-1.1F7000S0
X-.6F1500S1000
X-7.1F7000S0
X-.3F1500S1000
X-.625F7000S0
Y.1
X.625
X.2F1500S1000
X7.1F7000S0
X.5F1500S1000
X1.1F7000S0
X.6F1500S1000
X4.2F7000S0
X.7F1500S1000
X20.7F7000S0
X.8F1500S1000
X5.4F7000S0
X.4F1500S1000
X3.1F7000S0
X.5F1500S1000
X.5F7000S0
X.4F1500S1000
X.3F7000S0
X.3F1500S1000
X23.2F7000S0
X.3F1500S1000
X7.1F7000S0
X.5F1500S1000
X1.2F7000S0
X.5F1500S1000
X4.1F7000S0
X.8F1500S1000
X20.8F7000S0
X.7F1500S1000
X5.4F7000S0
X.4F1500S1000
X3.1F7000S0
X.4F1500S1000
X.6F7000S0
X.4F1500S1000
X.3F7000S0
X.4F1500S1000
X23.2F7000S0
X.3F1500S1000
X7F7000S0
X.4F1500S1000
X1.2F7000S0
X.5F1500S1000
X4.3F7000S0
X.7F1500S1000
X20.7F7000S0
X.8F1500S1000
X5.4F7000S0
X.4F1500S1000
X3.1F7000S0
X.4F1500S1000
X.6F7000S0
X.4F1500S1000
X.2F7000S0
X.5F1500S1000
X23.2F7000S0
X.3F1500S1000
X7F7000S0
X.5F1500S1000
X1.1F7000S0
X.6F1500S1000
X4.1F7000S0
X.8F1500S1000
X20.8F7000S0
X.7F1500S1000
X5.4F7000S0
X.4F1500S1000
X3.1F7000S0
X.5F1500S1000
X.5F7000S0
X.4F1500S1000
X.3F7000S0
X.4F1500S1000
X.625F7000S0
X.1Y.1
X-.625
X-.5F1500S1000
X-.4F7000S0
X-.4F1500S1000
X-.6F7000S0
X-.4F1500S1000
X-3F7000S0
X-.4F1500S1000
X-5.3F7000S0
X-.7F1500S1000
X-21.1F7000S0
X-.6F1500S1000
X-4.3F7000S0
X-.5F1500S1000
X-1.2F7000S0
X-.4F1500S1000
X-7F7000S0
X-.2F1500S1000
X-23.2F7000S0
X-.4F1500S1000
X-.4F7000S0
X-.5F1500S1000
X-.5F7000S0
X-.5F1500S1000
X-2.9F7000S0
X-.4F1500S1000
X-5.3F7000S0
X-.7F1500S1000
X-21F7000S0
X-.7F1500S1000
X-4.3F7000S0
X-.6F1500S1000
X-1.2F7000S0
X-.3F1500S1000
X-6.9F7000S0
X-.3F1500S1000
X-23.1F7000S0
X-.5F1500S1000
X-.4F7000S0
X-.4F1500S1000
X-.6F7000S0
X-.4F1500S1000
X-3F7000S0
X-.4F1500S1000
X-5.4F7000S0
X-.6F1500S1000
X-21.1F7000S0
X-.6F1500S1000
X-4.3F7000S0
X-.5F1500S1000
X-1.2F7000S0
X-.4F1500S1000
X-7F7000S0
X-.2F1500S1000
X-23.2F7000S0
X-.4F1500S1000
X-.4F7000S0
X-.5F1500S1000
X-.5F7000S0
X-.5F1500S1000
X-2.9F7000S0
X-.5F1500S1000
X-5.2F7000S0
X-.7F1500S1000
X-21.1F7000S0
X-.6F1500S1000
X-4.3F7000S0
X-.5F1500S1000
X-1.2F7000S0
X-.4F1500S1000
X-6.9F7000S0
X-.3F1500S1000
X-.625F7000S0
Y.1
X.625
X.2F1500S1000
X7F7000S0
X.1F1500S1000
X1.2F7000S0
X.7F1500S1000
X4.4F7000S0
X.5F1500S1000
X21.3F7000S0
X.5F1500S1000
X5.3F7000S0
X.6F1500S1000
X2.7F7000S0
X.4F1500S1000
X.5F7000S0
X.5F1500S1000
X.6F7000S0
X.4F1500S1000
X23.2F7000S0
X.2F1500S1000
X7F7000S0
X.1F1500S1000
X1.2F7000S0
X.7F1500S1000
X4.3F7000S0
X.6F1500S1000
X21.3F7000S0
X.6F1500S1000
X5.3F7000S0
X.4F1500S1000
X2.8F7000S0
X.4F1500S1000
X.5F7000S0
X.5F1500S1000
X.6F7000S0
X.4F1500S1000
X23.2F7000S0
X.3F1500S1000
X6.9F7000S0
X.1F1500S1000
X1.2F7000S0
X.8F1500S1000
X4.2F7000S0
X.7F1500S1000
X21.2F7000S0
X.6F1500S1000
X5.2F7000S0
X.5F1500S1000
X2.7F7000S0
X.5F1500S1000
X.4F7000S0
X.7F1500S1000
X.5F7000S0
X.4F1500S1000
X23.2F7000S0
X.3F1500S1000
X6.9F7000S0
X.1F1500S1000
X1.2F7000S0
X.7F1500S1000
X4.4F7000S0
X.6F1500S1000
X21.2F7000S0
X.6F1500S1000
X5.3F7000S0
X.5F1500S1000
X2.7F7000S0
X.4F1500S1000
X.6F7000S0
X.4F1500S1000
X.7F7000S0
X.4F1500S1000
X.625F7000S0
Y.1
X-.625
X-.5F1500S1000
X-.7F7000S0
X-.6F1500S1000
X-.4F7000S0
X-.1F1500S1000
X-.1F7000S0
X-.3F1500S1000
X-2.6F7000S0
X-.3F1500S1000
X-5.4F7000S0
X-.5F1500S1000
X-21.4F7000S0
X-.5F1500S1000
X-4.3F7000S0
X-1F1500S1000
X-8.1F7000S0
X-.2F1500S1000
X-23.1F7000S0
X-.5F1500S1000
X-.7F7000S0
X-.5F1500S1000
X-.7F7000S0
X-.3F1500S1000
