; LightBurn Pro 2.0.05
; GRBL-LPC device profile, absolute coords
; Bounds: X15.94 Y12.2 to X286.07 Y197.6
G00 G17 G40 G21 G54
G90
M4
; Image @ 7000 мм/мин, 100% power
M8
G0 X25.536Y62.299
; Layer C00
G91
G1 X2.917F7000S0
X.1S1000
X.1S0
X.1S1000
X6.499S0
X.101S1000
X.099S0
X.201S1000
X.099S0
X.101S1000
X.099S0
X.201S1000
X.5S0
X.2S1000
X.099S0
X.2S1000
X.1S0
X.2S1000
X.1S0
X.2S1000
X7.1S0
X.101S1000
X.099S0
X.101S1000
X.399S0
X.101S1000
X.399S0
X.101S1000
X.099S0
X.1S1000
X.2S0
X.101S1000
X.399S0
X.101S1000
X.099S0
X.1S1000
X.2S0
X.101S1000
X.099S0
X.201S1000
X3.799S0
X.1S1000
X5.4S0
X.1S1000
X6.601S0
X.099S1000
X.101S0
X.2S1000
X.1S0
X.2S1000
X.1S0
X.1S1000
X.5S0
X.1S1000
X.099S0
X.201S1000
X.1S0
X.199S1000
X.101S0
X.2S1000
X7.1S0
X.099S1000
X.1S0
X.201S1000
X.299S0
X.101S1000
X.1S0
X.1S1000
X.3S0
X.1S1000
X.1S0
X.099S1000
X.1S0
X.101S1000
X.5S0
X.1S1000
X.1S0
X.099S1000
X.201S0
X.2S1000
X22.099S0
X.201S1000
X6.5S0
X.1S1000
X.099S0
X.2S1000
X.101S0
X.199S1000
X.1S0
X.1S1000
X.5S0
X.201S1000
X.099S0
X.2S1000
X.101S0
X.199S1000
X.1S0
X.201S1000
X7.1S0
X.099S1000
X.1S0
X.1S1000
X.4S0
X.1S1000
X.4S0
X.1S1000
X.101S0
X.1S1000
X.199S0
X.1S1000
X.4S0
X.1S1000
X.101S0
X.1S1000
X.199S0
X.1S1000
X.101S0
X.1S1000
X3.9S0
X.199S1000
X5.301S0
X.1S1000
X6.6S0
X.2S1000
X.1S0
X.2S1000
X.1S0
X.2S1000
X.6S0
X.2S1000
X.1S0
X.1S1000
X.1S0
X.1S1000
X.1S0
X.1S1000
X.1S0
X.1S1000
X7.2S0
X.2S1000
X.4S0
X.1S1000
X.1S0
X.1S1000
X.3S0
X.1S1000
X.4S0
X.1S1000
X.5S0
X.2S1000
X.2S0
X.2S1000
X.1S0
X.1S1000
X22.1S0
X.1S1000
X6.6S0
X.2S1000
X.1S0
X.1S1000
X.1S0
X.2S1000
X.1S0
X.1S1000
X.4S0
X.1S1000
X.1S0
X.2S1000
X.1S0
X.2S1000
X.1S0
X.2S1000
X.1S0
X.1S1000
X7S0
X.1S1000
X.1S0
X.1S1000
X.4S0
X.1S1000
X.1S0
X.1S1000
X.3S0
X.1S1000
X.3S0
X.1S1000
X.5S0
X.2S1000
X.2S0
X.1S1000
X.1S0
X.2S1000
X3.8S0
X.2S1000
X5.3S0
X.1S1000
X.1S0
X.1S1000
X6.5S0
X.1S1000
X.1S0
X.1S1000
X.1S0
X.2S1000
X.1S0
X.1S1000
X.1S0
X.1S1000
X.4S0
X.2S1000
X.1S0
X.1S1000
X.1S0
X.2S1000
X.1S0
X.1S1000
X.1S0
X.1S1000
X7.1S0
X.2S1000
X.5S0
X.2S1000
X.4S0
X.1S1000
X.3S0
X.1S1000
X.5S0
X.1S1000
X.3S0
X.1S1000
X.1S0
X.1S1000
X22S0
X.2S1000
X6.5S0
X.1S1000
X.1S0
X.1S1000
X.1S0
X.2S1000
X.1S0
X.1S1000
X.5S0
X.1S1000
X.1S0
X.1S1000
X.1S0
X.1S1000
X.1S0
X.2S1000
X.1S0
X.1S1000
X.1S0
X.1S1000
X7.1S0
X.2S1000
X.4S0
X.2S1000
X.4S0
X.2S1000
X.3S0
X.1S1000
X.5S0
X.1S1000
X.3S0
X.2S1000
X3.9S0
X.1S1000
X.1S0
X.099S1000
X5.201S0
X.099S1000
X.101S0
X.099S1000
X6.5S0
X.101S1000
X.1S0
X.2S1000
X.099S0
X.201S1000
X.099S0
X.2S1000
X.401S0
X.2S1000
X.1S0
X.2S1000
X.099S0
X.201S1000
X.099S0
X.2S1000
X7.101S0
X.1S1000
X.099S0
X.2S1000
X.3S0
X.2S1000
X.401S0
X.2S1000
X.199S0
X.101S1000
X.5S0
X.2S1000
X.199S0
X.101S1000
X.099S0
X.201S1000
X2.916S0
Y.1
X-2.916
X-.5S1000
X-.1S0
X-.301S1000
X-.3S0
X-.7S1000
X-.199S0
X-.301S1000
X-.3S0
X-.399S1000
X-7.101S0
X-1.099S1000
X-.401S0
X-1S1000
X-6.399S0
X-.4S1000
X-5.201S0
X-.299S1000
X-3.701S0
X-.5S1000
X-.1S0
X-.299S1000
X-.3S0
X-.301S1000
X-.1S0
X-.299S1000
X-.201S0
X-.399S1000
X-.2S0
X-.5S1000
X-6.9S0
X-1.3S1000
X-.3S0
X-1S1000
X-6.5S0
X-.2S1000
X-21.9S0
X-.4S1000
X-.2S0
X-.3S1000
X-.3S0
X-.3S1000
X-.1S0
X-.3S1000
X-.2S0
X-.4S1000
X-.2S0
X-.5S1000
X-7S0
X-1.2S1000
X-.3S0
X-1S1000
X-6.5S0
X-.2S1000
X-5.3S0
X-.3S1000
X-3.8S0
X-.4S1000
X-.2S0
X-.2S1000
X-.4S0
X-.2S1000
X-.1S0
X-.3S1000
X-.3S0
X-.3S1000
X-.2S0
X-.4S1000
X-7S0
X-1.3S1000
X-.4S0
X-1S1000
X-6.4S0
X-.3S1000
X-22S0
X-.4S1000
X-.2S0
X-.3S1000
X-.3S0
X-.7S1000
X-.2S0
X-.4S1000
X-.2S0
X-.5S1000
X-6.9S0
X-1.3S1000
X-.3S0
X-1S1000
X-6.501S0
X-.199S1000
X-5.301S0
X-.3S1000
X-3.799S0
X-.401S1000
X-.099S0
X-.301S1000
X-.299S0
X-.301S1000
X-.099S0
X-.301S1000
X-.299S0
X-.301S1000
X-.199S0
X-.4S1000
X-7.1S0
X-1.201S1000
X-.299S0
X-1.101S1000
X-6.299S0
X-.4S1000
X-21.8S0
X-.5S1000
X-.1S0
X-.299S1000
X-.301S0
X-.3S1000
X-.1S0
X-.299S1000
X-.301S0
X-.3S1000
X-.2S0
X-.4S1000
X-7S0
X-1.299S1000
X-.301S0
X-1.1S1000
X-6.3S0
X-.4S1000
X-5.2S0
X-.3S1000
X-3.7S0
X-.5S1000
X-.1S0
X-.3S1000
X-.4S0
X-.2S1000
X-.1S0
X-.4S1000
X-.1S0
X-.4S1000
X-.2S0
X-.5S1000
X-7S0
X-1.2S1000
X-.3S0
X-1S1000
X-6.5S0
X-.3S1000
X-2.916S0
X.1Y.1
X2.916
X.2S1000
X6.5S0
X1.1S1000
X.2S0
X1.2S1000
X5.1S0
X.2S1000
X1.8S0
X.5S1000
X.1S0
X.4S1000
X.2S0
X.7S1000
X.2S0
X.3S1000
X.1S0
X.6S1000
X3.7S0
X.1S1000
X5.5S0
X.3S1000
X6.3S0
X1.1S1000
X.301S0
X1.299S1000
X5S0
X.201S1000
X1.799S0
X.4S1000
X.2S0
X.3S1000
X.301S0
X.699S1000
X.301S0
X.799S1000
X22S0
X.3S1000
X6.3S0
X1.101S1000
X.299S0
X1.3S1000
X5S0
X.2S1000
X1.8S0
X.5S1000
X.1S0
X.301S1000
X.299S0
X.701S1000
X.299S0
X.8S1000
X3.8S0
X.101S1000
X5.5S0
X.199S1000
X6.501S0
X1.1S1000
X.2S0
X1.3S1000
X5.1S0
X.1S1000
X1.8S0
X.5S1000
X.1S0
X.4S1000
X.2S0
X.8S1000
X.2S0
X.2S1000
X.2S0
X.5S1000
X22.1S0
X.2S1000
X6.4S0
X1.1S1000
X.3S0
X1.2S1000
X5.1S0
X.2S1000
X1.8S0
X.4S1000
X.2S0
X.3S1000
X.3S0
X.7S1000
X.3S0
X.8S1000
X3.8S0
X.1S1000
X5.5S0
X.2S1000
X6.5S0
X1.1S1000
X.2S0
X1.2S1000
X5.2S0
X.1S1000
X1.8S0
X.5S1000
X.1S0
X.4S1000
X.2S0
X.7S1000
X.2S0
X.3S1000
X.2S0
X.5S1000
X21.8S0
X.3S1000
X6.4S0
X1.2S1000
X.2S0
X1.3S1000
X5.1S0
X.1S1000
X1.8S0
X.5S1000
X.1S0
X.399S1000
X.201S0
X.799S1000
X.201S0
X.299S1000
X.1S0
X.5S1000
X3.701S0
X.2S1000
X5.399S0
X.2S1000
X6.5S0
X1.101S1000
X.199S0
X1.2S1000
X5.201S0
X.099S1000
X1.901S0
X.4S1000
X.199S0
X.301S1000
X.199S0
X.7S1000
X.3S0
X.2S1000
X.201S0
X.5S1000
X2.916S0
Y.1
X-2.916
X-.6S1000
X-.101S0
X-.2S1000
X-.199S0
X-.801S1000
X-.199S0
X-1S1000
X-1.7S0
X-.3S1000
X-5.101S0
X-1.099S1000
X-.3S0
X-1.101S1000
X-6.399S0
X-.2S1000
X-5.6S0
X-.1S1000
X-3.701S0
X-.5S1000
X-.199S0
X-.2S1000
X-.201S0
X-.9S1000
X-.199S0
X-.3S1000
X-.1S0
X-.4S1000
X-1.8S0
X-.3S1000
X-5S0
X-1.3S1000
X-.2S0
X-1.1S1000
X-6.5S0
X-.2S1000
X-21.9S0
X-.6S1000
X-.1S0
X-.2S1000
X-.2S0
X-.9S1000
X-.2S0
X-.3S1000
X-.1S0
X-.5S1000
X-1.7S0
X-.3S1000
X-5.1S0
X-1.2S1000
X-.2S0
X-1.1S1000
X-6.5S0
X-.2S1000
X-5.4S0
X-.2S1000
X-3.7S0
X-.6S1000
X-.1S0
X-.2S1000
X-.2S0
X-.8S1000
X-.3S0
X-.3S1000
X-.1S0
X-.4S1000
X-1.9S0
X-.2S1000
X-5S0
X-1.3S1000
X-.3S0
X-1.1S1000
X-6.4S0
X-.2S1000
X-22.1S0
X-.5S1000
X-.2S0
X-.2S1000
X-.2S0
X-.9S1000
X-.1S0
X-.4S1000
X-.1S0
X-.4S1000
X-1.8S0
X-.3S1000
X-5.1S0
X-1.2S1000
X-.2S0
X-1.2S1000
X-6.401S0
X-.099S1000
X-5.5S0
X-.201S1000
X-3.7S0
X-.599S1000
X-.1S0
X-.201S1000
X-.299S0
X-.701S1000
X-.299S0
X-.301S1000
X-.099S0
X-.401S1000
X-1.8S0
X-.299S1000
X-5.099S0
X-1.201S1000
X-.2S0
X-1.2S1000
X-6.399S0
X-.201S1000
X-21.9S0
X-.5S1000
X-.2S0
X-.199S1000
X-.201S0
X-.799S1000
X-.301S0
X-.3S1000
X-.1S0
X-.4S1000
X-1.8S0
X-.3S1000
X-5.1S0
X-1.199S1000
X-.201S0
X-1.2S1000
X-6.3S0
X-.3S1000
X-5.5S0
X-.2S1000
X-3.6S0
X-.6S1000
X-.1S0
X-.2S1000
X-.2S0
X-.9S1000
X-.1S0
X-.3S1000
X-.2S0
X-.4S1000
X-1.8S0
X-.3S1000
X-5.1S0
X-1.2S1000
X-.2S0
X-1.1S1000
X-6.5S0
X-.1S1000
X-2.916S0
Y.1
X2.916
X.2S1000
X6.4S0
X1.1S1000
X.3S0
X.3S1000
X.1S0
X.7S1000
X5S0
X.4S1000
X1.7S0
X.5S1000
X.2S0
X.2S1000
X.2S0
X.9S1000
X.2S0
X.2S1000
X.1S0
X.3S1000
X.1S0
X.3S1000
X3.6S0
X.1S1000
X5.6S0
X.2S1000
X6.4S0
X1.1S1000
X.201S0
X1.199S1000
X5S0
X.4S1000
X1.901S0
X.399S1000
X.101S0
X.199S1000
X.2S0
X.8S1000
X.301S0
X.199S1000
X.1S0
X.4S1000
X.1S0
X.201S1000
X21.899S0
X.2S1000
X6.3S0
X1.2S1000
X.2S0
X1.3S1000
X4.901S0
X.399S1000
X1.8S0
X.5S1000
X.1S0
X.201S1000
X.199S0
X.801S1000
X.299S0
X.1S1000
X.2S0
X.401S1000
X.099S0
X.2S1000
X3.6S0
X.101S1000
X5.599S0
X.1S1000
X6.501S0
X1.1S1000
X.2S0
X.4S1000
X.1S0
X.7S1000
X5S0
X.4S1000
X1.8S0
X.5S1000
X.1S0
X.2S1000
X.2S0
X.9S1000
X.3S0
X.1S1000
X.2S0
X.3S1000
X.1S0
X.2S1000
X22.1S0
X.2S1000
X6.3S0
X1.2S1000
X.2S0
X.3S1000
X.1S0
X.8S1000
X5S0
X.4S1000
X1.8S0
X.5S1000
X.1S0
X.2S1000
X.2S0
X.8S1000
X.3S0
X.2S1000
X.2S0
X.3S1000
X.1S0
X.2S1000
X3.6S0
X.1S1000
X5.6S0
X.1S1000
X6.4S0
X1.2S1000
X.2S0
X.4S1000
X.1S0
X.7S1000
X5S0
X.4S1000
X1.8S0
X.5S1000
X.1S0
X.3S1000
X.1S0
X.9S1000
X.1S0
X.3S1000
X.1S0
X.7S1000
X21.9S0
X.1S1000
X6.4S0
X1.2S1000
X.2S0
X1.3S1000
X4.9S0
X.4S1000
X1.8S0
X.5S1000
X.1S0
X.299S1000
X.1S0
X.9S1000
X.201S0
X.2S1000
X.199S0
X.301S1000
X.099S0
X.201S1000
X3.6S0
X.1S1000
X5.6S0
X.2S1000
X6.399S0
X1.101S1000
X.3S0
X1.099S1000
X5S0
X.5S1000
X1.8S0
X.401S1000
X.099S0
X.301S1000
X.1S0
X.9S1000
X.199S0
X.2S1000
X.101S0
X.699S1000
X2.917S0
Y.1
X-2.917
X-1S1000
X-.199S0
X-1.2S1000
X-.101S0
X-.5S1000
X-.099S0
X-.1S1000
X-1.601S0
X-.5S1000
X-5S0
X-.7S1000
X-.099S0
X-.401S1000
X-.199S0
X-1.101S1000
X-12.199S0
X-.1S1000
X-3.6S0
X-.201S1000
X-.099S0
X-.301S1000
X-.199S0
X-.2S1000
X-.201S0
X-1.299S1000
X-.1S0
X-.4S1000
X-.1S0
X-.2S1000
X-1.5S0
X-.5S1000
X-5S0
X-.8S1000
X-.1S0
X-.3S1000
X-.2S0
X-.8S1000
X-.1S0
X-.2S1000
X-6.4S0
X-.2S1000
X-21.9S0
X-.2S1000
X-.1S0
X-.4S1000
X-.1S0
X-.2S1000
X-.2S0
X-1.3S1000
X-.1S0
X-.4S1000
X-.2S0
X-.1S1000
X-1.6S0
X-.4S1000
X-5.1S0
X-.7S1000
X-.1S0
X-.3S1000
X-.2S0
X-1.1S1000
X-6.5S0
X-.1S1000
X-5.6S0
X-.1S1000
X-3.6S0
X-.7S1000
X-.2S0
X-.1S1000
X-.2S0
X-1.3S1000
X-.1S0
X-.4S1000
X-.1S0
X-.2S1000
X-1.5S0
X-.6S1000
X-4.9S0
X-.7S1000
X-.2S0
X-.3S1000
X-.1S0
X-1S1000
X-.1S0
X-.1S1000
X-6.4S0
X-.2S1000
X-22.1S0
X-.2S1000
X-.1S0
X-.3S1000
X-.2S0
X-.2S1000
X-.2S0
X-1.3S1000
X-.1S0
X-.4S1000
X-.1S0
X-.2S1000
X-1.6S0
X-.4S1000
X-5.1S0
X-.6S1000
X-.2S0
X-.3S1000
X-.2S0
X-.8S1000
X-.1S0
X-.2S1000
X-6.401S0
X-.2S1000
X-5.599S0
X-.101S1000
X-3.6S0
X-.6S1000
X-.199S0
X-.201S1000
X-.2S0
X-1.3S1000
X-.1S0
X-.4S1000
X-.1S0
X-.199S1000
X-1.5S0
X-.5S1000
X-5S0
X-.701S1000
X-.2S0
X-.2S1000
X-.3S0
X-1S1000
X-6.5S0
X-.2S1000
X-21.899S0
X-.601S1000
X-.2S0
X-.199S1000
X-.201S0
X-1.2S1000
X-.2S0
X-.399S1000
X-.101S0
X-.2S1000
X-1.5S0
X-.6S1000
X-4.9S0
X-.699S1000
X-.201S0
X-.299S1000
X-.1S0
X-1.101S1000
X-6.5S0
X-.2S1000
X-5.6S0
X-.1S1000
X-3.6S0
X-.7S1000
X-.1S0
X-.3S1000
X-.1S0
X-1.3S1000
X-.1S0
X-.4S1000
X-.1S0
X-.1S1000
X-1.6S0
X-.5S1000
X-5S0
X-.7S1000
X-.1S0
X-.3S1000
X-.3S0
X-1.1S1000
X-6.4S0
X-.2S1000
X-2.916S0
Y.1
X2.916
X.2S1000
X6.7S0
X.801S1000
X.299S0
X.201S1000
X.099S0
X.7S1000
X5S0
X.6S1000
X1.5S0
X.2S1000
X.2S0
X.3S1000
X.1S0
X1.3S1000
X.2S0
X.2S1000
X.1S0
X.7S1000
X9.5S0
X.1S1000
X6.601S0
X.9S1000
X.1S0
X.299S1000
X.201S0
X.699S1000
X4.901S0
X.599S1000
X1.5S0
X.301S1000
X.1S0
X.299S1000
X.101S0
X1.399S1000
X.101S0
X.199S1000
X.1S0
X.701S1000
X22S0
X.1S1000
X6.699S0
X.9S1000
X.2S0
X.201S1000
X.199S0
X.701S1000
X4.899S0
X.701S1000
X1.4S0
X.699S1000
X.2S0
X1.3S1000
X.1S0
X.201S1000
X.1S0
X.699S1000
X9.4S0
X.2S1000
X6.601S0
X.9S1000
X.1S0
X.4S1000
X.1S0
X.6S1000
X5S0
X.6S1000
X1.5S0
X.2S1000
X.2S0
X.3S1000
X.1S0
X1.4S1000
X.1S0
X.2S1000
X.2S0
X.7S1000
X22S0
X.2S1000
X6.7S0
X.9S1000
X.2S0
X.2S1000
X.2S0
X.6S1000
X5S0
X.6S1000
X1.5S0
X.2S1000
X.1S0
X.4S1000
X.1S0
X1.3S1000
X.2S0
X.2S1000
X.1S0
X.7S1000
X9.4S0
X.2S1000
X6.6S0
X.8S1000
X.2S0
X.4S1000
X.1S0
X.6S1000
X5S0
X.5S1000
X1.7S0
X.2S1000
X.1S0
X.3S1000
X.1S0
X1.4S1000
X.1S0
X.2S1000
X.1S0
X.7S1000
X21.9S0
X.2S1000
X6.7S0
X.9S1000
X.3S0
X.9S1000
X5S0
X.7S1000
X1.4S0
X.2S1000
X.2S0
X.3S1000
X.1S0
X1.299S1000
X.201S0
X.2S1000
X.199S0
X.701S1000
X9.299S0
X.201S1000
X6.599S0
X.901S1000
X.2S0
X.3S1000
X.099S0
X.601S1000
X5S0
X.5S1000
X1.7S0
X.199S1000
X.101S0
X1.8S1000
X.099S0
X.2S1000
X.101S0
X.699S1000
X2.917S0
Y.1
X-2.917
X-.699S1000
X-.101S0
X-.599S1000
X-.5S0
X-.601S1000
X-.099S0
X-.701S1000
X-1.5S0
X-.599S1000
X-4.901S0
X-.7S1000
X-.599S0
X-1.1S1000
X-6.4S0
X-.1S1000
X-9.5S0
X-.601S1000
X-.199S0
X-.6S1000
X-.6S0
X-.5S1000
X-.1S0
X-.7S1000
X-1.4S0
X-.7S1000
X-5S0
X-.7S1000
X-.6S0
X-1S1000
X-6.4S0
X-.2S1000
X-22S0
X-.7S1000
X-.1S0
X-.6S1000
X-.6S0
X-.5S1000
X-.1S0
X-.2S1000
X-.1S0
X-.4S1000
X-1.5S0
X-.6S1000
X-5S0
X-.7S1000
X-.6S0
X-1S1000
X-6.4S0
X-.2S1000
X-9.4S0
X-.6S1000
X-.2S0
X-.7S1000
X-.5S0
X-.5S1000
X-.1S0
X-.3S1000
X-.1S0
X-.4S1000
X-1.3S0
X-.7S1000
X-5S0
X-.7S1000
X-.6S0
X-1S1000
X-6.5S0
X-.1S1000
X-22.2S0
X-.6S1000
X-.2S0
X-.6S1000
X-.6S0
X-.5S1000
X-.1S0
X-.2S1000
X-.1S0
X-.4S1000
X-1.5S0
X-.6S1000
X-5S0
X-.7S1000
X-.5S0
X-1.1S1000
X-6.401S0
X-.199S1000
X-9.401S0
X-.699S1000
X-.1S0
X-.601S1000
X-.599S0
X-.401S1000
X-.199S0
X-.301S1000
X-.1S0
X-.299S1000
X-1.4S0
X-.701S1000
X-4.899S0
X-.7S1000
X-.7S0
X-1.1S1000
X-6.3S0
X-.2S1000
X-22S0
X-.601S1000
X-.199S0
X-.7S1000
X-.5S0
X-.4S1000
X-.201S0
X-.799S1000
X-1.3S0
X-.7S1000
X-4.9S0
X-.7S1000
X-.7S0
X-1.1S1000
X-6.3S0
X-.1S1000
X-9.5S0
X-.699S1000
X-.1S0
X-.6S1000
X-.6S0
X-.5S1000
X-.1S0
X-.3S1000
X-.1S0
X-.3S1000
X-1.5S0
X-.7S1000
X-4.901S0
X-.599S1000
X-.6S0
X-1.1S1000
X-6.4S0
X-.2S1000
X-2.917S0
Y.1
X2.917
X.1S1000
X6.4S0
X1.1S1000
X.6S0
X.699S1000
X5.001S0
X.6S1000
X1.4S0
X.4S1000
X.2S0
X.2S1000
X.1S0
X.4S1000
X.7S0
X.6S1000
X.1S0
X.7S1000
X9.5S0
X.1S1000
X6.2S0
X1.2S1000
X.7S0
X.7S1000
X4.9S0
X.7S1000
X1.3S0
X.4S1000
X.2S0
X.199S1000
X.201S0
X.4S1000
X.7S0
X.5S1000
X.1S0
X.2S1000
X.2S0
X.3S1000
X22S0
X.1S1000
X6.4S0
X1.1S1000
X.7S0
X.599S1000
X5S0
X.601S1000
X1.399S0
X.401S1000
X.2S0
X.2S1000
X.1S0
X.5S1000
X.7S0
X.399S1000
X.201S0
X.2S1000
X.2S0
X.3S1000
X9.4S0
X.199S1000
X6.301S0
X1.1S1000
X.6S0
X.7S1000
X5S0
X.7S1000
X1.4S0
X.4S1000
X.1S0
X.2S1000
X.1S0
X.5S1000
X.7S0
X.5S1000
X.2S0
X.2S1000
X.1S0
X.3S1000
X22.2S0
X.2S1000
X6.2S0
X1.1S1000
X.8S0
X.6S1000
X5S0
X.7S1000
X1.3S0
X.4S1000
X.2S0
X.2S1000
X.1S0
X.5S1000
X.6S0
X.5S1000
X.2S0
X.2S1000
X.2S0
X.3S1000
X9.4S0
X.2S1000
X6.3S0
X1.1S1000
X.7S0
X.6S1000
X5S0
X.6S1000
X1.4S0
X.5S1000
X.1S0
X.2S1000
X.1S0
X.4S1000
X.7S0
X.6S1000
X.2S0
X.6S1000
X22S0
X.2S1000
X6.3S0
X1.1S1000
X.7S0
X.6S1000
X5S0
X.7S1000
X1.3S0
X.5S1000
X.1S0
X.2S1000
X.1S0
X.5S1000
X.7S0
X.5S1000
X.099S0
X.201S1000
X.2S0
X.3S1000
X15.899S0
X1.101S1000
X.699S0
X.7S1000
X5S0
X.601S1000
X1.3S0
X.5S1000
X.099S0
X.3S1000
X.101S0
X.399S1000
X.601S0
X.599S1000
X.101S0
X.3S1000
X.099S0
X.3S1000
X2.917S0
X.1Y.1
X-2.916
X-.3S1000
X-.7S0
X-.401S1000
X-.799S0
X-.201S1000
X-.799S0
X-.3S1000
X-1.401S0
X-.5S1000
X-2.399S0
X-.101S1000
X-2.799S0
X-.401S1000
X-.8S0
X-1S1000
X-15.799S0
X-.301S1000
X-.699S0
X-.4S1000
X-.801S0
X-.199S1000
X-.7S0
X-.3S1000
X-1.5S0
X-.6S1000
X-5.1S0
X-.5S1000
X-.8S0
X-1.1S1000
X-28.3S0
X-.3S1000
X-.7S0
X-.4S1000
X-.8S0
X-.2S1000
X-.7S0
X-.4S1000
X-1.4S0
X-.6S1000
X-2.3S0
X-.1S1000
X-2.8S0
X-.4S1000
X-.8S0
X-1S1000
X-15.8S0
X-.3S1000
X-.7S0
X-.4S1000
X-.8S0
X-.3S1000
X-.6S0
X-.4S1000
X-1.4S0
X-.5S1000
X-2.4S0
X-.1S1000
X-2.7S0
X-.5S1000
X-.9S0
X-1S1000
X-28.5S0
X-.3S1000
X-.7S0
X-.4S1000
X-.8S0
X-.2S1000
X-.7S0
X-.4S1000
X-1.4S0
X-.5S1000
X-2.4S0
X-.1S1000
X-2.8S0
X-.4S1000
X-.9S0
X-1S1000
X-15.701S0
X-.299S1000
X-.701S0
X-.399S1000
X-.8S0
X-.2S1000
X-.701S0
X-.4S1000
X-1.399S0
X-.5S1000
X-2.4S0
X-.1S1000
X-2.701S0
X-.5S1000
X-.9S0
X-1S1000
X-28.299S0
X-.301S1000
X-.699S0
X-.4S1000
X-.801S0
X-.199S1000
X-.801S0
X-.299S1000
X-1.4S0
X-.5S1000
X-2.401S0
X-.199S1000
X-2.801S0
X-.299S1000
X-.9S0
X-1.001S1000
X-15.8S0
X-.2S1000
X-.799S0
X-.3S1000
X-.8S0
X-.2S1000
X-.7S0
X-.4S1000
X-1.4S0
X-.6S1000
X-2.301S0
X-.099S1000
X-2.7S0
X-.5S1000
X-.9S0
X-.9S1000
X-2.917S0
Y.1
X2.917
X.8S1000
X1.099S0
X.301S1000
X2.7S0
X.3S1000
X2.3S0
X.4S1000
X1.5S0
X.199S1000
X.901S0
X.099S1000
X.101S0
X.8S1000
X.099S0
X.201S1000
X.9S0
X.1S1000
X15.799S0
X1S1000
X1S0
X.199S1000
X2.8S0
X.3S1000
X2.3S0
X.4S1000
X1.6S0
X.199S1000
X.801S0
X.199S1000
X.101S0
X.7S1000
X.1S0
X.2S1000
X.899S0
X.201S1000
X28.299S0
X1S1000
X1S0
X.301S1000
X2.699S0
X.301S1000
X2.3S0
X.399S1000
X1.5S0
X.201S1000
X.9S0
X.2S1000
X.1S0
X1S1000
X.9S0
X.199S1000
X15.801S0
X.9S1000
X1S0
X.2S1000
X2.8S0
X.3S1000
X2.3S0
X.4S1000
X1.6S0
X.1S1000
X1.2S0
X.7S1000
X.1S0
X.2S1000
X.9S0
X.2S1000
X28.5S0
X1S1000
X1S0
X.3S1000
X2.7S0
X.2S1000
X2.4S0
X.4S1000
X1.5S0
X.2S1000
X1.1S0
X.8S1000
X.1S0
X.2S1000
X.9S0
X.2S1000
X15.8S0
X.9S1000
X1S0
X.2S1000
X2.8S0
X.3S1000
X2.3S0
X.4S1000
X1.6S0
X.1S1000
X1.2S0
X.6S1000
X.2S0
X.1S1000
X1S0
X.2S1000
X28.4S0
X.9S1000
X1S0
X.3S1000
X2.7S0
X.2S1000
X2.4S0
X.4S1000
X1.6S0
X.1S1000
X1.2S0
X1S1000
X.899S0
X.201S1000
X15.799S0
X.9S1000
X1S0
X.2S1000
X2.8S0
X.3S1000
X2.299S0
X.5S1000
X1.401S0
X.2S1000
X1S0
X.1S1000
X.099S0
X.7S1000
X.101S0
X.1S1000
X1S0
X.2S1000
X2.916S0
X-1.3Y.1
X-2.916
X-.801S1000
X-2.899S0
X-.3S1000
X-2.301S0
X-.399S1000
X-4.101S0
X-.8S1000
X-7.799S0
X-.1S1000
X-.101S0
X-.099S1000
X-9.001S0
X-1S1000
X-2.699S0
X-.3S1000
X-2.3S0
X-.5S1000
X-3.9S0
X-1S1000
X-7.9S0
X-.1S1000
X-21.6S0
X-.9S1000
X-2.8S0
X-.3S1000
X-2.4S0
X-.4S1000
X-3.9S0
X-1S1000
X-7.9S0
X-.1S1000
X-9.1S0
X-.8S1000
X-2.8S0
X-.3S1000
X-2.4S0
X-.4S1000
X-2.7S0
X-.1S1000
X-1.1S0
X-1S1000
X-7.9S0
X-.1S1000
X-21.8S0
X-.8S1000
X-2.9S0
X-.3S1000
X-2.3S0
X-.5S1000
X-3.9S0
X-.9S1000
X-8S0
X-.1S1000
X-7.701S0
X-.099S1000
X-1.3S0
X-.8S1000
X-2.801S0
X-.299S1000
X-2.4S0
X-.4S1000
X-2.7S0
X-.1S1000
X-1.2S0
X-.9S1000
X-7.7S0
X-.1S1000
X-.1S0
X-.101S1000
X-20.299S0
X-.1S1000
X-1.2S0
X-.8S1000
X-2.9S0
X-.3S1000
X-2.4S0
X-.4S1000
X-3.9S0
X-1S1000
X-7.7S0
X-.1S1000
X-.1S0
X-.1S1000
X-9.1S0
X-.8S1000
X-2.8S0
X-.3S1000
X-2.4S0
X-.4S1000
X-2.7S0
X-.1S1000
X-1.2S0
X-.8S1000
X-8S0
X-.1S1000
X-2.917S0
X-.1Y.1
X2.917
X.4S1000
X7.8S0
X.8S1000
X3.9S0
X.6S1000
X2.4S0
X.1S1000
X2.8S0
X.9S1000
X9S0
X.4S1000
X7.8S0
X.8S1000
X4S0
X.499S1000
X2.4S0
X.101S1000
X3S0
X.8S1000
X21.5S0
X.4S1000
X7.8S0
X.899S1000
X3.901S0
X.5S1000
X2.3S0
X.2S1000
X2.9S0
X.8S1000
X9S0
X.399S1000
X7.801S0
X.9S1000
X3.9S0
X.5S1000
X2.4S0
X.1S1000
X3S0
X.8S1000
X21.7S0
X.4S1000
X7.8S0
X.8S1000
X3.9S0
X.6S1000
X2.3S0
X.2S1000
X2.9S0
X.9S1000
X8.9S0
X.4S1000
X7.8S0
X.9S1000
X3.9S0
X.5S1000
X2.4S0
X.1S1000
X2.9S0
X.8S1000
X21.6S0
X.4S1000
X7.8S0
X.9S1000
X3.9S0
X.5S1000
X2.4S0
X.1S1000
X2.899S0
X.9S1000
X9.001S0
X.3S1000
X7.799S0
X.8S1000
X4S0
X.5S1000
X2.401S0
X.099S1000
X3S0
X.7S1000
X2.917S0
Y.1
X-2.917
X-.7S1000
X-5.5S0
X-.599S1000
X-3.8S0
X-.8S1000
X-7.9S0
X-.401S1000
X-8.999S0
X-.801S1000
X-5.299S0
X-.7S1000
X-3.8S0
X-.9S1000
X-7.8S0
X-.5S1000
X-21.5S0
X-.8S1000
X-5.3S0
X-.7S1000
X-3.8S0
X-.9S1000
X-7.8S0
X-.5S1000
X-8.9S0
X-.8S1000
X-5.3S0
X-.7S1000
X-3.8S0
X-.9S1000
X-7.8S0
X-.5S1000
X-21.7S0
X-.7S1000
X-5.4S0
X-.7S1000
X-3.8S0
X-.9S1000
X-7.7S0
X-.5S1000
X-9S0
X-.701S1000
X-5.5S0
X-.599S1000
X-3.901S0
X-.699S1000
X-7.9S0
X-.401S1000
X-21.599S0
X-.7S1000
X-5.4S0
X-.7S1000
X-3.8S0
X-.8S1000
X-7.899S0
X-.4S1000
X-9.1S0
X-.7S1000
X-5.4S0
X-.6S1000
X-3.9S0
X-.8S1000
X-7.8S0
X-.4S1000
X-2.917S0
X-.1Y.1
X2.917
X.5S1000
X7.9S0
X.7S1000
X3.8S0
X.8S1000
X5.4S0
X.6S1000
X9S0
X.5S1000
X7.9S0
X.8S1000
X3.8S0
X.599S1000
X5.501S0
X.6S1000
X21.7S0
X.4S1000
X7.9S0
X.799S1000
X3.801S0
X.699S1000
X5.4S0
X.599S1000
X9S0
X.5S1000
X7.901S0
X.8S1000
X3.8S0
X.7S1000
X5.4S0
X.6S1000
X21.8S0
X.5S1000
X7.9S0
X.7S1000
X3.9S0
X.6S1000
X5.5S0
X.6S1000
X9S0
X.5S1000
X7.9S0
X.8S1000
X3.8S0
X.7S1000
X5.4S0
X.6S1000
X21.6S0
X.5S1000
X7.9S0
X.8S1000
X3.8S0
X.7S1000
X5.4S0
X.6S1000
X9.099S0
X.401S1000
X8S0
X.7S1000
X3.8S0
X.7S1000
X5.399S0
X.7S1000
X2.917S0
X-.1Y.1
X-2.916
X-.401S1000
X-5.599S0
X-.7S1000
X-3.901S0
X-.599S1000
X-8S0
X-.5S1000
X-.201S0
X-.2S1000
X-8.699S0
X-.3S1000
X-5.6S0
X-.7S1000
X-3.8S0
X-.7S1000
X-8.1S0
X-.4S1000
X-.2S0
X-.2S1000
X-21.3S0
X-.3S1000
X-5.6S0
X-.7S1000
X-3.8S0
X-.7S1000
X-8S0
X-.4S1000
X-.3S0
X-.2S1000
X-8.6S0
X-.5S1000
X-5.5S0
X-.7S1000
X-3.8S0
X-.7S1000
X-8S0
X-.5S1000
X-.2S0
X-.2S1000
X-21.5S0
X-.3S1000
X-5.6S0
X-.7S1000
X-3.8S0
X-.7S1000
X-7.9S0
X-.601S1000
X-.199S0
X-.2S1000
X-8.601S0
X-.5S1000
X-5.6S0
X-.599S1000
X-3.901S0
X-.599S1000
X-8S0
X-.5S1000
X-.2S0
X-.201S1000
X-21.199S0
X-.5S1000
X-5.5S0
X-.7S1000
X-3.9S0
X-.6S1000
X-8S0
X-.5S1000
X-.2S0
X-.201S1000
X-8.599S0
X-.401S1000
X-5.599S0
X-.701S1000
X-3.9S0
X-.599S1000
X-8S0
X-.5S1000
X-.2S0
X-.2S1000
X-2.917S0
X-.1Y.1
X2.917
X1S1000
X8S0
X.599S1000
X4S0
X.5S1000
X5.7S0
X.3S1000
X8.601S0
X.399S1000
X.101S0
X.5S1000
X8S0
X.399S1000
X.101S0
X.1S1000
X4S0
X.499S1000
X5.701S0
X.4S1000
X21.1S0
X.4S1000
X.099S0
X.5S1000
X8.1S0
X.301S1000
X.099S0
X.1S1000
X3.9S0
X.6S1000
X5.701S0
X.399S1000
X8.5S0
X.4S1000
X.1S0
X.5S1000
X8.101S0
X.5S1000
X3.9S0
X.6S1000
X5.7S0
X.3S1000
X21.4S0
X.3S1000
X.2S0
X.5S1000
X8S0
X.5S1000
X4S0
X.6S1000
X5.6S0
X.4S1000
X8.6S0
X.4S1000
X.1S0
X.4S1000
X8.1S0
X.5S1000
X4S0
X.6S1000
X5.7S0
X.3S1000
X21.2S0
X.4S1000
X.1S0
X.5S1000
X8.1S0
X.4S1000
X4S0
X.6S1000
X5.7S0
X.3S1000
X8.6S0
X.4S1000
X.1S0
X.5S1000
X8.099S0
X.5S1000
X4S0
X.5S1000
X5.7S0
X.401S1000
X2.916S0
X-.1Y.1
X-2.917
X-.3S1000
X-5.7S0
X-.5S1000
X-4.3S0
X-.2S1000
X-8.099S0
X-1S1000
X-8.6S0
X-.3S1000
X-5.8S0
X-.3S1000
X-4.4S0
X-.2S1000
X-8.2S0
X-.9S1000
X-21.2S0
X-.3S1000
X-5.8S0
X-.4S1000
X-4.3S0
X-.2S1000
X-8.1S0
X-1S1000
X-8.6S0
X-.3S1000
X-5.8S0
X-.4S1000
X-4.3S0
X-.2S1000
X-8.1S0
X-1S1000
X-21.4S0
X-.3S1000
X-5.8S0
X-.3S1000
X-4.4S0
X-.2S1000
X-8.101S0
X-1S1000
X-8.6S0
X-.299S1000
X-5.701S0
X-.499S1000
X-4.3S0
X-.2S1000
X-8.1S0
X-1S1000
X-21.2S0
X-.3S1000
X-5.701S0
X-.499S1000
X-4.3S0
X-.2S1000
X-8.1S0
X-1S1000
X-8.6S0
X-.3S1000
X-5.8S0
X-.4S1000
X-4.3S0
X-.2S1000
X-8.1S0
X-1S1000
X-2.917S0
X-.1Y.1
X2.917
X1.1S1000
X12.7S0
X.3S1000
X5.8S0
X.3S1000
X8.6S0
X1S1000
X12.7S0
X.3S1000
X5.9S0
X.1S1000
X21.3S0
X1S1000
X12.7S0
X.3S1000
X5.8S0
X.3S1000
X8.5S0
X1.1S1000
X12.7S0
X.3S1000
X5.8S0
X.3S1000
X21.4S0
X1S1000
X12.6S0
X.4S1000
X5.7S0
X.3S1000
X8.6S0
X1.1S1000
X12.7S0
X.3S1000
X5.8S0
X.3S1000
X21.1S0
X1.1S1000
X12.7S0
X.3S1000
X5.8S0
X.3S1000
X8.6S0
X1S1000
X12.7S0
X.3S1000
X5.8S0
X.299S1000
X2.917S0
Y.1
X-2.917
X-.299S1000
X-5.8S0
X-.2S1000
X-12.8S0
X-1S1000
X-8.7S0
X-.2S1000
X-5.9S0
X-.2S1000
X-12.7S0
X-1S1000
X-21.3S0
X-.2S1000
X-5.9S0
X-.1S1000
X-12.8S0
X-1S1000
X-8.7S0
X-.2S1000
X-5.9S0
X-.2S1000
X-12.7S0
X-1S1000
X-21.5S0
X-.2S1000
X-5.8S0
X-.2S1000
X-12.8S0
X-1S1000
X-8.7S0
X-.2S1000
X-5.9S0
X-.2S1000
X-12.7S0
X-1S1000
X-21.3S0
X-.2S1000
X-5.9S0
X-.2S1000
X-12.7S0
X-1S1000
X-8.6S0
X-.3S1000
X-5.9S0
X-.2S1000
X-12.7S0
X-1S1000
X-2.917S0
Y.1
X2.917
X1S1000
X18.9S0
X.1S1000
X8.8S0
X1S1000
X18.7S0
X.199S1000
X21.401S0
X1S1000
X18.8S0
X.1S1000
X8.8S0
X.9S1000
X18.9S0
X.2S1000
X21.5S0
X1S1000
X18.7S0
X.2S1000
X8.7S0
X1.1S1000
X18.8S0
X.2S1000
X21.2S0
X1S1000
X18.899S0
X.101S1000
X8.799S0
X1S1000
X18.801S0
X.199S1000
X2.917S0
Y.1
X-2.917
X-.199S1000
X-18.7S0
X-1.101S1000
X-8.799S0
X-.101S1000
X-18.699S0
X-1.1S1000
X-21.3S0
X-.2S1000
X-18.8S0
X-1S1000
X-8.8S0
X-.1S1000
X-18.8S0
X-1S1000
X-21.6S0
X-.1S1000
X-18.7S0
X-1.1S1000
X-8.8S0
X-.1S1000
X-18.8S0
X-1S1000
X-21.401S0
X-.1S1000
X-18.799S0
X-1S1000
X-8.7S0
X-.2S1000
X-18.799S0
X-1S1000
X-2.916S0
X.1Y.1
X2.916
X1S1000
X18.7S0
X.1S1000
X3.5S0
X.3S1000
X5.1S0
X1S1000
X18.7S0
X.1S1000
X21.5S0
X1S1000
X18.7S0
X.1S1000
X3.5S0
X.4S1000
X5S0
X1S1000
X18.701S0
X.1S1000
X21.7S0
X1S1000
X18.7S0
X.1S1000
X3.5S0
X.3S1000
X5.1S0
X1S1000
X18.699S0
X.1S1000
X21.5S0
X1S1000
X18.699S0
X.1S1000
X3.5S0
X.301S1000
X5.1S0
X1S1000
X18.8S0
X.099S1000
X2.917S0
X-18.8Y.1
X-2.917
X-1.099S1000
X-5.001S0
X-.4S1000
X-22.199S0
X-1.1S1000
X-40.2S0
X-1.1S1000
X-4.4S0
X-.2S1000
X-.4S0
X-.4S1000
X-22.3S0
X-1.101S1000
X-40.3S0
X-1.1S1000
X-4.4S0
X-.2S1000
X-.4S0
X-.4S1000
X-22.2S0
X-1.1S1000
X-40.2S0
X-1.1S1000
X-5S0
X-.4S1000
X-22.2S0
X-1.1S1000
X-2.916S0
Y.1
X2.916
X1.1S1000
X22.2S0
X.5S1000
X.3S0
X.2S1000
X4.4S0
X1.2S1000
X40.1S0
X1.1S1000
X22.199S0
X.5S1000
X.301S0
X.199S1000
X4.4S0
X1.1S1000
X40.401S0
X1.1S1000
X22.2S0
X.5S1000
X.2S0
X.3S1000
X4.4S0
X1.1S1000
X40.2S0
X1.1S1000
X22.199S0
X.4S1000
X.401S0
X.199S1000
X4.401S0
X1.099S1000
X2.917S0
X2.1Y.1
X-2.916
X-.101S1000
X-2S0
X-1.099S1000
X-4.401S0
X-.199S1000
X-.301S0
X-.5S1000
X-20.099S0
X-.2S1000
X-1.9S0
X-1.1S1000
X-38.101S0
X-.099S1000
X-2S0
X-1.1S1000
X-4.4S0
X-.3S1000
X-.2S0
X-.5S1000
X-20.1S0
X-.2S1000
X-1.9S0
X-1.1S1000
X-38.3S0
X-.101S1000
X-2S0
X-1.1S1000
X-4.4S0
X-.3S1000
X-.2S0
X-.5S1000
X-20.1S0
X-.2S1000
X-1.899S0
X-1S1000
X-38.201S0
X-.2S1000
X-1.9S0
X-1.1S1000
X-4.3S0
X-.4S1000
X-.2S0
X-.5S1000
X-20.1S0
X-.2S1000
X-1.899S0
X-1.101S1000
X-2.916S0
Y.1
X2.916
X1S1000
X1.9S0
X.4S1000
X20S0
X.499S1000
X.201S0
X.299S1000
X4.4S0
X1S1000
X1.9S0
X.401S1000
X37.999S0
X1.101S1000
X1.799S0
X.4S1000
X20S0
X.599S1000
X.1S0
X.3S1000
X4.401S0
X1S1000
X2S0
X.299S1000
X38.101S0
X1.1S1000
X1.9S0
X.4S1000
X20S0
X.6S1000
X.1S0
X.3S1000
X4.4S0
X1S1000
X2S0
X.3S1000
X38S0
X1S1000
X2S0
X.3S1000
X19.999S0
X.601S1000
X.1S0
X.299S1000
X4.401S0
X1.099S1000
X1.8S0
X.401S1000
X2.916S0
X.1Y.1
X-2.917
X-.5S1000
X-2S0
X-1S1000
X-4.199S0
X-1.101S1000
X-19.999S0
X-.5S1000
X-1.9S0
X-.9S1000
X-38S0
X-.4S1000
X-2S0
X-1S1000
X-4.3S0
X-1S1000
X-20S0
X-.5S1000
X-1.9S0
X-1S1000
X-38.101S0
X-.399S1000
X-2S0
X-.9S1000
X-4.401S0
X-1S1000
X-20S0
X-.5S1000
X-1.9S0
X-1S1000
X-37.799S0
X-.5S1000
X-1.9S0
X-1.1S1000
X-4.2S0
X-1.1S1000
X-20S0
X-.4S1000
X-2.1S0
X-.9S1000
X-2.916S0
Y.1
X2.916
X.6S1000
X2.3S0
X.6S1000
X19.9S0
X.999S1000
X4.3S0
X.7S1000
X2.201S0
X.5S1000
X37.899S0
X.6S1000
X2.301S0
X.599S1000
X19.901S0
X1S1000
X4.3S0
X.6S1000
X2.299S0
X.601S1000
X37.9S0
X.7S1000
X2.3S0
X.5S1000
X20S0
X1S1000
X4.3S0
X.6S1000
X2.3S0
X.6S1000
X37.7S0
X.7S1000
X2.3S0
X.6S1000
X19.899S0
X1S1000
X4.3S0
X.7S1000
X2.201S0
X.599S1000
X2.917S0
X7.5Y.1
X-2.917
X-.3S1000
X-7.2S0
X-.599S1000
X-2.3S0
X-.7S1000
X-4.201S0
X-1S1000
X-12.399S0
X-.4S1000
X-7.1S0
X-.6S1000
X-2.3S0
X-.7S1000
X-30.2S0
X-.4S1000
X-7.1S0
X-.6S1000
X-2.4S0
X-.6S1000
X-4.2S0
X-1S1000
X-12.4S0
X-.4S1000
X-7.1S0
X-.6S1000
X-2.3S0
X-.7S1000
X-30.4S0
X-.4S1000
X-7.1S0
X-.601S1000
X-2.299S0
X-.7S1000
X-4.2S0
X-1S1000
X-12.4S0
X-.4S1000
X-7.2S0
X-.4S1000
X-2.4S0
X-.7S1000
X-30.199S0
X-.399S1000
X-7.101S0
X-.5S1000
X-2.4S0
X-.7S1000
X-4.1S0
X-1.1S1000
X-12.4S0
X-.4S1000
X-7.1S0
X-.6S1000
X-2.3S0
X-.7S1000
X-2.916S0
X-.1Y.1
X2.916
X.7S1000
X2.4S0
X.6S1000
X7S0
X.5S1000
X12.4S0
X1S1000
X4.2S0
X.7S1000
X2.3S0
X.6S1000
X7.101S0
X.5S1000
X30.099S0
X.7S1000
X2.3S0
X.6S1000
X7.1S0
X.5S1000
X12.3S0
X1S1000
X4.1S0
X.701S1000
X2.399S0
X.601S1000
X7S0
X.6S1000
X30.3S0
X.7S1000
X2.2S0
X.6S1000
X7.1S0
X.6S1000
X12.3S0
X1S1000
X4.1S0
X.7S1000
X2.4S0
X.6S1000
X7S0
X.5S1000
X30.1S0
X.7S1000
X2.4S0
X.6S1000
X7S0
X.6S1000
X12.4S0
X.899S1000
X4.201S0
X.599S1000
X2.401S0
X.599S1000
X7.101S0
X.5S1000
X2.916S0
X4.1Y.1
X-2.917
X-.099S1000
X-3.901S0
X-.899S1000
X-6.801S0
X-.599S1000
X-2.3S0
X-.7S1000
X-.701S0
X-.299S1000
X-3.201S0
X-.699S1000
X-8.5S0
X-.1S1000
X-3.9S0
X-.9S1000
X-6.8S0
X-.6S1000
X-2.4S0
X-.7S1000
X-.6S0
X-.3S1000
X-25S0
X-.1S1000
X-3.9S0
X-.9S1000
X-6.8S0
X-.6S1000
X-2.4S0
X-.7S1000
X-.6S0
X-.3S1000
X-3.3S0
X-.7S1000
X-8.4S0
X-.1S1000
X-3.9S0
X-1S1000
X-6.7S0
X-.6S1000
X-2.3S0
X-.7S1000
X-.8S0
X-.2S1000
X-25.2S0
X-.1S1000
X-3.9S0
X-.9S1000
X-6.8S0
X-.601S1000
X-2.399S0
X-.601S1000
X-.7S0
X-.3S1000
X-3.299S0
X-.701S1000
X-8.399S0
X-.101S1000
X-3.899S0
X-1S1000
X-6.801S0
X-.5S1000
X-2.3S0
X-.7S1000
X-.699S0
X-.301S1000
X-25S0
X-.099S1000
X-3.801S0
X-1.1S1000
X-6.799S0
X-.401S1000
X-2.4S0
X-.699S1000
X-.701S0
X-.299S1000
X-3.301S0
X-.699S1000
X-8.401S0
X-.099S1000
X-3.901S0
X-.899S1000
X-6.8S0
X-.6S1000
X-2.4S0
X-.6S1000
X-.7S0
X-.4S1000
X-2.917S0
Y.1
X2.917
X.5S1000
X.5S0
X.8S1000
X2.3S0
X.6S1000
X6.699S0
X1.101S1000
X3.699S0
X.2S1000
X8.401S0
X.699S1000
X3.301S0
X.3S1000
X.7S0
X.699S1000
X2.301S0
X.599S1000
X6.701S0
X1.099S1000
X3.801S0
X.199S1000
X24.801S0
X.4S1000
X.699S0
X.7S1000
X2.4S0
X.5S1000
X6.701S0
X1.1S1000
X3.699S0
X.201S1000
X8.399S0
X.701S1000
X3.199S0
X.5S1000
X.6S0
X.701S1000
X2.299S0
X.601S1000
X6.7S0
X1.1S1000
X3.7S0
X.3S1000
X25S0
X.4S1000
X.7S0
X.7S1000
X2.3S0
X.5S1000
X6.8S0
X1.1S1000
X3.7S0
X.3S1000
X8.3S0
X.7S1000
X3.2S0
X.5S1000
X.6S0
X.7S1000
X2.3S0
X.6S1000
X6.7S0
X1.1S1000
X3.7S0
X.2S1000
X24.9S0
X.5S1000
X.6S0
X.7S1000
X2.3S0
X.6S1000
X6.7S0
X1.1S1000
X3.7S0
X.3S1000
X8.3S0
X.699S1000
X3.201S0
X.5S1000
X.6S0
X.7S1000
X2.3S0
X.599S1000
X6.7S0
X1.201S1000
X3.599S0
X.2S1000
X2.917S0
X.4Y.1
X-2.916
X-.7S1000
X-3.401S0
X-1.399S1000
X-3.601S0
X-.5S1000
X-2.5S0
X-.599S1000
X-2.3S0
X-.7S1000
X-.401S0
X-.699S1000
X-3.101S0
X-1S1000
X-7.899S0
X-.7S1000
X-3.4S0
X-1.3S1000
X-3.7S0
X-.4S1000
X-2.5S0
X-.6S1000
X-2.2S0
X-.8S1000
X-.5S0
X-.7S1000
X-24.5S0
X-.7S1000
X-3.3S0
X-1.4S1000
X-3.7S0
X-.5S1000
X-2.4S0
X-.6S1000
X-2.3S0
X-.8S1000
X-.4S0
X-.7S1000
X-3.1S0
X-.9S1000
X-7.9S0
X-.6S1000
X-3.6S0
X-1.2S1000
X-3.7S0
X-.4S1000
X-2.5S0
X-.6S1000
X-2.3S0
X-.7S1000
X-.5S0
X-.7S1000
X-24.7S0
X-.7S1000
X-3.3S0
X-1.3S1000
X-3.801S0
X-.399S1000
X-2.5S0
X-.601S1000
X-2.199S0
X-.801S1000
X-.5S0
X-.6S1000
X-3.199S0
X-.9S1000
X-7.901S0
X-.599S1000
X-3.5S0
X-1.301S1000
X-3.699S0
X-.401S1000
X-2.599S0
X-.5S1000
X-2.301S0
X-.699S1000
X-.5S0
X-.6S1000
X-24.6S0
X-.601S1000
X-3.499S0
X-1.3S1000
X-3.7S0
X-.4S1000
X-2.5S0
X-.499S1000
X-2.401S0
X-.699S1000
X-.4S0
X-.701S1000
X-3.2S0
X-.899S1000
X-7.8S0
X-.7S1000
X-3.6S0
X-1.2S1000
X-3.7S0
X-.5S1000
X-2.4S0
X-.6S1000
X-2.3S0
X-.7S1000
X-.5S0
X-.6S1000
X-2.917S0
X-.1Y.1
X2.917
X.8S1000
X.3S0
X.8S1000
X2.4S0
X.1S1000
X.1S0
X.1S1000
X2.6S0
X.599S1000
X3.5S0
X1.5S1000
X3.3S0
X.801S1000
X7.8S0
X1.099S1000
X.101S0
X.3S1000
X.099S0
X.5S1000
X.101S0
X.399S1000
X1.5S0
X.701S1000
X.299S0
X.8S1000
X2.401S0
X.099S1000
X2.801S0
X.6S1000
X3.6S0
X1.4S1000
X3.299S0
X.801S1000
X24.5S0
X.699S1000
X.301S0
X.799S1000
X2.601S0
X.1S1000
X2.6S0
X.599S1000
X3.6S0
X1.301S1000
X3.4S0
X.9S1000
X7.6S0
X1.1S1000
X.099S0
X.1S1000
X.101S0
X.2S1000
X.099S0
X.201S1000
X.1S0
X.799S1000
X1.301S0
X.8S1000
X.299S0
X.901S1000
X2.4S0
X.1S1000
X.1S0
X.2S1000
X2.399S0
X.601S1000
X3.5S0
X1.5S1000
X3.3S0
X.8S1000
X24.6S0
X.8S1000
X.3S0
X.8S1000
X2.4S0
X.1S1000
X.2S0
X.1S1000
X2.4S0
X.7S1000
X3.6S0
X1.3S1000
X3.3S0
X.9S1000
X7.7S0
X1.1S1000
X.1S0
X.2S1000
X.1S0
X.2S1000
X.1S0
X.9S1000
X1.4S0
X.8S1000
X.3S0
X.8S1000
X2.3S0
X.1S1000
X.1S0
X.2S1000
X.1S0
X.1S1000
X2.4S0
X.6S1000
X3.5S0
X1.5S1000
X3.3S0
X.8S1000
X24.4S0
X.8S1000
X.3S0
X.8S1000
X2.6S0
X.1S1000
X2.6S0
X.6S1000
X3.5S0
X1.4S1000
X3.4S0
X.8S1000
X7.699S0
X2.201S1000
X.1S0
X.299S1000
X.101S0
X.1S1000
X1.4S0
X.699S1000
X.301S0
X.899S1000
X2.601S0
X.1S1000
X2.5S0
X.599S1000
X3.601S0
X1.399S1000
X3.301S0
X.8S1000
X2.916S0
X.1Y.1
X-2.917
X-1S1000
X-3.2S0
X-1.5S1000
X-3.399S0
X-.8S1000
X-5.2S0
X-.8S1000
X-.301S0
X-.699S1000
X-.801S0
X-3.499S1000
X-7.6S0
X-.8S1000
X-3.3S0
X-1.5S1000
X-3.5S0
X-.7S1000
X-5.3S0
X-.8S1000
X-.1S0
X-.9S1000
X-24.4S0
X-.9S1000
X-3.2S0
X-1.5S1000
X-3.5S0
X-.6S1000
X-5.4S0
X-.7S1000
X-.3S0
X-.7S1000
X-.8S0
X-3.7S1000
X-7.3S0
X-1S1000
X-3.2S0
X-1.5S1000
X-3.5S0
X-.7S1000
X-5.3S0
X-.8S1000
X-.1S0
X-.9S1000
X-24.6S0
X-.8S1000
X-3.3S0
X-1.5S1000
X-3.4S0
X-.701S1000
X-5.399S0
X-.7S1000
X-.2S0
X-.9S1000
X-.6S0
X-3.701S1000
X-7.399S0
X-1S1000
X-3.2S0
X-1.5S1000
X-3.5S0
X-.7S1000
X-5.201S0
X-.799S1000
X-.201S0
X-.799S1000
X-24.4S0
X-1S1000
X-3.2S0
X-1.5S1000
X-3.5S0
X-.7S1000
X-5.201S0
X-.799S1000
X-.201S0
X-.799S1000
X-.8S0
X-3.6S1000
X-7.5S0
X-.9S1000
X-3.2S0
X-1.5S1000
X-3.5S0
X-.7S1000
X-5.2S0
X-.8S1000
X-.3S0
X-.7S1000
X-2.917S0
X-.1Y.1
X2.917
X.8S1000
X.3S0
X.7S1000
X5.3S0
X.8S1000
X3.3S0
X1.6S1000
X3.1S0
X1S1000
X7.1S0
X4.5S1000
X.3S0
X.799S1000
X.201S0
X.7S1000
X5.2S0
X.899S1000
X3.301S0
X1.7S1000
X3S0
X1.1S1000
X24.4S0
X.799S1000
X.201S0
X.7S1000
X5.2S0
X.899S1000
X3.301S0
X1.699S1000
X3S0
X1.101S1000
X7S0
X4.6S1000
X.2S0
X.8S1000
X.2S0
X.7S1000
X5.3S0
X.8S1000
X3.3S0
X1.6S1000
X3.2S0
X.9S1000
X24.6S0
X.8S1000
X.2S0
X.8S1000
X5.2S0
X.9S1000
X3.3S0
X1.6S1000
X3.1S0
X1.1S1000
X6.8S0
X4.7S1000
X.2S0
X.8S1000
X.3S0
X.7S1000
X5.3S0
X.8S1000
X3.3S0
X1.6S1000
X3.2S0
X.9S1000
X24.4S0
X.9S1000
X.2S0
X.7S1000
X5.3S0
X.8S1000
X3.3S0
X1.6S1000
X3.2S0
X.9S1000
X7S0
X4.599S1000
X.301S0
X.8S1000
X.2S0
X.699S1000
X5.301S0
X.899S1000
X3.3S0
X1.601S1000
X3.099S0
X1S1000
X2.917S0
X-.1Y.1
X-2.916
X-1S1000
X-2.901S0
X-1.799S1000
X-3.201S0
X-1S1000
X-5.2S0
X-.699S1000
X-.301S0
X-5.9S1000
X-6.599S0
X-1S1000
X-3.1S0
X-1.7S1000
X-3.3S0
X-.9S1000
X-5.3S0
X-.7S1000
X-.1S0
X-.9S1000
X-24.4S0
X-1S1000
X-3S0
X-1.7S1000
X-3.2S0
X-1S1000
X-5.3S0
X-.7S1000
X-.2S0
X-6S1000
X-6.5S0
X-1S1000
X-3.1S0
X-1.7S1000
X-3.3S0
X-.9S1000
X-5.3S0
X-.7S1000
X-.1S0
X-.9S1000
X-24.5S0
X-1S1000
X-3.1S0
X-1.7S1000
X-3.3S0
X-.9S1000
X-5.301S0
X-.599S1000
X-.2S0
X-6S1000
X-6.6S0
X-1.101S1000
X-3S0
X-1.699S1000
X-3.2S0
X-1S1000
X-5.2S0
X-.8S1000
X-.2S0
X-.7S1000
X-24.4S0
X-1S1000
X-3.1S0
X-1.7S1000
X-3.2S0
X-.901S1000
X-5.399S0
X-.7S1000
X-.101S0
X-6.099S1000
X-6.6S0
X-1S1000
X-3S0
X-1.7S1000
X-3.3S0
X-.9S1000
X-5.3S0
X-.7S1000
X-.2S0
X-.7S1000
X-2.917S0
X-.1Y.1
X2.917
X.8S1000
X.2S0
X.8S1000
X5.1S0
X1.1S1000
X3.2S0
X1.8S1000
X2.9S0
X1.1S1000
X1.799S0
X.2S1000
X2.799S0
X.799S1000
X.601S0
X6.3S1000
X.2S0
X.7S1000
X5.3S0
X1S1000
X3.2S0
X1.8S1000
X2.9S0
X1.1S1000
X1.699S0
X.201S1000
X2.9S0
X.799S1000
X18.801S0
X.799S1000
X.101S0
X.799S1000
X5.201S0
X1S1000
X3.2S0
X1.8S1000
X3S0
X1S1000
X1.799S0
X.1S1000
X2.9S0
X.801S1000
X.699S0
X6.201S1000
X.199S0
X.7S1000
X5.3S0
X1.1S1000
X3.1S0
X1.8S1000
X3S0
X1S1000
X1.8S0
X.2S1000
X2.8S0
X.8S1000
X18.9S0
X.8S1000
X.2S0
X.7S1000
X5.2S0
X1.1S1000
X3.2S0
X1.8S1000
X2.9S0
X1.1S1000
X1.7S0
X.2S1000
X2.9S0
X.7S1000
X.6S0
X6.4S1000
X.2S0
X.7S1000
X5.3S0
X1S1000
X3.3S0
X1.7S1000
X2.9S0
X1.2S1000
X1.7S0
X.2S1000
X2.8S0
X.8S1000
X18.8S0
X.7S1000
X.2S0
X.7S1000
X5.3S0
X1.1S1000
X3.1S0
X1.8S1000
X2.9S0
X1.1S1000
X1.8S0
X.2S1000
X2.8S0
X.7S1000
X.599S0
X6.4S1000
X.2S0
X.8S1000
X5.101S0
X1.099S1000
X3.201S0
X1.799S1000
X2.901S0
X1.2S1000
X1.699S0
X.101S1000
X2.899S0
X.801S1000
X2.916S0
X.1Y.1
X-2.916
X-1S1000
X-2.6S0
X-.4S1000
X-1.6S0
X-1.2S1000
X-2.901S0
X-1.799S1000
X-3.201S0
X-1.099S1000
X-5.2S0
X-3.401S1000
X-.199S0
X-.101S1000
X-.599S0
X-.1S1000
X-.2S0
X-.101S1000
X-.1S0
X-.099S1000
X-.1S0
X-2.5S1000
X-.1S0
X-1.101S1000
X-2.599S0
X-.4S1000
X-1.6S0
X-1.2S1000
X-2.9S0
X-1.8S1000
X-3.1S0
X-1.2S1000
X-5.2S0
X-.7S1000
X-.2S0
X-.8S1000
X-18.6S0
X-1S1000
X-2.6S0
X-.4S1000
X-1.6S0
X-1.2S1000
X-2.9S0
X-1.8S1000
X-3.2S0
X-1.1S1000
X-5.2S0
X-3.4S1000
X-.5S0
X-.1S1000
X-.2S0
X-.1S1000
X-.1S0
X-.1S1000
X-.1S0
X-.1S1000
X-.1S0
X-.1S1000
X-.1S0
X-2.6S1000
X-.1S0
X-1S1000
X-2.7S0
X-.3S1000
X-1.7S0
X-1.1S1000
X-2.9S0
X-1.8S1000
X-3.1S0
X-1.2S1000
X-5.2S0
X-.8S1000
X-.1S0
X-.8S1000
X-18.9S0
X-.9S1000
X-2.7S0
X-.3S1000
X-1.6S0
X-1.2S1000
X-2.9S0
X-1.7S1000
X-3.2S0
X-1.2S1000
X-5.201S0
X-3.199S1000
X-.301S0
X-.1S1000
X-.199S0
X-.1S1000
X-.101S0
X-.1S1000
X-.199S0
X-.1S1000
X-.101S0
X-.1S1000
X-.099S0
X-.1S1000
X-.1S0
X-2.601S1000
X-.1S0
X-.099S1000
X-.1S0
X-.9S1000
X-2.6S0
X-.4S1000
X-1.7S0
X-1.101S1000
X-2.899S0
X-1.8S1000
X-3.1S0
X-1.201S1000
X-5.2S0
X-.8S1000
X-.1S0
X-.799S1000
X-18.701S0
X-.9S1000
X-2.6S0
X-.4S1000
X-1.6S0
X-1.199S1000
X-2.9S0
X-1.8S1000
X-3.101S0
X-1.2S1000
X-5.199S0
X-3.301S1000
X-.1S0
X-.099S1000
X-.2S0
X-.101S1000
X-.199S0
X-.101S1000
X-.2S0
X-.1S1000
X-.2S0
X-.099S1000
X-.101S0
X-.1S1000
X-.099S0
X-2.601S1000
X-.099S0
X-1.101S1000
X-2.5S0
X-.399S1000
X-1.701S0
X-1.099S1000
X-2.901S0
X-1.899S1000
X-3.101S0
X-1.099S1000
X-5.2S0
X-.7S1000
X-.2S0
X-.8S1000
X-2.917S0
Y.1
X2.917
X.8S1000
X.2S0
X.7S1000
X5.2S0
X1.099S1000
X3.201S0
X1.799S1000
X2.8S0
X1.2S1000
X1.6S0
X.601S1000
X2.399S0
X3.101S1000
X3.099S0
X2.5S1000
X5.3S0
X1.2S1000
X3.101S0
X1.8S1000
X2.799S0
X1.3S1000
X1.6S0
X.5S1000
X2.4S0
X1.201S1000
X18.399S0
X1.701S1000
X5.4S0
X1.1S1000
X3.099S0
X1.801S1000
X2.899S0
X1.201S1000
X1.5S0
X.599S1000
X2.401S0
X3.199S1000
X3.1S0
X2.5S1000
X5.201S0
X1.2S1000
X3.1S0
X1.8S1000
X2.8S0
X1.3S1000
X1.5S0
X.6S1000
X2.4S0
X1.2S1000
X18.6S0
X.9S1000
X.1S0
X.7S1000
X5.3S0
X1.2S1000
X3.1S0
X1.8S1000
X2.8S0
X1.2S1000
X1.7S0
X.5S1000
X2.4S0
X3S1000
X3.2S0
X2.6S1000
X5.2S0
X1.1S1000
X3.2S0
X1.8S1000
X2.8S0
X1.3S1000
X1.5S0
X.6S1000
X2.4S0
X1.2S1000
X18.4S0
X1S1000
X.1S0
X.6S1000
X5.3S0
X1.2S1000
X3.1S0
X1.8S1000
X2.8S0
X1.3S1000
X1.5S0
X.6S1000
X2.399S0
X3S1000
X3.201S0
X2.6S1000
X5.299S0
X1.101S1000
X3.1S0
X1.9S1000
X2.699S0
X1.301S1000
X1.6S0
X.5S1000
X2.4S0
X1.199S1000
X2.917S0
X.1Y.1
X-2.916
X-1.401S1000
X-2.299S0
X-.6S1000
X-1.5S0
X-1.2S1000
X-2.901S0
X-1.799S1000
X-3.201S0
X-1.099S1000
X-5.2S0
X-2.1S1000
X-4.201S0
X-2.599S1000
X-2.3S0
X-.6S1000
X-1.5S0
X-1.2S1000
X-2.9S0
X-1.8S1000
X-3.1S0
X-1.2S1000
X-5.2S0
X-1.7S1000
X-18.5S0
X-1.3S1000
X-2.3S0
X-.6S1000
X-1.5S0
X-1.3S1000
X-2.8S0
X-1.9S1000
X-3.1S0
X-1.1S1000
X-5.2S0
X-2.1S1000
X-4.3S0
X-2.5S1000
X-2.3S0
X-.6S1000
X-1.5S0
X-1.3S1000
X-2.8S0
X-1.9S1000
X-3.1S0
X-1.1S1000
X-5.3S0
X-1.6S1000
X-18.6S0
X-1.4S1000
X-2.3S0
X-.6S1000
X-1.5S0
X-1.3S1000
X-2.8S0
X-1.8S1000
X-3.1S0
X-1.2S1000
X-5.301S0
X-1.9S1000
X-4.2S0
X-2.699S1000
X-2.301S0
X-.5S1000
X-1.699S0
X-1.201S1000
X-2.799S0
X-1.9S1000
X-3.1S0
X-1S1000
X-5.4S0
X-1.6S1000
X-18.5S0
X-1.301S1000
X-2.3S0
X-.5S1000
X-1.7S0
X-1.2S1000
X-2.8S0
X-1.9S1000
X-3S0
X-1.1S1000
X-5.4S0
X-1.899S1000
X-4.301S0
X-2.6S1000
X-2.299S0
X-.6S1000
X-1.6S0
X-1.2S1000
X-2.8S0
X-1.799S1000
X-3.2S0
X-1.099S1000
X-4.9S0
X-.1S1000
X-.3S0
X-1.6S1000
X-2.917S0
Y.1
X2.917
X1.6S1000
X.2S0
X.3S1000
X4.8S0
X1.099S1000
X3.101S0
X1.899S1000
X2.901S0
X1.099S1000
X1.6S0
X.6S1000
X2.201S0
X2.299S1000
X5S0
X1.8S1000
X.1S0
X.1S1000
X5S0
X1.1S1000
X3S0
X1.9S1000
X2.8S0
X1.3S1000
X1.5S0
X.6S1000
X2.3S0
X1.4S1000
X18.4S0
X1.6S1000
X.299S0
X.201S1000
X4.799S0
X1.201S1000
X3S0
X1.9S1000
X2.899S0
X1.101S1000
X1.6S0
X.6S1000
X2.199S0
X2.4S1000
X4.901S0
X2.099S1000
X4.801S0
X1.2S1000
X3S0
X1.9S1000
X2.8S0
X1.3S1000
X1.5S0
X.6S1000
X2.3S0
X1.4S1000
X18.6S0
X1.6S1000
X.3S0
X.1S1000
X4.9S0
X1.2S1000
X3S0
X1.9S1000
X2.9S0
X1.1S1000
X1.6S0
X.6S1000
X2.2S0
X2.3S1000
X5S0
X1.7S1000
X.1S0
X.3S1000
X4.8S0
X1.1S1000
X3.1S0
X1.9S1000
X2.8S0
X1.3S1000
X1.5S0
X.6S1000
X2.2S0
X1.5S1000
X18.4S0
X1.6S1000
X.2S0
X.3S1000
X4.8S0
X1.2S1000
X3S0
X1.9S1000
X2.9S0
X1.2S1000
X1.5S0
X.6S1000
X2.3S0
X2.3S1000
X4.899S0
X2.101S1000
X4.8S0
X1.2S1000
X3S0
X2S1000
X2.699S0
X1.2S1000
X1.601S0
X.699S1000
X2.101S0
X1.599S1000
X2.917S0
Y.1
X-2.917
X-1.599S1000
X-2.2S0
X-.5S1000
X-1.701S0
X-1.099S1000
X-2.901S0
X-1.899S1000
X-3.101S0
X-1S1000
X-4.799S0
X-1.901S1000
X-5.599S0
X-2S1000
X-2.2S0
X-.6S1000
X-1.6S0
X-1S1000
X-3S0
X-2S1000
X-2.9S0
X-1.2S1000
X-4.7S0
X-.4S1000
X-.1S0
X-1.7S1000
X-18.3S0
X-1.6S1000
X-2.2S0
X-.6S1000
X-1.6S0
X-1.1S1000
X-2.9S0
X-1.9S1000
X-3.1S0
X-1.1S1000
X-4.7S0
X-1.9S1000
X-5.7S0
X-1.9S1000
X-2.2S0
X-.6S1000
X-1.6S0
X-1S1000
X-3S0
X-2S1000
X-2.9S0
X-1.2S1000
X-4.8S0
X-.3S1000
X-.2S0
X-1.6S1000
X-18.5S0
X-1.6S1000
X-2.2S0
X-.6S1000
X-1.6S0
X-1.1S1000
X-2.9S0
X-1.9S1000
X-3S0
X-1.2S1000
X-4.701S0
X-1.799S1000
X-5.6S0
X-2.101S1000
X-2.299S0
X-.401S1000
X-1.699S0
X-1S1000
X-3S0
X-1.9S1000
X-3S0
X-1.1S1000
X-4.9S0
X-.301S1000
X-.199S0
X-1.5S1000
X-18.401S0
X-1.6S1000
X-2.2S0
X-.5S1000
X-1.7S0
X-1.099S1000
X-2.9S0
X-1.9S1000
X-3S0
X-1.1S1000
X-4.8S0
X-1.9S1000
X-5.6S0
X-2S1000
X-2.2S0
X-.6S1000
X-1.6S0
X-1.1S1000
X-2.9S0
X-1.899S1000
X-3.101S0
X-1.1S1000
X-4.799S0
X-.301S1000
X-.199S0
X-1.5S1000
X-2.917S0
X-.1Y.1
X2.917
X1.6S1000
X.199S0
X.5S1000
X4.6S0
X1.1S1000
X3.101S0
X1.899S1000
X2.9S0
X1S1000
X1.7S0
X.6S1000
X2.1S0
X1.8S1000
X6.3S0
X1.6S1000
X4.6S0
X1.2S1000
X3S0
X1.9S1000
X2.901S0
X1.099S1000
X1.7S0
X.5S1000
X2.201S0
X1.599S1000
X18.4S0
X1.5S1000
X.199S0
X.5S1000
X4.6S0
X1.101S1000
X3.1S0
X1.9S1000
X2.899S0
X1.101S1000
X1.6S0
X.599S1000
X2.2S0
X1.701S1000
X6.4S0
X1.6S1000
X4.5S0
X1.2S1000
X2.9S0
X2S1000
X2.9S0
X1.1S1000
X1.6S0
X.6S1000
X2.1S0
X1.7S1000
X18.5S0
X1.6S1000
X.1S0
X.6S1000
X4.6S0
X1.1S1000
X3.1S0
X1.9S1000
X2.9S0
X1.1S1000
X1.6S0
X.6S1000
X2.1S0
X1.7S1000
X6.3S0
X1.7S1000
X4.6S0
X1.1S1000
X3.1S0
X1.9S1000
X2.9S0
X1S1000
X1.7S0
X.6S1000
X2.1S0
X1.7S1000
X18.4S0
X1.5S1000
X.1S0
X.6S1000
X4.6S0
X1.2S1000
X3S0
X1.9S1000
X2.9S0
X1.1S1000
X1.6S0
X.6S1000
X2.1S0
X1.799S1000
X6.301S0
X1.599S1000
X4.601S0
X1.2S1000
X3S0
X2S1000
X2.8S0
X1.099S1000
X1.601S0
X.6S1000
X2.2S0
X1.599S1000
X2.917S0
X.1Y.1
X-2.916
X-1.7S1000
X-2.101S0
X-.699S1000
X-1.7S0
X-1S1000
X-2.901S0
X-1.899S1000
X-3.101S0
X-1.099S1000
X-4.401S0
X-1.399S1000
X-7.101S0
X-1.399S1000
X-2.1S0
X-.6S1000
X-1.7S0
X-1S1000
X-2.9S0
X-1.9S1000
X-3S0
X-1.2S1000
X-4.5S0
X-.7S1000
X-.1S0
X-1.2S1000
X-.1S0
X-.1S1000
X-18.5S0
X-1.7S1000
X-2.1S0
X-.6S1000
X-1.7S0
X-1S1000
X-2.9S0
X-1.9S1000
X-3.1S0
X-1.1S1000
X-4.4S0
X-1.5S1000
X-6.9S0
X-.1S1000
X-.1S0
X-1.3S1000
X-.1S0
X-.1S1000
X-1.9S0
X-.6S1000
X-1.7S0
X-1S1000
X-2.9S0
X-1.9S1000
X-3S0
X-1.2S1000
X-4.5S0
X-.7S1000
X-.2S0
X-1.1S1000
X-.1S0
X-.1S1000
X-18.7S0
X-1.7S1000
X-2.1S0
X-.6S1000
X-1.7S0
X-.9S1000
X-3S0
X-1.9S1000
X-3S0
X-1.2S1000
X-4.4S0
X-1.301S1000
X-7.199S0
X-1.401S1000
X-2.099S0
X-.5S1000
X-1.7S0
X-1.101S1000
X-2.899S0
X-1.9S1000
X-3S0
X-1.1S1000
X-4.601S0
X-.6S1000
X-.299S0
X-1S1000
X-.101S0
X-.1S1000
X-.099S0
X-.1S1000
X-18.4S0
X-1.599S1000
X-2.201S0
X-.6S1000
X-1.6S0
X-1S1000
X-3S0
X-1.9S1000
X-3S0
X-1.2S1000
X-4.399S0
X-1.4S1000
X-7.1S0
X-1.5S1000
X-2S0
X-.6S1000
X-1.699S0
X-1S1000
X-2.901S0
X-1.899S1000
X-3.101S0
X-1.099S1000
X-4.5S0
X-.7S1000
X-.2S0
X-1.1S1000
X-.1S0
X-.1S1000
X-2.917S0
X.4Y.1
X2.917
X.9S1000
X.2S0
X.7S1000
X4.5S0
X1.099S1000
X3.101S0
X1.899S1000
X3S0
X.901S1000
X1.699S0
X.5S1000
X1.9S0
X1.401S1000
X7.599S0
X1.5S1000
X4.201S0
X.999S1000
X3.1S0
X1.9S1000
X2.9S0
X1S1000
X1.799S0
X.5S1000
X2.101S0
X1.799S1000
X18.701S0
X1S1000
X.199S0
X.801S1000
X4.399S0
X1.201S1000
X3S0
X1.9S1000
X3S0
X.899S1000
X1.8S0
X.5S1000
X1.801S0
X1.5S1000
X7.699S0
X1.301S1000
X4.199S0
X1S1000
X3.101S0
X1.9S1000
X3S0
X.9S1000
X1.8S0
X.5S1000
X2.1S0
X1.8S1000
X18.9S0
X1S1000
X.2S0
X.7S1000
X4.5S0
X1.1S1000
X3.1S0
X1.9S1000
X3S0
X.9S1000
X1.7S0
X.6S1000
X1.8S0
X1.3S1000
X7.7S0
X1.3S1000
X4.3S0
X1.1S1000
X3S0
X2S1000
X3S0
X.9S1000
X1.8S0
X.4S1000
X2.2S0
X1.7S1000
X18.8S0
X1S1000
X.2S0
X.8S1000
X4.5S0
X1S1000
X3S0
X2S1000
X3S0
X.9S1000
X1.8S0
X.5S1000
X1.8S0
X1.4S1000
X7.7S0
X1.399S1000
X4.2S0
X1.101S1000
X3S0
X2S1000
X2.899S0
X1S1000
X1.701S0
X.5S1000
X2.099S0
X1.7S1000
X2.917S0
X.1Y.1
X-2.916
X-1.801S1000
X-2.3S0
X-.299S1000
X-1.8S0
X-.901S1000
X-3S0
X-1.899S1000
X-3.101S0
X-1S1000
X-4.099S0
X-1.3S1000
X-8.101S0
X-1.299S1000
X-1.8S0
X-.3S1000
X-2S0
X-.7S1000
X-3.1S0
X-1.9S1000
X-3.2S0
X-.9S1000
X-4.5S0
X-1.9S1000
X-.2S0
X-.1S1000
X-18.5S0
X-1.9S1000
X-2.2S0
X-.3S1000
X-1.9S0
X-.8S1000
X-3S0
X-1.9S1000
X-3.2S0
X-.9S1000
X-4.2S0
X-1.2S1000
X-8.2S0
X-1.3S1000
X-1.7S0
X-.4S1000
X-1.9S0
X-.8S1000
X-3S0
X-1.9S1000
X-3.1S0
X-1.1S1000
X-4.4S0
X-1.9S1000
X-19S0
X-1.9S1000
X-2.2S0
X-.2S1000
X-2S0
X-.7S1000
X-3.1S0
X-1.9S1000
X-3.2S0
X-.9S1000
X-4.1S0
X-1.301S1000
X-8.099S0
X-1.301S1000
X-1.799S0
X-.4S1000
X-1.801S0
X-.899S1000
X-3S0
X-1.9S1000
X-3.1S0
X-1S1000
X-4.5S0
X-1.9S1000
X-18.801S0
X-1.9S1000
X-2.199S0
X-.301S1000
X-1.799S0
X-.9S1000
X-3S0
X-1.901S1000
X-3.099S0
X-1S1000
X-4.101S0
X-1.3S1000
X-8.2S0
X-1.3S1000
X-1.7S0
X-.399S1000
X-1.8S0
X-.901S1000
X-3S0
X-1.899S1000
X-3.101S0
X-1S1000
X-4.499S0
X-1.9S1000
X-.2S0
X-.1S1000
X-2.917S0
X-.1Y.1
X2.917
X.2S1000
X.2S0
X1.9S1000
X4.6S0
X.8S1000
X3.2S0
X1.9S1000
X3.099S0
X.7S1000
X2S0
X.201S1000
X1.599S0
X1.301S1000
X8.599S0
X1.299S1000
X4S0
X.8S1000
X3.2S0
X1.901S1000
X3S0
X.8S1000
X2S0
X.1S1000
X2.299S0
X2S1000
X18.301S0
X.199S1000
X.201S0
X2S1000
X4.5S0
X.799S1000
X3.201S0
X1.9S1000
X3.1S0
X.699S1000
X1.9S0
X.401S1000
X1.699S0
X1.201S1000
X8.6S0
X1.199S1000
X4.001S0
X.8S1000
X3.2S0
X1.9S1000
X3.1S0
X.7S1000
X2S0
X.2S1000
X2.2S0
X2S1000
X18.5S0
X.2S1000
X.2S0
X2S1000
X4.4S0
X.9S1000
X3.1S0
X2S1000
X3S0
X.8S1000
X1.9S0
X.3S1000
X1.6S0
X1.3S1000
X8.5S0
X1.3S1000
X4.1S0
X.8S1000
X3.2S0
X1.9S1000
X3.1S0
X.7S1000
X2S0
X.1S1000
X2.3S0
X1.9S1000
X18.4S0
X.3S1000
X.1S0
X2S1000
X4.5S0
X.8S1000
X3.2S0
X1.9S1000
X3.1S0
X.7S1000
X2S0
X.2S1000
X1.699S0
X1.201S1000
X8.7S0
X1.099S1000
X4.101S0
X.8S1000
X3.2S0
X2S1000
X3S0
X.8S1000
X1.899S0
X.2S1000
X2.3S0
X1.801S1000
X2.916S0
X.1Y.1
X-2.916
X-1.901S1000
X-4.5S0
X-.5S1000
X-3.3S0
X-1.799S1000
X-3.3S0
X-.8S1000
X-3.9S0
X-1.201S1000
X-9S0
X-1.199S1000
X-3.8S0
X-.5S1000
X-3.2S0
X-2S1000
X-3.2S0
X-.7S1000
X-4.5S0
X-1.9S1000
X-.2S0
X-.3S1000
X-18.4S0
X-1.8S1000
X-4.6S0
X-.5S1000
X-3.2S0
X-1.8S1000
X-3.4S0
X-.7S1000
X-3.9S0
X-1.3S1000
X-8.9S0
X-1.3S1000
X-3.7S0
X-.5S1000
X-3.2S0
X-2S1000
X-3.2S0
X-.7S1000
X-4.6S0
X-1.9S1000
X-.1S0
X-.3S1000
X-18.5S0
X-2S1000
X-4.4S0
X-.6S1000
X-3.2S0
X-1.8S1000
X-3.3S0
X-.701S1000
X-3.899S0
X-1.201S1000
X-9S0
X-1.199S1000
X-3.901S0
X-.4S1000
X-3.299S0
X-1.9S1000
X-3.301S0
X-.699S1000
X-4.6S0
X-1.9S1000
X-.1S0
X-.301S1000
X-18.3S0
X-2S1000
X-4.5S0
X-.399S1000
X-3.301S0
X-1.799S1000
X-3.401S0
X-.7S1000
X-3.899S0
X-1.1S1000
X-9.1S0
X-1.2S1000
X-3.8S0
X-.5S1000
X-3.2S0
X-2S1000
X-3.2S0
X-.699S1000
X-4.6S0
X-1.9S1000
X-.1S0
X-.4S1000
X-2.917S0
Y.1
X2.917
X2.4S1000
X4.799S0
X.301S1000
X.099S0
X.1S1000
X3.301S0
X1.999S1000
X3.2S0
X.101S1000
X.099S0
X.1S1000
X3.7S0
X1.101S1000
X.099S0
X.1S1000
X9.301S0
X.099S1000
X.1S0
X1S1000
X3.801S0
X.599S1000
X3.401S0
X1.799S1000
X3.4S0
X.199S1000
X4.6S0
X1.9S1000
X18.301S0
X2.4S1000
X4.699S0
X.401S1000
X.099S0
X.1S1000
X3.301S0
X1.799S1000
X3.4S0
X.1S1000
X.101S0
X.199S1000
X3.6S0
X1.201S1000
X9.5S0
X.1S1000
X.099S0
X1S1000
X3.7S0
X.601S1000
X3.4S0
X1.8S1000
X3.4S0
X.2S1000
X4.7S0
X1.9S1000
X18.4S0
X.4S1000
X.1S0
X1.9S1000
X4.7S0
X.4S1000
X.1S0
X.1S1000
X3.4S0
X1.8S1000
X3.4S0
X.2S1000
X3.6S0
X1.2S1000
X9.6S0
X1.1S1000
X3.8S0
X.5S1000
X3.5S0
X1.8S1000
X3.4S0
X.2S1000
X4.6S0
X1.9S1000
X18.3S0
X2.3S1000
X4.8S0
X.6S1000
X3.3S0
X1.9S1000
X3.3S0
X.1S1000
X.1S0
X.1S1000
X3.7S0
X1.2S1000
X9.499S0
X1.2S1000
X3.8S0
X.401S1000
X3.5S0
X1.9S1000
X3.399S0
X.101S1000
X4.699S0
X1.801S1000
X2.916S0
Y.1
X-2.916
X-1.801S1000
X-8.3S0
X-1.799S1000
X-3.6S0
X-.2S1000
X-3.7S0
X-1.1S1000
X-10.101S0
X-1.099S1000
X-7.1S0
X-1.8S1000
X-3.7S0
X-.1S1000
X-5S0
X-2.3S1000
X-18.3S0
X-1.9S1000
X-8.2S0
X-1.8S1000
X-3.6S0
X-.2S1000
X-3.8S0
X-1.1S1000
X-10.1S0
X-1.1S1000
X-7S0
X-1.8S1000
X-3.7S0
X-.1S1000
X-5S0
X-2.4S1000
X-18.3S0
X-2S1000
X-8.2S0
X-1.8S1000
X-3.6S0
X-.2S1000
X-3.701S0
X-1.1S1000
X-10.1S0
X-1.099S1000
X-7.1S0
X-1.801S1000
X-3.699S0
X-.101S1000
X-5S0
X-2.299S1000
X-18.201S0
X-2S1000
X-8.2S0
X-1.799S1000
X-3.601S0
X-.2S1000
X-3.8S0
X-1.1S1000
X-10S0
X-1.1S1000
X-7.1S0
X-1.8S1000
X-3.8S0
X-.1S1000
X-4.9S0
X-2.299S1000
X-2.917S0
X-.1Y.1
X2.917
X2.299S1000
X8.801S0
X1.8S1000
X7S0
X1.099S1000
X10.401S0
X1.099S1000
X7.401S0
X1.7S1000
X8.299S0
X2S1000
X18.201S0
X2.299S1000
X8.8S0
X1.699S1000
X7.101S0
X1.1S1000
X10.299S0
X1.201S1000
X7.3S0
X1.7S1000
X8.3S0
X2S1000
X18.3S0
X2.3S1000
X8.9S0
X1.7S1000
X7S0
X1.1S1000
X10.4S0
X1.1S1000
X7.4S0
X1.7S1000
X8.4S0
X1.8S1000
X18.2S0
X2.3S1000
X8.9S0
X1.7S1000
X7.1S0
X1.099S1000
X10.301S0
X1.099S1000
X7.401S0
X1.799S1000
X8.3S0
X1.901S1000
X2.916S0
X-.1Y.1
X-2.916
X-1.801S1000
X-8.399S0
X-1.601S1000
X-7.3S0
X-1.099S1000
X-10.7S0
X-1.1S1000
X-6.9S0
X-1.7S1000
X-8.9S0
X-2.3S1000
X-18.2S0
X-1.9S1000
X-8.3S0
X-1.6S1000
X-7.5S0
X-1S1000
X-10.7S0
X-1S1000
X-6.9S0
X-1.7S1000
X-8.9S0
X-2.3S1000
X-18.3S0
X-2S1000
X-8.3S0
X-1.7S1000
X-7.2S0
X-1.1S1000
X-10.701S0
X-1.1S1000
X-6.9S0
X-1.699S1000
X-8.901S0
X-2.199S1000
X-18.301S0
X-1.9S1000
X-8.299S0
X-1.7S1000
X-7.2S0
X-1.101S1000
X-10.699S0
X-1.1S1000
X-6.9S0
X-1.7S1000
X-8.9S0
X-2.2S1000
X-2.917S0
X-.1Y.1
X2.917
X1.4S1000
X.3S0
X.5S1000
X9S0
X1.7S1000
X6.699S0
X1.101S1000
X11.1S0
X.999S1000
X7.201S0
X1.5S1000
X8.399S0
X2S1000
X18.201S0
X1.299S1000
X.301S0
X.5S1000
X9.099S0
X1.599S1000
X6.9S0
X1.1S1000
X10.9S0
X1.1S1000
X7.101S0
X1.5S1000
X8.5S0
X1.9S1000
X18.3S0
X1.4S1000
X.3S0
X.5S1000
X9.1S0
X1.6S1000
X6.7S0
X1.1S1000
X11S0
X1S1000
X7.2S0
X1.6S1000
X8.4S0
X1.9S1000
X18.2S0
X1.5S1000
X.2S0
X.5S1000
X9.1S0
X1.6S1000
X6.8S0
X.999S1000
X11S0
X1.201S1000
X7.099S0
X1.601S1000
X8.3S0
X1.9S1000
X2.916S0
X.1Y.1
X-2.916
X-1.901S1000
X-8.5S0
X-1.399S1000
X-7.2S0
X-1S1000
X-11.301S0
X-1.099S1000
X-6.6S0
X-1.6S1000
X-9.1S0
X-.4S1000
X-.4S0
X-1.4S1000
X-18.2S0
X-1.8S1000
X-8.5S0
X-1.4S1000
X-7.2S0
X-1.1S1000
X-11.3S0
X-1S1000
X-6.6S0
X-1.6S1000
X-9.1S0
X-.5S1000
X-.3S0
X-1.4S1000
X-18.3S0
X-2S1000
X-8.4S0
X-1.4S1000
X-1.701S0
X-.099S1000
X-5.2S0
X-1.1S1000
X-11.4S0
X-1S1000
X-6.701S0
X-1.6S1000
X-9.1S0
X-.499S1000
X-.2S0
X-1.4S1000
X-18.201S0
X-2S1000
X-8.399S0
X-1.5S1000
X-7.001S0
X-1S1000
X-11.5S0
X-1S1000
X-6.7S0
X-1.5S1000
X-1.8S0
X-.099S1000
X-7.2S0
X-.4S1000
X-.4S0
X-1.3S1000
X-2.917S0
X-.1Y.1
X2.917
X1.5S1000
X.1S0
X.1S1000
X.2S0
X.3S1000
X7.099S0
X.401S1000
X1.7S0
X1.399S1000
X6.5S0
X1S1000
X11.7S0
X.099S1000
X.1S0
X1S1000
X4.8S0
X.5S1000
X1.601S0
X1.4S1000
X8.399S0
X1.9S1000
X18.301S0
X1.4S1000
X.1S0
X.099S1000
X.301S0
X.199S1000
X7.1S0
X.4S1000
X1.7S0
X1.4S1000
X6.6S0
X1S1000
X11.8S0
X1S1000
X4.801S0
X.5S1000
X1.6S0
X1.4S1000
X8.4S0
X2S1000
X18.3S0
X1.6S1000
X.3S0
X.3S1000
X7.1S0
X.4S1000
X1.7S0
X1.3S1000
X6.6S0
X1S1000
X11.8S0
X1S1000
X4.9S0
X.4S1000
X1.7S0
X1.4S1000
X8.4S0
X1.9S1000
X18.2S0
X1.5S1000
X.1S0
X.1S1000
X.3S0
X.2S1000
X7.1S0
X.4S1000
X1.7S0
X1.4S1000
X6.5S0
X1.1S1000
X11.799S0
X1S1000
X4.8S0
X.401S1000
X1.7S0
X1.399S1000
X8.5S0
X1.801S1000
X2.916S0
Y.1
X-2.916
X-1.801S1000
X-8.599S0
X-1.201S1000
X-1.7S0
X-.5S1000
X-4.699S0
X-1S1000
X-12.1S0
X-1.1S1000
X-6.4S0
X-1.2S1000
X-1.7S0
X-.6S1000
X-7.5S0
X-1.5S1000
X-18.4S0
X-1.9S1000
X-8.5S0
X-1.2S1000
X-1.7S0
X-.6S1000
X-4.6S0
X-1.1S1000
X-12.2S0
X-.9S1000
X-6.4S0
X-1.3S1000
X-1.6S0
X-.6S1000
X-7.1S0
X-.1S1000
X-.3S0
X-1.6S1000
X-18.4S0
X-1.9S1000
X-8.6S0
X-1.2S1000
X-1.7S0
X-.5S1000
X-4.601S0
X-1S1000
X-12.1S0
X-1.1S1000
X-6.5S0
X-1.3S1000
X-1.6S0
X-.6S1000
X-7.099S0
X-.1S1000
X-.301S0
X-1.5S1000
X-18.3S0
X-1.899S1000
X-8.6S0
X-1.201S1000
X-1.7S0
X-.6S1000
X-4.499S0
X-1.1S1000
X-12.1S0
X-1S1000
X-6.5S0
X-1.2S1000
X-1.7S0
X-.6S1000
X-7.099S0
X-.1S1000
X-.2S0
X-1.601S1000
X-2.916S0
X-1.5Y.1
X2.916
X.101S1000
X1.399S0
X1.5S1000
X7.5S0
X.6S1000
X1.7S0
X1S1000
X6.5S0
X1S1000
X12.401S0
X1S1000
X4.5S0
X.599S1000
X1.7S0
X1.1S1000
X8.701S0
X1.899S1000
X18.3S0
X1.6S1000
X7.4S0
X.599S1000
X1.701S0
X1.1S1000
X6.5S0
X1S1000
X12.4S0
X1.1S1000
X4.299S0
X.701S1000
X1.7S0
X1S1000
X8.7S0
X1.9S1000
X17S0
X.1S1000
X1.5S0
X1.4S1000
X7.5S0
X.6S1000
X1.7S0
X1.1S1000
X6.3S0
X1.1S1000
X12.4S0
X1S1000
X4.5S0
X.7S1000
X1.7S0
X1S1000
X8.7S0
X1.8S1000
X18.5S0
X1.4S1000
X7.5S0
X.7S1000
X1.7S0
X1S1000
X6.4S0
X1S1000
X12.4S0
X1.099S1000
X4.401S0
X.599S1000
X1.7S0
X1.101S1000
X8.699S0
X1.901S1000
X2.916S0
X-.1Y.1
X-2.916
X-1.7S1000
X-8.901S0
X-.899S1000
X-1.7S0
X-.8S1000
X-4.301S0
X-.899S1000
X-12.6S0
X-1.1S1000
X-6.4S0
X-.9S1000
X-1.7S0
X-.7S1000
X-7.5S0
X-1.5S1000
X-18.4S0
X-1.8S1000
X-8.8S0
X-.9S1000
X-1.7S0
X-.7S1000
X-4.3S0
X-1.1S1000
X-12.7S0
X-1S1000
X-6.3S0
X-.9S1000
X-1.7S0
X-.7S1000
X-7.5S0
X-1.5S1000
X-18.6S0
X-1.8S1000
X-8.8S0
X-.9S1000
X-1.7S0
X-.701S1000
X-4.299S0
X-1S1000
X-12.701S0
X-.899S1000
X-6.5S0
X-.9S1000
X-1.701S0
X-.699S1000
X-7.4S0
X-1.5S1000
X-18.5S0
X-1.699S1000
X-8.9S0
X-.901S1000
X-1.7S0
X-.699S1000
X-4.4S0
X-.901S1000
X-12.699S0
X-1S1000
X-6.4S0
X-.9S1000
X-1.7S0
X-.8S1000
X-7.3S0
X-1.6S1000
X-2.917S0
X-.1Y.1
X2.917
X1.6S1000
X7.4S0
X.7S1000
X2S0
X.4S1000
X6.6S0
X.9S1000
X13S0
X1S1000
X4.2S0
X.6S1000
X2.1S0
X.4S1000
X9.1S0
X1.6S1000
X18.5S0
X1.5S1000
X7.4S0
X.7S1000
X2.099S0
X.301S1000
X6.6S0
X.9S1000
X13.1S0
X1S1000
X4.099S0
X.701S1000
X2S0
X.4S1000
X9.1S0
X1.6S1000
X18.7S0
X1.5S1000
X7.4S0
X.7S1000
X2.1S0
X.3S1000
X6.5S0
X1S1000
X13S0
X.9S1000
X4.3S0
X.7S1000
X1.9S0
X.5S1000
X9.1S0
X1.6S1000
X18.5S0
X1.5S1000
X7.5S0
X.7S1000
X2S0
X.3S1000
X6.6S0
X.9S1000
X13.1S0
X.899S1000
X4.201S0
X.7S1000
X2S0
X.5S1000
X8.899S0
X1.801S1000
X2.916S0
X-.1Y.1
X-2.917
X-1.599S1000
X-6.601S0
X-.099S1000
X-2.5S0
X-.201S1000
X-2.2S0
X-.599S1000
X-4.1S0
X-.9S1000
X-13.3S0
X-1S1000
X-3.8S0
X-.1S1000
X-2.7S0
X-.1S1000
X-2.1S0
X-.6S1000
X-7.5S0
X-1.6S1000
X-18.4S0
X-1.6S1000
X-6.6S0
X-.1S1000
X-2.5S0
X-.2S1000
X-2.2S0
X-.6S1000
X-4.2S0
X-.9S1000
X-13.3S0
X-1S1000
X-3.7S0
X-.1S1000
X-2.6S0
X-.2S1000
X-2.1S0
X-.6S1000
X-7.5S0
X-1.5S1000
X-18.7S0
X-1.6S1000
X-6.6S0
X-.1S1000
X-2.4S0
X-.2S1000
X-.1S0
X-.1S1000
X-2.1S0
X-.601S1000
X-4.099S0
X-.901S1000
X-13.299S0
X-.901S1000
X-3.8S0
X-.1S1000
X-2.6S0
X-.199S1000
X-2.201S0
X-.6S1000
X-7.5S0
X-1.5S1000
X-18.5S0
X-1.599S1000
X-6.6S0
X-.1S1000
X-2.4S0
X-.201S1000
X-.1S0
X-.099S1000
X-2.101S0
X-.599S1000
X-4.101S0
X-.899S1000
X-13.301S0
X-1S1000
X-3.7S0
X-.1S1000
X-.1S0
X-.1S1000
X-2.4S0
X-.2S1000
X-2.2S0
X-.699S1000
X-7.401S0
X-1.599S1000
X-2.917S0
X.1Y.1
X2.916
X1.401S1000
X7.599S0
X.5S1000
X4.8S0
X.5S1000
X3.5S0
X.8S1000
X13.8S0
X.9S1000
X3.9S0
X.6S1000
X4.8S0
X.4S1000
X6.5S0
X1.5S1000
X18.5S0
X1.401S1000
X7.599S0
X.5S1000
X4.901S0
X.4S1000
X3.5S0
X.899S1000
X13.701S0
X1S1000
X3.799S0
X.5S1000
X4.901S0
X.5S1000
X6.4S0
X1.5S1000
X18.7S0
X1.4S1000
X7.6S0
X.5S1000
X4.9S0
X.4S1000
X3.4S0
X.9S1000
X13.7S0
X.9S1000
X4S0
X.5S1000
X4.9S0
X.5S1000
X6.4S0
X1.5S1000
X18.5S0
X1.5S1000
X7.5S0
X.5S1000
X4.9S0
X.5S1000
X3.4S0
X.9S1000
X13.7S0
X.899S1000
X3.901S0
X.5S1000
X4.9S0
X.5S1000
X6.399S0
X1.601S1000
X2.916S0
X-.1Y.1
X-2.917
X-1.5S1000
X-6.399S0
X-.5S1000
X-4.801S0
X-.5S1000
X-3.899S0
X-.901S1000
X-13.999S0
X-.8S1000
X-3.4S0
X-.4S1000
X-5S0
X-.3S1000
X-7.7S0
X-1.3S1000
X-18.6S0
X-1.4S1000
X-6.5S0
X-.6S1000
X-4.8S0
X-.4S1000
X-4S0
X-.9S1000
X-13.9S0
X-1S1000
X-3.2S0
X-.4S1000
X-5S0
X-.4S1000
X-7.6S0
X-1.4S1000
X-18.7S0
X-1.4S1000
X-6.5S0
X-.5S1000
X-4.901S0
X-.399S1000
X-3.9S0
X-.901S1000
X-13.9S0
X-.9S1000
X-3.399S0
X-.401S1000
X-4.9S0
X-.5S1000
X-7.6S0
X-1.4S1000
X-18.6S0
X-1.4S1000
X-6.5S0
X-.4S1000
X-4.8S0
X-.6S1000
X-3.8S0
X-.9S1000
X-14S0
X-.8S1000
X-3.3S0
X-.5S1000
X-5S0
X-.3S1000
X-7.7S0
X-1.4S1000
X-2.916S0
X.1Y.1
X2.916
X1.4S1000
X7.6S0
X.3S1000
X4.9S0
X.6S1000
X3.1S0
X.9S1000
X14.2S0
X.9S1000
X3.8S0
X.4S1000
X4.9S0
X.4S1000
X6.5S0
X1.4S1000
X18.6S0
X1.4S1000
X7.7S0
X.3S1000
X5S0
X.5S1000
X3.2S0
X.9S1000
X14.2S0
X.901S1000
X3.7S0
X.399S1000
X4.801S0
X.5S1000
X6.6S0
X1.3S1000
X18.9S0
X1.3S1000
X7.7S0
X.3S1000
X4.9S0
X.5S1000
X3.2S0
X.9S1000
X14.1S0
X1S1000
X3.8S0
X.4S1000
X4.8S0
X.5S1000
X6.6S0
X1.3S1000
X18.7S0
X1.3S1000
X7.7S0
X.3S1000
X4.9S0
X.6S1000
X3.2S0
X.8S1000
X14.2S0
X.899S1000
X3.8S0
X.401S1000
X4.9S0
X.5S1000
X6.5S0
X1.3S1000
X2.916S0
Y.1
X-2.916
X-1.2S1000
X-6.5S0
X-.701S1000
X-8.799S0
X-.901S1000
X-14.499S0
X-.9S1000
X-3S0
X-.6S1000
X-12.8S0
X-1.4S1000
X-18.8S0
X-1.1S1000
X-6.601S0
X-.599S1000
X-8.901S0
X-.899S1000
X-14.5S0
X-.9S1000
X-2.9S0
X-.6S1000
X-12.9S0
X-.301S1000
X-.099S0
X-1S1000
X-18.8S0
X-1.2S1000
X-6.6S0
X-.6S1000
X-8.801S0
X-.9S1000
X-14.4S0
X-1S1000
X-3S0
X-.6S1000
X-12.9S0
X-.3S1000
X-.1S0
X-.9S1000
X-18.8S0
X-1.2S1000
X-6.5S0
X-.6S1000
X-8.9S0
X-.8S1000
X-14.5S0
X-.9S1000
X-3S0
X-.6S1000
X-12.9S0
X-.3S1000
X-.1S0
X-.9S1000
X-2.916S0
Y.1
X2.916
X.8S1000
X.2S0
X.3S1000
X12.9S0
X.7S1000
X2.8S0
X.9S1000
X14.6S0
X.9S1000
X8.7S0
X.8S1000
X6.5S0
X1.1S1000
X18.7S0
X1S1000
X.2S0
X.2S1000
X12.9S0
X.7S1000
X2.8S0
X1S1000
X14.601S0
X.899S1000
X8.701S0
X.599S1000
X6.601S0
X1S1000
X19.099S0
X.901S1000
X.099S0
X.3S1000
X12.801S0
X.699S1000
X2.901S0
X.799S1000
X14.701S0
X.799S1000
X8.8S0
X.801S1000
X6.5S0
X1S1000
X18.899S0
X.8S1000
X.2S0
X.3S1000
X12.801S0
X.699S1000
X2.901S0
X.799S1000
X14.7S0
X1S1000
X8.7S0
X.701S1000
X6.5S0
X1.099S1000
X2.917S0
X-.2Y.1
X-2.916
X-.7S1000
X-6.7S0
X-.701S1000
X-8.599S0
X-.901S1000
X-14.999S0
X-.8S1000
X-2.801S0
X-.599S1000
X-13.401S0
X-.8S1000
X-19S0
X-.7S1000
X-6.8S0
X-.599S1000
X-8.7S0
X-.8S1000
X-15.101S0
X-.8S1000
X-2.7S0
X-.599S1000
X-13.3S0
X-1S1000
X-19.101S0
X-.699S1000
X-6.7S0
X-.8S1000
X-8.401S0
X-.9S1000
X-15S0
X-.9S1000
X-2.7S0
X-.8S1000
X-13.2S0
X-.9S1000
X-19S0
X-.7S1000
X-6.7S0
X-.7S1000
X-8.6S0
X-.9S1000
X-14.9S0
X-.9S1000
X-2.8S0
X-.6S1000
X-13.3S0
X-.9S1000
X-2.916S0
X-.3Y.1
X2.916
X1S1000
X13.5S0
X.6S1000
X2.6S0
X.9S1000
X15.3S0
X.8S1000
X8.5S0
X.6S1000
X7.1S0
X.1S1000
X19S0
X1S1000
X13.5S0
X.6S1000
X2.7S0
X.9S1000
X15.2S0
X.8S1000
X8.501S0
X.599S1000
X7.3S0
X.1S1000
X19S0
X1S1000
X13.5S0
X.5S1000
X2.7S0
X.8S1000
X15.299S0
X.901S1000
X8.5S0
X.599S1000
X7S0
X.1S1000
X19.101S0
X1S1000
X13.5S0
X.599S1000
X2.7S0
X.8S1000
X15.201S0
X.899S1000
X8.5S0
X.601S1000
X2.916S0
X-.1Y.1
X-2.917
X-.399S1000
X-8.5S0
X-.801S1000
X-15.499S0
X-.8S1000
X-2.7S0
X-.401S1000
X-13.599S0
X-1.101S1000
X-26.1S0
X-.5S1000
X-8.599S0
X-.801S1000
X-15.5S0
X-.8S1000
X-2.599S0
X-.401S1000
X-13.7S0
X-1S1000
X-26.399S0
X-.401S1000
X-8.5S0
X-.7S1000
X-15.6S0
X-.8S1000
X-2.7S0
X-.4S1000
X-13.6S0
X-1.1S1000
X-26.2S0
X-.4S1000
X-8.5S0
X-.8S1000
X-15.5S0
X-.9S1000
X-2.6S0
X-.5S1000
X-13.6S0
X-1S1000
X-2.916S0
X-1.1Y.1
X2.916
X2.1S1000
X16.6S0
X.9S1000
X15.7S0
X.8S1000
X33.9S0
X2.1S1000
X16.7S0
X.8S1000
X15.8S0
X.7S1000
X34.001S0
X2.199S1000
X16.601S0
X.7S1000
X15.8S0
X.899S1000
X33.9S0
X2.1S1000
X16.601S0
X.899S1000
X15.701S0
X.899S1000
X2.917S0
X.1Y.1
X-2.916
X-.901S1000
X-15.9S0
X-.9S1000
X-16.5S0
X-2.199S1000
X-33.801S0
X-.7S1000
X-16.1S0
X-.7S1000
X-16.6S0
X-2.2S1000
X-33.7S0
X-.8S1000
X-16S0
X-.8S1000
X-16.7S0
X-2S1000
X-33.8S0
X-.8S1000
X-15.9S0
X-.9S1000
X-16.6S0
X-2.1S1000
X-2.916S0
Y.1
X2.916
X2.1S1000
X2.5S0
X.4S1000
X13.6S0
X.8S1000
X16.2S0
X.8S1000
X33.7S0
X2.1S1000
X2.5S0
X.3S1000
X13.7S0
X.8S1000
X16.1S0
X.9S1000
X33.701S0
X2.199S1000
X2.5S0
X.3S1000
X13.6S0
X.8S1000
X16.2S0
X.8S1000
X33.6S0
X2.099S1000
X2.6S0
X.3S1000
X13.6S0
X.9S1000
X16.101S0
X.899S1000
X2.917S0
X.1Y.1
X-2.916
X-.801S1000
X-16.5S0
X-.8S1000
X-13.4S0
X-.5S1000
X-2.4S0
X-2.2S1000
X-33.6S0
X-.7S1000
X-16.5S0
X-.8S1000
X-13.4S0
X-.5S1000
X-2.4S0
X-2.2S1000
X-33.4S0
X-.8S1000
X-16.6S0
X-.8S1000
X-13.4S0
X-.6S1000
X-2.4S0
X-2S1000
X-33.5S0
X-.8S1000
X-16.5S0
X-.8S1000
X-13.4S0
X-.5S1000
X-2.4S0
X-2.2S1000
X-2.916S0
Y.1
X2.916
X2.2S1000
X2.2S0
X.7S1000
X13.3S0
X.8S1000
X16.6S0
X.9S1000
X33.4S0
X1.1S1000
X.2S0
X.8S1000
X2.2S0
X.6S1000
X13.4S0
X.8S1000
X16.7S0
X.8S1000
X33.4S0
X1.3S1000
X.1S0
X.9S1000
X2.2S0
X.6S1000
X13.3S0
X.8S1000
X16.7S0
X.8S1000
X33.4S0
X2.3S1000
X2.1S0
X.7S1000
X13.3S0
X.8S1000
X16.7S0
X.8S1000
X2.917S0
X.1Y.1
X-2.917
X-.8S1000
X-16.9S0
X-.8S1000
X-13.2S0
X-.7S1000
X-2.1S0
X-2.3S1000
X-33.3S0
X-.8S1000
X-16.8S0
X-.9S1000
X-13.1S0
X-.7S1000
X-2.1S0
X-1S1000
X-.1S0
X-1.2S1000
X-33.4S0
X-.7S1000
X-17S0
X-.7S1000
X-13.4S0
X-.7S1000
X-2S0
X-2.2S1000
X-33.3S0
X-.9S1000
X-16.8S0
X-.8S1000
X-13.2S0
X-.8S1000
X-2S0
X-.9S1000
X-.1S0
X-1.3S1000
X-2.916S0
Y.1
X2.916
X.3S1000
X.1S0
X2S1000
X1.9S0
X.8S1000
X13.1S0
X.8S1000
X17.1S0
X.8S1000
X12.2S0
X.2S1000
X20.8S0
X.3S1000
X.1S0
X1.8S1000
X2S0
X.8S1000
X13.1S0
X.8S1000
X17.1S0
X.8S1000
X12.2S0
X.2S1000
X20.8S0
X.4S1000
X.2S0
X1.8S1000
X2S0
X.7S1000
X13.1S0
X.8S1000
X17.1S0
X.7S1000
X12.4S0
X.2S1000
X20.7S0
X.3S1000
X.1S0
X1.9S1000
X2S0
X.8S1000
X13.1S0
X.8S1000
X17.101S0
X.699S1000
X12.301S0
X.199S1000
X2.917S0
X.1Y.1
X-2.917
X-.299S1000
X-12.101S0
X-.8S1000
X-17.3S0
X-.8S1000
X-13S0
X-.8S1000
X-1.9S0
X-2.4S1000
X-20.6S0
X-.4S1000
X-12.1S0
X-.7S1000
X-17.4S0
X-.8S1000
X-13S0
X-.7S1000
X-2S0
X-2.3S1000
X-20.8S0
X-.4S1000
X-12S0
X-.8S1000
X-17.3S0
X-.7S1000
X-13.2S0
X-.7S1000
X-1.9S0
X-2.3S1000
X-20.7S0
X-.3S1000
X-12.1S0
X-.8S1000
X-17.3S0
X-.8S1000
X-13S0
X-.9S1000
X-1.8S0
X-2.4S1000
X-2.916S0
Y.1
X2.916
X.8S1000
X.1S0
X1.5S1000
X1.8S0
X.9S1000
X12.9S0
X.8S1000
X17.5S0
X.8S1000
X11.9S0
X.4S1000
X20.7S0
X.7S1000
X.1S0
X1.5S1000
X1.9S0
X.8S1000
X12.9S0
X.8S1000
X17.6S0
X.7S1000
X11.9S0
X.5S1000
X20.6S0
X.9S1000
X.1S0
X1.5S1000
X1.9S0
X.8S1000
X12.8S0
X.8S1000
X17.6S0
X.8S1000
X11.8S0
X.5S1000
X20.6S0
X.8S1000
X.1S0
X1.5S1000
X1.9S0
X.8S1000
X12.9S0
X.8S1000
X17.5S0
X.801S1000
X11.899S0
X.4S1000
X2.917S0
Y.1
X-2.917
X-.5S1000
X-11.7S0
X-.8S1000
X-17.7S0
X-.8S1000
X-11.5S0
X-.1S1000
X-1.2S0
X-.8S1000
X-1.9S0
X-.3S1000
X-.2S0
X-.9S1000
X-.3S0
X-.7S1000
X-20.5S0
X-.6S1000
X-11.8S0
X-.7S1000
X-17.8S0
X-.8S1000
X-11.4S0
X-.2S1000
X-1.1S0
X-.8S1000
X-1.9S0
X-.4S1000
X-.1S0
X-.9S1000
X-.2S0
X-.9S1000
X-20.6S0
X-.6S1000
X-11.6S0
X-.8S1000
X-17.8S0
X-.8S1000
X-11.5S0
X-.2S1000
X-1S0
X-.9S1000
X-1.8S0
X-.4S1000
X-.2S0
X-.9S1000
X-.2S0
X-.7S1000
X-20.7S0
X-.5S1000
X-11.7S0
X-.8S1000
X-17.7S0
X-.9S1000
X-11.5S0
X-.1S1000
X-1.1S0
X-.8S1000
X-1.9S0
X-.3S1000
X-.1S0
X-1S1000
X-.3S0
X-.7S1000
X-2.916S0
Y.1
X2.916
X.8S1000
X.2S0
X.9S1000
X.2S0
X.3S1000
X1.8S0
X1S1000
X1S0
X.2S1000
X11.3S0
X.9S1000
X17.9S0
X.8S1000
X11.5S0
X.6S1000
X20.7S0
X.7S1000
X.2S0
X.9S1000
X.2S0
X.4S1000
X1.8S0
X.9S1000
X.9S0
X.4S1000
X11.3S0
X.8S1000
X17.9S0
X.8S1000
X11.6S0
X.5S1000
X20.8S0
X.8S1000
X.2S0
X.9S1000
X.2S0
X.4S1000
X1.8S0
X.9S1000
X.9S0
X.3S1000
X11.3S0
X.7S1000
X18.1S0
X.7S1000
X11.7S0
X.6S1000
X20.5S0
X.8S1000
X.2S0
X.9S1000
X.2S0
X.3S1000
X1.9S0
X.8S1000
X1.1S0
X.2S1000
X11.4S0
X.8S1000
X17.9S0
X.8S1000
X11.6S0
X.5S1000
X2.917S0
Y.1
X-2.917
X-.5S1000
X-11.5S0
X-.799S1000
X-18.101S0
X-.8S1000
X-11.2S0
X-.4S1000
X-.9S0
X-.9S1000
X-.2S0
X-.5S1000
X-1.2S0
X-2.4S1000
X-20.6S0
X-.5S1000
X-11.5S0
X-.8S1000
X-18.2S0
X-.8S1000
X-11.1S0
X-.4S1000
X-.9S0
X-1S1000
X-.1S0
X-.5S1000
X-1.1S0
X-2.6S1000
X-20.6S0
X-.6S1000
X-11.5S0
X-.7S1000
X-18.2S0
X-.7S1000
X-11.3S0
X-.4S1000
X-.9S0
X-1S1000
X-.1S0
X-.5S1000
X-1.1S0
X-2.4S1000
X-20.7S0
X-.6S1000
X-11.4S0
X-.8S1000
X-18.1S0
X-.9S1000
X-11.1S0
X-.4S1000
X-.9S0
X-1S1000
X-.1S0
X-.5S1000
X-1.1S0
X-2.5S1000
X-2.916S0
Y.1
X2.916
X2.5S1000
X1.1S0
X.6S1000
X.1S0
X.9S1000
X.9S0
X.4S1000
X11.1S0
X.8S1000
X18.3S0
X.8S1000
X11.3S0
X.6S1000
X20.7S0
X2.4S1000
X1.1S0
X.6S1000
X.1S0
X.9S1000
X.9S0
X.4S1000
X11.2S0
X.7S1000
X18.3S0
X.8S1000
X11.3S0
X.7S1000
X20.7S0
X2.5S1000
X1.1S0
X.5S1000
X.2S0
X.8S1000
X.9S0
X.5S1000
X11S0
X.8S1000
X18.3S0
X.8S1000
X11.4S0
X.7S1000
X20.5S0
X2.5S1000
X1S0
X.6S1000
X.2S0
X.8S1000
X1S0
X.4S1000
X11.1S0
X.8S1000
X18.3S0
X.7S1000
X11.5S0
X.5S1000
X2.917S0
Y.1
X-2.917
X-.6S1000
X-11.199S0
X-.801S1000
X-18.5S0
X-.8S1000
X-9.1S0
X-.3S1000
X-1.6S0
X-.4S1000
X-1S0
X-.7S1000
X-.3S0
X-.6S1000
X-.9S0
X-2.6S1000
X-20.6S0
X-.6S1000
X-11.3S0
X-.7S1000
X-18.6S0
X-.8S1000
X-9S0
X-.3S1000
X-1.6S0
X-.4S1000
X-1S0
X-.8S1000
X-.1S0
X-.7S1000
X-.9S0
X-2.7S1000
X-20.7S0
X-.6S1000
X-11.2S0
X-.8S1000
X-18.5S0
X-.8S1000
X-9.1S0
X-.3S1000
X-1.5S0
X-.6S1000
X-.9S0
X-.7S1000
X-.2S0
X-.7S1000
X-.9S0
X-2.5S1000
X-20.6S0
X-.7S1000
X-11.2S0
X-.8S1000
X-18.5S0
X-.8S1000
X-9.1S0
X-.3S1000
X-1.6S0
X-.4S1000
X-1S0
X-.7S1000
X-.3S0
X-.6S1000
X-1S0
X-2.5S1000
X-2.916S0
Y.1
X2.916
X2.6S1000
X.9S0
X.7S1000
X.2S0
X.5S1000
X.6S0
X.1S1000
X.4S0
X.9S1000
X1.1S0
X.5S1000
X8.9S0
X.8S1000
X18.8S0
X.7S1000
X11S0
X.7S1000
X20.7S0
X2.5S1000
X.9S0
X.7S1000
X.2S0
X.5S1000
X.7S0
X.1S1000
X.4S0
X.5S1000
X.1S0
X.1S1000
X1.2S0
X.5S1000
X9S0
X.7S1000
X18.8S0
X.7S1000
X11.1S0
X.6S1000
X20.7S0
X2.7S1000
X.9S0
X.7S1000
X.2S0
X.6S1000
X.6S0
X.1S1000
X.3S0
X.6S1000
X.1S0
X.1S1000
X1.2S0
X.5S1000
X8.8S0
X.8S1000
X18.8S0
X.8S1000
X11.1S0
X.6S1000
X20.6S0
X2.7S1000
X.9S0
X.6S1000
X.2S0
X.5S1000
X1.1S0
X.7S1000
X.1S0
X.1S1000
X1.2S0
X.4S1000
X8.9S0
X.8S1000
X18.701S0
X.799S1000
X11S0
X.7S1000
X2.917S0
X-.1Y.1
X-2.917
X-.6S1000
X-10.9S0
X-.8S1000
X-18.9S0
X-.8S1000
X-8.7S0
X-.6S1000
X-1S0
X-1S1000
X-.3S0
X-.2S1000
X-.7S0
X-.4S1000
X-.2S0
X-.6S1000
X-.9S0
X-2.7S1000
X-20.7S0
X-.6S1000
X-11S0
X-.7S1000
X-19S0
X-.8S1000
X-8.7S0
X-.5S1000
X-1S0
X-1S1000
X-.3S0
X-.2S1000
X-.7S0
X-.4S1000
X-.2S0
X-.6S1000
X-.9S0
X-2.7S1000
X-20.9S0
X-.5S1000
X-10.9S0
X-.8S1000
X-19S0
X-.8S1000
X-8.7S0
X-.6S1000
X-1S0
X-1S1000
X-.3S0
X-.2S1000
X-.6S0
X-.5S1000
X-.2S0
X-.6S1000
X-.9S0
X-2.6S1000
X-20.8S0
X-.5S1000
X-11S0
X-.8S1000
X-18.9S0
X-.8S1000
X-8.7S0
X-.6S1000
X-1.1S0
X-.9S1000
X-.2S0
X-.3S1000
X-.7S0
X-.4S1000
X-.3S0
X-.5S1000
X-.9S0
X-2.7S1000
X-2.916S0
Y.1
X2.916
X2S1000
X.2S0
X.5S1000
X.8S0
X1.3S1000
X.2S0
X2S1000
X1S0
X.6S1000
X4.3S0
X.2S1000
X4.1S0
X.8S1000
X19.1S0
X.8S1000
X3.7S0
X.2S1000
X6.9S0
X.6S1000
X20.8S0
X2S1000
X.1S0
X.5S1000
X.9S0
X1.2S1000
X.2S0
X2.1S1000
X.9S0
X.6S1000
X4.3S0
X.2S1000
X4.1S0
X.8S1000
X19.1S0
X.8S1000
X3.7S0
X.2S1000
X6.9S0
X.6S1000
X20.8S0
X2.2S1000
X.1S0
X.5S1000
X.8S0
X1.3S1000
X.2S0
X2.1S1000
X.9S0
X.5S1000
X4.3S0
X.3S1000
X4.1S0
X.7S1000
X19.2S0
X.7S1000
X3.8S0
X.2S1000
X6.9S0
X.6S1000
X20.7S0
X2.1S1000
X.1S0
X.5S1000
X.8S0
X1.3S1000
X.2S0
X2S1000
X1S0
X.5S1000
X4.5S0
X.1S1000
X4.1S0
X.8S1000
X19.101S0
X.799S1000
X3.701S0
X.299S1000
X6.8S0
X.6S1000
X2.917S0
Y.1
X-2.917
X-.699S1000
X-6.701S0
X-.4S1000
X-3.6S0
X-.7S1000
X-19.3S0
X-.8S1000
X-3.9S0
X-.3S1000
X-4.4S0
X-.5S1000
X-.9S0
X-2.3S1000
X-.1S0
X-1.2S1000
X-.8S0
X-.4S1000
X-.3S0
X-2S1000
X-20.7S0
X-.7S1000
X-6.7S0
X-.3S1000
X-3.7S0
X-.8S1000
X-19.3S0
X-.7S1000
X-3.9S0
X-.4S1000
X-4.3S0
X-.5S1000
X-.9S0
X-2.2S1000
X-.2S0
X-1.2S1000
X-.9S0
X-.4S1000
X-.2S0
X-2S1000
X-20.9S0
X-.7S1000
X-6.7S0
X-.3S1000
X-3.6S0
X-.8S1000
X-19.3S0
X-.7S1000
X-4S0
X-.4S1000
X-4.2S0
X-.6S1000
X-.9S0
X-2.2S1000
X-.2S0
X-1.2S1000
X-.8S0
X-.5S1000
X-.2S0
X-1.9S1000
X-20.7S0
X-.7S1000
X-6.8S0
X-.4S1000
X-3.5S0
X-.8S1000
X-19.3S0
X-.8S1000
X-3.9S0
X-.4S1000
X-4.2S0
X-.6S1000
X-.9S0
X-2.3S1000
X-.1S0
X-1.2S1000
X-.8S0
X-.5S1000
X-.2S0
X-2S1000
X-2.916S0
Y.1
X2.916
X2S1000
X.2S0
X.7S1000
X.4S0
X3.8S1000
X.9S0
X.5S1000
X4.3S0
X.4S1000
X3.8S0
X.8S1000
X19.5S0
X.7S1000
X3.6S0
X.4S1000
X6.6S0
X.7S1000
X20.8S0
X1.9S1000
X.2S0
X.7S1000
X.4S0
X3.8S1000
X.9S0
X.6S1000
X4.2S0
X.5S1000
X3.8S0
X.7S1000
X19.6S0
X.7S1000
X3.5S0
X.3S1000
X6.7S0
X.7S1000
X20.8S0
X2S1000
X.3S0
X.6S1000
X.5S0
X3.8S1000
X.9S0
X.5S1000
X4.3S0
X.4S1000
X3.8S0
X.8S1000
X19.4S0
X.8S1000
X3.5S0
X.4S1000
X6.7S0
X.7S1000
X20.7S0
X1.9S1000
X.3S0
X.7S1000
X.5S0
X3.7S1000
X.9S0
X.6S1000
X4.3S0
X.3S1000
X3.8S0
X.8S1000
X19.5S0
X.801S1000
X3.399S0
X.5S1000
X6.7S0
X.6S1000
X2.917S0
Y.1
X-2.917
X-.699S1000
X-6.601S0
X-.5S1000
X-3.3S0
X-.8S1000
X-19.7S0
X-.8S1000
X-3.6S0
X-.5S1000
X-4.3S0
X-.5S1000
X-.9S0
X-3.9S1000
X-.3S0
X-.8S1000
X-.2S0
X-1.9S1000
X-20.7S0
X-.7S1000
X-6.6S0
X-.4S1000
X-3.5S0
X-.8S1000
X-19.6S0
X-.9S1000
X-3.5S0
X-.5S1000
X-4.3S0
X-.5S1000
X-.9S0
X-3.9S1000
X-.3S0
X-.8S1000
X-.2S0
X-2S1000
X-20.8S0
X-.7S1000
X-6.5S0
X-.5S1000
X-3.4S0
X-.8S1000
X-19.7S0
X-.7S1000
X-3.7S0
X-.5S1000
X-4.2S0
X-.6S1000
X-1S0
X-3.8S1000
X-.3S0
X-.8S1000
X-.2S0
X-1.8S1000
X-20.8S0
X-.7S1000
X-6.6S0
X-.5S1000
X-3.4S0
X-.7S1000
X-19.7S0
X-.8S1000
X-3.6S0
X-.5S1000
X-4.3S0
X-.5S1000
X-.9S0
X-3.9S1000
X-.3S0
X-.8S1000
X-.2S0
X-1.9S1000
X-2.916S0
Y.1
X2.916
X2.9S1000
X.3S0
X3.9S1000
X.9S0
X.5S1000
X4.3S0
X.6S1000
X3.4S0
X.8S1000
X19.9S0
X.7S1000
X3.3S0
X.6S1000
X6.4S0
X.7S1000
X20.9S0
X2.4S1000
X.1S0
X.3S1000
X.3S0
X3.9S1000
X1S0
X.3S1000
X4.4S0
X.6S1000
X3.5S0
X.7S1000
X20S0
X.8S1000
X3.2S0
X.5S1000
X6.4S0
X.8S1000
X20.9S0
X2.5S1000
X.1S0
X.3S1000
X.3S0
X3.8S1000
X1S0
X.5S1000
X4.4S0
X.4S1000
X3.5S0
X.7S1000
X19.9S0
X.8S1000
X3.4S0
X.5S1000
X6.4S0
X.7S1000
X20.8S0
X3S1000
X.2S0
X3.9S1000
X1S0
X.4S1000
X4.4S0
X.5S1000
X3.5S0
X.7S1000
X19.9S0
X.8S1000
X3.2S0
X.601S1000
X6.5S0
X.699S1000
X2.917S0
X-.1Y.1
X-2.917
X-.7S1000
X-6.3S0
X-.7S1000
X-3.2S0
X-.699S1000
X-20.001S0
X-.8S1000
X-3.3S0
X-.6S1000
X-4.5S0
X-.2S1000
X-1.2S0
X-3.9S1000
X-.1S0
X-3S1000
X-20.9S0
X-.6S1000
X-6.3S0
X-.7S1000
X-3.2S0
X-.8S1000
X-20.1S0
X-.7S1000
X-3.3S0
X-.6S1000
X-4.4S0
X-.2S1000
X-1.1S0
X-4S1000
X-.2S0
X-.3S1000
X-.1S0
X-2.6S1000
X-20.9S0
X-.7S1000
X-6.3S0
X-.6S1000
X-3.2S0
X-.7S1000
X-20.1S0
X-.8S1000
X-3.4S0
X-.6S1000
X-4.4S0
X-.2S1000
X-1.1S0
X-4S1000
X-.1S0
X-.4S1000
X-.1S0
X-2.4S1000
X-20.9S0
X-.7S1000
X-6.4S0
X-.5S1000
X-3.3S0
X-.7S1000
X-20.1S0
X-.7S1000
X-3.4S0
X-.6S1000
X-4.4S0
X-.3S1000
X-1S0
X-4S1000
X-.1S0
X-.4S1000
X-.1S0
X-2.5S1000
X-2.916S0
Y.1
X2.916
X6.9S1000
X5.9S0
X.7S1000
X3.2S0
X.7S1000
X20.2S0
X.8S1000
X3.1S0
X.7S1000
X6.2S0
X.7S1000
X21S0
X6.8S1000
X6S0
X.6S1000
X3.2S0
X.8S1000
X20.2S0
X.7S1000
X3.2S0
X.6S1000
X6.2S0
X.7S1000
X21.1S0
X6.9S1000
X5.9S0
X.7S1000
X3.1S0
X.8S1000
X20.2S0
X.7S1000
X3.3S0
X.6S1000
X6.2S0
X.7S1000
X20.9S0
X6.8S1000
X6.1S0
X.6S1000
X3.2S0
X.7S1000
X20.3S0
X.7S1000
X3.1S0
X.7S1000
X6.3S0
X.601S1000
X2.916S0
Y.1
X-2.916
X-.701S1000
X-6.1S0
X-.699S1000
X-3.101S0
X-.8S1000
X-20.3S0
X-.8S1000
X-3S0
X-.8S1000
X-5.9S0
X-6.9S1000
X-20.9S0
X-.7S1000
X-6.1S0
X-.7S1000
X-3.1S0
X-.8S1000
X-20.5S0
X-.7S1000
X-3S0
X-.6S1000
X-6.1S0
X-6.9S1000
X-21S0
X-.6S1000
X-6.2S0
X-.7S1000
X-3.1S0
X-.7S1000
X-20.4S0
X-.8S1000
X-3.1S0
X-.7S1000
X-6S0
X-6.7S1000
X-21S0
X-.7S1000
X-6.2S0
X-.6S1000
X-3.1S0
X-.8S1000
X-20.4S0
X-.7S1000
X-3S0
X-.7S1000
X-6S0
X-6.9S1000
X-2.916S0
Y.1
X2.916
X6.6S1000
X6.3S0
X.7S1000
X2.9S0
X.7S1000
X20.7S0
X.7S1000
X3S0
X.7S1000
X6.1S0
X.7S1000
X1.8S0
X.3S1000
X18.9S0
X6.5S1000
X6.3S0
X.7S1000
X3S0
X.7S1000
X20.5S0
X.9S1000
X2.9S0
X.7S1000
X6.1S0
X.7S1000
X1.8S0
X.4S1000
X18.8S0
X6.7S1000
X6.3S0
X.7S1000
X2.9S0
X.7S1000
X20.6S0
X.7S1000
X3.1S0
X.7S1000
X6.1S0
X.7S1000
X1.8S0
X.4S1000
X18.7S0
X6.7S1000
X6.2S0
X.7S1000
X2.9S0
X.8S1000
X20.5S0
X.801S1000
X3.099S0
X.7S1000
X6S0
X.701S1000
X1.799S0
X.3S1000
X2.917S0
X.1Y.1
X-2.917
X-.5S1000
X-1.699S0
X-.801S1000
X-5.9S0
X-.7S1000
X-3S0
X-.7S1000
X-20.8S0
X-.7S1000
X-2.9S0
X-.6S1000
X-6.3S0
X-.6S1000
X-.1S0
X-6.1S1000
X-18.6S0
X-.5S1000
X-1.7S0
X-.7S1000
X-6.1S0
X-.6S1000
X-3S0
X-.8S1000
X-20.8S0
X-.8S1000
X-2.7S0
X-.7S1000
X-6.3S0
X-.5S1000
X-.1S0
X-6S1000
X-18.9S0
X-.5S1000
X-1.7S0
X-.7S1000
X-6.1S0
X-.6S1000
X-3S0
X-.7S1000
X-20.8S0
X-.7S1000
X-2.9S0
X-.7S1000
X-6.3S0
X-.6S1000
X-.1S0
X-5.8S1000
X-18.8S0
X-.5S1000
X-1.7S0
X-.7S1000
X-6.1S0
X-.7S1000
X-3S0
X-.7S1000
X-20.7S0
X-.8S1000
X-2.8S0
X-.6S1000
X-6.4S0
X-.4S1000
X-.1S0
X-.1S1000
X-.1S0
X-5.9S1000
X-2.916S0
Y.1
X2.916
X5.3S1000
X.2S0
X.3S1000
X.4S0
X.4S1000
X6.4S0
X.7S1000
X2.7S0
X.7S1000
X21S0
X.6S1000
X2.9S0
X.8S1000
X3.6S0
X.2S1000
X2.1S0
X.8S1000
X1.7S0
X.6S1000
X18.7S0
X5.3S1000
X.1S0
X.3S1000
X.4S0
X.5S1000
X6.3S0
X.6S1000
X2.8S0
X.7S1000
X21S0
X.7S1000
X2.8S0
X.8S1000
X3.6S0
X.2S1000
X2.1S0
X.8S1000
X1.7S0
X.5S1000
X18.8S0
X5.5S1000
X.1S0
X.3S1000
X.3S0
X.6S1000
X6.2S0
X.7S1000
X2.6S0
X.8S1000
X20.9S0
X.8S1000
X3S0
X.6S1000
X3.7S0
X.2S1000
X2.1S0
X.8S1000
X1.6S0
X.6S1000
X18.7S0
X5.4S1000
X.2S0
X.3S1000
X.3S0
X.5S1000
X6.2S0
X.7S1000
X2.8S0
X.7S1000
X20.9S0
X.8S1000
X2.9S0
X.7S1000
X3.6S0
X.2S1000
X2.1S0
X.801S1000
X1.699S0
X.6S1000
X2.917S0
Y.1
X-2.917
X-.6S1000
X-1.699S0
X-.801S1000
X-.3S0
X-.3S1000
X-1.4S0
X-.4S1000
X-.7S0
X-.2S1000
X-2.6S0
X-.7S1000
X-2.8S0
X-.799S1000
X-21.101S0
X-.7S1000
X-2.6S0
X-.7S1000
X-6.3S0
X-.5S1000
X-1.1S0
X-4S1000
X-.2S0
X-.9S1000
X-18.7S0
X-.6S1000
X-1.6S0
X-.8S1000
X-.3S0
X-.3S1000
X-1.4S0
X-.5S1000
X-.6S0
X-.2S1000
X-2.6S0
X-.8S1000
X-2.8S0
X-.8S1000
X-21.1S0
X-.7S1000
X-2.5S0
X-.7S1000
X-6.4S0
X-.5S1000
X-1S0
X-3.9S1000
X-.3S0
X-.9S1000
X-18.9S0
X-.5S1000
X-1.7S0
X-.8S1000
X-.3S0
X-.3S1000
X-1.4S0
X-.4S1000
X-.7S0
X-.2S1000
X-2.6S0
X-.7S1000
X-2.8S0
X-.7S1000
X-21.1S0
X-.9S1000
X-2.5S0
X-.7S1000
X-6.4S0
X-.4S1000
X-1.1S0
X-3.9S1000
X-.2S0
X-.9S1000
X-18.7S0
X-.6S1000
X-1.7S0
X-.8S1000
X-.2S0
X-.4S1000
X-1.3S0
X-.5S1000
X-.7S0
X-.3S1000
X-2.5S0
X-.8S1000
X-2.8S0
X-.7S1000
X-21.1S0
X-.8S1000
X-2.5S0
X-.7S1000
X-6.4S0
X-.4S1000
X-1.1S0
X-3.9S1000
X-.3S0
X-.9S1000
X-2.916S0
Y.1
X2.916
X.9S1000
X.4S0
X3.7S1000
X1.2S0
X.4S1000
X6.4S0
X.7S1000
X2.5S0
X.7S1000
X21.2S0
X.8S1000
X2.7S0
X.9S1000
X2.4S0
X.4S1000
X.5S0
X.6S1000
X1.2S0
X.5S1000
X.2S0
X.8S1000
X1.7S0
X.6S1000
X18.7S0
X.8S1000
X.3S0
X3.8S1000
X1.2S0
X.4S1000
X6.5S0
X.7S1000
X2.4S0
X.8S1000
X21.2S0
X.7S1000
X2.7S0
X.9S1000
X2.4S0
X.4S1000
X.5S0
X.6S1000
X1.2S0
X.5S1000
X.2S0
X.8S1000
X1.7S0
X.5S1000
X18.8S0
X1S1000
X.3S0
X3.8S1000
X1.2S0
X.4S1000
X6.5S0
X.7S1000
X2.3S0
X.7S1000
X21.3S0
X.8S1000
X2.8S0
X.7S1000
X2.5S0
X.4S1000
X.5S0
X.6S1000
X1.2S0
X.5S1000
X.2S0
X.7S1000
X1.7S0
X.6S1000
X18.7S0
X.9S1000
X.3S0
X3.9S1000
X1.1S0
X.4S1000
X6.5S0
X.7S1000
X2.4S0
X.7S1000
X21.3S0
X.7S1000
X2.8S0
X.7S1000
X2.5S0
X.4S1000
X.5S0
X.6S1000
X1.201S0
X.5S1000
X.199S0
X.7S1000
X1.8S0
X.6S1000
X2.917S0
X-.1Y.1
X-2.917
X-.5S1000
X-1.699S0
X-.801S1000
X-.3S0
X-.399S1000
X-1.101S0
X-.7S1000
X-.4S0
X-.7S1000
X-2.099S0
X-.701S1000
X-2.9S0
X-.8S1000
X-21.3S0
X-.9S1000
X-2.2S0
X-.7S1000
X-6.5S0
X-.3S1000
X-1.4S0
X-3.7S1000
X-.3S0
X-.9S1000
X-18.7S0
X-.5S1000
X-1.8S0
X-.7S1000
X-.2S0
X-.5S1000
X-1.1S0
X-.7S1000
X-.5S0
X-.6S1000
X-2.2S0
X-.7S1000
X-2.9S0
X-.7S1000
X-21.5S0
X-.7S1000
X-2.2S0
X-.7S1000
X-6.5S0
X-.4S1000
X-1.3S0
X-3.7S1000
X-.4S0
X-.9S1000
X-18.8S0
X-.5S1000
X-1.8S0
X-.7S1000
X-.2S0
X-.5S1000
X-1.1S0
X-.7S1000
X-.4S0
X-.7S1000
X-2.2S0
X-.7S1000
X-2.7S0
X-.8S1000
X-21.4S0
X-.9S1000
X-2.2S0
X-.6S1000
X-6.6S0
X-.3S1000
X-1.4S0
X-3.7S1000
X-.4S0
X-.7S1000
X-18.7S0
X-.6S1000
X-1.8S0
X-.7S1000
X-.2S0
X-.5S1000
X-1.1S0
X-.7S1000
X-.4S0
X-.6S1000
X-2.2S0
X-.7S1000
X-3S0
X-.6S1000
X-21.4S0
X-.9S1000
X-2.2S0
X-.7S1000
X-6.6S0
X-.2S1000
X-1.5S0
X-3.5S1000
X-.5S0
X-.8S1000
X-2.916S0
Y.1
X2.916
X.8S1000
X.4S0
X3.7S1000
X.2S0
X.1S1000
X1.1S0
X.2S1000
X6.7S0
X.7S1000
X2S0
X.9S1000
X21.5S0
X.7S1000
X2.9S0
X.7S1000
X2.1S0
X.6S1000
X.5S0
X.7S1000
X1.2S0
X.4S1000
X.2S0
X.7S1000
X1.8S0
X.6S1000
X1.7S0
X.1S1000
X16.9S0
X.7S1000
X.4S0
X3.7S1000
X.2S0
X.1S1000
X1.1S0
X.1S1000
X6.8S0
X.7S1000
X2S0
X.9S1000
X21.6S0
X.7S1000
X2.8S0
X.7S1000
X2.1S0
X.7S1000
X.4S0
X.7S1000
X1.1S0
X.5S1000
X.2S0
X.7S1000
X1.8S0
X.5S1000
X1.7S0
X.1S1000
X17.1S0
X.8S1000
X.4S0
X3.7S1000
X.1S0
X.1S1000
X8.1S0
X.7S1000
X2S0
X.8S1000
X21.6S0
X.8S1000
X2.8S0
X.7S1000
X2.1S0
X.7S1000
X.4S0
X.7S1000
X1.1S0
X.5S1000
X.2S0
X.7S1000
X1.8S0
X.5S1000
X1.7S0
X.1S1000
X16.9S0
X.8S1000
X.5S0
X3.6S1000
X.2S0
X.1S1000
X1.2S0
X.1S1000
X6.7S0
X.7S1000
X2.1S0
X.8S1000
X21.6S0
X.701S1000
X2.799S0
X.701S1000
X2.199S0
X.6S1000
X.5S0
X.701S1000
X1S0
X.5S1000
X.199S0
X.7S1000
X1.8S0
X.6S1000
X1.701S0
X.099S1000
X2.917S0
X.1Y.1
X-2.917
X-.3S1000
X-1.6S0
X-.5S1000
X-1.9S0
X-.7S1000
X-.1S0
X-.599S1000
X-1S0
X-.801S1000
X-.4S0
X-.7S1000
X-2S0
X-.8S1000
X-2.7S0
X-.7S1000
X-21.8S0
X-.8S1000
X-1.9S0
X-.8S1000
X-7.9S0
X-.8S1000
X-.2S0
X-1.1S1000
X-.1S0
X-1.9S1000
X-.4S0
X-.8S1000
X-16.7S0
X-.4S1000
X-1.6S0
X-.4S1000
X-2S0
X-.6S1000
X-.1S0
X-.6S1000
X-1S0
X-.8S1000
X-.4S0
X-.7S1000
X-2S0
X-.8S1000
X-2.8S0
X-.8S1000
X-21.7S0
X-.8S1000
X-1.9S0
X-.7S1000
X-7.9S0
X-.8S1000
X-.2S0
X-1.1S1000
X-.1S0
X-1.9S1000
X-.4S0
X-.9S1000
X-16.8S0
X-.4S1000
X-1.6S0
X-.4S1000
X-2S0
X-.6S1000
X-.1S0
X-.6S1000
X-1S0
X-.8S1000
X-.4S0
X-.7S1000
X-2S0
X-.8S1000
X-2.7S0
X-.7S1000
X-21.8S0
X-.8S1000
X-2S0
X-.7S1000
X-7.9S0
X-.8S1000
X-.2S0
X-3.1S1000
X-.4S0
X-.7S1000
X-16.9S0
X-.3S1000
X-1.6S0
X-.4S1000
X-1.9S0
X-.7S1000
X-.2S0
X-.5S1000
X-1S0
X-.8S1000
X-.4S0
X-.7S1000
X-2.1S0
X-.7S1000
X-2.7S0
X-.8S1000
X-21.7S0
X-.8S1000
X-2S0
X-.8S1000
X-7.8S0
X-.8S1000
X-.2S0
X-1S1000
X-.1S0
X-2S1000
X-.4S0
X-.8S1000
X-2.916S0
Y.1
X2.916
X.8S1000
X.4S0
X1.9S1000
X.2S0
X1S1000
X.2S0
X.7S1000
X8S0
X.8S1000
X.6S0
X.1S1000
X1.1S0
X.7S1000
X22S0
X.7S1000
X2.8S0
X.6S1000
X.7S0
X.1S1000
X1.2S0
X.8S1000
X.4S0
X.9S1000
X1S0
X1.2S1000
X3.9S0
X.5S1000
X16.8S0
X.8S1000
X.3S0
X1.9S1000
X.2S0
X1S1000
X.2S0
X.8S1000
X7.9S0
X.7S1000
X.7S0
X.1S1000
X1.2S0
X.7S1000
X22S0
X.7S1000
X2.6S0
X.8S1000
X.6S0
X.1S1000
X1.2S0
X.8S1000
X.4S0
X.9S1000
X.9S0
X1.4S1000
X3.9S0
X.4S1000
X16.9S0
X.8S1000
X.4S0
X1.9S1000
X.2S0
X1S1000
X.2S0
X.8S1000
X7.9S0
X.7S1000
X.7S0
X.1S1000
X1.1S0
X.7S1000
X21.9S0
X.8S1000
X2.7S0
X.8S1000
X1.9S0
X.8S1000
X.4S0
X.9S1000
X.9S0
X1.3S1000
X2.3S0
X.1S1000
X1.6S0
X.4S1000
X16.7S0
X.8S1000
X.4S0
X1.9S1000
X.3S0
X.9S1000
X.2S0
X.8S1000
X7.9S0
X.8S1000
X1.8S0
X.8S1000
X21.9S0
X.7S1000
X2.7S0
X.8S1000
X.6S0
X.1S1000
X1.3S0
X.7S1000
X.4S0
X.9S1000
X.901S0
X1.299S1000
X4S0
X.4S1000
X2.917S0
X.5Y.1
X-2.917
X-.1S1000
X-.4S0
X-.5S1000
X-3.9S0
X-1.299S1000
X-.801S0
X-.9S1000
X-.5S0
X-.799S1000
X-1.101S0
X-.3S1000
X-.5S0
X-.7S1000
X-2.7S0
X-.699S1000
X-22.101S0
X-.7S1000
X-1.1S0
X-.1S1000
X-.6S0
X-.7S1000
X-8S0
X-.8S1000
X-.1S0
X-1S1000
X-.4S0
X-.3S1000
X-.1S0
X-1.4S1000
X-.3S0
X-.9S1000
X-16.2S0
X-.1S1000
X-.4S0
X-.5S1000
X-3.9S0
X-1.3S1000
X-.9S0
X-.9S1000
X-.4S0
X-.9S1000
X-1.1S0
X-.2S1000
X-.5S0
X-.7S1000
X-2.7S0
X-.8S1000
X-22.1S0
X-.7S1000
X-1S0
X-.2S1000
X-.6S0
X-.6S1000
X-8S0
X-.8S1000
X-.2S0
X-1S1000
X-.3S0
X-.3S1000
X-.1S0
X-1.5S1000
X-.2S0
X-1S1000
X-16.2S0
X-.2S1000
X-.4S0
X-.5S1000
X-3.9S0
X-1.3S1000
X-.8S0
X-1S1000
X-.4S0
X-.8S1000
X-1.1S0
X-.2S1000
X-.6S0
X-.7S1000
X-2.6S0
X-.8S1000
X-22S0
X-.8S1000
X-1S0
X-.3S1000
X-.6S0
X-.6S1000
X-8S0
X-.8S1000
X-.1S0
X-1S1000
X-.3S0
X-.4S1000
X-.1S0
X-1.4S1000
X-.3S0
X-.8S1000
X-16.3S0
X-.1S1000
X-.5S0
X-.4S1000
X-4S0
X-1.2S1000
X-.9S0
X-.9S1000
X-.5S0
X-.7S1000
X-1.1S0
X-.3S1000
X-.5S0
X-.7S1000
X-2.8S0
X-.6S1000
X-22.1S0
X-.7S1000
X-1.1S0
X-.2S1000
X-.5S0
X-.7S1000
X-8S0
X-.8S1000
X-.1S0
X-1S1000
X-.4S0
X-.3S1000
X-.2S0
X-1.4S1000
X-.2S0
X-.9S1000
X-2.916S0
Y.1
X2.916
X.9S1000
X.1S0
X2.1S1000
X.4S0
X.9S1000
X.1S0
X.8S1000
X8S0
X.8S1000
X.3S0
X.4S1000
X1S0
X.6S1000
X22.3S0
X.6S1000
X2.7S0
X.8S1000
X.4S0
X.3S1000
X1S0
X.8S1000
X.5S0
X1S1000
X.8S0
X1.2S1000
X4S0
X.5S1000
X.3S0
X.3S1000
X16.2S0
X3S1000
X.4S0
X.8S1000
X.2S0
X.8S1000
X8S0
X.8S1000
X.3S0
X.4S1000
X1S0
X.7S1000
X22.2S0
X.7S1000
X2.7S0
X.8S1000
X.3S0
X.3S1000
X1S0
X.8S1000
X.5S0
X1S1000
X.8S0
X1.2S1000
X4S0
X.6S1000
X.2S0
X.4S1000
X16.1S0
X3.1S1000
X.5S0
X.9S1000
X.1S0
X.8S1000
X8S0
X.8S1000
X.3S0
X.4S1000
X.8S0
X.7S1000
X22.3S0
X.8S1000
X2.7S0
X.7S1000
X.4S0
X.3S1000
X1.1S0
X.7S1000
X.5S0
X1S1000
X.8S0
X1.2S1000
X3.9S0
X.6S1000
X.3S0
X.4S1000
X16S0
X1S1000
X.1S0
X1.9S1000
X.5S0
X.9S1000
X.1S0
X.8S1000
X8.1S0
X.7S1000
X.3S0
X.4S1000
X.9S0
X.8S1000
X22.101S0
X.799S1000
X2.701S0
X.699S1000
X.4S0
X.401S1000
X1S0
X.699S1000
X.5S0
X1S1000
X.801S0
X1.199S1000
X4S0
X.5S1000
X.301S0
X.399S1000
X2.917S0
X.1Y.1
X-2.916
X-.5S1000
X-.201S0
X-.6S1000
X-4S0
X-1.1S1000
X-.8S0
X-1.1S1000
X-.5S0
X-.8S1000
X-1S0
X-.399S1000
X-.201S0
X-.799S1000
X-2.601S0
X-.7S1000
X-22.4S0
X-.8S1000
X-.7S0
X-.6S1000
X-.2S0
X-.7S1000
X-8.1S0
X-.8S1000
X-.1S0
X-.7S1000
X-.7S0
X-3S1000
X-16S0
X-.4S1000
X-.2S0
X-.6S1000
X-4S0
X-1.2S1000
X-.8S0
X-1S1000
X-.6S0
X-.7S1000
X-1S0
X-.4S1000
X-.3S0
X-.7S1000
X-2.8S0
X-.7S1000
X-22.3S0
X-.7S1000
X-.7S0
X-.6S1000
X-.1S0
X-.9S1000
X-8S0
X-.8S1000
X-.2S0
X-.6S1000
X-.7S0
X-3S1000
X-16.1S0
X-.5S1000
X-.2S0
X-.6S1000
X-4S0
X-1.2S1000
X-.8S0
X-1S1000
X-.5S0
X-.8S1000
X-.9S0
X-.5S1000
X-.2S0
X-.8S1000
X-2.6S0
X-.7S1000
X-22.4S0
X-.7S1000
X-.8S0
X-.6S1000
X-.1S0
X-.8S1000
X-8.1S0
X-.8S1000
X-.1S0
X-.7S1000
X-.7S0
X-2.9S1000
X-16.1S0
X-.4S1000
X-.2S0
X-.6S1000
X-4.1S0
X-1S1000
X-.9S0
X-1S1000
X-.5S0
X-.8S1000
X-.9S0
X-.5S1000
X-.2S0
X-.8S1000
X-2.7S0
X-.7S1000
X-22.3S0
X-.7S1000
X-.9S0
X-.5S1000
X-.1S0
X-.8S1000
X-8.1S0
X-.8S1000
X-.1S0
X-.7S1000
X-.7S0
X-3S1000
X-2.916S0
Y.1
X2.916
X2.9S1000
X.8S0
X.7S1000
X.1S0
X.9S1000
X8S0
X.7S1000
X.2S0
X.6S1000
X.6S0
X.7S1000
X22.6S0
X.7S1000
X2.5S0
X.9S1000
X.1S0
X.6S1000
X.8S0
X.9S1000
X.6S0
X.9S1000
X.9S0
X1.1S1000
X.1S0
X.1S1000
X3.9S0
X.5S1000
X.1S0
X.5S1000
X16.1S0
X2.8S1000
X.8S0
X.6S1000
X.2S0
X.9S1000
X8S0
X.8S1000
X.1S0
X.6S1000
X.7S0
X.7S1000
X22.6S0
X.6S1000
X2.5S0
X.9S1000
X.2S0
X.5S1000
X.8S0
X.9S1000
X.6S0
X.9S1000
X.9S0
X1.1S1000
X.1S0
X.1S1000
X3.9S0
X1.2S1000
X16S0
X3.1S1000
X.7S0
X.7S1000
X.1S0
X.8S1000
X8.1S0
X.8S1000
X.1S0
X.6S1000
X.6S0
X.7S1000
X22.5S0
X.8S1000
X2.5S0
X.9S1000
X.2S0
X.4S1000
X.9S0
X.8S1000
X.7S0
X.9S1000
X.9S0
X1.1S1000
X.1S0
X.1S1000
X.1S0
X.1S1000
X3.7S0
X1.1S1000
X16S0
X2.9S1000
X.8S0
X.7S1000
X.1S0
X.9S1000
X8S0
X.8S1000
X.1S0
X.6S1000
X.7S0
X.7S1000
X22.5S0
X.7S1000
X2.5S0
X.9S1000
X.201S0
X.5S1000
X.799S0
X.9S1000
X.6S0
X.9S1000
X.9S0
X1.2S1000
X.201S0
X.099S1000
X3.7S0
X1.201S1000
X2.916S0
Y.1
X-2.916
X-1.201S1000
X-3.7S0
X-1.4S1000
X-.9S0
X-.9S1000
X-.8S0
X-.8S1000
X-.9S0
X-.5S1000
X-.1S0
X-.9S1000
X-2.399S0
X-.701S1000
X-22.7S0
X-.7S1000
X-.6S0
X-.6S1000
X-.1S0
X-.8S1000
X-8S0
X-.9S1000
X-.2S0
X-.5S1000
X-1S0
X-2.8S1000
X-16S0
X-1.1S1000
X-3.7S0
X-1.4S1000
X-1S0
X-.8S1000
X-.8S0
X-.8S1000
X-.9S0
X-.5S1000
X-.2S0
X-.8S1000
X-2.4S0
X-.7S1000
X-22.8S0
X-.7S1000
X-.5S0
X-.6S1000
X-.1S0
X-.8S1000
X-8S0
X-.9S1000
X-.2S0
X-.6S1000
X-.9S0
X-2.8S1000
X-16.1S0
X-1.2S1000
X-3.6S0
X-1.5S1000
X-.9S0
X-.9S1000
X-.7S0
X-.9S1000
X-.8S0
X-.6S1000
X-.1S0
X-.9S1000
X-2.4S0
X-.7S1000
X-22.7S0
X-.6S1000
X-.8S0
X-.5S1000
X-.1S0
X-.8S1000
X-8S0
X-.9S1000
X-.1S0
X-.6S1000
X-1S0
X-2.7S1000
X-16.1S0
X-1.1S1000
X-3.6S0
X-1.5S1000
X-.9S0
X-1S1000
X-.6S0
X-1S1000
X-.7S0
X-.6S1000
X-.1S0
X-.9S1000
X-2.4S0
X-.7S1000
X-22.7S0
X-.7S1000
X-.7S0
X-.5S1000
X-.1S0
X-.8S1000
X-8S0
X-.9S1000
X-.2S0
X-.6S1000
X-.9S0
X-2.8S1000
X-2.916S0
Y.1
X2.916
X2.1S1000
X.2S0
X.5S1000
X1S0
X.2S1000
X.5S0
X.9S1000
X8.1S0
X.7S1000
X.1S0
X.5S1000
X.6S0
X.7S1000
X22.9S0
X.7S1000
X2.5S0
X.7S1000
X.1S0
X.6S1000
X.7S0
X1S1000
X.7S0
X1S1000
X.8S0
X1.5S1000
X3.2S0
X1.5S1000
X16.1S0
X2.1S1000
X.1S0
X.5S1000
X1S0
X.1S1000
X.6S0
X.9S1000
X8.1S0
X.7S1000
X.1S0
X.6S1000
X.6S0
X.6S1000
X22.9S0
X.7S1000
X2.5S0
X.7S1000
X.1S0
X.6S1000
X.8S0
X.9S1000
X.8S0
X.8S1000
X.9S0
X1.5S1000
X3.2S0
X1.6S1000
X16S0
X2.3S1000
X.1S0
X.5S1000
X1S0
X.1S1000
X.6S0
X.9S1000
X8.1S0
X.7S1000
X.1S0
X.5S1000
X.6S0
X.6S1000
X22.9S0
X.7S1000
X2.6S0
X.7S1000
X.1S0
X.5S1000
X.9S0
X.8S1000
X.9S0
X.8S1000
X.9S0
X1.5S1000
X3.2S0
X1.5S1000
X16S0
X2.2S1000
X.1S0
X.5S1000
X1S0
X.2S1000
X.4S0
X1S1000
X8.1S0
X.7S1000
X.1S0
X.6S1000
X.5S0
X.8S1000
X22.8S0
X.7S1000
X2.5S0
X.7S1000
X.201S0
X.5S1000
X.799S0
X.9S1000
X.7S0
X.9S1000
X1S0
X1.4S1000
X3.2S0
X1.601S1000
X2.916S0
Y.1
X-2.916
X-1.601S1000
X-3.2S0
X-1.4S1000
X-.9S0
X-.899S1000
X-.801S0
X-.9S1000
X-.799S0
X-1.401S1000
X-2.4S0
X-.699S1000
X-23.001S0
X-.8S1000
X-.4S0
X-1.4S1000
X-8.1S0
X-.9S1000
X-1.6S0
X-.5S1000
X-.2S0
X-2.2S1000
X-15.9S0
X-1.7S1000
X-3.1S0
X-1.4S1000
X-.9S0
X-.9S1000
X-.9S0
X-.8S1000
X-.8S0
X-1.4S1000
X-2.5S0
X-.8S1000
X-22.9S0
X-.7S1000
X-.4S0
X-.6S1000
X-.1S0
X-.7S1000
X-8.1S0
X-1S1000
X-1.6S0
X-.5S1000
X-.2S0
X-2.2S1000
X-16S0
X-1.7S1000
X-3.1S0
X-1.4S1000
X-.9S0
X-.9S1000
X-.9S0
X-.8S1000
X-.8S0
X-.6S1000
X-.1S0
X-.6S1000
X-2.5S0
X-.7S1000
X-23S0
X-.7S1000
X-.5S0
X-.6S1000
X-.1S0
X-.7S1000
X-8.1S0
X-.9S1000
X-.6S0
X-.1S1000
X-1S0
X-.5S1000
X-.2S0
X-2S1000
X-16.1S0
X-1.6S1000
X-3.1S0
X-1.4S1000
X-.9S0
X-1S1000
X-.8S0
X-.8S1000
X-.8S0
X-.6S1000
X-.1S0
X-.7S1000
X-2.5S0
X-.7S1000
X-23S0
X-.7S1000
X-.5S0
X-1.3S1000
X-8.1S0
X-.9S1000
X-.6S0
X-.1S1000
X-1S0
X-.4S1000
X-.3S0
X-2.1S1000
X-2.916S0
Y.1
X2.916
X2.8S1000
X1.7S0
X.9S1000
X8.1S0
X1.4S1000
X.4S0
X.6S1000
X23.2S0
X.7S1000
X2.4S0
X1.4S1000
X.7S0
X.9S1000
X.8S0
X1.1S1000
X.9S0
X1.3S1000
X3.1S0
X1.6S1000
X16.1S0
X2.7S1000
X1.7S0
X.9S1000
X8.1S0
X1.4S1000
X.5S0
X.7S1000
X23S0
X.7S1000
X2.4S0
X1.4S1000
X.8S0
X.7S1000
X.9S0
X1.2S1000
X.7S0
X1.4S1000
X3S0
X1.8S1000
X16.1S0
X2.8S1000
X1.7S0
X.9S1000
X8.1S0
X1.4S1000
X.3S0
X.7S1000
X23.1S0
X.8S1000
X2.4S0
X1.3S1000
X.9S0
X.7S1000
X1S0
X1.1S1000
X.7S0
X1.4S1000
X3S0
X1.7S1000
X16S0
X2.8S1000
X1.7S0
X.9S1000
X8.2S0
X1.3S1000
X.4S0
X.6S1000
X23.201S0
X.699S1000
X2.4S0
X1.3S1000
X.9S0
X.8S1000
X.901S0
X1.099S1000
X.8S0
X1.3S1000
X3.1S0
X1.6S1000
X2.917S0
X.1Y.1
X-2.916
X-1.701S1000
X-3.1S0
X-1.3S1000
X-.8S0
X-1.099S1000
X-.901S0
X-.8S1000
X-.9S0
X-1.2S1000
X-2.4S0
X-.7S1000
X-23.2S0
X-.8S1000
X-.4S0
X-1.2S1000
X-8.2S0
X-.9S1000
X-1.7S0
X-2.8S1000
X-16S0
X-1.7S1000
X-3S0
X-1.4S1000
X-.7S0
X-1.1S1000
X-.9S0
X-.8S1000
X-.9S0
X-1.2S1000
X-2.4S0
X-.8S1000
X-23.3S0
X-.7S1000
X-.3S0
X-1.3S1000
X-8.2S0
X-.7S1000
X-1.9S0
X-2.6S1000
X-16.2S0
X-1.8S1000
X-3S0
X-1.4S1000
X-.7S0
X-1.1S1000
X-1S0
X-.7S1000
X-.9S0
X-1.2S1000
X-2.4S0
X-.7S1000
X-23.3S0
X-.6S1000
X-.5S0
X-1.3S1000
X-8.2S0
X-.7S1000
X-1.8S0
X-2.7S1000
X-16.1S0
X-1.7S1000
X-3S0
X-1.3S1000
X-.9S0
X-1S1000
X-1S0
X-.8S1000
X-.8S0
X-1.3S1000
X-2.3S0
X-.7S1000
X-23.3S0
X-.7S1000
X-.4S0
X-1.2S1000
X-8.3S0
X-.8S1000
X-1.7S0
X-2.8S1000
X-2.916S0
X.1Y.1
X2.916
X2.6S1000
X1.9S0
X.7S1000
X8.3S0
X1.1S1000
X.4S0
X.7S1000
X23.4S0
X.7S1000
X2.5S0
X1S1000
X1S0
X.7S1000
X1.1S0
X.9S1000
X.8S0
X1.3S1000
X3.1S0
X1.7S1000
X16.1S0
X2.6S1000
X1.9S0
X.7S1000
X8.4S0
X1S1000
X.5S0
X.7S1000
X23.4S0
X.7S1000
X2.3S0
X1.2S1000
X.9S0
X.8S1000
X1S0
X1S1000
X.7S0
X1.3S1000
X3.1S0
X1.8S1000
X16.2S0
X2.6S1000
X1.9S0
X.7S1000
X8.3S0
X1.1S1000
X.4S0
X.6S1000
X23.5S0
X.6S1000
X2.5S0
X1.1S1000
X.9S0
X.8S1000
X1S0
X1.1S1000
X.7S0
X1.3S1000
X3.2S0
X1.6S1000
X16.1S0
X2.6S1000
X1.9S0
X.7S1000
X8.3S0
X1.2S1000
X.3S0
X.7S1000
X23.5S0
X.7S1000
X2.3S0
X1.2S1000
X.9S0
X.8S1000
X1S0
X1S1000
X.8S0
X1.2S1000
X3.2S0
X1.701S1000
X2.916S0
X-.1Y.1
X-2.917
X-1.6S1000
X-3.2S0
X-1.4S1000
X-.699S0
X-.801S1000
X-1.199S0
X-.901S1000
X-.8S0
X-.9S1000
X-2.399S0
X-.801S1000
X-23.6S0
X-.6S1000
X-.4S0
X-1S1000
X-8.6S0
X-.1S1000
X-2.3S0
X-2.6S1000
X-16.1S0
X-1.6S1000
X-3.3S0
X-1.3S1000
X-.7S0
X-.9S1000
X-1.1S0
X-.9S1000
X-.8S0
X-1S1000
X-2.4S0
X-.7S1000
X-23.7S0
X-.6S1000
X-.4S0
X-.9S1000
X-11S0
X-2.7S1000
X-16.2S0
X-1.6S1000
X-3.3S0
X-1.3S1000
X-.7S0
X-.9S1000
X-1.1S0
X-.9S1000
X-.8S0
X-1S1000
X-2.3S0
X-.7S1000
X-23.6S0
X-.7S1000
X-.4S0
X-1S1000
X-11S0
X-2.6S1000
X-16.1S0
X-1.6S1000
X-3.3S0
X-1.4S1000
X-.6S0
X-.9S1000
X-1.2S0
X-.8S1000
X-.8S0
X-1S1000
X-2.4S0
X-.7S1000
X-23.5S0
X-.7S1000
X-.4S0
X-1S1000
X-11S0
X-2.6S1000
X-2.916S0
X-.1Y.1
X2.916
X2.7S1000
X11S0
X1S1000
X.3S0
X.7S1000
X23.7S0
X.7S1000
X2.3S0
X.9S1000
X.8S0
X.9S1000
X1.3S0
X.7S1000
X.7S0
X1.4S1000
X3.4S0
X1.4S1000
X16.2S0
X2.6S1000
X11.1S0
X.8S1000
X.4S0
X.7S1000
X23.8S0
X.6S1000
X2.3S0
X1S1000
X.7S0
X.9S1000
X1.2S0
X.9S1000
X.7S0
X1.3S1000
X3.4S0
X1.4S1000
X16.3S0
X2.7S1000
X11S0
X.9S1000
X.3S0
X.7S1000
X23.8S0
X.6S1000
X2.4S0
X1S1000
X.7S0
X1S1000
X1.1S0
X.9S1000
X.7S0
X1.2S1000
X3.5S0
X1.4S1000
X16.1S0
X2.7S1000
X11S0
X.9S1000
X.4S0
X.7S1000
X23.7S0
X.8S1000
X2.3S0
X.9S1000
X.701S0
X1S1000
X1.199S0
X.7S1000
X.7S0
X1.401S1000
X3.399S0
X1.4S1000
X2.917S0
X-.4Y.1
X-2.917
X-.899S1000
X-4.101S0
X-.8S1000
X-.7S0
X-.7S1000
X-1.199S0
X-1S1000
X-.701S0
X-1.4S1000
X-1.899S0
X-.601S1000
X-23.9S0
X-.7S1000
X-.2S0
X-1.3S1000
X-2.8S0
X-.5S1000
X-7.4S0
X-.3S1000
X-.1S0
X-2.3S1000
X-16.6S0
X-.8S1000
X-4.2S0
X-.6S1000
X-.7S0
X-.9S1000
X-1.2S0
X-1S1000
X-.6S0
X-1.4S1000
X-1.8S0
X-.8S1000
X-23.9S0
X-.6S1000
X-.3S0
X-1.3S1000
X-2.8S0
X-.4S1000
X-7.4S0
X-.4S1000
X-.1S0
X-2.3S1000
X-16.7S0
X-.7S1000
X-4.3S0
X-.6S1000
X-.7S0
X-.8S1000
X-1.2S0
X-1.1S1000
X-.7S0
X-1.3S1000
X-1.8S0
X-.7S1000
X-23.9S0
X-.6S1000
X-.4S0
X-1.3S1000
X-2.8S0
X-.3S1000
X-7.4S0
X-.5S1000
X-.1S0
X-2.1S1000
X-16.7S0
X-.5S1000
X-.1S0
X-.1S1000
X-4.3S0
X-.7S1000
X-.6S0
X-.8S1000
X-1.3S0
X-1S1000
X-.7S0
X-1.3S1000
X-1.9S0
X-.6S1000
X-23.9S0
X-.7S1000
X-.2S0
X-1.4S1000
X-2.8S0
X-.3S1000
X-7.5S0
X-.3S1000
X-.1S0
X-2.3S1000
X-2.916S0
Y.1
X2.916
X2.7S1000
X7.4S0
X.5S1000
X2.7S0
X1.3S1000
X.3S0
X.6S1000
X24S0
X.7S1000
X1.8S0
X1.3S1000
X.7S0
X1S1000
X1.3S0
X.8S1000
X.6S0
X.7S1000
X4.2S0
X.2S1000
X.1S0
X.4S1000
X16.8S0
X2.2S1000
X.1S0
X.3S1000
X7.4S0
X.5S1000
X2.7S0
X1.3S1000
X.3S0
X.7S1000
X24S0
X.6S1000
X1.8S0
X1.4S1000
X.6S0
X1.1S1000
X1.2S0
X.8S1000
X.7S0
X.6S1000
X4.5S0
X.5S1000
X16.7S0
X2.7S1000
X7.5S0
X.5S1000
X2.7S0
X1.3S1000
X.2S0
X.6S1000
X24.1S0
X.7S1000
X1.8S0
X1.3S1000
X.7S0
X1.1S1000
X1.2S0
X.8S1000
X.7S0
X.6S1000
X4.3S0
X.1S1000
X.1S0
X.5S1000
X16.6S0
X2.7S1000
X7.4S0
X.5S1000
X2.7S0
X1.3S1000
X.3S0
X.6S1000
X24.101S0
X.699S1000
X1.7S0
X1.4S1000
X.701S0
X1S1000
X1.199S0
X.801S1000
X.699S0
X.7S1000
X4.2S0
X.1S1000
X.2S0
X.4S1000
X2.917S0
Y.1
X-2.917
X-.4S1000
X-4.5S0
X-.7S1000
X-.6S0
X-.8S1000
X-1.299S0
X-1S1000
X-.701S0
X-1.4S1000
X-1.7S0
X-.699S1000
X-24.101S0
X-.7S1000
X-.1S0
X-1.4S1000
X-2.7S0
X-.5S1000
X-7.5S0
X-2.6S1000
X-16.6S0
X-.4S1000
X-4.5S0
X-.8S1000
X-.6S0
X-.7S1000
X-1.3S0
X-1S1000
X-.7S0
X-1.4S1000
X-1.8S0
X-.7S1000
X-24.1S0
X-.7S1000
X-.1S0
X-1.4S1000
X-2.7S0
X-.5S1000
X-7.4S0
X-2.6S1000
X-16.9S0
X-.4S1000
X-4.4S0
X-.8S1000
X-.5S0
X-.8S1000
X-1.4S0
X-.9S1000
X-.7S0
X-1.4S1000
X-1.6S0
X-.7S1000
X-24.2S0
X-.6S1000
X-.3S0
X-1.4S1000
X-2.6S0
X-.6S1000
X-7.4S0
X-2.5S1000
X-16.8S0
X-.4S1000
X-4.4S0
X-.8S1000
X-.6S0
X-.7S1000
X-1.4S0
X-.9S1000
X-.8S0
X-1.3S1000
X-1.7S0
X-.7S1000
X-24.1S0
X-.7S1000
X-.1S0
X-1.4S1000
X-2.7S0
X-.6S1000
X-7.4S0
X-2.6S1000
X-2.916S0
Y.1
X2.916
X2.6S1000
X7.4S0
X.7S1000
X2.5S0
X2.2S1000
X24.3S0
X.6S1000
X1.6S0
X1.6S1000
X.7S0
X.8S1000
X1.4S0
X.8S1000
X.3S0
X.1S1000
X.1S0
X.8S1000
X4.4S0
X.4S1000
X16.8S0
X2.5S1000
X7.4S0
X.6S1000
X2.7S0
X2.2S1000
X24.3S0
X.6S1000
X1.5S0
X1.5S1000
X.8S0
X.8S1000
X1.4S0
X.8S1000
X.3S0
X1S1000
X4.4S0
X.5S1000
X16.7S0
X2.7S1000
X7.4S0
X.6S1000
X2.6S0
X2.1S1000
X24.3S0
X.7S1000
X1.6S0
X1.6S1000
X.7S0
X.8S1000
X1.5S0
X.7S1000
X.3S0
X1S1000
X4.4S0
X.4S1000
X16.7S0
X2.6S1000
X7.4S0
X.6S1000
X2.6S0
X2.2S1000
X24.3S0
X.6S1000
X1.7S0
X1.4S1000
X.8S0
X.8S1000
X1.4S0
X.9S1000
X.301S0
X1S1000
X4.399S0
X.4S1000
X2.917S0
Y.1
X-2.917
X-.4S1000
X-4.399S0
X-1.101S1000
X-.2S0
X-.8S1000
X-1.6S0
X-.7S1000
X-.599S0
X-1.701S1000
X-1.4S0
X-.8S1000
X-24.3S0
X-2.2S1000
X-2.5S0
X-.7S1000
X-7.4S0
X-1.4S1000
X-.1S0
X-1.1S1000
X-16.6S0
X-.5S1000
X-4.4S0
X-1.1S1000
X-.1S0
X-.8S1000
X-1.6S0
X-.7S1000
X-.7S0
X-1.6S1000
X-1.6S0
X-.6S1000
X-24.5S0
X-2S1000
X-2.6S0
X-.6S1000
X-7.4S0
X-1.4S1000
X-.1S0
X-1.1S1000
X-16.9S0
X-.3S1000
X-4.5S0
X-1.1S1000
X-.1S0
X-.8S1000
X-1.5S0
X-.8S1000
X-.6S0
X-1.7S1000
X-1.4S0
X-.7S1000
X-24.4S0
X-2.2S1000
X-2.5S0
X-.7S1000
X-7.4S0
X-1.4S1000
X-.1S0
X-1S1000
X-16.8S0
X-.4S1000
X-4.4S0
X-1.1S1000
X-.1S0
X-.8S1000
X-1.6S0
X-.7S1000
X-.6S0
X-1.7S1000
X-1.5S0
X-.6S1000
X-24.5S0
X-2.2S1000
X-2.4S0
X-.7S1000
X-7.5S0
X-1.3S1000
X-.1S0
X-1.1S1000
X-2.916S0
X.1Y.1
X2.916
X.9S1000
X.3S0
X1.3S1000
X7.4S0
X.7S1000
X2.5S0
X2.1S1000
X24.5S0
X.6S1000
X1.5S0
X1.7S1000
X.6S0
X.7S1000
X1.6S0
X2S1000
X4.5S0
X.3S1000
X16.8S0
X.9S1000
X.2S0
X1.4S1000
X7.4S0
X.6S1000
X2.6S0
X2.1S1000
X24.6S0
X.7S1000
X1.3S0
X1.7S1000
X.6S0
X.8S1000
X1.5S0
X2S1000
X4.4S0
X.5S1000
X16.8S0
X1.1S1000
X.1S0
X1.4S1000
X7.5S0
X.5S1000
X2.6S0
X2S1000
X24.5S0
X.8S1000
X1.4S0
X1.6S1000
X.7S0
X.7S1000
X1.5S0
X2.1S1000
X4.4S0
X.4S1000
X16.7S0
X1.1S1000
X.1S0
X1.4S1000
X7.4S0
X.7S1000
X2.5S0
X2S1000
X24.6S0
X.6S1000
X1.6S0
X1.601S1000
X.599S0
X.7S1000
X1.5S0
X2.1S1000
X4.5S0
X.3S1000
X2.917S0
Y.1
X-2.917
X-.3S1000
X-4.7S0
X-1.9S1000
X-1.5S0
X-.7S1000
X-.7S0
X-1.5S1000
X-1.399S0
X-.701S1000
X-24.7S0
X-1.9S1000
X-2.7S0
X-.5S1000
X-7.5S0
X-1.4S1000
X-.2S0
X-.9S1000
X-16.8S0
X-.3S1000
X-4.7S0
X-1.9S1000
X-1.5S0
X-.8S1000
X-.6S0
X-1.5S1000
X-1.4S0
X-.8S1000
X-24.7S0
X-1.8S1000
X-2.7S0
X-.6S1000
X-7.4S0
X-1.4S1000
X-.2S0
X-.9S1000
X-17S0
X-.3S1000
X-4.7S0
X-1.9S1000
X-1.4S0
X-.9S1000
X-.5S0
X-1.6S1000
X-1.4S0
X-.7S1000
X-24.6S0
X-2S1000
X-2.7S0
X-.6S1000
X-7.4S0
X-1.4S1000
X-.1S0
X-1S1000
X-16.9S0
X-.2S1000
X-4.7S0
X-1.9S1000
X-1.5S0
X-.7S1000
X-.6S0
X-1.6S1000
X-1.5S0
X-.6S1000
X-24.7S0
X-1.9S1000
X-2.7S0
X-.6S1000
X-7.5S0
X-1.2S1000
X-.3S0
X-.9S1000
X-2.916S0
X-.1Y.1
X2.916
X1S1000
X.3S0
X1.2S1000
X7.6S0
X.5S1000
X2.7S0
X1.8S1000
X24.8S0
X.7S1000
X1.5S0
X1.5S1000
X.6S0
X.7S1000
X1.5S0
X1.9S1000
X4.8S0
X.1S1000
X16.9S0
X1S1000
X.1S0
X1.3S1000
X7.6S0
X.4S1000
X2.9S0
X1.8S1000
X24.8S0
X.6S1000
X1.5S0
X1.5S1000
X.5S0
X.9S1000
X1.4S0
X1.9S1000
X4.8S0
X.1S1000
X17S0
X1S1000
X.2S0
X1.3S1000
X7.6S0
X.4S1000
X2.8S0
X1.7S1000
X24.9S0
X.6S1000
X1.5S0
X1.5S1000
X.6S0
X.8S1000
X1.5S0
X1.9S1000
X21.8S0
X1S1000
X.2S0
X1.2S1000
X7.6S0
X.5S1000
X2.8S0
X1.8S1000
X24.7S0
X.8S1000
X1.401S0
X1.5S1000
X.5S0
X.799S1000
X1.6S0
X1.8S1000
X2.917S0
Y.1
X-2.917
X-1.6S1000
X-1.8S0
X-.7S1000
X-.599S0
X-.701S1000
X-.299S0
X-.5S1000
X-1.5S0
X-.5S1000
X-25.101S0
X-.9S1000
X-.3S0
X-.4S1000
X-2.8S0
X-.5S1000
X-7.6S0
X-2.5S1000
X-21.7S0
X-1.7S1000
X-1.7S0
X-.8S1000
X-.5S0
X-.7S1000
X-.4S0
X-.4S1000
X-1.4S0
X-.8S1000
X-24.9S0
X-.9S1000
X-.3S0
X-.4S1000
X-2.9S0
X-.4S1000
X-7.6S0
X-1.3S1000
X-.1S0
X-1.1S1000
X-21.9S0
X-1.7S1000
X-1.6S0
X-.9S1000
X-.5S0
X-.7S1000
X-.4S0
X-.4S1000
X-1.4S0
X-.6S1000
X-25S0
X-1S1000
X-.3S0
X-.4S1000
X-2.9S0
X-.3S1000
X-7.7S0
X-1.3S1000
X-.1S0
X-1S1000
X-21.8S0
X-1.7S1000
X-1.6S0
X-.9S1000
X-.5S0
X-.7S1000
X-.4S0
X-.4S1000
X-1.4S0
X-.7S1000
X-25S0
X-.9S1000
X-.3S0
X-.4S1000
X-2.8S0
X-.5S1000
X-7.6S0
X-2.5S1000
X-2.916S0
Y.1
X2.916
X1.6S1000
X.1S0
X.8S1000
X11.6S0
X.9S1000
X25.1S0
X.7S1000
X2.1S0
X.7S1000
X.1S0
X.2S1000
X.1S0
X.9S1000
X1.8S0
X1.7S1000
X21.7S0
X1.5S1000
X.1S0
X.8S1000
X7.9S0
X.1S1000
X3.2S0
X.1S1000
X.4S0
X.9S1000
X25S0
X.7S1000
X2.1S0
X.9S1000
X.3S0
X.8S1000
X1.8S0
X1.7S1000
X21.7S0
X2.6S1000
X7.9S0
X.1S1000
X3.7S0
X.7S1000
X25.1S0
X.7S1000
X2.2S0
X.9S1000
X.2S0
X.9S1000
X1.8S0
X1.6S1000
X21.7S0
X2.6S1000
X11.1S0
X.1S1000
X.4S0
X.9S1000
X25.001S0
X.699S1000
X2.1S0
X1S1000
X.201S0
X.799S1000
X1.8S0
X1.7S1000
X2.917S0
X.1Y.1
X-2.917
X-1.7S1000
X-1.9S0
X-2S1000
X-2.1S0
X-.6S1000
X-25.3S0
X-.7S1000
X-11.6S0
X-.9S1000
X-.1S0
X-1.6S1000
X-21.6S0
X-1.7S1000
X-1.8S0
X-2S1000
X-2.1S0
X-.7S1000
X-25.2S0
X-.7S1000
X-11.6S0
X-1S1000
X-.1S0
X-1.5S1000
X-21.8S0
X-1.6S1000
X-1.9S0
X-.9S1000
X-.1S0
X-.9S1000
X-2.1S0
X-.7S1000
X-25.2S0
X-.8S1000
X-11.5S0
X-1.1S1000
X-.1S0
X-1.4S1000
X-21.7S0
X-1.7S1000
X-1.8S0
X-.9S1000
X-.1S0
X-1S1000
X-2.1S0
X-.6S1000
X-25.3S0
X-.7S1000
X-11.6S0
X-.9S1000
X-.1S0
X-1.6S1000
X-2.916S0
Y.1
X2.916
X.7S1000
X.1S0
X2.1S1000
X.2S0
X.3S1000
X10.8S0
X.6S1000
X25.4S0
X.7S1000
X2S0
X1.8S1000
X2S0
X1.7S1000
X.5S0
X.3S1000
X.1S0
X.9S1000
X19.9S0
X.6S1000
X.1S0
X2.1S1000
X.3S0
X.1S1000
X10.9S0
X.7S1000
X25.4S0
X.6S1000
X2S0
X1.8S1000
X1.8S0
X.1S1000
X.1S0
X1.7S1000
X.5S0
X.3S1000
X.2S0
X.8S1000
X19.9S0
X.7S1000
X.2S0
X2.1S1000
X.3S0
X.1S1000
X10.8S0
X.7S1000
X25.3S0
X.6S1000
X2.1S0
X1.9S1000
X1.8S0
X.1S1000
X.2S0
X1.7S1000
X.4S0
X.2S1000
X.3S0
X.8S1000
X19.8S0
X2.9S1000
X.3S0
X.2S1000
X10.8S0
X.6S1000
X25.4S0
X.7S1000
X2S0
X1.9S1000
X2S0
X1.7S1000
X.4S0
X.3S1000
X.1S0
X.9S1000
X2.917S0
X.1Y.1
X-2.917
X-1.4S1000
X-.5S0
X-2S1000
X-1.7S0
X-1.7S1000
X-2.1S0
X-.6S1000
X-25.4S0
X-.8S1000
X-10.7S0
X-.3S1000
X-.1S0
X-3S1000
X-19.8S0
X-.9S1000
X-.1S0
X-.3S1000
X-.6S0
X-1.8S1000
X-1.8S0
X-1.8S1000
X-2.1S0
X-.6S1000
X-25.5S0
X-.6S1000
X-10.8S0
X-.2S1000
X-.2S0
X-2.1S1000
X-.1S0
X-.8S1000
X-19.9S0
X-.9S1000
X-.1S0
X-.3S1000
X-.5S0
X-1.6S1000
X-.1S0
X-.2S1000
X-1.8S0
X-1.8S1000
X-1.9S0
X-.7S1000
X-25.4S0
X-.7S1000
X-10.8S0
X-.3S1000
X-.2S0
X-2.1S1000
X-.1S0
X-.6S1000
X-19.8S0
X-1.5S1000
X-.4S0
X-1.7S1000
X-.1S0
X-.2S1000
X-1.7S0
X-1.8S1000
X-2S0
X-.6S1000
X-25.5S0
X-.7S1000
X-10.7S0
X-.3S1000
X-.1S0
X-3S1000
X-2.916S0
Y.1
X2.916
X3.4S1000
X10.7S0
X.6S1000
X25.6S0
X.7S1000
X2S0
X1.7S1000
X1.7S0
X1.9S1000
X.5S0
X1.5S1000
X19.8S0
X3.3S1000
X10.7S0
X.7S1000
X25.6S0
X.6S1000
X2S0
X1.7S1000
X1.7S0
X1.9S1000
X.5S0
X1.6S1000
X19.8S0
X3.4S1000
X10.6S0
X.7S1000
X25.5S0
X.8S1000
X2S0
X1.7S1000
X1.7S0
X1.9S1000
X.6S0
X1.4S1000
X19.7S0
X3.4S1000
X10.7S0
X.6S1000
X25.6S0
X.7S1000
X2S0
X1.7S1000
X1.7S0
X1.9S1000
X.6S0
X1.4S1000
X2.917S0
X.1Y.1
X-2.917
X-1.5S1000
X-.1S0
X-.1S1000
X-.099S0
X-.101S1000
X-.1S0
X-1.9S1000
X-1.6S0
X-1.9S1000
X-1.899S0
X-.701S1000
X-25.7S0
X-.7S1000
X-10.6S0
X-1.4S1000
X-.1S0
X-.3S1000
X-.1S0
X-1.5S1000
X-19.6S0
X-1.7S1000
X-.1S0
X-.2S1000
X-.1S0
X-1.9S1000
X-1.6S0
X-1.8S1000
X-2.1S0
X-.6S1000
X-25.7S0
X-.7S1000
X-10.5S0
X-1.5S1000
X-.1S0
X-.3S1000
X-.1S0
X-1.5S1000
X-19.7S0
X-1.7S1000
X-.1S0
X-2.1S1000
X-1.7S0
X-1.8S1000
X-1.9S0
X-.7S1000
X-25.7S0
X-.6S1000
X-10.7S0
X-1.5S1000
X-.1S0
X-.2S1000
X-.2S0
X-1.3S1000
X-19.7S0
X-1.7S1000
X-.1S0
X-.1S1000
X-.1S0
X-2S1000
X-1.7S0
X-1.7S1000
X-2S0
X-.6S1000
X-25.7S0
X-.7S1000
X-10.6S0
X-1.9S1000
X-.1S0
X-1.4S1000
X-2.916S0
Y.1
X2.916
X1.1S1000
X.1S0
X.2S1000
X.3S0
X.1S1000
X.2S0
X1.5S1000
X10.5S0
X.6S1000
X25.8S0
X.7S1000
X1.9S0
X1.9S1000
X1.6S0
X4S1000
X19.6S0
X1S1000
X.1S0
X.2S1000
X.3S0
X.1S1000
X.3S0
X1.4S1000
X10.5S0
X.7S1000
X25.9S0
X.6S1000
X1.8S0
X2S1000
X1.5S0
X4S1000
X19.7S0
X1.1S1000
X.1S0
X.1S1000
X.3S0
X.2S1000
X.3S0
X1.4S1000
X10.4S0
X.7S1000
X25.8S0
X.7S1000
X1.9S0
X1.9S1000
X1.6S0
X4S1000
X19.5S0
X1.1S1000
X.1S0
X.1S1000
X.4S0
X.1S1000
X.2S0
X1.5S1000
X10.5S0
X.6S1000
X25.9S0
X.601S1000
X2S0
X1.8S1000
X1.599S0
X4S1000
X2.917S0
Y.1
X-2.917
X-4S1000
X-1.599S0
X-1.901S1000
X-1.8S0
X-.7S1000
X-25.9S0
X-.7S1000
X-10.4S0
X-1.4S1000
X-1.3S0
X-.8S1000
X-19.5S0
X-4S1000
X-1.6S0
X-1.9S1000
X-1.9S0
X-.6S1000
X-26S0
X-.7S1000
X-10.2S0
X-1.5S1000
X-1.3S0
X-.9S1000
X-19.5S0
X-4.1S1000
X-1.5S0
X-2S1000
X-1.8S0
X-.6S1000
X-26S0
X-.7S1000
X-10.3S0
X-1.5S1000
X-1.3S0
X-.7S1000
X-19.6S0
X-4S1000
X-1.6S0
X-1.9S1000
X-1.9S0
X-.6S1000
X-25.9S0
X-.7S1000
X-10.3S0
X-1.5S1000
X-1.3S0
X-.8S1000
X-2.916S0
Y.1
X2.916
X.5S1000
X.2S0
X.1S1000
X1.3S0
X1.5S1000
X10.2S0
X.7S1000
X26S0
X.7S1000
X1.8S0
X1.9S1000
X1.6S0
X4S1000
X19.6S0
X.4S1000
X.2S0
X.1S1000
X1.3S0
X1.5S1000
X10.3S0
X.6S1000
X26.1S0
X.6S1000
X1.8S0
X2S1000
X1.5S0
X4S1000
X19.6S0
X.6S1000
X.1S0
X.2S1000
X1.3S0
X1.5S1000
X10.2S0
X.6S1000
X26.1S0
X.7S1000
X1.8S0
X1.9S1000
X1.6S0
X4.1S1000
X19.4S0
X.6S1000
X1.5S0
X1.5S1000
X10.3S0
X.6S1000
X26.101S0
X.599S1000
X1.8S0
X1.901S1000
X1.599S0
X4.101S1000
X2.916S0
X-.1Y.1
X-2.917
X-3.5S1000
X-2.099S0
X-1.8S1000
X-1.801S0
X-.699S1000
X-26.201S0
X-.6S1000
X-9.7S0
X-.3S1000
X-.2S0
X-1.5S1000
X-1.6S0
X-.5S1000
X-19.5S0
X-3.6S1000
X-2S0
X-1.9S1000
X-1.8S0
X-.6S1000
X-26.2S0
X-.8S1000
X-9.5S0
X-.3S1000
X-.2S0
X-1.6S1000
X-1.5S0
X-.5S1000
X-19.7S0
X-3.6S1000
X-1.9S0
X-2S1000
X-1.6S0
X-.7S1000
X-26.2S0
X-.7S1000
X-9.7S0
X-.3S1000
X-.2S0
X-1.5S1000
X-1.7S0
X-.3S1000
X-19.6S0
X-3.6S1000
X-2S0
X-1.9S1000
X-1.7S0
X-.7S1000
X-26.1S0
X-.7S1000
X-9.7S0
X-.2S1000
X-.3S0
X-1.5S1000
X-1.6S0
X-.5S1000
X-2.916S0
Y.1
X2.916
X.4S1000
X1.6S0
X1.5S1000
X.3S0
X.4S1000
X8.8S0
X.1S1000
X.5S0
X.8S1000
X26.3S0
X.6S1000
X1S0
X.2S1000
X.5S0
X2S1000
X1.9S0
X3.5S1000
X19.7S0
X.4S1000
X1.5S0
X1.6S1000
X.2S0
X.4S1000
X9.4S0
X.8S1000
X26.3S0
X.7S1000
X.9S0
X.2S1000
X.6S0
X1.8S1000
X2S0
X3.5S1000
X19.7S0
X.5S1000
X1.6S0
X1.6S1000
X.2S0
X.4S1000
X9.4S0
X.7S1000
X26.3S0
X.7S1000
X1S0
X.2S1000
X.6S0
X1.8S1000
X2S0
X3.5S1000
X19.6S0
X.5S1000
X1.5S0
X1.6S1000
X.2S0
X.4S1000
X9.4S0
X.7S1000
X26.4S0
X.6S1000
X1S0
X.2S1000
X.601S0
X1.8S1000
X2S0
X3.5S1000
X2.916S0
Y.1
X-2.916
X-3.5S1000
X-2S0
X-.201S1000
X-.099S0
X-1.5S1000
X-.601S0
X-.3S1000
X-.4S0
X-.1S1000
X-.299S0
X-.601S1000
X-26.4S0
X-.9S1000
X-.3S0
X-.2S1000
X-8.7S0
X-.6S1000
X-.2S0
X-1.5S1000
X-1.5S0
X-.5S1000
X-19.7S0
X-3.4S1000
X-2S0
X-.2S1000
X-.1S0
X-1.5S1000
X-.6S0
X-.3S1000
X-.3S0
X-.2S1000
X-.3S0
X-.7S1000
X-26.5S0
X-.7S1000
X-.4S0
X-.2S1000
X-8.6S0
X-.6S1000
X-.2S0
X-1.5S1000
X-1.5S0
X-.5S1000
X-19.9S0
X-3.4S1000
X-1.9S0
X-1.9S1000
X-.5S0
X-.4S1000
X-.3S0
X-.2S1000
X-.2S0
X-.7S1000
X-26.4S0
X-.9S1000
X-.4S0
X-.2S1000
X-8.7S0
X-.5S1000
X-.2S0
X-1.5S1000
X-1.6S0
X-.3S1000
X-19.7S0
X-3.5S1000
X-2S0
X-.2S1000
X-.1S0
X-1.5S1000
X-.5S0
X-.4S1000
X-.3S0
X-.3S1000
X-.2S0
X-.6S1000
X-26.5S0
X-.8S1000
X-.4S0
X-.1S1000
X-8.8S0
X-.5S1000
X-.2S0
X-1.5S1000
X-1.6S0
X-.4S1000
X-2.916S0
Y.1
X2.916
X.5S1000
X1.5S0
X1.4S1000
X.2S0
X.7S1000
X8.6S0
X.3S1000
X.3S0
X.7S1000
X26.7S0
X.5S1000
X.2S0
X.4S1000
X.1S0
X.5S1000
X.5S0
X1.5S1000
X.1S0
X.2S1000
X1.9S0
X3.5S1000
X19.8S0
X.4S1000
X1.6S0
X1.3S1000
X.3S0
X.7S1000
X8.5S0
X.4S1000
X.1S0
X.9S1000
X26.6S0
X1S1000
X.3S0
X.5S1000
X.4S0
X1.4S1000
X.3S0
X.1S1000
X1.9S0
X3.5S1000
X19.8S0
X.6S1000
X1.6S0
X1.3S1000
X.3S0
X.6S1000
X8.5S0
X.499S1000
X.1S0
X.8S1000
X26.5S0
X1.3S1000
X.2S0
X.5S1000
X.4S0
X1.4S1000
X.3S0
X.1S1000
X1.9S0
X3.4S1000
X19.8S0
X.5S1000
X1.6S0
X1.4S1000
X.2S0
X.6S1000
X8.6S0
X.4S1000
X.2S0
X.7S1000
X26.6S0
X.7S1000
X.101S0
X.3S1000
X.2S0
X.599S1000
X.401S0
X1.5S1000
X2.3S0
X3.399S1000
X2.917S0
X-.3Y.1
X-2.917
X-3.099S1000
X-2.3S0
X-3.801S1000
X-26.6S0
X-1.6S1000
X-4.3S0
X-.6S1000
X-1.7S0
X-.3S1000
X-1.3S0
X-.8S1000
X-.2S0
X-1.3S1000
X-1.5S0
X-.6S1000
X-20S0
X-3.2S1000
X-2.3S0
X-3.7S1000
X-26.7S0
X-1.5S1000
X-4.299S0
X-.601S1000
X-1.7S0
X-.3S1000
X-1.399S0
X-.701S1000
X-.299S0
X-1.201S1000
X-1.6S0
X-.6S1000
X-20.099S0
X-3.201S1000
X-2.2S0
X-3.7S1000
X-26.6S0
X-1.7S1000
X-4.3S0
X-.6S1000
X-1.7S0
X-.3S1000
X-1.3S0
X-.8S1000
X-.2S0
X-1.2S1000
X-1.7S0
X-.4S1000
X-20.1S0
X-3.2S1000
X-2.2S0
X-3.7S1000
X-26.6S0
X-1.7S1000
X-4.3S0
X-.7S1000
X-1.7S0
X-.1S1000
X-1.4S0
X-.8S1000
X-.2S0
X-1.3S1000
X-1.5S0
X-.6S1000
X-2.916S0
Y.1
X2.916
X.6S1000
X1.5S0
X1.3S1000
X.2S0
X.8S1000
X1.3S0
X.3S1000
X1.6S0
X.8S1000
X4.1S0
X1.7S1000
X26.7S0
X3.7S1000
X2.2S0
X3.1S1000
X20.2S0
X.5S1000
X1.5S0
X1.3S1000
X.2S0
X.8S1000
X1.3S0
X.4S1000
X1.5S0
X.8S1000
X4.2S0
X1.6S1000
X26.801S0
X3.599S1000
X2.2S0
X3.201S1000
X20.199S0
X.499S1000
X1.7S0
X1.2S1000
X.1S0
X.9S1000
X1.3S0
X.3S1000
X1.6S0
X.8S1000
X4.2S0
X1.5S1000
X26.8S0
X3.7S1000
X2.201S0
X3.099S1000
X20.1S0
X.6S1000
X1.6S0
X1.2S1000
X.1S0
X1S1000
X1.2S0
X.3S1000
X1.6S0
X.8S1000
X4.2S0
X1.5S1000
X26.801S0
X3.799S1000
X2.201S0
X3S1000
X2.916S0
X-.9Y.1
X-2.917
X-.3S1000
X-.099S0
X-1.801S1000
X-2.1S0
X-3.7S1000
X-26.9S0
X-1.6S1000
X-3.9S0
X-1.2S1000
X-1.3S0
X-.5S1000
X-1.1S0
X-2.4S1000
X-1.6S0
X-.5S1000
X-21.1S0
X-.2S1000
X-.1S0
X-1.799S1000
X-2.101S0
X-3.8S1000
X-26.9S0
X-1.5S1000
X-4S0
X-1.1S1000
X-1.3S0
X-.5S1000
X-1.1S0
X-2.4S1000
X-1.6S0
X-.6S1000
X-21.099S0
X-.201S1000
X-.2S0
X-1.8S1000
X-2.1S0
X-3.6S1000
X-27S0
X-1.6S1000
X-4S0
X-1.1S1000
X-1.3S0
X-.5S1000
X-1.1S0
X-2.4S1000
X-1.6S0
X-.4S1000
X-21.1S0
X-.3S1000
X-.1S0
X-1.8S1000
X-2.1S0
X-3.7S1000
X-27S0
X-1.5S1000
X-3.9S0
X-1.2S1000
X-1.3S0
X-.5S1000
X-1.1S0
X-2.4S1000
X-1.5S0
X-.6S1000
X-2.916S0
Y.1
X2.916
X.5S1000
X1.6S0
X2.4S1000
X1.1S0
X.6S1000
X1.1S0
X1.3S1000
X3.8S0
X1.6S1000
X27S0
X3.7S1000
X2.1S0
X1.7S1000
X.3S0
X.2S1000
X1.7S0
X.1S1000
X19.3S0
X.4S1000
X1.6S0
X2.4S1000
X1.1S0
X.6S1000
X1.1S0
X1.4S1000
X3.7S0
X1.7S1000
X27S0
X3.6S1000
X2.1S0
X1.8S1000
X.2S0
X.1S1000
X1.8S0
