; LightBurn Pro 2.0.05
; GRBL device profile, absolute coords
; Bounds: X0.23 Y1.8 to X303.07 Y211.4
G00 G17 G40 G21 G54
G90
M4
; Image @ 7000.02 мм/мин, 50% power
M8
G0 X5.234Y51.799
; Layer C00
G91
G0 X2.917
G1 X297F7000.02S500
G0 X2.917
G0 Y0.05
G0 X-2.917
G1 X-297
G0 X-2.917
G0 Y0.05
G0 X2.917
G1 X297
G0 X2.917
G0 Y0.05
G0 X-2.917
G1 X-297
G0 X-2.917
G0 Y0.05
G0 X2.917
G1 X297
G0 X2.917
G0 Y0.05
G0 X-2.917
G1 X-297
G0 X-2.917
G0 Y0.05
G0 X2.917
G1 X297
G0 X2.917
G0 Y0.05
G0 X-2.917
G1 X-297
G0 X-2.917
G0 Y0.05
G0 X2.917
G1 X297
G0 X2.917
G0 Y0.05
G0 X-2.917
G1 X-297
G0 X-2.917
G0 Y0.05
G0 X2.917
G1 X297
G0 X2.917
G0 Y0.05
G0 X-2.917
G1 X-297
G0 X-2.917
G0 Y0.05
G0 X2.917
G1 X297
G0 X2.917
G0 Y0.05
G0 X-2.917
G1 X-297
G0 X-2.917
G0 Y0.05
G0 X2.917
G1 X297
G0 X2.917
G0 Y0.05
G0 X-2.917
G1 X-297
G0 X-2.917
G0 Y0.05
G0 X2.917
G1 X297
G0 X2.917
G0 Y0.05
G0 X-2.917
G1 X-297
G0 X-2.917
G0 Y0.05
G0 X2.917
G1 X297
G0 X2.917
G0 Y0.05
G0 X-2.917
G1 X-297
G0 X-2.917
G0 Y0.05
G0 X2.917
G1 X297
G0 X2.917
G0 Y0.05
G0 X-2.917
G1 X-297
G0 X-2.917
G0 Y0.05
G0 X2.917
G1 X297
G0 X2.917
G0 Y0.05
G0 X-2.917
G1 X-297
G0 X-2.917
G0 Y0.05
G0 X2.917
G1 X297
G0 X2.917
G0 Y0.05
G0 X-2.917
G1 X-297
G0 X-2.917
G0 Y0.05
G0 X2.917
G1 X297
G0 X2.917
G0 Y0.05
G0 X-2.917
G1 X-297
G0 X-2.917
G0 Y0.05
G0 X2.917
G1 X297
G0 X2.917
G0 Y0.05
G0 X-2.917
G1 X-297
G0 X-2.917
G0 Y0.05
G0 X2.917
G1 X297
G0 X2.917
G0 Y0.05
G0 X-2.917
G1 X-297
G0 X-2.917
G0 Y0.05
G0 X2.917
G1 X297
G0 X2.917
G0 Y0.05
G0 X-2.917
G1 X-297
G0 X-2.917
G0 Y0.05
G0 X2.917
G1 X297
G0 X2.917
G0 Y0.05
G0 X-2.917
G1 X-297
G0 X-2.917
G0 Y0.05
G0 X2.917
G1 X297
G0 X2.917
G0 Y0.05
G0 X-2.917
G1 X-297
G0 X-2.917
G0 Y0.05
G0 X2.917
G1 X297
G0 X2.917
G0 Y0.05
G0 X-2.917
G1 X-297
G0 X-2.917
G0 Y0.05
G0 X2.917
G1 X297
G0 X2.917
G0 Y0.05
G0 X-2.917
G1 X-297
G0 X-2.917
G0 Y0.05
G0 X2.917
G1 X297
G0 X2.917
G0 Y0.05
G0 X-2.917
G1 X-297
G0 X-2.917
G0 Y0.05
G0 X2.917
G1 X297
G0 X2.917
G0 Y0.05
G0 X-2.917
G1 X-297
G0 X-2.917
G0 Y0.05
G0 X2.917
G1 X297
G0 X2.917
G0 Y0.05
G0 X-2.917
G1 X-231.25
G1 X-0.15S0
G1 X-0.05S500
G1 X-0.15S0
G1 X-65.4S500
G0 X-2.917
G0 Y0.05
G0 X2.917
G1 X65.25
G1 X0.75S0
G1 X231S500
G0 X2.917
G0 Y0.05
G0 X-2.917
G1 X-230.9
G1 X-1S0
G1 X-65.1S500
G0 X-2.917
G0 Y0.05
G0 X2.917
G1 X65
G1 X1.25S0
G1 X230.75S500
G0 X2.917
G0 Y0.05
G0 X-2.917
G1 X-230.65
G1 X-1.4S0
G1 X-64.95S500
G0 X-2.917
G0 Y0.05
G0 X2.917
G1 X64.85
G1 X1.6S0
G1 X230.55S500
G0 X2.917
G0 Y0.05
G0 X-2.917
G1 X-230.5
G1 X-1.7S0
G1 X-64.8S500
G0 X-2.917
G0 Y0.05
G0 X2.917
G1 X64.75
G1 X1.8S0
G1 X230.45S500
G0 X2.917
G0 Y0.05
G0 X-2.917
G1 X-230.4
G1 X-1.9S0
G1 X-64.7S500
G0 X-2.917
G0 Y0.05
G0 X2.917
G1 X64.65
G1 X2S0
G1 X230.35S500
G0 X2.917
G0 Y0.05
G0 X-2.917
G1 X-230.35
G1 X-2.05S0
G1 X-64.6S500
G0 X-2.917
G0 Y0.05
G0 X2.917
G1 X64.55
G1 X2.15S0
G1 X230.3S500
G0 X2.917
G0 Y0.05
G0 X-2.917
G1 X-230.25
G1 X-2.25S0
G1 X-64.5S500
G0 X-2.917
G0 Y0.05
G0 X2.917
G1 X64.5
G1 X2.25S0
G1 X230.25S500
G0 X2.917
G0 Y0.05
G0 X-2.917
G1 X-230.2
G1 X-2.3S0
G1 X-64.5S500
G0 X-2.917
G0 Y0.05
G0 X2.917
G1 X64.45
G1 X2.35S0
G1 X230.2S500
G0 X2.917
G0 Y0.05
G0 X-2.917
G1 X-230.15
G1 X-2.4S0
G1 X-64.45S500
G0 X-2.917
G0 Y0.05
G0 X2.917
G1 X64.45
G1 X2.45S0
G1 X230.1S500
G0 X2.917
G0 Y0.05
G0 X-2.917
G1 X-230.1
G1 X-2.5S0
G1 X-64.4S500
G0 X-2.917
G0 Y0.05
G0 X2.917
G1 X64.4
G1 X2.5S0
G1 X230.1S500
G0 X2.917
G0 Y0.05
G0 X-2.917
G1 X-230.1
G1 X-2.5S0
G1 X-64.4S500
G0 X-2.917
G0 Y0.05
G0 X2.917
G1 X64.4
G1 X2.5S0
G1 X230.1S500
G0 X2.917
G0 Y0.05
G0 X-2.917
G1 X-35.65
G1 X-0.05S0
G1 X-0.05S500
G1 X-0.45S0
G1 X-0.05S500
G1 X-0.1S0
G1 X-193.75S500
G1 X-2.5S0
G1 X-64.4S500
G0 X-2.917
G0 Y0.05
G0 X2.917
G1 X64.4
G1 X2.5S0
G1 X193.6S500
G1 X1S0
G1 X35.5S500
G0 X2.917
G0 Y0.05
G0 X-2.917
G1 X-35.45
G1 X-1.15S0
G1 X-193.5S500
G1 X-2.5S0
G1 X-64.4S500
G0 X-2.917
G0 Y0.05
G0 X2.917
G1 X64.4
G1 X2.5S0
G1 X193.4S500
G1 X1.3S0
G1 X35.4S500
G0 X2.917
G0 Y0.05
G0 X-2.917
G1 X-35.3
G1 X-1.45S0
G1 X-193.35S500
G1 X-2.5S0
G1 X-64.4S500
G0 X-2.917
G0 Y0.05
G0 X2.917
G1 X64.4
G1 X2.5S0
G1 X31.6S500
G1 X0.4S0
G1 X161.25S500
G1 X1.65S0
G1 X35.2S500
G0 X2.917
G0 Y0.05
G0 X-2.917
G1 X-35.15
G1 X-1.75S0
G1 X-161.15S500
G1 X-0.55S0
G1 X-31.5S500
G1 X-2.5S0
G1 X-64.4S500
G0 X-2.917
G0 Y0.05
G0 X2.917
G1 X64.4
G1 X2.45S0
G1 X31.5S500
G1 X0.65S0
G1 X161.05S500
G1 X1.85S0
G1 X35.1S500
G0 X2.917
G0 Y0.05
G0 X-2.917
G1 X-35.05
G1 X-1.95S0
G1 X-160.95S500
G1 X-0.75S0
G1 X-31.45S500
G1 X-2.4S0
G1 X-64.45S500
G0 X-2.917
G0 Y0.05
G0 X2.917
G1 X64.45
G1 X2.4S0
G1 X31.4S500
G1 X0.85S0
G1 X160.85S500
G1 X2.05S0
G1 X35S500
G0 X2.917
G0 Y0.05
G0 X-2.917
G1 X-34.95
G1 X-2.15S0
G1 X-160.75S500
G1 X-0.9S0
G1 X-31.45S500
G1 X-2.35S0
G1 X-64.45S500
G0 X-2.917
G0 Y0.05
G0 X2.917
G1 X64.45
G1 X2.35S0
G1 X31.4S500
G1 X1S0
G1 X139.85S500
G1 X0.1S0
G1 X0.05S500
G1 X0.1S0
G1 X20.55S500
G1 X2.25S0
G1 X34.9S500
G0 X2.917
G0 Y0.05
G0 X-2.917
G1 X-34.9
G1 X-2.25S0
G1 X-20.45S500
G1 X-0.45S0
G1 X-139.75S500
G1 X-1S0
G1 X-31.4S500
G1 X-2.3S0
G1 X-64.5S500
G0 X-2.917
G0 Y0.05
G0 X2.917
G1 X64.5
G1 X2.25S0
G1 X31.4S500
G1 X1.05S0
G1 X139.65S500
G1 X0.6S0
G1 X20.35S500
G1 X2.35S0
G1 X34.85S500
G0 X2.917
G0 Y0.05
G0 X-2.917
G1 X-34.85
G1 X-2.35S0
G1 X-20.3S500
G1 X-0.65S0
G1 X-139.65S500
G1 X-1.05S0
G1 X-31.4S500
G1 X-2.2S0
G1 X-64.55S500
G0 X-2.917
G0 Y0.05
G0 X2.917
G1 X64.6
G1 X2.1S0
G1 X31.5S500
G1 X1S0
G1 X139.6S500
G1 X0.75S0
G1 X20.2S500
G1 X2.45S0
G1 X34.8S500
G0 X2.917
G0 Y0.05
G0 X-2.917
G1 X-34.8
G1 X-2.45S0
G1 X-20.15S500
G1 X-0.85S0
G1 X-139.55S500
G1 X-1.05S0
G1 X-31.5S500
G1 X-2S0
G1 X-64.65S500
G0 X-2.917
G0 Y0.05
G0 X2.917
G1 X58.7
G1 X0.25S0
G1 X5.75S500
G1 X1.95S0
G1 X31.55S500
G1 X0.95S0
G1 X139.6S500
G1 X0.9S0
G1 X20.05S500
G1 X2.55S0
G1 X34.75S500
G0 X2.917
G0 Y0.05
G0 X-2.917
G1 X-34.75
G1 X-2.55S0
G1 X-20S500
G1 X-1S0
G1 X-139.55S500
G1 X-0.95S0
G1 X-31.6S500
G1 X-1.9S0
G1 X-5.65S500
G1 X-0.45S0
G1 X-58.6S500
G0 X-2.917
G0 Y0.05
G0 X2.917
G1 X58.55
G1 X0.55S0
G1 X5.65S500
G1 X1.8S0
G1 X31.7S500
G1 X0.85S0
G1 X139.6S500
G1 X0.95S0
G1 X20.05S500
G1 X2.55S0
G1 X34.75S500
G0 X2.917
G0 Y0.05
G0 X-2.917
G1 X-34.7
G1 X-2.65S0
G1 X-19.95S500
G1 X-1S0
G1 X-139.65S500
G1 X-0.75S0
G1 X-31.8S500
G1 X-1.7S0
G1 X-5.65S500
G1 X-0.65S0
G1 X-58.5S500
G0 X-2.917
G0 Y0.05
G0 X2.917
G1 X58.45
G1 X0.75S0
G1 X5.65S500
G1 X1.55S0
G1 X31.95S500
G1 X0.65S0
G1 X139.7S500
G1 X0.95S0
G1 X20.05S500
G1 X2.6S0
G1 X34.7S500
G0 X2.917
G0 Y0.05
G0 X-2.917
G1 X-34.7
G1 X-2.65S0
G1 X-19.95S500
G1 X-1S0
G1 X-139.8S500
G1 X-0.5S0
G1 X-32.05S500
G1 X-1.4S0
G1 X-5.7S500
G1 X-0.85S0
G1 X-58.4S500
G0 X-2.917
G0 Y0.05
G0 X2.917
G1 X58.4
G1 X0.9S0
G1 X5.75S500
G1 X1.2S0
G1 X32.3S500
G1 X0.2S0
G1 X140S500
G1 X0.9S0
G1 X20.05S500
G1 X2.6S0
G1 X34.7S500
G0 X2.917
G0 Y0.05
G0 X-2.917
G1 X-34.7
G1 X-2.65S0
G1 X-20S500
G1 X-0.9S0
G1 X-47.25S500
G1 X-0.3S0
G1 X-125.05S500
G1 X-1S0
G1 X-5.8S500
G1 X-1S0
G1 X-58.35S500
G0 X-2.917
G0 Y0.05
G0 X2.917
G1 X58.35
G1 X1S0
G1 X5.9S500
G1 X0.8S0
G1 X124.95S500
G1 X0.7S0
G1 X47.1S500
G1 X0.8S0
G1 X20.1S500
G1 X2.6S0
G1 X34.7S500
G0 X2.917
G0 Y0.05
G0 X-2.917
G1 X-34.7
G1 X-2.65S0
G1 X-20.1S500
G1 X-0.75S0
G1 X-46.9S500
G1 X-1S0
G1 X-131.55S500
G1 X-1S0
G1 X-58.35S500
G0 X-2.917
G0 Y0.05
G0 X2.917
G1 X23.4
G1 X0.05S0
G1 X0.05S500
G1 X0.1S0
G1 X0.05S500
G1 X0.05S0
G1 X34.65S500
G1 X1S0
G1 X131.45S500
G1 X1.25S0
G1 X46.8S500
G1 X0.65S0
G1 X20.2S500
G1 X2.6S0
G1 X34.7S500
G0 X2.917
G0 Y0.05
G0 X-2.917
G1 X-34.75
G1 X-2.6S0
G1 X-20.2S500
G1 X-0.55S0
G1 X-46.75S500
G1 X-1.4S0
G1 X-131.4S500
G1 X-1S0
G1 X-34.45S500
G1 X-0.7S0
G1 X-23.2S500
G0 X-2.917
G0 Y0.05
G0 X2.917
G1 X23.15
G1 X0.85S0
G1 X34.4S500
G1 X0.9S0
G1 X131.4S500
G1 X1.55S0
G1 X46.7S500
G1 X0.4S0
G1 X20.3S500
G1 X2.6S0
G1 X34.75S500
G0 X2.917
G0 Y0.05
G0 X-2.917
G1 X-34.75
G1 X-2.55S0
G1 X-20.45S500
G1 X-0.2S0
G1 X-46.75S500
G1 X-1.65S0
G1 X-131.35S500
G1 X-0.9S0
G1 X-34.35S500
G1 X-1S0
G1 X-23.05S500
G0 X-2.917
G0 Y0.05
G0 X2.917
G1 X22.95
G1 X1.2S0
G1 X34.3S500
G1 X0.8S0
G1 X131.4S500
G1 X1.7S0
G1 X67.35S500
G1 X2.55S0
G1 X34.75S500
G0 X2.917
G0 Y0.05
G0 X-2.917
G1 X-34.8
G1 X-2.45S0
G1 X-67.3S500
G1 X-1.9S0
G1 X-131.35S500
G1 X-0.75S0
G1 X-34.25S500
G1 X-1.35S0
G1 X-22.85S500
G0 X-2.917
G0 Y0.05
G0 X2.917
G1 X22.8
G1 X1.45S0
G1 X34.25S500
G1 X0.65S0
G1 X131.35S500
G1 X2S0
G1 X67.25S500
G1 X2.4S0
G1 X34.85S500
G0 X2.917
G0 Y0.05
G0 X-2.917
G1 X-34.85
G1 X-2.35S0
G1 X-67.3S500
G1 X-2.05S0
G1 X-131.35S500
G1 X-0.55S0
G1 X-34.25S500
G1 X-1.55S0
G1 X-22.75S500
G0 X-2.917
G0 Y0.05
G0 X2.917
G1 X22.7
G1 X1.65S0
G1 X34.3S500
G1 X0.35S0
G1 X131.45S500
G1 X2.1S0
G1 X67.25S500
G1 X2.35S0
G1 X34.85S500
G0 X2.917
G0 Y0.05
G0 X-2.917
G1 X-34.85
G1 X-2.3S0
G1 X-67.3S500
G1 X-2.15S0
G1 X-131.5S500
G1 X-0.15S0
G1 X-34.35S500
G1 X-1.7S0
G1 X-22.7S500
G0 X-2.917
G0 Y0.05
G0 X2.917
G1 X22.65
G1 X1.8S0
G1 X165.95S500
G1 X2.2S0
G1 X67.25S500
G1 X2.25S0
G1 X34.9S500
G0 X2.917
G0 Y0.05
G0 X-2.917
G1 X-34.9
G1 X-2.2S0
G1 X-67.25S500
G1 X-2.3S0
G1 X-76.1S500
G1 X-0.05S0
G1 X-0.05S500
G1 X-0.05S0
G1 X-0.05S500
G1 X-0.05S0
G1 X-89.5S500
G1 X-1.9S0
G1 X-22.6S500
G0 X-2.917
G0 Y0.05
G0 X2.917
G1 X22.6
G1 X1.9S0
G1 X89.4S500
G1 X0.5S0
G1 X75.9S500
G1 X2.35S0
G1 X67.25S500
G1 X2.15S0
G1 X34.95S500
G0 X2.917
G0 Y0.05
G0 X-2.917
G1 X-35
G1 X-2.05S0
G1 X-67.25S500
G1 X-2.4S0
G1 X-75.85S500
G1 X-0.6S0
G1 X-89.3S500
G1 X-1.95S0
G1 X-22.6S500
G0 X-2.917
G0 Y0.05
G0 X2.917
G1 X22.55
G1 X2S0
G1 X89.25S500
G1 X0.7S0
G1 X75.8S500
G1 X2.4S0
G1 X67.35S500
G1 X1.9S0
G1 X35.05S500
G0 X2.917
G0 Y0.05
G0 X-2.917
G1 X-35.1
G1 X-1.85S0
G1 X-67.3S500
G1 X-2.5S0
G1 X-75.7S500
G1 X-0.8S0
G1 X-89.2S500
G1 X-2S0
G1 X-22.55S500
G0 X-2.917
G0 Y0.05
G0 X2.917
G1 X22.55
G1 X2.05S0
G1 X89.1S500
G1 X0.85S0
G1 X75.7S500
G1 X2.5S0
G1 X67.4S500
G1 X1.65S0
G1 X35.2S500
G0 X2.917
G0 Y0.05
G0 X-2.917
G1 X-35.25
G1 X-1.55S0
G1 X-67.4S500
G1 X-2.6S0
G1 X-75.6S500
G1 X-0.9S0
G1 X-28S500
G1 X-0.1S0
G1 X-61S500
G1 X-2.1S0
G1 X-22.5S500
G0 X-2.917
G0 Y0.05
G0 X2.917
G1 X22.5
G1 X2.1S0
G1 X60.95S500
G1 X0.25S0
G1 X27.85S500
G1 X0.95S0
G1 X75.6S500
G1 X2.6S0
G1 X67.5S500
G1 X1.35S0
G1 X35.35S500
G0 X2.917
G0 Y0.05
G0 X-2.917
G1 X-35.45
G1 X-1.2S0
G1 X-67.55S500
G1 X-2.6S0
G1 X-8.55S500
G1 X-0.25S0
G1 X-66.8S500
G1 X-1S0
G1 X-27.75S500
G1 X-0.35S0
G1 X-60.85S500
G1 X-2.15S0
G1 X-22.5S500
G0 X-2.917
G0 Y0.05
G0 X2.917
G1 X22.5
G1 X2.15S0
G1 X60.8S500
G1 X0.45S0
G1 X27.7S500
G1 X1.05S0
G1 X66.6S500
G1 X0.55S0
G1 X8.4S500
G1 X2.6S0
G1 X67.65S500
G1 X1S0
G1 X35.55S500
G0 X2.917
G0 Y0.05
G0 X-2.917
G1 X-35.65
G1 X-0.05S0
G1 X-0.05S500
G1 X-0.05S0
G1 X-0.05S500
G1 X-0.45S0
G1 X-0.05S500
G1 X-0.05S0
G1 X-67.8S500
G1 X-2.65S0
G1 X-8.25S500
G1 X-0.8S0
G1 X-66.45S500
G1 X-1.05S0
G1 X-27.7S500
G1 X-0.45S0
G1 X-60.8S500
G1 X-2.15S0
G1 X-22.5S500
G0 X-2.917
G0 Y0.05
G0 X2.917
G1 X22.5
G1 X2.15S0
G1 X60.8S500
G1 X0.45S0
G1 X27.7S500
G1 X1S0
G1 X66.4S500
G1 X1.05S0
G1 X8.15S500
G1 X2.6S0
G1 X104.2S500
G0 X2.917
G0 Y0.05
G0 X-2.917
G1 X-104.15
G1 X-2.7S0
G1 X-8.05S500
G1 X-1.2S0
G1 X-66.3S500
G1 X-1S0
G1 X-27.7S500
G1 X-0.45S0
G1 X-60.75S500
G1 X-2.2S0
G1 X-22.5S500
G0 X-2.917
G0 Y0.05
G0 X2.917
G1 X22.5
G1 X2.2S0
G1 X60.75S500
G1 X0.4S0
G1 X27.75S500
G1 X1.05S0
G1 X66.2S500
G1 X1.3S0
G1 X8S500
G1 X2.65S0
G1 X104.2S500
G0 X2.917
G0 Y0.05
G0 X-2.917
G1 X-104.15
G1 X-2.65S0
G1 X-8S500
G1 X-1.35S0
G1 X-66.3S500
G1 X-0.95S0
G1 X-27.75S500
G1 X-0.35S0
G1 X-60.8S500
G1 X-2.2S0
G1 X-22.5S500
G0 X-2.917
G0 Y0.05
G0 X2.917
G1 X22.55
G1 X2.15S0
G1 X60.8S500
G1 X0.3S0
G1 X27.85S500
G1 X0.9S0
G1 X66.25S500
G1 X1.45S0
G1 X7.9S500
G1 X2.7S0
G1 X104.15S500
G0 X2.917
G0 Y0.05
G0 X-2.917
G1 X-104.2
G1 X-2.65S0
G1 X-7.85S500
G1 X-1.55S0
G1 X-3.05S500
G1 X-0.3S0
G1 X-62.85S500
G1 X-0.9S0
G1 X-27.95S500
G1 X-0.05S0
G1 X-60.95S500
G1 X-2.15S0
G1 X-22.55S500
G0 X-2.917
G0 Y0.05
G0 X2.917
G1 X22.6
G1 X2.1S0
G1 X89.05S500
G1 X0.75S0
G1 X62.85S500
G1 X0.4S0
G1 X3S500
G1 X1.6S0
G1 X7.85S500
G1 X2.65S0
G1 X104.15S500
G0 X2.917
G0 Y0.05
G0 X-2.917
G1 X-94.05
G1 X-0.35S0
G1 X-9.75S500
G1 X-2.7S0
G1 X-7.8S500
G1 X-1.6S0
G1 X-2.9S500
G1 X-0.55S0
G1 X-62.85S500
G1 X-0.7S0
G1 X-89.05S500
G1 X-2.1S0
G1 X-22.6S500
G0 X-2.917
G0 Y0.05
G0 X2.917
G1 X22.65
G1 X2.05S0
G1 X89.1S500
G1 X0.6S0
G1 X62.85S500
G1 X0.6S0
G1 X2.85S500
G1 X1.7S0
G1 X7.75S500
G1 X2.65S0
G1 X9.7S500
G1 X0.45S0
G1 X94.05S500
G0 X2.917
G0 Y0.05
G0 X-2.917
G1 X-93.95
G1 X-0.6S0
G1 X-9.65S500
G1 X-2.6S0
G1 X-7.8S500
G1 X-1.7S0
G1 X-2.85S500
G1 X-0.6S0
G1 X-62.9S500
G1 X-0.5S0
G1 X-89.15S500
G1 X-2.05S0
G1 X-22.65S500
G0 X-2.917
G0 Y0.05
G0 X2.917
G1 X22.7
G1 X1.95S0
G1 X89.4S500
G1 X0.05S0
G1 X0.05S500
G1 X0.05S0
G1 X63S500
G1 X0.65S0
G1 X2.85S500
G1 X1.7S0
G1 X7.75S500
G1 X2.65S0
G1 X9.65S500
G1 X0.6S0
G1 X93.95S500
G0 X2.917
G0 Y0.05
G0 X-2.917
G1 X-93.9
G1 X-0.7S0
G1 X-9.6S500
G1 X-2.6S0
G1 X-7.8S500
G1 X-1.7S0
G1 X-2.85S500
G1 X-0.65S0
G1 X-152.55S500
G1 X-1.9S0
G1 X-22.75S500
G0 X-2.917
G0 Y0.05
G0 X2.917
G1 X22.75
G1 X1.9S0
G1 X152.55S500
G1 X0.65S0
G1 X2.85S500
G1 X1.7S0
G1 X7.8S500
G1 X2.6S0
G1 X9.6S500
G1 X0.7S0
G1 X93.9S500
G0 X2.917
G0 Y0.05
G0 X-2.917
G1 X-93.9
G1 X-0.7S0
G1 X-9.6S500
G1 X-2.6S0
G1 X-7.8S500
G1 X-1.7S0
G1 X-2.8S500
G1 X-0.65S0
G1 X-152.65S500
G1 X-1.8S0
G1 X-22.8S500
G0 X-2.917
G0 Y0.05
G0 X2.917
G1 X22.85
G1 X1.75S0
G1 X152.6S500
G1 X0.65S0
G1 X2.9S500
G1 X1.65S0
G1 X7.8S500
G1 X2.6S0
G1 X9.6S500
G1 X0.7S0
G1 X93.9S500
G0 X2.917
G0 Y0.05
G0 X-2.917
G1 X-93.9
G1 X-0.7S0
G1 X-9.65S500
G1 X-2.5S0
G1 X-7.9S500
G1 X-1.6S0
G1 X-2.95S500
G1 X-0.55S0
G1 X-152.7S500
G1 X-1.65S0
G1 X-22.9S500
G0 X-2.917
G0 Y0.05
G0 X2.917
G1 X22.95
G1 X1.6S0
G1 X152.75S500
G1 X0.45S0
G1 X3S500
G1 X1.6S0
G1 X7.9S500
G1 X2.45S0
G1 X9.7S500
G1 X0.65S0
G1 X93.95S500
G0 X2.917
G0 Y0.05
G0 X-2.917
G1 X-93.95
G1 X-0.65S0
G1 X-9.7S500
G1 X-2.4S0
G1 X-8S500
G1 X-1.5S0
G1 X-3.15S500
G1 X-0.25S0
G1 X-152.9S500
G1 X-1.5S0
G1 X-23S500
G0 X-2.917
G0 Y0.05
G0 X2.917
G1 X23.05
G1 X1.4S0
G1 X156.35S500
G1 X1.5S0
G1 X8S500
G1 X2.35S0
G1 X9.8S500
G1 X0.55S0
G1 X94S500
G0 X2.917
G0 Y0.05
G0 X-2.917
G1 X-94
G1 X-0.5S0
G1 X-9.9S500
G1 X-2.25S0
G1 X-8.1S500
G1 X-1.4S0
G1 X-156.5S500
G1 X-1.25S0
G1 X-23.1S500
G0 X-2.917
G0 Y0.05
G0 X2.917
G1 X23.15
G1 X1.15S0
G1 X156.55S500
G1 X1.4S0
G1 X8.1S500
G1 X2.2S0
G1 X10S500
G1 X0.35S0
G1 X94.1S500
G0 X2.917
G0 Y0.05
G0 X-2.917
G1 X-94.1
G1 X-0.05S0
G1 X-0.05S500
G1 X-0.05S0
G1 X-0.05S500
G1 X-0.05S0
G1 X-10.15S500
G1 X-2.1S0
G1 X-8.2S500
G1 X-1.3S0
G1 X-156.7S500
G1 X-0.95S0
G1 X-23.25S500
G0 X-2.917
G0 Y0.05
G0 X2.917
G1 X23.35
G1 X0.75S0
G1 X156.85S500
G1 X1.2S0
G1 X8.3S500
G1 X1.95S0
G1 X104.6S500
G0 X2.917
G0 Y0.05
G0 X-2.917
G1 X-104.65
G1 X-1.85S0
G1 X-8.4S500
G1 X-1.15S0
G1 X-157S500
G1 X-0.4S0
G1 X-23.55S500
G0 X-2.917
G0 Y0.05
G0 X2.917
G1 X181
G1 X1.05S0
G1 X8.55S500
G1 X1.7S0
G1 X104.7S500
G0 X2.917
G0 Y0.05
G0 X-2.917
G1 X-104.95
G1 X-1.4S0
G1 X-8.65S500
G1 X-0.9S0
G1 X-181.1S500
G0 X-2.917
G0 Y0.05
G0 X2.917
G1 X181.15
G1 X0.75S0
G1 X8.85S500
G1 X0.95S0
G1 X0.05S500
G1 X0.05S0
G1 X105.2S500
G0 X2.917
G0 Y0.05
G0 X-2.917
G1 X-105.45
G1 X-0.65S0
G1 X-9.05S500
G1 X-0.05S0
G1 X-0.05S500
G1 X-0.45S0
G1 X-181.3S500
G0 X-2.917
G0 Y0.05
G0 X2.917
G1 X191.1
G1 X0.25S0
G1 X105.65S500
G0 X2.917
G0 Y0.05
G0 X-2.917
G1 X-297
G0 X-2.917
G0 Y0.05
G0 X2.917
G1 X297
G0 X2.917
G0 Y0.05
G0 X-2.917
G1 X-253.4
G1 X-0.2S0
G1 X-43.4S500
G0 X-2.917
G0 Y0.05
G0 X2.917
G1 X21.1
G1 X0.05S0
G1 X22.15S500
G1 X0.5S0
G1 X253.2S500
G0 X2.917
G0 Y0.05
G0 X-2.917
G1 X-253.1
G1 X-0.7S0
G1 X-9.55S500
G1 X-0.05S0
G1 X-12.2S500
G1 X-0.5S0
G1 X-20.9S500
G0 X-2.917
G0 Y0.05
G0 X2.917
G1 X20.85
G1 X0.55S0
G1 X12.05S500
G1 X0.35S0
G1 X9.4S500
G1 X0.75S0
G1 X253.05S500
G0 X2.917
G0 Y0.05
G0 X-2.917
G1 X-253
G1 X-0.85S0
G1 X-9.25S500
G1 X-0.55S0
G1 X-11.85S500
G1 X-0.7S0
G1 X-20.8S500
G0 X-2.917
G0 Y0.05
G0 X2.917
G1 X20.75
G1 X0.75S0
G1 X11.8S500
G1 X0.65S0
G1 X9.15S500
G1 X0.95S0
G1 X252.95S500
G0 X2.917
G0 Y0.05
G0 X-2.917
G1 X-252.9
G1 X-1.05S0
G1 X-9.05S500
G1 X-0.75S0
G1 X-11.7S500
G1 X-0.85S0
G1 X-20.7S500
G0 X-2.917
G0 Y0.05
G0 X2.917
G1 X20.7
G1 X0.9S0
G1 X11.6S500
G1 X0.8S0
G1 X9.05S500
G1 X1.1S0
G1 X252.85S500
G0 X2.917
G0 Y0.05
G0 X-2.917
G1 X-252.8
G1 X-1.2S0
G1 X-8.9S500
G1 X-0.95S0
G1 X-11.55S500
G1 X-0.9S0
G1 X-20.7S500
G0 X-2.917
G0 Y0.05
G0 X2.917
G1 X20.65
G1 X1S0
G1 X11.5S500
G1 X0.95S0
G1 X8.9S500
G1 X1.2S0
G1 X252.8S500
G0 X2.917
G0 Y0.05
G0 X-2.917
G1 X-252.8
G1 X-1.2S0
G1 X-8.9S500
G1 X-1S0
G1 X-11.45S500
G1 X-1S0
G1 X-20.65S500
G0 X-2.917
G0 Y0.05
G0 X2.917
G1 X20.65
G1 X1S0
G1 X11.45S500
G1 X1S0
G1 X8.95S500
G1 X1.15S0
G1 X252.8S500
G0 X2.917
G0 Y0.05
G0 X-2.917
G1 X-252.8
G1 X-1.15S0
G1 X-8.95S500
G1 X-1S0
G1 X-11.45S500
G1 X-1S0
G1 X-20.65S500
G0 X-2.917
G0 Y0.05
G0 X2.917
G1 X20.65
G1 X0.95S0
G1 X11.5S500
G1 X1.05S0
G1 X8.9S500
G1 X1.1S0
G1 X186.3S500
G1 X0.15S0
G1 X0.05S500
G1 X0.1S0
G1 X66.25S500
G0 X2.917
G0 Y0.05
G0 X-2.917
G1 X-66.15
G1 X-0.5S0
G1 X-186.2S500
G1 X-1.05S0
G1 X-9S500
G1 X-1S0
G1 X-11.5S500
G1 X-0.9S0
G1 X-20.7S500
G0 X-2.917
G0 Y0.05
G0 X2.917
G1 X20.7
G1 X0.85S0
G1 X11.6S500
G1 X0.95S0
G1 X9.05S500
G1 X1S0
G1 X186.15S500
G1 X0.55S0
G1 X66.15S500
G0 X2.917
G0 Y0.05
G0 X-2.917
G1 X-66.05
G1 X-0.7S0
G1 X-186.15S500
G1 X-0.95S0
G1 X-9.1S500
G1 X-0.9S0
G1 X-11.65S500
G1 X-0.75S0
G1 X-20.75S500
G0 X-2.917
G0 Y0.05
G0 X2.917
G1 X20.75
G1 X0.7S0
G1 X11.75S500
G1 X0.8S0
G1 X9.15S500
G1 X0.9S0
G1 X186.15S500
G1 X0.75S0
G1 X66.05S500
G0 X2.917
G0 Y0.05
G0 X-2.917
G1 X-65.95
G1 X-0.9S0
G1 X-186.15S500
G1 X-0.75S0
G1 X-9.3S500
G1 X-0.7S0
G1 X-11.85S500
G1 X-0.55S0
G1 X-20.85S500
G0 X-2.917
G0 Y0.05
G0 X2.917
G1 X20.95
G1 X0.35S0
G1 X12.05S500
G1 X0.5S0
G1 X9.45S500
G1 X0.6S0
G1 X186.2S500
G1 X0.95S0
G1 X65.95S500
G0 X2.917
G0 Y0.05
G0 X-2.917
G1 X-65.9
G1 X-1S0
G1 X-186.35S500
G1 X-0.35S0
G1 X-9.6S500
G1 X-0.4S0
G1 X-33.4S500
G0 X-2.917
G0 Y0.05
G0 X2.917
G1 X33.55
G1 X0.15S0
G1 X196.4S500
G1 X1S0
G1 X65.9S500
G0 X2.917
G0 Y0.05
G0 X-2.917
G1 X-65.9
G1 X-1S0
G1 X-230.1S500
G0 X-2.917
G0 Y0.05
G0 X2.917
G1 X230.1
G1 X1S0
G1 X65.9S500
G0 X2.917
G0 Y0.05
G0 X-2.917
G1 X-65.9
G1 X-1S0
G1 X-230.1S500
G0 X-2.917
G0 Y0.05
G0 X2.917
G1 X230.1
G1 X0.95S0
G1 X65.95S500
G0 X2.917
G0 Y0.05
G0 X-2.917
G1 X-65.95
G1 X-0.9S0
G1 X-230.15S500
G0 X-2.917
G0 Y0.05
G0 X2.917
G1 X72.9
G1 X0.2S0
G1 X157.1S500
G1 X0.8S0
G1 X66S500
G0 X2.917
G0 Y0.05
G0 X-2.917
G1 X-66.05
G1 X-0.75S0
G1 X-157S500
G1 X-0.35S0
G1 X-72.85S500
G0 X-2.917
G0 Y0.05
G0 X2.917
G1 X72.8
G1 X0.4S0
G1 X157.1S500
G1 X0.6S0
G1 X66.1S500
G0 X2.917
G0 Y0.05
G0 X-2.917
G1 X-66.15
G1 X-0.55S0
G1 X-157.05S500
G1 X-0.5S0
G1 X-72.75S500
G0 X-2.917
G0 Y0.05
G0 X2.917
G1 X72.75
G1 X0.5S0
G1 X157.15S500
G1 X0.35S0
G1 X66.25S500
G0 X2.917
G0 Y0.05
G0 X-2.917
G1 X-223.8
G1 X-0.45S0
G1 X-72.75S500
G0 X-2.917
G0 Y0.05
G0 X2.917
G1 X72.8
G1 X0.4S0
G1 X213.15S500
G1 X0.2S0
G1 X10.45S500
G0 X2.917
G0 Y0.05
G0 X-2.917
G1 X-10.3
G1 X-0.05S0
G1 X-0.05S500
G1 X-0.45S0
G1 X-213.1S500
G1 X-0.15S0
G1 X-72.9S500
G0 X-2.917
G0 Y0.05
G0 X2.917
G1 X286
G1 X0.75S0
G1 X10.25S500
G0 X2.917
G0 Y0.05
G0 X-2.917
G1 X-10.15
G1 X-0.9S0
G1 X-267.15S500
G1 X-0.25S0
G1 X-18.55S500
G0 X-2.917
G0 Y0.05
G0 X2.917
G1 X18.55
G1 X0.25S0
G1 X267.05S500
G1 X1S0
G1 X10.15S500
G0 X2.917
G0 Y0.05
G0 X-2.917
G1 X-10.1
G1 X-1.1S0
G1 X-114.7S500
G1 X-0.25S0
G1 X-152S500
G1 X-0.35S0
G1 X-18.5S500
G0 X-2.917
G0 Y0.05
G0 X2.917
G1 X18.5
G1 X0.35S0
G1 X152S500
G1 X0.25S0
G1 X114.7S500
G1 X1.15S0
G1 X10.05S500
G0 X2.917
G0 Y0.05
G0 X-2.917
G1 X-10.05
G1 X-1.2S0
G1 X-114.6S500
G1 X-0.35S0
G1 X-151.95S500
G1 X-0.4S0
G1 X-18.45S500
G0 X-2.917
G0 Y0.05
G0 X2.917
G1 X18.5
G1 X0.3S0
G1 X152S500
G1 X0.35S0
G1 X114.6S500
G1 X1.2S0
G1 X10.05S500
G0 X2.917
G0 Y0.05
G0 X-2.917
G1 X-10.05
G1 X-1.2S0
G1 X-114.6S500
G1 X-0.35S0
G1 X-152S500
G1 X-0.3S0
G1 X-18.5S500
G0 X-2.917
G0 Y0.05
G0 X2.917
G1 X18.55
G1 X0.2S0
G1 X152.1S500
G1 X0.25S0
G1 X114.65S500
G1 X1.2S0
G1 X10.05S500
G0 X2.917
G0 Y0.05
G0 X-2.917
G1 X-10.05
G1 X-1.2S0
G1 X-114.75S500
G1 X-0.05S0
G1 X-170.95S500
G0 X-2.917
G0 Y0.05
G0 X2.917
G1 X48.6
G1 X0.1S0
G1 X237.05S500
G1 X1.15S0
G1 X10.1S500
G0 X2.917
G0 Y0.05
G0 X-2.917
G1 X-10.1
G1 X-1.15S0
G1 X-236.95S500
G1 X-0.25S0
G1 X-48.55S500
G0 X-2.917
G0 Y0.05
G0 X2.917
G1 X48.5
G1 X0.35S0
G1 X236.95S500
G1 X1.05S0
G1 X10.15S500
G0 X2.917
G0 Y0.05
G0 X-2.917
G1 X-10.2
G1 X-1S0
G1 X-236.85S500
G1 X-0.45S0
G1 X-48.5S500
G0 X-2.917
G0 Y0.05
G0 X2.917
G1 X48.55
G1 X0.5S0
G1 X236.8S500
G1 X0.9S0
G1 X10.25S500
G0 X2.917
G0 Y0.05
G0 X-2.917
G1 X-10.3
G1 X-0.8S0
G1 X-236.7S500
G1 X-0.6S0
G1 X-48.6S500
G0 X-2.917
G0 Y0.05
G0 X2.917
G1 X48.6
G1 X0.85S0
G1 X0.05S500
G1 X0.05S0
G1 X0.05S500
G1 X0.1S0
G1 X0.05S500
G1 X0.05S0
G1 X0.05S500
G1 X0.1S0
G1 X0.05S500
G1 X0.05S0
G1 X0.05S500
G1 X0.1S0
G1 X0.05S500
G1 X0.05S0
G1 X0.05S500
G1 X0.1S0
G1 X0.05S500
G1 X0.05S0
G1 X0.05S500
G1 X0.1S0
G1 X0.05S500
G1 X0.05S0
G1 X0.05S500
G1 X0.1S0
G1 X0.05S500
G1 X0.05S0
G1 X0.05S500
G1 X0.1S0
G1 X0.05S500
G1 X0.05S0
G1 X0.05S500
G1 X0.1S0
G1 X0.05S500
G1 X0.05S0
G1 X0.05S500
G1 X0.1S0
G1 X0.05S500
G1 X0.05S0
G1 X0.05S500
G1 X0.1S0
G1 X0.05S500
G1 X0.05S0
G1 X0.05S500
G1 X0.1S0
G1 X0.05S500
G1 X0.05S0
G1 X0.05S500
G1 X0.1S0
G1 X0.05S500
G1 X0.05S0
G1 X0.05S500
G1 X0.1S0
G1 X0.05S500
G1 X0.05S0
G1 X0.05S500
G1 X0.1S0
G1 X0.05S500
G1 X0.05S0
G1 X0.05S500
G1 X0.1S0
G1 X0.05S500
G1 X0.05S0
G1 X0.05S500
G1 X0.1S0
G1 X0.05S500
G1 X0.05S0
G1 X0.05S500
G1 X0.1S0
G1 X0.05S500
G1 X0.05S0
G1 X0.05S500
G1 X0.1S0
G1 X0.05S500
G1 X0.05S0
G1 X0.05S500
G1 X0.1S0
G1 X0.05S500
G1 X0.05S0
G1 X0.05S500
G1 X0.1S0
G1 X0.05S500
G1 X0.05S0
G1 X0.05S500
G1 X0.1S0
G1 X0.05S500
G1 X0.05S0
G1 X0.05S500
G1 X0.1S0
G1 X0.05S500
G1 X0.05S0
G1 X0.05S500
G1 X0.1S0
G1 X0.05S500
G1 X0.05S0
G1 X0.05S500
G1 X0.1S0
G1 X0.05S500
G1 X0.05S0
G1 X0.05S500
G1 X0.05S0
G1 X230.35S500
G1 X0.65S0
G1 X10.35S500
G0 X2.917
G0 Y0.05
G0 X-2.917
G1 X-10.45
G1 X-0.45S0
G1 X-230.25S500
G1 X-7.25S0
G1 X-48.6S500
G0 X-2.917
G0 Y0.05
G0 X2.917
G1 X48.65
G1 X7.3S0
G1 X230.25S500
G1 X0.3S0
G1 X10.5S500
G0 X2.917
G0 Y0.05
G0 X-2.917
G1 X-241.05
G1 X-7.25S0
G1 X-48.7S500
G0 X-2.917
G0 Y0.05
G0 X2.917
G1 X48.75
G1 X7.3S0
G1 X240.95S500
G0 X2.917
G0 Y0.05
G0 X-2.917
G1 X-240.85
G1 X-7.4S0
G1 X-48.75S500
G0 X-2.917
G0 Y0.05
G0 X2.917
G1 X48.8
G1 X7.4S0
G1 X240.8S500
G0 X2.917
G0 Y0.05
G0 X-2.917
G1 X-240.8
G1 X-7.35S0
G1 X-48.85S500
G0 X-2.917
G0 Y0.05
G0 X2.917
G1 X48.8
G1 X7.45S0
G1 X240.75S500
G0 X2.917
G0 Y0.05
G0 X-2.917
G1 X-240.75
G1 X-7.5S0
G1 X-48.75S500
G0 X-2.917
G0 Y0.05
G0 X2.917
G1 X48.65
G1 X7.65S0
G1 X240.7S500
G0 X2.917
G0 Y0.05
G0 X-2.917
G1 X-240.65
G1 X-7.8S0
G1 X-48.55S500
G0 X-2.917
G0 Y0.05
G0 X2.917
G1 X48.45
G1 X7.95S0
G1 X240.6S500
G0 X2.917
G0 Y0.05
G0 X-2.917
G1 X-240.6
G1 X-8S0
G1 X-48.4S500
G0 X-2.917
G0 Y0.05
G0 X2.917
G1 X48.35
G1 X8.1S0
G1 X240.55S500
G0 X2.917
G0 Y0.05
G0 X-2.917
G1 X-240.55
G1 X-8.2S0
G1 X-48.25S500
G0 X-2.917
G0 Y0.05
G0 X2.917
G1 X48.2
G1 X8.3S0
G1 X240.5S500
G0 X2.917
G0 Y0.05
G0 X-2.917
G1 X-240.45
G1 X-8.4S0
G1 X-48.15S500
G0 X-2.917
G0 Y0.05
G0 X2.917
G1 X48.1
G1 X8.45S0
G1 X240.45S500
G0 X2.917
G0 Y0.05
G0 X-2.917
G1 X-240.45
G1 X-8.5S0
G1 X-48.05S500
G0 X-2.917
G0 Y0.05
G0 X2.917
G1 X47.95
G1 X8.65S0
G1 X240.4S500
G0 X2.917
G0 Y0.05
G0 X-2.917
G1 X-240.35
G1 X-8.75S0
G1 X-47.9S500
G0 X-2.917
G0 Y0.05
G0 X2.917
G1 X47.85
G1 X8.85S0
G1 X78.8S500
G1 X0.55S0
G1 X160.95S500
G0 X2.917
G0 Y0.05
G0 X-2.917
G1 X-160.9
G1 X-0.65S0
G1 X-78.75S500
G1 X-8.9S0
G1 X-47.8S500
G0 X-2.917
G0 Y0.05
G0 X2.917
G1 X47.75
G1 X9S0
G1 X78.65S500
G1 X0.8S0
G1 X160.8S500
G0 X2.917
G0 Y0.05
G0 X-2.917
G1 X-160.8
G1 X-0.85S0
G1 X-78.6S500
G1 X-9.05S0
G1 X-47.7S500
G0 X-2.917
G0 Y0.05
G0 X2.917
G1 X47.65
G1 X9.15S0
G1 X78.55S500
G1 X0.9S0
G1 X160.75S500
G0 X2.917
G0 Y0.05
G0 X-2.917
G1 X-160.75
G1 X-0.9S0
G1 X-78.55S500
G1 X-9.25S0
G1 X-47.55S500
G0 X-2.917
G0 Y0.05
G0 X2.917
G1 X47.5
G1 X9.35S0
G1 X78.5S500
G1 X0.95S0
G1 X160.7S500
G0 X2.917
G0 Y0.05
G0 X-2.917
G1 X-160.7
G1 X-0.95S0
G1 X-15.9S500
G1 X-0.55S0
G1 X-62.05S500
G1 X-9.4S0
G1 X-47.45S500
G0 X-2.917
G0 Y0.05
G0 X2.917
G1 X47.4
G1 X9.5S0
G1 X61.85S500
G1 X0.75S0
G1 X15.85S500
G1 X0.95S0
G1 X160.7S500
G0 X2.917
G0 Y0.05
G0 X-2.917
G1 X-160.65
G1 X-1S0
G1 X-15.75S500
G1 X-0.95S0
G1 X-61.75S500
G1 X-6.1S0
G1 X-0.05S500
G1 X-3.4S0
G1 X-47.35S500
G0 X-2.917
G0 Y0.05
G0 X2.917
G1 X47.3
G1 X3.3S0
G1 X0.1S500
G1 X6.25S0
G1 X61.65S500
G1 X1.1S0
G1 X15.65S500
G1 X1S0
G1 X160.65S500
G0 X2.917
G0 Y0.05
G0 X-2.917
G1 X-160.7
G1 X-1S0
G1 X-15.5S500
G1 X-1.3S0
G1 X-61.55S500
G1 X-0.85S0
G1 X-0.05S500
G1 X-5.5S0
G1 X-0.05S500
G1 X-3.25S0
G1 X-47.25S500
G0 X-2.917
G0 Y0.05
G0 X2.917
G1 X47.25
G1 X3.15S0
G1 X0.15S500
G1 X5.55S0
G1 X0.05S500
G1 X0.85S0
G1 X61.45S500
G1 X1.45S0
G1 X15.45S500
G1 X0.95S0
G1 X160.7S500
G0 X2.917
G0 Y0.05
G0 X-2.917
G1 X-160.7
G1 X-0.95S0
G1 X-15.4S500
G1 X-1.55S0
G1 X-61.4S500
G1 X-0.8S0
G1 X-0.05S500
G1 X-5.7S0
G1 X-0.15S500
G1 X-3.1S0
G1 X-47.2S500
G0 X-2.917
G0 Y0.05
G0 X2.917
G1 X47.15
G1 X3.05S0
G1 X0.2S500
G1 X5.8S0
G1 X0.1S500
G1 X0.75S0
G1 X61.3S500
G1 X1.65S0
G1 X15.35S500
G1 X0.9S0
G1 X160.75S500
G0 X2.917
G0 Y0.05
G0 X-2.917
G1 X-160.8
G1 X-0.8S0
G1 X-15.4S500
G1 X-1.7S0
G1 X-61.25S500
G1 X-0.7S0
G1 X-0.1S500
G1 X-5.95S0
G1 X-0.15S500
G1 X-3.05S0
G1 X-47.1S500
G0 X-2.917
G0 Y0.05
G0 X2.917
G1 X47.05
G1 X2.95S0
G1 X0.2S500
G1 X6.1S0
G1 X0.05S500
G1 X0.05S0
G1 X0.05S500
G1 X0.6S0
G1 X61.2S500
G1 X1.8S0
G1 X15.4S500
G1 X0.7S0
G1 X160.85S500
G0 X2.917
G0 Y0.05
G0 X-2.917
G1 X-160.9
G1 X-0.6S0
G1 X-15.45S500
G1 X-1.85S0
G1 X-61.15S500
G1 X-0.55S0
G1 X-0.15S500
G1 X-6.2S0
G1 X-0.25S500
G1 X-2.9S0
G1 X-47S500
G0 X-2.917
G0 Y0.05
G0 X2.917
G1 X46.95
G1 X2.85S0
G1 X0.3S500
G1 X6.25S0
G1 X0.2S500
G1 X0.55S0
G1 X61.1S500
G1 X1.85S0
G1 X15.5S500
G1 X0.45S0
G1 X161S500
G0 X2.917
G0 Y0.05
G0 X-2.917
G1 X-161.05
G1 X-0.35S0
G1 X-15.5S500
G1 X-1.95S0
G1 X-61S500
G1 X-0.55S0
G1 X-6.9S500
G1 X-2.8S0
G1 X-46.9S500
G0 X-2.917
G0 Y0.05
G0 X2.917
G1 X46.85
G1 X2.75S0
G1 X7.05S500
G1 X0.5S0
G1 X61S500
G1 X1.95S0
G1 X176.9S500
G0 X2.917
G0 Y0.05
G0 X-2.917
G1 X-176.85
G1 X-2.05S0
G1 X-60.9S500
G1 X-0.45S0
G1 X-7.25S500
G1 X-2.7S0
G1 X-46.8S500
G0 X-2.917
G0 Y0.05
G0 X2.917
G1 X46.75
G1 X2.6S0
G1 X7.5S500
G1 X0.35S0
G1 X60.9S500
G1 X2.05S0
G1 X176.85S500
G0 X2.917
G0 Y0.05
G0 X-2.917
G1 X-176.85
G1 X-2.05S0
G1 X-60.9S500
G1 X-0.3S0
G1 X-7.65S500
G1 X-2.55S0
G1 X-46.7S500
G0 X-2.917
G0 Y0.05
G0 X2.917
G1 X46.65
G1 X2.55S0
G1 X7.75S500
G1 X0.3S0
G1 X60.8S500
G1 X2.1S0
G1 X176.85S500
G0 X2.917
G0 Y0.05
G0 X-2.917
G1 X-176.85
G1 X-2.1S0
G1 X-60.8S500
G1 X-0.25S0
G1 X-7.9S500
G1 X-2.45S0
G1 X-46.65S500
G0 X-2.917
G0 Y0.05
G0 X2.917
G1 X46.6
G1 X2.4S0
G1 X8.1S500
G1 X0.05S0
G1 X0.05S500
G1 X0.1S0
G1 X60.7S500
G1 X2.15S0
G1 X176.85S500
G0 X2.917
G0 Y0.05
G0 X-2.917
G1 X-176.85
G1 X-2.15S0
G1 X-69.1S500
G1 X-2.35S0
G1 X-46.55S500
G0 X-2.917
G0 Y0.05
G0 X2.917
G1 X46.45
G1 X2.35S0
G1 X69.15S500
G1 X2.2S0
G1 X176.85S500
G0 X2.917
G0 Y0.05
G0 X-2.917
G1 X-176.85
G1 X-2.25S0
G1 X-69.2S500
G1 X-2.25S0
G1 X-46.45S500
G0 X-2.917
G0 Y0.05
G0 X2.917
G1 X46.4
G1 X2.2S0
G1 X69.3S500
G1 X2.25S0
G1 X176.85S500
G0 X2.917
G0 Y0.05
G0 X-2.917
G1 X-176.85
G1 X-2.25S0
G1 X-69.35S500
G1 X-2.15S0
G1 X-46.4S500
G0 X-2.917
G0 Y0.05
G0 X2.917
G1 X46.3
G1 X2.15S0
G1 X69.45S500
G1 X2.25S0
G1 X176.85S500
G0 X2.917
G0 Y0.05
G0 X-2.917
G1 X-176.9
G1 X-2.15S0
G1 X-69.6S500
G1 X-2.1S0
G1 X-46.25S500
G0 X-2.917
G0 Y0.05
G0 X2.917
G1 X46.25
G1 X2.05S0
G1 X69.6S500
G1 X2.2S0
G1 X176.9S500
G0 X2.917
G0 Y0.05
G0 X-2.917
G1 X-176.95
G1 X-2.15S0
G1 X-69.7S500
G1 X-2S0
G1 X-46.2S500
G0 X-2.917
G0 Y0.05
G0 X2.917
G1 X46.15
G1 X1.95S0
G1 X69.85S500
G1 X2.1S0
G1 X176.95S500
G0 X2.917
G0 Y0.05
G0 X-2.917
G1 X-27
G1 X-0.3S0
G1 X-149.65S500
G1 X-2.1S0
G1 X-63.25S500
G1 X-8.6S0
G1 X-46.1S500
G0 X-2.917
G0 Y0.05
G0 X2.917
G1 X46.1
G1 X8.95S0
G1 X62.9S500
G1 X2.05S0
G1 X149.55S500
G1 X0.65S0
G1 X26.8S500
G0 X2.917
G0 Y0.05
G0 X-2.917
G1 X-26.7
G1 X-0.8S0
G1 X-149.5S500
G1 X-2S0
G1 X-62.85S500
G1 X-9.1S0
G1 X-46.05S500
G0 X-2.917
G0 Y0.05
G0 X2.917
G1 X46.05
G1 X9.15S0
G1 X62.8S500
G1 X1.95S0
G1 X149.45S500
G1 X0.95S0
G1 X26.65S500
G0 X2.917
G0 Y0.05
G0 X-2.917
G1 X-26.6
G1 X-1.05S0
G1 X-149.4S500
G1 X-1.9S0
G1 X-62.75S500
G1 X-9.2S0
G1 X-19S500
G1 X-0.1S0
G1 X-27S500
G0 X-2.917
G0 Y0.05
G0 X2.917
G1 X26.9
G1 X0.35S0
G1 X18.95S500
G1 X9.15S0
G1 X62.7S500
G1 X1.85S0
G1 X149.4S500
G1 X1.15S0
G1 X26.55S500
G0 X2.917
G0 Y0.05
G0 X-2.917
G1 X-26.5
G1 X-1.25S0
G1 X-137.05S500
G1 X-0.35S0
G1 X-12S500
G1 X-1.75S0
G1 X-62.7S500
G1 X-9.15S0
G1 X-18.9S500
G1 X-0.55S0
G1 X-26.8S500
G0 X-2.917
G0 Y0.05
G0 X2.917
G1 X26.75
G1 X0.7S0
G1 X18.95S500
G1 X9.05S0
G1 X62.65S500
G1 X1.75S0
G1 X11.85S500
G1 X0.6S0
G1 X136.95S500
G1 X1.3S0
G1 X26.45S500
G0 X2.917
G0 Y0.05
G0 X-2.917
G1 X-26.45
G1 X-1.3S0
G1 X-136.95S500
G1 X-0.65S0
G1 X-11.9S500
G1 X-1.6S0
G1 X-62.65S500
G1 X-9.1S0
G1 X-18.95S500
G1 X-0.75S0
G1 X-26.7S500
G0 X-2.917
G0 Y0.05
G0 X2.917
G1 X26.65
G1 X0.85S0
G1 X19S500
G1 X9S0
G1 X62.7S500
G1 X1.55S0
G1 X11.85S500
G1 X0.75S0
G1 X136.85S500
G1 X1.35S0
G1 X26.45S500
G0 X2.917
G0 Y0.05
G0 X-2.917
G1 X-26.4
G1 X-1.4S0
G1 X-136.8S500
G1 X-0.8S0
G1 X-11.9S500
G1 X-1.5S0
G1 X-62.65S500
G1 X-9S0
G1 X-19.05S500
G1 X-0.85S0
G1 X-26.65S500
G0 X-2.917
G0 Y0.05
G0 X2.917
G1 X26.6
G1 X0.95S0
G1 X19.15S500
G1 X8.9S0
G1 X62.65S500
G1 X1.4S0
G1 X11.9S500
G1 X0.9S0
G1 X81.25S500
G1 X0.15S0
G1 X55.35S500
G1 X1.35S0
G1 X26.45S500
G0 X2.917
G0 Y0.05
G0 X-2.917
G1 X-26.4
G1 X-1.4S0
G1 X-55.15S500
G1 X-0.5S0
G1 X-81.1S500
G1 X-0.9S0
G1 X-12S500
G1 X-1.15S0
G1 X-62.7S500
G1 X-8.95S0
G1 X-19.2S500
G1 X-0.95S0
G1 X-26.6S500
G0 X-2.917
G0 Y0.05
G0 X2.917
G1 X26.55
G1 X1S0
G1 X19.3S500
G1 X8.85S0
G1 X62.75S500
G1 X1.05S0
G1 X12S500
G1 X1S0
G1 X81S500
G1 X0.6S0
G1 X55.1S500
G1 X1.4S0
G1 X26.4S500
G0 X2.917
G0 Y0.05
G0 X-2.917
G1 X-26.45
G1 X-1.35S0
G1 X-55.05S500
G1 X-0.7S0
G1 X-80.95S500
G1 X-1S0
G1 X-12.15S500
G1 X-0.75S0
G1 X-62.85S500
G1 X-8.85S0
G1 X-19.35S500
G1 X-1S0
G1 X-26.55S500
G0 X-2.917
G0 Y0.05
G0 X2.917
G1 X26.55
G1 X1.05S0
G1 X19.35S500
G1 X8.8S0
G1 X62.95S500
G1 X0.45S0
G1 X12.35S500
G1 X1S0
G1 X80.95S500
G1 X0.7S0
G1 X55.05S500
G1 X1.35S0
G1 X26.45S500
G0 X2.917
G0 Y0.05
G0 X-2.917
G1 X-26.45
G1 X-1.35S0
G1 X-19.6S500
G1 X-0.15S0
G1 X-35.3S500
G1 X-0.75S0
G1 X-80.9S500
G1 X-1S0
G1 X-75.7S500
G1 X-8.75S0
G1 X-19.5S500
G1 X-0.95S0
G1 X-26.6S500
G0 X-2.917
G0 Y0.05
G0 X2.917
G1 X26.6
G1 X0.9S0
G1 X19.65S500
G1 X8.7S0
G1 X75.65S500
G1 X1S0
G1 X80.95S500
G1 X0.7S0
G1 X35.25S500
G1 X0.25S0
G1 X19.6S500
G1 X1.25S0
G1 X26.5S500
G0 X2.917
G0 Y0.05
G0 X-2.917
G1 X-26.5
G1 X-1.25S0
G1 X-19.6S500
G1 X-0.2S0
G1 X-35.25S500
G1 X-0.8S0
G1 X-80.95S500
G1 X-0.95S0
G1 X-75.6S500
G1 X-8.65S0
G1 X-19.75S500
G1 X-0.85S0
G1 X-26.65S500
G0 X-2.917
G0 Y0.05
G0 X2.917
G1 X26.7
G1 X0.75S0
G1 X19.85S500
G1 X8.65S0
G1 X75.6S500
G1 X0.9S0
G1 X80.95S500
G1 X0.8S0
G1 X55.1S500
G1 X1.15S0
G1 X26.55S500
G0 X2.917
G0 Y0.05
G0 X-2.917
G1 X-26.55
G1 X-1.15S0
G1 X-55.15S500
G1 X-0.7S0
G1 X-81.05S500
G1 X-0.85S0
G1 X-75.6S500
G1 X-8.55S0
G1 X-20S500
G1 X-0.7S0
G1 X-26.7S500
G0 X-2.917
G0 Y0.05
G0 X2.917
G1 X26.8
G1 X0.55S0
G1 X20.1S500
G1 X8.55S0
G1 X75.6S500
G1 X0.8S0
G1 X81.05S500
G1 X0.7S0
G1 X55.2S500
G1 X1.05S0
G1 X26.6S500
G0 X2.917
G0 Y0.05
G0 X-2.917
G1 X-26.65
G1 X-0.95S0
G1 X-55.25S500
G1 X-0.7S0
G1 X-81.1S500
G1 X-0.7S0
G1 X-75.6S500
G1 X-8.55S0
G1 X-20.25S500
G1 X-0.4S0
G1 X-26.85S500
G0 X-2.917
G0 Y0.05
G0 X2.917
G1 X27.05
G1 X0.05S0
G1 X20.35S500
G1 X8.65S0
G1 X75.6S500
G1 X0.65S0
G1 X81.15S500
G1 X0.6S0
G1 X55.4S500
G1 X0.75S0
G1 X26.75S500
G0 X2.917
G0 Y0.05
G0 X-2.917
G1 X-26.8
G1 X-0.6S0
G1 X-55.55S500
G1 X-0.5S0
G1 X-81.25S500
G1 X-0.55S0
G1 X-75.65S500
G1 X-8.75S0
G1 X-47.35S500
G0 X-2.917
G0 Y0.05
G0 X2.917
G1 X47.3
G1 X8.85S0
G1 X75.65S500
G1 X0.4S0
G1 X81.4S500
G1 X0.4S0
G1 X55.75S500
G1 X0.3S0
G1 X26.95S500
G0 X2.917
G0 Y0.05
G0 X-2.917
G1 X-164.9
G1 X-0.2S0
G1 X-75.7S500
G1 X-8.95S0
G1 X-47.25S500
G0 X-2.917
G0 Y0.05
G0 X2.917
G1 X47.25
G1 X9S0
G1 X240.75S500
G0 X2.917
G0 Y0.05
G0 X-2.917
G1 X-240.75
G1 X-9.05S0
G1 X-47.2S500
G0 X-2.917
G0 Y0.05
G0 X2.917
G1 X47.15
G1 X9.15S0
G1 X240.7S500
G0 X2.917
G0 Y0.05
G0 X-2.917
G1 X-240.65
G1 X-5.9S0
G1 X-0.1S500
G1 X-3.25S0
G1 X-47.1S500
G0 X-2.917
G0 Y0.05
G0 X2.917
G1 X47.05
G1 X3.25S0
G1 X0.05S500
G1 X6S0
G1 X240.65S500
G0 X2.917
G0 Y0.05
G0 X-2.917
G1 X-240.6
G1 X-6.1S0
G1 X-0.1S500
G1 X-3.2S0
G1 X-47S500
G0 X-2.917
G0 Y0.05
G0 X2.917
G1 X46.95
G1 X3.15S0
G1 X0.1S500
G1 X6.25S0
G1 X240.55S500
G0 X2.917
G0 Y0.05
G0 X-2.917
G1 X-240.5
G1 X-6.3S0
G1 X-0.05S500
G1 X-0.05S0
G1 X-0.15S500
G1 X-3.05S0
G1 X-46.9S500
G0 X-2.917
G0 Y0.05
G0 X2.917
G1 X46.85
G1 X3S0
G1 X0.2S500
G1 X6.5S0
G1 X240.45S500
G0 X2.917
G0 Y0.05
G0 X-2.917
G1 X-240.45
G1 X-6.6S0
G1 X-0.2S500
G1 X-2.95S0
G1 X-46.8S500
G0 X-2.917
G0 Y0.05
G0 X2.917
G1 X46.75
G1 X2.95S0
G1 X0.2S500
G1 X6.7S0
G1 X240.4S500
G0 X2.917
G0 Y0.05
G0 X-2.917
G1 X-240.35
G1 X-6.8S0
G1 X-0.25S500
G1 X-2.9S0
G1 X-46.7S500
G0 X-2.917
G0 Y0.05
G0 X2.917
G1 X46.65
G1 X2.85S0
G1 X0.3S500
G1 X6.95S0
G1 X240.25S500
G0 X2.917
G0 Y0.05
G0 X-2.917
G1 X-240.25
G1 X-0.85S0
G1 X-1.75S500
G1 X-0.05S0
G1 X-0.2S500
G1 X-0.05S0
G1 X-0.2S500
G1 X-0.05S0
G1 X-0.2S500
G1 X-0.05S0
G1 X-0.2S500
G1 X-0.05S0
G1 X-0.2S500
G1 X-0.05S0
G1 X-0.2S500
G1 X-0.05S0
G1 X-0.2S500
G1 X-0.05S0
G1 X-0.2S500
G1 X-0.05S0
G1 X-0.2S500
G1 X-0.05S0
G1 X-0.2S500
G1 X-0.05S0
G1 X-0.2S500
G1 X-0.05S0
G1 X-0.2S500
G1 X-0.05S0
G1 X-1.25S500
G1 X-0.05S0
G1 X-0.45S500
G1 X-2.75S0
G1 X-46.6S500
G0 X-2.917
G0 Y0.05
G0 X2.917
G1 X46.55
G1 X2.7S0
G1 X6.8S500
G1 X0.75S0
G1 X240.2S500
G0 X2.917
G0 Y0.05
G0 X-2.917
G1 X-240.15
G1 X-0.6S0
G1 X-7.1S500
G1 X-2.65S0
G1 X-46.5S500
G0 X-2.917
G0 Y0.05
G0 X2.917
G1 X46.45
G1 X2.65S0
G1 X7.25S500
G1 X0.55S0
G1 X240.1S500
G0 X2.917
G0 Y0.05
G0 X-2.917
G1 X-240.1
G1 X-0.45S0
G1 X-7.45S500
G1 X-2.65S0
G1 X-46.35S500
G0 X-2.917
G0 Y0.05
G0 X2.917
G1 X46.35
G1 X2.5S0
G1 X7.7S500
G1 X0.35S0
G1 X123.6S500
G1 X0.4S0
G1 X116.1S500
G0 X2.917
G0 Y0.05
G0 X-2.917
G1 X-116.05
G1 X-0.5S0
G1 X-123.6S500
G1 X-0.2S0
G1 X-7.85S500
G1 X-2.5S0
G1 X-46.3S500
G0 X-2.917
G0 Y0.05
G0 X2.917
G1 X46.25
G1 X2.45S0
G1 X8.05S500
G1 X0.05S0
G1 X123.6S500
G1 X0.6S0
G1 X116S500
G0 X2.917
G0 Y0.05
G0 X-2.917
G1 X-115.95
G1 X-0.7S0
G1 X-131.75S500
G1 X-2.4S0
G1 X-46.2S500
G0 X-2.917
G0 Y0.05
G0 X2.917
G1 X46.15
G1 X2.35S0
G1 X131.85S500
G1 X0.7S0
G1 X115.95S500
G0 X2.917
G0 Y0.05
G0 X-2.917
G1 X-115.95
G1 X-0.7S0
G1 X-131.9S500
G1 X-2.3S0
G1 X-46.15S500
G0 X-2.917
G0 Y0.05
G0 X2.917
G1 X46.1
G1 X2.25S0
G1 X132S500
G1 X0.7S0
G1 X115.95S500
G0 X2.917
G0 Y0.05
G0 X-2.917
G1 X-115.95
G1 X-0.7S0
G1 X-132.05S500
G1 X-2.25S0
G1 X-46.05S500
G0 X-2.917
G0 Y0.05
G0 X2.917
G1 X46
G1 X2.2S0
G1 X132.15S500
G1 X0.7S0
G1 X115.95S500
G0 X2.917
G0 Y0.05
G0 X-2.917
G1 X-116
G1 X-0.6S0
G1 X-132.25S500
G1 X-2.2S0
G1 X-45.95S500
G0 X-2.917
G0 Y0.05
G0 X2.917
G1 X45.9
G1 X2.1S0
G1 X132.4S500
G1 X0.6S0
G1 X116S500
G0 X2.917
G0 Y0.05
G0 X-2.917
G1 X-116.1
G1 X-0.4S0
G1 X-132.55S500
G1 X-2.05S0
G1 X-45.9S500
G0 X-2.917
G0 Y0.05
G0 X2.917
G1 X45.85
G1 X2S0
G1 X132.7S500
G1 X0.3S0
G1 X116.15S500
G0 X2.917
G0 Y0.05
G0 X-2.917
G1 X-249.2
G1 X-2S0
G1 X-45.8S500
G0 X-2.917
G0 Y0.05
G0 X2.917
G1 X45.75
G1 X9.4S0
G1 X241.85S500
G0 X2.917
G0 Y0.05
G0 X-2.917
G1 X-241.65
G1 X-9.65S0
G1 X-45.7S500
G0 X-2.917
G0 Y0.05
G0 X2.917
G1 X45.7
G1 X9.7S0
G1 X241.6S500
G0 X2.917
G0 Y0.05
G0 X-2.917
G1 X-241.55
G1 X-9.7S0
G1 X-45.75S500
G0 X-2.917
G0 Y0.05
G0 X2.917
G1 X45.8
G1 X9.7S0
G1 X241.5S500
G0 X2.917
G0 Y0.05
G0 X-2.917
G1 X-241.45
G1 X-9.7S0
G1 X-45.85S500
G0 X-2.917
G0 Y0.05
G0 X2.917
G1 X45.95
G1 X9.65S0
G1 X241.4S500
G0 X2.917
G0 Y0.05
G0 X-2.917
G1 X-241.3
G1 X-9.7S0
G1 X-46S500
G0 X-2.917
G0 Y0.05
G0 X2.917
G1 X46.15
G1 X9.55S0
G1 X241.3S500
G0 X2.917
G0 Y0.05
G0 X-2.917
G1 X-241.25
G1 X-9.55S0
G1 X-46.2S500
G0 X-2.917
G0 Y0.05
G0 X2.917
G1 X46.25
G1 X9.55S0
G1 X241.2S500
G0 X2.917
G0 Y0.05
G0 X-2.917
G1 X-241.15
G1 X-9.5S0
G1 X-46.35S500
G0 X-2.917
G0 Y0.05
G0 X2.917
G1 X46.4
G1 X9.5S0
G1 X94.6S500
G1 X0.8S0
G1 X145.7S500
G0 X2.917
G0 Y0.05
G0 X-2.917
G1 X-145.5
G1 X-1.15S0
G1 X-94.4S500
G1 X-9.4S0
G1 X-46.55S500
G0 X-2.917
G0 Y0.05
G0 X2.917
G1 X46.6
G1 X9.35S0
G1 X94.3S500
G1 X1.35S0
G1 X145.4S500
G0 X2.917
G0 Y0.05
G0 X-2.917
G1 X-145.3
G1 X-1.5S0
G1 X-94.2S500
G1 X-9.35S0
G1 X-46.65S500
G0 X-2.917
G0 Y0.05
G0 X2.917
G1 X46.75
G1 X9.25S0
G1 X94.15S500
G1 X1.65S0
G1 X145.2S500
G0 X2.917
G0 Y0.05
G0 X-2.917
G1 X-145.2
G1 X-1.7S0
G1 X-94S500
G1 X-9.3S0
G1 X-46.8S500
G0 X-2.917
G0 Y0.05
G0 X2.917
G1 X46.9
G1 X9.2S0
G1 X93.95S500
G1 X1.85S0
G1 X145.1S500
G0 X2.917
G0 Y0.05
G0 X-2.917
G1 X-145.05
G1 X-2S0
G1 X-24.2S500
G1 X-0.05S0
G1 X-0.05S500
G1 X-0.05S0
G1 X-69.45S500
G1 X-9.15S0
G1 X-47S500
G0 X-2.917
G0 Y0.05
G0 X2.917
G1 X47.05
G1 X9.15S0
G1 X69.25S500
G1 X0.5S0
G1 X23.9S500
G1 X2.15S0
G1 X145S500
G0 X2.917
G0 Y0.05
G0 X-2.917
G1 X-144.95
G1 X-2.25S0
G1 X-23.75S500
G1 X-0.65S0
G1 X-69.15S500
G1 X-9.1S0
G1 X-47.15S500
G0 X-2.917
G0 Y0.05
G0 X2.917
G1 X47.2
G1 X9.05S0
G1 X69.1S500
G1 X0.7S0
G1 X23.7S500
G1 X2.35S0
G1 X144.9S500
G0 X2.917
G0 Y0.05
G0 X-2.917
G1 X-144.8
G1 X-2.5S0
G1 X-23.6S500
G1 X-0.8S0
G1 X-69S500
G1 X-9S0
G1 X-47.3S500
G0 X-2.917
G0 Y0.05
G0 X2.917
G1 X47.4
G1 X8.95S0
G1 X68.95S500
G1 X0.85S0
G1 X23.5S500
G1 X2.55S0
G1 X144.8S500
G0 X2.917
G0 Y0.05
G0 X-2.917
G1 X-144.75
G1 X-2.65S0
G1 X-23.45S500
G1 X-0.9S0
G1 X-68.9S500
G1 X-8.9S0
G1 X-47.45S500
G0 X-2.917
G0 Y0.05
G0 X2.917
G1 X47.55
G1 X8.85S0
G1 X68.9S500
G1 X0.9S0
G1 X23.4S500
G1 X2.7S0
G1 X144.7S500
G0 X2.917
G0 Y0.05
G0 X-2.917
G1 X-144.7
G1 X-2.7S0
G1 X-23.4S500
G1 X-0.95S0
G1 X-68.8S500
G1 X-8.85S0
G1 X-47.6S500
G0 X-2.917
G0 Y0.05
G0 X2.917
G1 X47.65
G1 X8.85S0
G1 X68.8S500
G1 X0.9S0
G1 X23.35S500
G1 X2.75S0
G1 X144.7S500
G0 X2.917
G0 Y0.05
G0 X-2.917
G1 X-144.65
G1 X-2.8S0
G1 X-23.35S500
G1 X-0.95S0
G1 X-68.7S500
G1 X-8.75S0
G1 X-47.8S500
G0 X-2.917
G0 Y0.05
G0 X2.917
G1 X47.85
G1 X8.7S0
G1 X6.6S500
G1 X0.1S0
G1 X62.05S500
G1 X0.85S0
G1 X23.35S500
G1 X2.85S0
G1 X6.55S500
G1 X0.1S0
G1 X0.05S500
G1 X0.05S0
G1 X137.9S500
G0 X2.917
G0 Y0.05
G0 X-2.917
G1 X-137.85
G1 X-0.4S0
G1 X-6.4S500
G1 X-2.85S0
G1 X-23.35S500
G1 X-0.85S0
G1 X-61.9S500
G1 X-0.35S0
G1 X-6.45S500
G1 X-8.65S0
G1 X-47.95S500
G0 X-2.917
G0 Y0.05
G0 X2.917
G1 X48
G1 X8.65S0
G1 X6.3S500
G1 X0.55S0
G1 X61.8S500
G1 X0.85S0
G1 X23.3S500
G1 X2.95S0
G1 X6.3S500
G1 X0.55S0
G1 X137.75S500
G0 X2.917
G0 Y0.05
G0 X-2.917
G1 X-137.7
G1 X-0.65S0
G1 X-6.25S500
G1 X-2.95S0
G1 X-23.35S500
G1 X-0.75S0
G1 X-61.8S500
G1 X-0.65S0
G1 X-6.2S500
G1 X-8.6S0
G1 X-48.1S500
G0 X-2.917
G0 Y0.05
G0 X2.917
G1 X48.15
G1 X8.55S0
G1 X6.15S500
G1 X0.75S0
G1 X61.8S500
G1 X0.65S0
G1 X23.35S500
G1 X3.05S0
G1 X6.15S500
G1 X0.75S0
G1 X137.65S500
G0 X2.917
G0 Y0.05
G0 X-2.917
G1 X-137.6
G1 X-0.85S0
G1 X-6.1S500
G1 X-3.05S0
G1 X-23.5S500
G1 X-0.35S0
G1 X-61.9S500
G1 X-0.85S0
G1 X-6.05S500
G1 X-8.5S0
G1 X-48.25S500
G0 X-2.917
G0 Y0.05
G0 X2.917
G1 X48.3
G1 X8.5S0
G1 X5.95S500
G1 X0.95S0
G1 X85.7S500
G1 X3.05S0
G1 X6.05S500
G1 X0.95S0
G1 X137.55S500
G0 X2.917
G0 Y0.05
G0 X-2.917
G1 X-137.55
G1 X-1S0
G1 X-6S500
G1 X-3.1S0
G1 X-85.65S500
G1 X-0.95S0
G1 X-5.9S500
G1 X-8.45S0
G1 X-48.4S500
G0 X-2.917
G0 Y0.05
G0 X2.917
G1 X48.45
G1 X8.45S0
G1 X5.85S500
G1 X0.95S0
G1 X85.65S500
G1 X3.1S0
G1 X6S500
G1 X1.05S0
G1 X137.5S500
G0 X2.917
G0 Y0.05
G0 X-2.917
G1 X-137.55
G1 X-1.05S0
G1 X-5.9S500
G1 X-3.15S0
G1 X-85.6S500
G1 X-1.05S0
G1 X-5.75S500
G1 X-8.4S0
G1 X-48.55S500
G0 X-2.917
G0 Y0.05
G0 X2.917
G1 X48.65
G1 X0.25S0
G1 X7.2S500
G1 X0.9S0
G1 X5.7S500
G1 X1.05S0
G1 X85.6S500
G1 X3.15S0
G1 X5.95S500
G1 X1.05S0
G1 X137.5S500
G0 X2.917
G0 Y0.05
G0 X-2.917
G1 X-137.55
G1 X-1.05S0
G1 X-5.9S500
G1 X-3.15S0
G1 X-85.6S500
G1 X-1.1S0
G1 X-5.65S500
G1 X-0.6S0
G1 X-7.55S500
G1 X-0.1S0
G1 X-48.75S500
G0 X-2.917
G0 Y0.05
G0 X2.917
G1 X56.5
G1 X0.6S0
G1 X5.5S500
G1 X1.1S0
G1 X85.6S500
G1 X3.2S0
G1 X5.9S500
G1 X1.1S0
G1 X137.5S500
G0 X2.917
G0 Y0.05
G0 X-2.917
G1 X-137.55
G1 X-1.1S0
G1 X-5.85S500
G1 X-3.15S0
G1 X-85.65S500
G1 X-1.1S0
G1 X-5.5S500
G1 X-0.5S0
G1 X-56.6S500
G0 X-2.917
G0 Y0.05
G0 X2.917
G1 X56.7
G1 X0.4S0
G1 X5.5S500
G1 X1.1S0
G1 X85.65S500
G1 X3.15S0
G1 X5.9S500
G1 X1S0
G1 X137.6S500
G0 X2.917
G0 Y0.05
G0 X-2.917
G1 X-137.6
G1 X-1S0
G1 X-5.9S500
G1 X-3.2S0
G1 X-72.15S500
G1 X-0.4S0
G1 X-13.05S500
G1 X-1.15S0
G1 X-5.5S500
G1 X-0.25S0
G1 X-56.8S500
G0 X-2.917
G0 Y0.05
G0 X2.917
G1 X56.9
G1 X0.1S0
G1 X5.55S500
G1 X1.1S0
G1 X13.05S500
G1 X0.55S0
G1 X72.1S500
G1 X3.15S0
G1 X5.9S500
G1 X0.95S0
G1 X137.65S500
G0 X2.917
G0 Y0.05
G0 X-2.917
G1 X-137.7
G1 X-0.9S0
G1 X-5.9S500
G1 X-3.15S0
G1 X-72.05S500
G1 X-0.7S0
G1 X-12.95S500
G1 X-1.15S0
G1 X-62.5S500
G0 X-2.917
G0 Y0.05
G0 X2.917
G1 X48.35
G1 X0.15S0
G1 X14S500
G1 X1.1S0
G1 X13S500
G1 X0.75S0
G1 X72.05S500
G1 X3.05S0
G1 X6S500
G1 X0.8S0
G1 X137.75S500
G0 X2.917
G0 Y0.05
G0 X-2.917
G1 X-137.8
G1 X-0.7S0
G1 X-6.05S500
G1 X-3.1S0
G1 X-71.95S500
G1 X-0.85S0
G1 X-12.95S500
G1 X-1.1S0
G1 X-13.95S500
G1 X-0.2S0
G1 X-48.35S500
G0 X-2.917
G0 Y0.05
G0 X2.917
G1 X48.3
G1 X0.35S0
G1 X13.85S500
G1 X1.05S0
G1 X12.95S500
G1 X0.95S0
G1 X71.95S500
G1 X3.05S0
G1 X6.1S500
G1 X0.6S0
G1 X137.85S500
G0 X2.917
G0 Y0.05
G0 X-2.917
G1 X-137.9
G1 X-0.45S0
G1 X-6.2S500
G1 X-3S0
G1 X-72S500
G1 X-0.95S0
G1 X-12.95S500
G1 X-1.05S0
G1 X-13.8S500
G1 X-0.45S0
G1 X-48.25S500
G0 X-2.917
G0 Y0.05
G0 X2.917
G1 X48.3
G1 X0.5S0
G1 X13.7S500
G1 X1.05S0
G1 X12.9S500
G1 X1S0
G1 X31.5S500
G1 X0.2S0
G1 X40.3S500
G1 X3S0
G1 X6.3S500
G1 X0.25S0
G1 X138S500
G0 X2.917
G0 Y0.05
G0 X-2.917
G1 X-144.55
G1 X-2.95S0
G1 X-40.3S500
G1 X-0.3S0
G1 X-31.45S500
G1 X-1S0
G1 X-12.9S500
G1 X-1.05S0
G1 X-13.55S500
G1 X-0.6S0
G1 X-48.35S500
G0 X-2.917
G0 Y0.05
G0 X2.917
G1 X48.4
G1 X0.65S0
G1 X13.45S500
G1 X1S0
G1 X12.95S500
G1 X1S0
G1 X31.4S500
G1 X0.35S0
G1 X40.3S500
G1 X2.9S0
G1 X144.6S500
G0 X2.917
G0 Y0.05
G0 X-2.917
G1 X-144.6
G1 X-2.9S0
G1 X-40.3S500
G1 X-0.3S0
G1 X-31.45S500
G1 X-1S0
G1 X-12.95S500
G1 X-0.95S0
G1 X-13.4S500
G1 X-0.7S0
G1 X-48.45S500
G0 X-2.917
G0 Y0.05
G0 X2.917
G1 X48.5
G1 X0.85S0
G1 X13.2S500
G1 X0.95S0
G1 X13S500
G1 X0.95S0
G1 X31.45S500
G1 X0.3S0
G1 X40.35S500
G1 X2.85S0
G1 X144.6S500
G0 X2.917
G0 Y0.05
G0 X-2.917
G1 X-144.6
G1 X-2.85S0
G1 X-40.45S500
G1 X-0.15S0
G1 X-31.5S500
G1 X-0.95S0
G1 X-13.05S500
G1 X-0.9S0
G1 X-13.05S500
G1 X-0.95S0
G1 X-48.55S500
G0 X-2.917
G0 Y0.05
G0 X2.917
G1 X48.6
G1 X1.25S0
G1 X0.05S500
G1 X0.05S0
G1 X0.05S500
G1 X0.05S0
G1 X0.05S500
G1 X0.05S0
G1 X0.05S500
G1 X0.05S0
G1 X0.05S500
G1 X0.05S0
G1 X0.05S500
G1 X0.05S0
G1 X0.05S500
G1 X0.05S0
G1 X0.05S500
G1 X0.05S0
G1 X0.05S500
G1 X0.05S0
G1 X0.05S500
G1 X0.05S0
G1 X0.05S500
G1 X0.05S0
G1 X0.05S500
G1 X0.05S0
G1 X0.05S500
G1 X0.1S0
G1 X0.05S500
G1 X0.05S0
G1 X0.05S500
G1 X0.1S0
G1 X0.05S500
G1 X0.1S0
G1 X0.05S500
G1 X0.1S0
G1 X0.05S500
G1 X0.1S0
G1 X0.05S500
G1 X0.1S0
G1 X0.05S500
G1 X0.1S0
G1 X0.05S500
G1 X0.1S0
G1 X0.05S500
G1 X0.1S0
G1 X0.05S500
G1 X0.1S0
G1 X0.05S500
G1 X0.1S0
G1 X0.05S500
G1 X0.1S0
G1 X0.05S500
G1 X0.1S0
G1 X0.05S500
G1 X0.1S0
G1 X0.05S500
G1 X0.1S0
G1 X0.05S500
G1 X0.1S0
G1 X0.05S500
G1 X0.1S0
G1 X0.05S500
G1 X0.1S0
G1 X0.05S500
G1 X0.1S0
G1 X0.05S500
G1 X0.1S0
G1 X0.05S500
G1 X0.1S0
G1 X0.05S500
G1 X0.1S0
G1 X0.05S500
G1 X0.1S0
G1 X0.05S500
G1 X0.1S0
G1 X0.05S500
G1 X0.1S0
G1 X0.05S500
G1 X0.1S0
G1 X0.05S500
G1 X0.1S0
G1 X0.05S500
G1 X0.1S0
G1 X7.25S500
G1 X0.8S0
G1 X13.1S500
G1 X0.9S0
G1 X72.2S500
G1 X2.75S0
G1 X144.65S500
G0 X2.917
G0 Y0.05
G0 X-2.917
G1 X-144.6
G1 X-2.8S0
G1 X-72.25S500
G1 X-0.8S0
G1 X-13.15S500
G1 X-0.75S0
G1 X-7.1S500
G1 X-6.95S0
G1 X-48.6S500
G0 X-2.917
G0 Y0.05
G0 X2.917
G1 X48.65
G1 X7S0
G1 X7.05S500
G1 X0.7S0
G1 X13.2S500
G1 X0.75S0
G1 X72.3S500
G1 X2.7S0
G1 X144.65S500
G0 X2.917
G0 Y0.05
G0 X-2.917
G1 X-144.75
G1 X-2.55S0
G1 X-72.45S500
G1 X-0.6S0
G1 X-13.35S500
G1 X-0.5S0
G1 X-7.1S500
G1 X-6.95S0
G1 X-48.75S500
G0 X-2.917
G0 Y0.05
G0 X2.917
G1 X48.75
G1 X7.05S0
G1 X7.05S500
G1 X0.4S0
G1 X13.55S500
G1 X0.3S0
G1 X0.05S500
G1 X0.05S0
G1 X72.5S500
G1 X2.55S0
G1 X144.75S500
G0 X2.917
G0 Y0.05
G0 X-2.917
G1 X-144.85
G1 X-2.4S0
G1 X-93.85S500
G1 X-7.05S0
G1 X-48.85S500
G0 X-2.917
G0 Y0.05
G0 X2.917
G1 X48.85
G1 X7.1S0
G1 X93.85S500
G1 X2.25S0
G1 X144.95S500
G0 X2.917
G0 Y0.05
G0 X-2.917
G1 X-145
G1 X-2.15S0
G1 X-93.85S500
G1 X-7.1S0
G1 X-48.9S500
G0 X-2.917
G0 Y0.05
G0 X2.917
G1 X49
G1 X7S0
G1 X93.9S500
G1 X2S0
G1 X145.1S500
G0 X2.917
G0 Y0.05
G0 X-2.917
G1 X-145.15
G1 X-1.85S0
G1 X-93.95S500
G1 X-7.05S0
G1 X-49S500
G0 X-2.917
G0 Y0.05
G0 X2.917
G1 X49.05
G1 X7.05S0
G1 X93.9S500
G1 X1.75S0
G1 X145.25S500
G0 X2.917
G0 Y0.05
G0 X-2.917
G1 X-145.4
G1 X-1.45S0
G1 X-94S500
G1 X-7.05S0
G1 X-49.1S500
G0 X-2.917
G0 Y0.05
G0 X2.917
G1 X49.15
G1 X7S0
G1 X94.05S500
G1 X1.3S0
G1 X145.5S500
G0 X2.917
G0 Y0.05
G0 X-2.917
G1 X-145.7
G1 X-0.95S0
G1 X-94.15S500
G1 X-7.05S0
G1 X-49.15S500
G0 X-2.917
G0 Y0.05
G0 X2.917
G1 X49.25
G1 X7S0
G1 X94.4S500
G1 X0.25S0
G1 X146.1S500
G0 X2.917
G0 Y0.05
G0 X-2.917
G1 X-240.75
G1 X-7S0
G1 X-49.25S500
G0 X-2.917
G0 Y0.05
G0 X2.917
G1 X49.35
G1 X6.9S0
G1 X240.75S500
G0 X2.917
G0 Y0.05
G0 X-2.917
G1 X-240.75
G1 X-6.85S0
G1 X-14.15S500
G1 X-0.15S0
G1 X-35.1S500
G0 X-2.917
G0 Y0.05
G0 X2.917
G1 X35
G1 X0.3S0
G1 X14.1S500
G1 X6.9S0
G1 X240.7S500
G0 X2.917
G0 Y0.05
G0 X-2.917
G1 X-240.65
G1 X-6.95S0
G1 X-14S500
G1 X-0.45S0
G1 X-34.95S500
G0 X-2.917
G0 Y0.05
G0 X2.917
G1 X34.95
G1 X0.45S0
G1 X14.1S500
G1 X6.85S0
G1 X240.65S500
G0 X2.917
G0 Y0.05
G0 X-2.917
G1 X-240.55
G1 X-6.9S0
G1 X-14.1S500
G1 X-0.55S0
G1 X-34.9S500
G0 X-2.917
G0 Y0.05
G0 X2.917
G1 X34.9
G1 X0.5S0
G1 X14.15S500
G1 X6.9S0
G1 X240.55S500
G0 X2.917
G0 Y0.05
G0 X-2.917
G1 X-240.5
G1 X-6.9S0
G1 X-14.15S500
G1 X-0.55S0
G1 X-34.9S500
G0 X-2.917
G0 Y0.05
G0 X2.917
G1 X34.9
G1 X0.55S0
G1 X14.2S500
G1 X6.9S0
G1 X127.65S500
G1 X0.2S0
G1 X112.6S500
G0 X2.917
G0 Y0.05
G0 X-2.917
G1 X-112.6
G1 X-0.3S0
G1 X-127.55S500
G1 X-6.85S0
G1 X-14.3S500
G1 X-0.5S0
G1 X-34.9S500
G0 X-2.917
G0 Y0.05
G0 X2.917
G1 X34.95
G1 X0.4S0
G1 X14.35S500
G1 X6.95S0
G1 X127.45S500
G1 X0.35S0
G1 X3.25S500
G1 X0.05S0
G1 X109.25S500
G0 X2.917
G0 Y0.05
G0 X-2.917
G1 X-61.25
G1 X-0.1S0
G1 X-0.05S500
G1 X-0.1S0
G1 X-47.65S500
G1 X-0.25S0
G1 X-3.15S500
G1 X-0.35S0
G1 X-127.45S500
G1 X-6.9S0
G1 X-14.45S500
G1 X-0.3S0
G1 X-35S500
G0 X-2.917
G0 Y0.05
G0 X2.917
G1 X49.8
G1 X6.9S0
G1 X127.4S500
G1 X0.35S0
G1 X3.1S500
G1 X0.35S0
G1 X47.45S500
G1 X0.6S0
G1 X61.05S500
G0 X2.917
G0 Y0.05
G0 X-2.917
G1 X-60.95
G1 X-0.85S0
G1 X-47.25S500
G1 X-0.4S0
G1 X-3.15S500
G1 X-0.35S0
G1 X-127.3S500
G1 X-6.9S0
G1 X-49.85S500
G0 X-2.917
G0 Y0.05
G0 X2.917
G1 X49.85
G1 X6.95S0
G1 X127.3S500
G1 X0.3S0
G1 X3.15S500
G1 X0.4S0
G1 X4.5S500
G1 X0.45S0
G1 X42.15S500
G1 X1.1S0
G1 X60.85S500
G0 X2.917
G0 Y0.05
G0 X-2.917
G1 X-60.75
G1 X-1.3S0
G1 X-42S500
G1 X-0.6S0
G1 X-4.45S500
G1 X-0.35S0
G1 X-3.2S500
G1 X-0.2S0
G1 X-127.3S500
G1 X-6.95S0
G1 X-49.9S500
G0 X-2.917
G0 Y0.05
G0 X2.917
G1 X49.95
G1 X6.95S0
G1 X129.8S500
G1 X0.15S0
G1 X0.05S500
G1 X0.05S0
G1 X0.65S500
G1 X0.3S0
G1 X4.45S500
G1 X0.7S0
G1 X1.95S500
G1 X0.05S0
G1 X0.05S500
G1 X0.05S0
G1 X39.75S500
G1 X1.4S0
G1 X60.7S500
G0 X2.917
G0 Y0.05
G0 X-2.917
G1 X-60.6
G1 X-1.6S0
G1 X-39.6S500
G1 X-0.25S0
G1 X-1.9S500
G1 X-0.75S0
G1 X-5.3S500
G1 X-0.35S0
G1 X-129.65S500
G1 X-7.05S0
G1 X-49.95S500
G0 X-2.917
G0 Y0.05
G0 X2.917
G1 X50
G1 X3.85S0
G1 X0.05S500
G1 X3.15S0
G1 X129.55S500
G1 X0.5S0
G1 X5.2S500
G1 X0.75S0
G1 X1.9S500
G1 X0.3S0
G1 X39.55S500
G1 X1.6S0
G1 X60.6S500
G0 X2.917
G0 Y0.05
G0 X-2.917
G1 X-60.6
G1 X-1.6S0
G1 X-39.55S500
G1 X-0.3S0
G1 X-1.9S500
G1 X-0.75S0
G1 X-5.1S500
G1 X-0.55S0
G1 X-129.55S500
G1 X-3.25S0
G1 X-0.05S500
G1 X-3.8S0
G1 X-50S500
G0 X-2.917
G0 Y0.05
G0 X2.917
G1 X50.05
G1 X3.65S0
G1 X0.1S500
G1 X3.35S0
G1 X0.75S500
G1 X0.5S0
G1 X123.15S500
G1 X0.15S0
G1 X3.1S500
G1 X0.4S0
G1 X1.45S500
G1 X0.7S0
G1 X4.95S500
G1 X0.75S0
G1 X1.9S500
G1 X0.35S0
G1 X2.15S500
G1 X0.1S0
G1 X37.15S500
G1 X1.8S0
G1 X60.5S500
G0 X2.917
G0 Y0.05
G0 X-2.917
G1 X-60.5
G1 X-1.8S0
G1 X-37.15S500
G1 X-0.25S0
G1 X-2S500
G1 X-0.35S0
G1 X-1.95S500
G1 X-0.7S0
G1 X-4.85S500
G1 X-0.8S0
G1 X-1.35S500
G1 X-0.55S0
G1 X-2.1S500
G1 X-0.25S0
G1 X-0.55S500
G1 X-0.4S0
G1 X-123.05S500
G1 X-0.85S0
G1 X-0.05S500
G1 X-0.05S0
G1 X-0.3S500
G1 X-3.45S0
G1 X-0.1S500
G1 X-3.55S0
G1 X-50.05S500
G0 X-2.917
G0 Y0.05
G0 X2.917
G1 X50
G1 X3.5S0
G1 X0.15S500
G1 X3.45S0
G1 X0.15S500
G1 X1.2S0
G1 X122.95S500
G1 X0.45S0
G1 X0.55S500
G1 X0.3S0
G1 X2S500
G1 X0.7S0
G1 X1.3S500
G1 X0.8S0
G1 X3.3S500
G1 X0.1S0
G1 X1.4S500
G1 X0.65S0
G1 X2S500
G1 X0.35S0
G1 X0.9S500
G1 X0.05S0
G1 X1S500
G1 X0.3S0
G1 X37.1S500
G1 X1.9S0
G1 X60.45S500
G0 X2.917
G0 Y0.05
G0 X-2.917
G1 X-60.45
G1 X-1.9S0
G1 X-37.05S500
G1 X-0.45S0
G1 X-0.85S500
G1 X-0.15S0
G1 X-0.9S500
G1 X-0.35S0
G1 X-2S500
G1 X-0.65S0
G1 X-1.25S500
G1 X-0.35S0
G1 X-3.05S500
G1 X-0.85S0
G1 X-1.35S500
G1 X-0.75S0
G1 X-1.9S500
G1 X-0.3S0
G1 X-0.6S500
G1 X-0.45S0
G1 X-122.95S500
G1 X-1.3S0
G1 X-0.1S500
G1 X-3.45S0
G1 X-0.2S500
G1 X-3.4S0
G1 X-50S500
G0 X-2.917
G0 Y0.05
G0 X2.917
G1 X50
G1 X3.3S0
G1 X0.25S500
G1 X4.95S0
G1 X122.85S500
G1 X0.55S0
G1 X0.55S500
G1 X0.25S0
G1 X1.95S500
G1 X0.8S0
G1 X1.35S500
G1 X0.85S0
G1 X2.5S500
G1 X0.85S0
G1 X1.25S500
G1 X0.6S0
G1 X2.05S500
G1 X0.35S0
G1 X0.85S500
G1 X0.25S0
G1 X0.75S500
G1 X0.45S0
G1 X37.05S500
G1 X2S0
G1 X60.4S500
G0 X2.917
G0 Y0.05
G0 X-2.917
G1 X-60.4
G1 X-2S0
G1 X-37.1S500
G1 X-0.4S0
G1 X-0.7S500
G1 X-0.3S0
G1 X-0.85S500
G1 X-0.35S0
G1 X-2.15S500
G1 X-0.5S0
G1 X-1.25S500
G1 X-0.95S0
G1 X-2.35S500
G1 X-0.8S0
G1 X-1.45S500
G1 X-0.85S0
G1 X-1.9S500
G1 X-0.2S0
G1 X-0.6S500
G1 X-0.5S0
G1 X-123S500
G1 X-1.5S0
G1 X-3.7S500
G1 X-0.75S0
G1 X-1.75S500
G1 X-0.75S0
G1 X-49.95S500
G0 X-2.917
G0 Y0.05
G0 X2.917
G1 X49.9
G1 X0.6S0
G1 X1.9S500
G1 X0.7S0
G1 X3.7S500
G1 X1.5S0
G1 X121.8S500
G1 X0.15S0
G1 X1.15S500
G1 X0.45S0
G1 X2.8S500
G1 X0.75S0
G1 X1.55S500
G1 X0.8S0
G1 X2.25S500
G1 X1S0
G1 X1.2S500
G1 X0.45S0
G1 X2.25S500
G1 X0.4S0
G1 X0.75S500
G1 X0.35S0
G1 X0.7S500
G1 X0.4S0
G1 X37.1S500
G1 X2S0
G1 X60.4S500
G0 X2.917
G0 Y0.05
G0 X-2.917
G1 X-60.35
G1 X-2.05S0
G1 X-31.5S500
G1 X-0.25S0
G1 X-5.4S500
G1 X-0.35S0
G1 X-0.75S500
G1 X-0.3S0
G1 X-0.75S500
G1 X-0.4S0
G1 X-2.25S500
G1 X-0.45S0
G1 X-1.25S500
G1 X-1S0
G1 X-2.05S500
G1 X-0.9S0
G1 X-0.75S500
G1 X-0.1S0
G1 X-0.75S500
G1 X-0.75S0
G1 X-2.8S500
G1 X-0.45S0
G1 X-1.1S500
G1 X-0.2S0
G1 X-2.1S500
G1 X-0.25S0
G1 X-119.55S500
G1 X-0.05S0
G1 X-0.05S500
G1 X-1.4S0
G1 X-3.65S500
G1 X-0.8S0
G1 X-1.95S500
G1 X-0.4S0
G1 X-49.9S500
G0 X-2.917
G0 Y0.05
G0 X2.917
G1 X49.9
G1 X0.35S0
G1 X1.9S500
G1 X0.8S0
G1 X3.7S500
G1 X1.4S0
G1 X119.6S500
G1 X0.4S0
G1 X2.05S500
G1 X0.15S0
G1 X1.2S500
G1 X0.35S0
G1 X2.9S500
G1 X0.7S0
G1 X0.7S500
G1 X0.3S0
G1 X0.65S500
G1 X0.85S0
G1 X2S500
G1 X1.05S0
G1 X1.2S500
G1 X0.5S0
G1 X2.25S500
G1 X0.45S0
G1 X0.7S500
G1 X0.35S0
G1 X0.75S500
G1 X0.2S0
G1 X5.4S500
G1 X0.35S0
G1 X31.45S500
G1 X2.1S0
G1 X60.35S500
G0 X2.917
G0 Y0.05
G0 X-2.917
G1 X-60.3
G1 X-2.15S0
G1 X-31.4S500
G1 X-0.5S0
G1 X-6.25S500
G1 X-0.3S0
G1 X-0.7S500
G1 X-0.5S0
G1 X-2.25S500
G1 X-0.5S0
G1 X-1.25S500
G1 X-1S0
G1 X-1.95S500
G1 X-0.9S0
G1 X-0.6S500
G1 X-0.4S0
G1 X-0.7S500
G1 X-0.65S0
G1 X-3S500
G1 X-0.15S0
G1 X-3.45S500
G1 X-0.5S0
G1 X-119.65S500
G1 X-1.4S0
G1 X-3.7S500
G1 X-0.8S0
G1 X-1.85S500
G1 X-0.25S0
G1 X-49.95S500
G0 X-2.917
G0 Y0.05
G0 X2.917
G1 X50
G1 X0.1S0
G1 X1.85S500
G1 X0.8S0
G1 X3.75S500
G1 X1.4S0
G1 X119.65S500
G1 X0.55S0
G1 X5.95S500
G1 X0.2S0
G1 X0.5S500
G1 X0.55S0
G1 X0.8S500
G1 X0.4S0
G1 X0.65S500
G1 X0.8S0
G1 X2S500
G1 X0.95S0
G1 X1.25S500
G1 X0.5S0
G1 X2.25S500
G1 X0.55S0
G1 X0.65S500
G1 X0.25S0
G1 X6.2S500
G1 X0.6S0
G1 X31.4S500
G1 X2.15S0
G1 X60.3S500
G0 X2.917
G0 Y0.05
G0 X-2.917
G1 X-60.3
G1 X-2.15S0
G1 X-31.45S500
G1 X-0.7S0
G1 X-1.85S500
G1 X-0.4S0
G1 X-3.85S500
G1 X-0.15S0
G1 X-0.6S500
G1 X-0.65S0
G1 X-2.2S500
G1 X-0.6S0
G1 X-1.25S500
G1 X-0.85S0
G1 X-2.05S500
G1 X-0.8S0
G1 X-0.6S500
G1 X-0.45S0
G1 X-0.9S500
G1 X-0.35S0
G1 X-0.45S500
G1 X-0.7S0
G1 X-5.55S500
G1 X-0.7S0
G1 X-119.6S500
G1 X-1.4S0
G1 X-3.8S500
G1 X-0.8S0
G1 X-1.8S500
G1 X-0.05S0
G1 X-50S500
G0 X-2.917
G0 Y0.05
G0 X2.917
G1 X51.8
G1 X0.75S0
G1 X3.85S500
G1 X1.35S0
G1 X119.55S500
G1 X0.9S0
G1 X5.4S500
G1 X0.9S0
G1 X0.4S500
G1 X0.05S0
G1 X0.05S500
G1 X0.05S0
G1 X0.05S500
G1 X0.05S0
G1 X0.95S500
G1 X0.5S0
G1 X0.6S500
G1 X0.8S0
G1 X2S500
G1 X0.85S0
G1 X1.25S500
G1 X0.6S0
G1 X0.6S500
G1 X0.4S0
G1 X1.2S500
G1 X0.75S0
G1 X0.55S500
G1 X0.05S0
G1 X3.8S500
G1 X0.6S0
G1 X1.7S500
G1 X0.75S0
G1 X31.45S500
G1 X2.2S0
G1 X60.25S500
G0 X2.917
G0 Y0.05
G0 X-2.917
G1 X-60.25
G1 X-2.2S0
G1 X-31.5S500
G1 X-0.7S0
G1 X-1.05S500
G1 X-0.15S0
G1 X-0.45S500
G1 X-0.7S0
G1 X-1.95S500
G1 X-0.15S0
G1 X-2.2S500
G1 X-0.8S0
G1 X-1.1S500
G1 X-0.55S0
G1 X-0.5S500
G1 X-0.6S0
G1 X-1.3S500
G1 X-0.8S0
G1 X-2.1S500
G1 X-0.7S0
G1 X-0.6S500
G1 X-0.5S0
G1 X-1.55S500
G1 X-1.1S0
G1 X-5.25S500
G1 X-0.75S0
G1 X-119.8S500
G1 X-1.4S0
G1 X-3.85S500
G1 X-0.8S0
G1 X-51.65S500
G0 X-2.917
G0 Y0.05
G0 X2.917
G1 X51.55
G1 X0.85S0
G1 X3.85S500
G1 X1.35S0
G1 X120S500
G1 X0.7S0
G1 X5.2S500
G1 X1.15S0
G1 X1.55S500
G1 X0.5S0
G1 X0.6S500
G1 X0.65S0
G1 X2.2S500
G1 X0.7S0
G1 X1.3S500
G1 X0.6S0
G1 X0.5S500
G1 X0.65S0
G1 X1S500
G1 X0.85S0
G1 X2.05S500
G1 X0.3S0
G1 X1.9S500
G1 X0.7S0
G1 X0.4S500
G1 X0.2S0
G1 X1S500
G1 X0.75S0
G1 X31.5S500
G1 X2.2S0
G1 X60.25S500
G0 X2.917
G0 Y0.05
G0 X-2.917
G1 X-60.2
G1 X-2.25S0
G1 X-31.55S500
G1 X-0.7S0
G1 X-0.95S500
G1 X-0.25S0
G1 X-0.35S500
G1 X-0.75S0
G1 X-1.9S500
G1 X-0.35S0
G1 X-1.95S500
G1 X-0.9S0
G1 X-1S500
G1 X-0.65S0
G1 X-0.45S500
G1 X-0.65S0
G1 X-1.25S500
G1 X-0.6S0
G1 X-2.3S500
G1 X-0.65S0
G1 X-0.6S500
G1 X-0.5S0
G1 X-1.55S500
G1 X-0.6S0
G1 X-0.25S500
G1 X-0.4S0
G1 X-5.1S500
G1 X-0.7S0
G1 X-120.1S500
G1 X-1.35S0
G1 X-3.8S500
G1 X-0.95S0
G1 X-51.45S500
G0 X-2.917
G0 Y0.05
G0 X2.917
G1 X51.35
G1 X1.05S0
G1 X3.75S500
G1 X1.35S0
G1 X120.2S500
G1 X0.8S0
G1 X4.95S500
G1 X0.35S0
G1 X0.4S500
G1 X0.5S0
G1 X1.55S500
G1 X0.5S0
G1 X0.65S500
G1 X0.5S0
G1 X2.5S500
G1 X0.5S0
G1 X1.25S500
G1 X0.65S0
G1 X0.4S500
G1 X0.8S0
G1 X0.9S500
G1 X0.9S0
G1 X1.9S500
G1 X0.4S0
G1 X1.85S500
G1 X0.8S0
G1 X0.4S500
G1 X0.25S0
G1 X0.9S500
G1 X0.65S0
G1 X31.65S500
G1 X2.2S0
G1 X60.2S500
G0 X2.917
G0 Y0.05
G0 X-2.917
G1 X-60.2
G1 X-2.2S0
G1 X-31.7S500
G1 X-0.55S0
G1 X-0.95S500
G1 X-0.2S0
G1 X-0.45S500
G1 X-0.85S0
G1 X-1.8S500
G1 X-0.4S0
G1 X-1.85S500
G1 X-0.95S0
G1 X-0.8S500
G1 X-0.9S0
G1 X-0.35S500
G1 X-0.7S0
G1 X-1.2S500
G1 X-0.5S0
G1 X-2.6S500
G1 X-0.4S0
G1 X-0.65S500
G1 X-0.5S0
G1 X-1.6S500
G1 X-0.5S0
G1 X-0.45S500
G1 X-0.3S0
G1 X-2.45S500
G1 X-0.4S0
G1 X-1.95S500
G1 X-0.85S0
G1 X-120.35S500
G1 X-1.35S0
G1 X-3.6S500
G1 X-1.25S0
G1 X-51.25S500
G0 X-2.917
G0 Y0.05
G0 X2.917
G1 X18.6
G1 X0.05S0
G1 X0.05S500
G1 X0.05S0
G1 X0.05S500
G1 X0.05S0
G1 X0.05S500
G1 X0.05S0
G1 X32.2S500
G1 X1.4S0
G1 X3.5S500
G1 X1.35S0
G1 X119.05S500
G1 X0.05S0
G1 X1.35S500
G1 X0.9S0
G1 X1.65S500
G1 X0.9S0
G1 X2.3S500
G1 X0.05S0
G1 X0.65S500
G1 X0.4S0
G1 X1.6S500
G1 X0.5S0
G1 X0.95S500
G1 X0.05S0
G1 X2.6S500
G1 X0.6S0
G1 X0.45S500
G1 X0.05S0
G1 X0.65S500
G1 X0.8S0
G1 X0.15S500
G1 X1.1S0
G1 X0.7S500
G1 X0.95S0
G1 X1S500
G1 X0.05S0
G1 X0.05S500
G1 X0.05S0
G1 X0.6S500
G1 X0.45S0
G1 X1.8S500
G1 X0.9S0
G1 X0.45S500
G1 X0.2S0
G1 X0.95S500
G1 X0.45S0
G1 X31.85S500
G1 X2.15S0
G1 X60.2S500
G0 X2.917
G0 Y0.05
G0 X-2.917
G1 X-60.2
G1 X-2.15S0
G1 X-31.9S500
G1 X-0.35S0
G1 X-1S500
G1 X-0.1S0
G1 X-0.55S500
G1 X-0.95S0
G1 X-1.75S500
G1 X-0.5S0
G1 X-0.55S500
G1 X-0.25S0
G1 X-0.9S500
G1 X-1.05S0
G1 X-0.5S500
G1 X-2.2S0
G1 X-0.4S500
G1 X-1.3S0
G1 X-3.6S500
G1 X-0.45S0
G1 X-1.7S500
G1 X-0.3S0
G1 X-1.5S500
G1 X-0.2S0
G1 X-1.3S500
G1 X-1.05S0
G1 X-1.5S500
G1 X-0.85S0
G1 X-1.35S500
G1 X-0.2S0
G1 X-119.05S500
G1 X-1.35S0
G1 X-3.4S500
G1 X-1.55S0
G1 X-31.95S500
G1 X-0.55S0
G1 X-18.55S500
G0 X-2.917
G0 Y0.05
G0 X2.917
G1 X18.45
G1 X0.7S0
G1 X31.8S500
G1 X1.7S0
G1 X3.3S500
G1 X1.35S0
G1 X119.05S500
G1 X0.3S0
G1 X1.4S500
G1 X0.8S0
G1 X1.45S500
G1 X1.15S0
G1 X1.15S500
G1 X0.3S0
G1 X3.45S500
G1 X0.4S0
G1 X3.6S500
G1 X1.45S0
G1 X0.2S500
G1 X2.45S0
G1 X0.25S500
G1 X1.2S0
G1 X0.85S500
G1 X0.3S0
G1 X0.5S500
G1 X0.45S0
G1 X1.75S500
G1 X1S0
G1 X0.6S500
G1 X0.1S0
G1 X33.25S500
G1 X2.1S0
G1 X60.2S500
G0 X2.917
G0 Y0.05
G0 X-2.917
G1 X-60.2
G1 X-2.1S0
G1 X-33.05S500
G1 X-0.3S0
G1 X-0.6S500
G1 X-1S0
G1 X-1.8S500
G1 X-0.5S0
G1 X-0.4S500
G1 X-0.35S0
G1 X-0.8S500
G1 X-5.7S0
G1 X-3.45S500
G1 X-0.35S0
G1 X-3.45S500
G1 X-0.35S0
G1 X-0.95S500
G1 X-1.4S0
G1 X-1.4S500
G1 X-0.7S0
G1 X-1.5S500
G1 X-0.3S0
G1 X-119.1S500
G1 X-1.35S0
G1 X-3.2S500
G1 X-1.85S0
G1 X-31.65S500
G1 X-0.8S0
G1 X-18.4S500
G0 X-2.917
G0 Y0.05
G0 X2.917
G1 X18.4
G1 X0.85S0
G1 X31.5S500
G1 X1.95S0
G1 X3.15S500
G1 X1.35S0
G1 X117.85S500
G1 X0.15S0
G1 X1.1S500
G1 X0.4S0
G1 X1.6S500
G1 X0.6S0
G1 X1.3S500
G1 X1.55S0
G1 X0.8S500
G1 X0.4S0
G1 X2.4S500
G1 X0.2S0
G1 X0.95S500
G1 X0.1S0
G1 X1.75S500
G1 X0.3S0
G1 X1.45S500
G1 X5.9S0
G1 X0.7S500
G1 X0.35S0
G1 X0.35S500
G1 X0.55S0
G1 X1.8S500
G1 X1S0
G1 X0.6S500
G1 X0.4S0
G1 X4.5S500
G1 X0.25S0
G1 X28.25S500
G1 X2.05S0
G1 X60.2S500
G0 X2.917
G0 Y0.05
G0 X-2.917
G1 X-8.05
G1 X-0.35S0
G1 X-51.85S500
G1 X-2S0
G1 X-28.15S500
G1 X-0.4S0
G1 X-2.9S500
G1 X-0.05S0
G1 X-0.05S500
G1 X-0.05S0
G1 X-1.3S500
G1 X-0.45S0
G1 X-0.65S500
G1 X-1.05S0
G1 X-1.8S500
G1 X-0.6S0
G1 X-0.3S500
G1 X-0.3S0
G1 X-0.7S500
G1 X-2.1S0
G1 X-0.05S500
G1 X-3.85S0
G1 X-1.3S500
G1 X-0.4S0
G1 X-2.75S500
G1 X-0.25S0
G1 X-2.3S500
G1 X-0.4S0
G1 X-0.75S500
G1 X-1.7S0
G1 X-1.3S500
G1 X-0.45S0
G1 X-1.7S500
G1 X-0.4S0
G1 X-0.9S500
G1 X-0.4S0
G1 X-117.85S500
G1 X-1.35S0
G1 X-2.95S500
G1 X-2.2S0
G1 X-31.35S500
G1 X-0.95S0
G1 X-18.35S500
G0 X-2.917
G0 Y0.05
G0 X2.917
G1 X18.35
G1 X0.95S0
G1 X31.25S500
G1 X2.35S0
G1 X2.85S500
G1 X1.35S0
G1 X116.6S500
G1 X0.15S0
G1 X1.15S500
G1 X0.5S0
G1 X0.8S500
G1 X0.45S0
G1 X1.7S500
G1 X0.4S0
G1 X1.3S500
G1 X1.75S0
G1 X0.75S500
G1 X0.3S0
G1 X2.35S500
G1 X0.25S0
G1 X2.7S500
G1 X0.5S0
G1 X1.25S500
G1 X3.85S0
G1 X0.25S500
G1 X2S0
G1 X0.6S500
G1 X0.3S0
G1 X0.3S500
G1 X0.65S0
G1 X1.8S500
G1 X1S0
G1 X0.6S500
G1 X0.55S0
G1 X1.15S500
G1 X0.3S0
G1 X2.85S500
G1 X0.45S0
G1 X28.15S500
G1 X1.95S0
G1 X51.8S500
G1 X0.45S0
G1 X8S500
G0 X2.917
G0 Y0.05
G0 X-2.917
G1 X-8
G1 X-0.45S0
G1 X-51.8S500
G1 X-1.9S0
G1 X-28.15S500
G1 X-0.55S0
G1 X-2.75S500
G1 X-0.35S0
G1 X-1.1S500
G1 X-0.6S0
G1 X-0.6S500
G1 X-1.05S0
G1 X-1.75S500
G1 X-0.7S0
G1 X-0.3S500
G1 X-0.3S0
G1 X-0.5S500
G1 X-1.95S0
G1 X-0.35S500
G1 X-3.9S0
G1 X-1.2S500
G1 X-0.5S0
G1 X-2.75S500
G1 X-0.15S0
G1 X-2.45S500
G1 X-0.15S0
G1 X-0.8S500
G1 X-1.9S0
G1 X-1.25S500
G1 X-0.25S0
G1 X-1.7S500
G1 X-0.55S0
G1 X-0.75S500
G1 X-0.5S0
G1 X-1.1S500
G1 X-0.3S0
G1 X-116.6S500
G1 X-6.6S0
G1 X-31.2S500
G1 X-0.9S0
G1 X-18.35S500
G0 X-2.917
G0 Y0.05
G0 X2.917
G1 X18.4
G1 X0.9S0
G1 X31.05S500
G1 X6.7S0
G1 X116.55S500
G1 X0.35S0
G1 X1.1S500
G1 X0.5S0
G1 X0.8S500
G1 X0.55S0
G1 X3.1S500
G1 X0.65S0
G1 X0.15S500
G1 X1.2S0
G1 X6.25S500
G1 X0.55S0
G1 X1.15S500
G1 X2.85S0
G1 X0.1S500
G1 X0.95S0
G1 X0.45S500
G1 X1.85S0
G1 X0.55S500
G1 X0.25S0
G1 X0.3S500
G1 X0.75S0
G1 X1.75S500
G1 X0.95S0
G1 X0.7S500
G1 X0.5S0
G1 X1.1S500
G1 X0.4S0
G1 X2.75S500
G1 X0.6S0
G1 X28.15S500
G1 X1.8S0
G1 X51.85S500
G1 X0.45S0
G1 X8S500
G0 X2.917
G0 Y0.05
G0 X-2.917
G1 X-7.95
G1 X-0.55S0
G1 X-51.8S500
G1 X-1.75S0
G1 X-28.25S500
G1 X-0.2S0
G1 X-0.3S500
G1 X-0.1S0
G1 X-2.7S500
G1 X-0.5S0
G1 X-0.95S500
G1 X-0.55S0
G1 X-0.7S500
G1 X-0.85S0
G1 X-1.8S500
G1 X-0.85S0
G1 X-0.3S500
G1 X-0.15S0
G1 X-0.55S500
G1 X-1.8S0
G1 X-0.5S500
G1 X-0.9S0
G1 X-0.3S500
G1 X-2.75S0
G1 X-1.2S500
G1 X-0.45S0
G1 X-6.25S500
G1 X-1.15S0
G1 X-0.35S500
G1 X-0.65S0
G1 X-2.9S500
G1 X-0.65S0
G1 X-0.75S500
G1 X-0.55S0
G1 X-1.15S500
G1 X-0.35S0
G1 X-116.55S500
G1 X-6.75S0
G1 X-30.95S500
G1 X-0.9S0
G1 X-18.4S500
G0 X-2.917
G0 Y0.05
G0 X2.917
G1 X18.4
G1 X0.85S0
G1 X30.9S500
G1 X6.8S0
G1 X116.55S500
G1 X0.45S0
G1 X1.15S500
G1 X0.55S0
G1 X0.7S500
G1 X0.7S0
G1 X2.8S500
G1 X0.7S0
G1 X0.45S500
G1 X1.05S0
G1 X6.3S500
G1 X0.45S0
G1 X1.1S500
G1 X2.8S0
G1 X0.3S500
G1 X0.95S0
G1 X0.6S500
G1 X1.65S0
G1 X1.05S500
G1 X0.95S0
G1 X1.65S500
G1 X0.8S0
G1 X0.8S500
G1 X0.5S0
G1 X0.8S500
G1 X0.65S0
G1 X2.6S500
G1 X0.2S0
G1 X28.8S500
G1 X1.65S0
G1 X51.9S500
G1 X0.5S0
G1 X7.95S500
G0 X2.917
G0 Y0.05
G0 X-2.917
G1 X-7.95
G1 X-0.5S0
G1 X-51.95S500
G1 X-1.4S0
G1 X-27.1S500
G1 X-0.2S0
G1 X-0.95S500
G1 X-0.05S0
G1 X-0.75S500
G1 X-0.3S0
G1 X-2.5S500
G1 X-0.7S0
G1 X-0.7S500
G1 X-0.5S0
G1 X-0.85S500
G1 X-0.65S0
G1 X-1.7S500
G1 X-1.05S0
G1 X-1S500
G1 X-1.5S0
G1 X-0.75S500
G1 X-0.95S0
G1 X-0.35S500
G1 X-1.45S0
G1 X-0.1S500
G1 X-1.2S0
G1 X-1.1S500
G1 X-0.4S0
G1 X-3.9S500
G1 X-0.1S0
G1 X-2.35S500
G1 X-0.95S0
G1 X-0.55S500
G1 X-0.7S0
G1 X-2.7S500
G1 X-0.8S0
G1 X-0.75S500
G1 X-0.5S0
G1 X-1.2S500
G1 X-0.45S0
G1 X-116.55S500
G1 X-6.85S0
G1 X-30.8S500
G1 X-0.8S0
G1 X-18.45S500
G0 X-2.917
G0 Y0.05
G0 X2.917
G1 X18.45
G1 X0.8S0
G1 X31.5S500
G1 X6.1S0
G1 X116.6S500
G1 X0.45S0
G1 X1.25S500
G1 X0.5S0
G1 X0.75S500
G1 X0.75S0
G1 X2.7S500
G1 X0.65S0
G1 X0.65S500
G1 X0.9S0
G1 X2.3S500
G1 X0.3S0
G1 X3.8S500
G1 X0.35S0
G1 X1.1S500
G1 X0.95S0
G1 X0.4S500
G1 X1.45S0
G1 X0.25S500
G1 X1.05S0
G1 X0.8S500
G1 X1.35S0
G1 X1.05S500
G1 X1.1S0
G1 X1.75S500
G1 X0.45S0
G1 X1.05S500
G1 X0.35S0
G1 X0.7S500
G1 X0.7S0
G1 X2.5S500
G1 X0.35S0
G1 X0.7S500
G1 X0.15S0
G1 X0.8S500
G1 X0.45S0
G1 X27.05S500
G1 X1.2S0
G1 X52.05S500
G1 X0.45S0
G1 X8S500
G0 X2.917
G0 Y0.05
G0 X-2.917
G1 X-8.05
G1 X-0.35S0
G1 X-52.15S500
G1 X-1.05S0
G1 X-27.1S500
G1 X-0.55S0
G1 X-0.7S500
G1 X-0.15S0
G1 X-0.8S500
G1 X-0.35S0
G1 X-2.5S500
G1 X-0.65S0
G1 X-0.7S500
G1 X-0.3S0
G1 X-1.35S500
G1 X-0.05S0
G1 X-1.9S500
G1 X-1.15S0
G1 X-1.1S500
G1 X-1.1S0
G1 X-0.9S500
G1 X-1.15S0
G1 X-0.15S500
G1 X-1.5S0
G1 X-0.55S500
G1 X-0.85S0
G1 X-1.05S500
G1 X-0.25S0
G1 X-3.85S500
G1 X-0.4S0
G1 X-2.25S500
G1 X-0.85S0
G1 X-0.65S500
G1 X-0.7S0
G1 X-2.75S500
G1 X-0.7S0
G1 X-0.8S500
G1 X-0.45S0
G1 X-1.3S500
G1 X-0.4S0
G1 X-116.6S500
G1 X-6.05S0
G1 X-31.6S500
G1 X-0.7S0
G1 X-18.5S500
G0 X-2.917
G0 Y0.05
G0 X2.917
G1 X18.55
G1 X0.6S0
G1 X31.7S500
G1 X5.95S0
G1 X116.65S500
G1 X0.35S0
G1 X1.4S500
G1 X0.35S0
G1 X0.85S500
G1 X0.6S0
G1 X0.7S500
G1 X0.15S0
G1 X2.05S500
G1 X0.7S0
G1 X0.65S500
G1 X0.8S0
G1 X2.25S500
G1 X0.4S0
G1 X4S500
G1 X0.05S0
G1 X1.1S500
G1 X0.8S0
G1 X0.6S500
G1 X0.6S0
G1 X0.25S500
G1 X2S0
G1 X0.9S500
G1 X0.95S0
G1 X1.2S500
G1 X1.15S0
G1 X0.9S500
G1 X0.15S0
G1 X3.25S500
G1 X0.6S0
G1 X2.5S500
G1 X0.4S0
G1 X1.6S500
G1 X0.6S0
G1 X27.15S500
G1 X0.9S0
G1 X52.3S500
G1 X0.3S0
G1 X8.05S500
G0 X2.917
G0 Y0.05
G0 X-2.917
G1 X-8.15
G1 X-0.1S0
G1 X-32.55S500
G1 X-0.15S0
G1 X-19.8S500
G1 X-0.7S0
G1 X-27.2S500
G1 X-0.65S0
G1 X-1.6S500
G1 X-0.45S0
G1 X-2.5S500
G1 X-0.55S0
G1 X-1.45S500
G1 X-0.3S0
G1 X-1.35S500
G1 X-0.4S0
G1 X-0.8S500
G1 X-1.2S0
G1 X-1.2S500
G1 X-0.8S0
G1 X-0.95S500
G1 X-2.05S0
G1 X-0.3S500
G1 X-0.6S0
G1 X-0.55S500
G1 X-0.85S0
G1 X-5.05S500
G1 X-0.45S0
G1 X-2.3S500
G1 X-0.7S0
G1 X-0.65S500
G1 X-0.75S0
G1 X-1.95S500
G1 X-0.35S0
G1 X-0.6S500
G1 X-0.65S0
G1 X-0.9S500
G1 X-0.1S0
G1 X-0.05S500
G1 X-0.05S0
G1 X-1.45S500
G1 X-0.35S0
G1 X-116.7S500
G1 X-5.9S0
G1 X-31.75S500
G1 X-0.45S0
G1 X-18.65S500
G0 X-2.917
G0 Y0.05
G0 X2.917
G1 X18.75
G1 X0.05S0
G1 X0.05S500
G1 X0.05S0
G1 X32S500
G1 X5.8S0
G1 X115.7S500
G1 X0.05S0
G1 X1.1S500
G1 X0.15S0
G1 X2.65S500
G1 X0.6S0
G1 X0.6S500
G1 X0.5S0
G1 X1.85S500
G1 X0.75S0
G1 X0.7S500
G1 X0.6S0
G1 X2.35S500
G1 X0.5S0
G1 X4.9S500
G1 X0.95S0
G1 X0.5S500
G1 X0.65S0
G1 X0.35S500
G1 X2.05S0
G1 X0.85S500
G1 X0.85S0
G1 X1.2S500
G1 X1.2S0
G1 X0.8S500
G1 X0.45S0
G1 X1.25S500
G1 X0.55S0
G1 X1.3S500
G1 X0.45S0
G1 X2.55S500
G1 X0.4S0
G1 X1.6S500
G1 X0.7S0
G1 X27.4S500
G1 X0.35S0
G1 X19.85S500
G1 X0.45S0
G1 X40.6S500
G0 X2.917
G0 Y0.05
G0 X-2.917
G1 X-40.55
G1 X-0.55S0
G1 X-47.55S500
G1 X-0.75S0
G1 X-1.55S500
G1 X-0.4S0
G1 X-2.6S500
G1 X-0.4S0
G1 X-1.25S500
G1 X-0.65S0
G1 X-1.1S500
G1 X-0.6S0
G1 X-0.75S500
G1 X-1.25S0
G1 X-1.2S500
G1 X-0.75S0
G1 X-0.85S500
G1 X-2.1S0
G1 X-0.4S500
G1 X-0.7S0
G1 X-0.45S500
G1 X-0.9S0
G1 X-4.9S500
G1 X-0.45S0
G1 X-2.5S500
G1 X-0.45S0
G1 X-0.65S500
G1 X-0.85S0
G1 X-1.85S500
G1 X-0.5S0
G1 X-0.65S500
G1 X-0.6S0
G1 X-3.8S500
G1 X-0.2S0
G1 X-115.6S500
G1 X-5.8S0
G1 X-50.9S500
G0 X-2.917
G0 Y0.05
G0 X2.917
G1 X50.95
G1 X5.7S0
G1 X115.6S500
G1 X0.35S0
G1 X3.65S500
G1 X0.6S0
G1 X0.75S500
G1 X0.5S0
G1 X1.8S500
G1 X0.9S0
G1 X0.7S500
G1 X0.25S0
G1 X2.6S500
G1 X0.5S0
G1 X4.8S500
G1 X1S0
G1 X0.3S500
G1 X0.85S0
G1 X0.3S500
G1 X2.2S0
G1 X0.8S500
G1 X0.8S0
G1 X1.15S500
G1 X1.25S0
G1 X0.75S500
G1 X0.6S0
G1 X1.05S500
G1 X0.8S0
G1 X1.25S500
G1 X0.2S0
G1 X2.75S500
G1 X0.3S0
G1 X1.55S500
G1 X0.75S0
G1 X47.55S500
G1 X0.65S0
G1 X40.5S500
G0 X2.917
G0 Y0.05
G0 X-2.917
G1 X-40.45
G1 X-0.75S0
G1 X-47.5S500
G1 X-0.8S0
G1 X-1.6S500
G1 X-0.2S0
G1 X-4.1S500
G1 X-1S0
G1 X-0.85S500
G1 X-0.7S0
G1 X-0.7S500
G1 X-1.35S0
G1 X-1.1S500
G1 X-0.85S0
G1 X-0.65S500
G1 X-2.35S0
G1 X-0.2S500
G1 X-0.9S0
G1 X-0.25S500
G1 X-1.05S0
G1 X-4.85S500
G1 X-0.35S0
G1 X-3.6S500
G1 X-0.95S0
G1 X-1.8S500
G1 X-0.55S0
G1 X-0.75S500
G1 X-0.6S0
G1 X-3.6S500
G1 X-0.35S0
G1 X-115.65S500
G1 X-5.6S0
G1 X-51S500
G0 X-2.917
G0 Y0.05
G0 X2.917
G1 X51
G1 X5.6S0
G1 X115.65S500
G1 X0.35S0
G1 X3.5S500
G1 X0.65S0
G1 X0.85S500
G1 X0.5S0
G1 X1.8S500
G1 X1.15S0
G1 X3.6S500
G1 X0.05S0
G1 X4.95S500
G1 X1.05S0
G1 X0.15S500
G1 X3.65S0
G1 X0.2S500
G1 X1.25S0
G1 X1.05S500
G1 X1.45S0
G1 X0.6S500
G1 X0.85S0
G1 X0.3S500
G1 X1.55S0
G1 X5.75S500
G1 X0.75S0
G1 X47.5S500
G1 X0.85S0
G1 X40.4S500
G0 X2.917
G0 Y0.05
G0 X-2.917
G1 X-40.4
G1 X-0.9S0
G1 X-47.5S500
G1 X-0.7S0
G1 X-5.6S500
G1 X-2.9S0
G1 X-0.5S500
G1 X-1.5S0
G1 X-1.05S500
G1 X-6.3S0
G1 X-8.45S500
G1 X-1.3S0
G1 X-0.55S500
G1 X-0.05S0
G1 X-1.15S500
G1 X-0.55S0
G1 X-0.9S500
G1 X-0.8S0
G1 X-3.25S500
G1 X-0.35S0
G1 X-115.75S500
G1 X-5.5S0
G1 X-51.05S500
G0 X-2.917
G0 Y0.05
G0 X2.917
G1 X51.05
G1 X5.5S0
G1 X115.8S500
G1 X0.25S0
G1 X3.15S500
G1 X0.9S0
G1 X1S500
G1 X0.5S0
G1 X1S500
G1 X0.25S0
G1 X0.55S500
G1 X1.35S0
G1 X1.65S500
G1 X0.05S0
G1 X4.05S500
G1 X0.05S0
G1 X0.05S500
G1 X0.05S0
G1 X2.5S500
G1 X1.05S0
G1 X0.05S500
G1 X5.2S0
G1 X0.95S500
G1 X0.6S0
G1 X0.1S500
G1 X1S0
G1 X0.35S500
G1 X2.9S0
G1 X4.5S500
G1 X0.05S0
G1 X0.05S500
G1 X0.15S0
G1 X0.9S500
G1 X0.65S0
G1 X47.5S500
G1 X0.95S0
G1 X40.35S500
G0 X2.917
G0 Y0.05
G0 X-2.917
G1 X-40.35
G1 X-0.95S0
G1 X-47.55S500
G1 X-0.55S0
G1 X-0.85S500
G1 X-0.4S0
G1 X-4.45S500
G1 X-3S0
G1 X-0.1S500
G1 X-1.05S0
G1 X-0.25S500
G1 X-0.6S0
G1 X-0.9S500
G1 X-5.1S0
G1 X-0.2S500
G1 X-1S0
G1 X-2.4S500
G1 X-0.3S0
G1 X-3.85S500
G1 X-0.3S0
G1 X-1.55S500
G1 X-1.35S0
G1 X-0.55S500
G1 X-0.2S0
G1 X-1.05S500
G1 X-0.5S0
G1 X-1S500
G1 X-0.95S0
G1 X-119.2S500
G1 X-5.4S0
G1 X-51.1S500
G0 X-2.917
G0 Y0.05
G0 X2.917
G1 X51.1
G1 X5.4S0
G1 X119.2S500
G1 X0.95S0
G1 X1.05S500
G1 X0.5S0
G1 X1S500
G1 X0.15S0
G1 X0.6S500
G1 X1.35S0
G1 X1.5S500
G1 X0.4S0
G1 X3.75S500
G1 X0.4S0
G1 X2.4S500
G1 X0.9S0
G1 X0.3S500
G1 X5.05S0
G1 X0.85S500
G1 X0.6S0
G1 X0.3S500
G1 X4.2S0
G1 X4.4S500
G1 X0.45S0
G1 X0.85S500
G1 X0.5S0
G1 X47.55S500
G1 X0.95S0
G1 X40.35S500
G0 X2.917
G0 Y0.05
G0 X-2.917
G1 X-40.3
G1 X-1S0
G1 X-47.5S500
G1 X-0.55S0
G1 X-0.8S500
G1 X-0.6S0
G1 X-4.3S500
G1 X-4.2S0
G1 X-0.35S500
G1 X-0.6S0
G1 X-0.75S500
G1 X-1.65S0
G1 X-0.2S500
G1 X-3.25S0
G1 X-0.3S500
G1 X-0.9S0
G1 X-2.4S500
G1 X-0.4S0
G1 X-3.7S500
G1 X-0.45S0
G1 X-1.5S500
G1 X-0.7S0
G1 X-0.25S500
G1 X-0.4S0
G1 X-1.75S500
G1 X-0.45S0
G1 X-1.15S500
G1 X-1S0
G1 X-119.15S500
G1 X-5.3S0
G1 X-51.15S500
G0 X-2.917
G0 Y0.05
G0 X2.917
G1 X51.2
G1 X5.25S0
G1 X119.1S500
G1 X1.05S0
G1 X1.15S500
G1 X0.5S0
G1 X1.7S500
G1 X0.3S0
G1 X0.45S500
G1 X0.6S0
G1 X1.45S500
G1 X0.5S0
G1 X3.7S500
G1 X0.45S0
G1 X2.4S500
G1 X0.8S0
G1 X0.35S500
G1 X3.2S0
G1 X0.3S500
G1 X1.6S0
G1 X0.65S500
G1 X0.65S0
G1 X0.35S500
G1 X4.25S0
G1 X4.3S500
G1 X0.7S0
G1 X0.75S500
G1 X0.45S0
G1 X47.55S500
G1 X0.95S0
G1 X40.35S500
G0 X2.917
G0 Y0.05
G0 X-2.917
G1 X-40.35
G1 X-0.95S0
G1 X-46.55S500
G1 X-0.2S0
G1 X-0.05S500
G1 X-0.05S0
G1 X-0.65S500
G1 X-0.5S0
G1 X-0.5S500
G1 X-0.95S0
G1 X-2.85S500
G1 X-0.65S0
G1 X-0.05S500
G1 X-0.05S0
G1 X-0.65S500
G1 X-0.9S0
G1 X-0.35S500
G1 X-3.1S0
G1 X-0.3S500
G1 X-0.8S0
G1 X-0.5S500
G1 X-1.6S0
G1 X-0.4S500
G1 X-3.1S0
G1 X-0.35S500
G1 X-0.75S0
G1 X-2.5S500
G1 X-0.4S0
G1 X-3.7S500
G1 X-0.45S0
G1 X-1.55S500
G1 X-0.5S0
G1 X-0.55S500
G1 X-0.25S0
G1 X-1.7S500
G1 X-0.5S0
G1 X-1.1S500
G1 X-1.55S0
G1 X-0.65S500
G1 X-0.05S0
G1 X-0.1S500
G1 X-0.05S0
G1 X-117.9S500
G1 X-5.1S0
G1 X-51.25S500
G0 X-2.917
G0 Y0.05
G0 X2.917
G1 X51.3
G1 X5.05S0
G1 X117.75S500
G1 X0.4S0
G1 X0.6S500
G1 X1.55S0
G1 X1.1S500
G1 X0.5S0
G1 X1.7S500
G1 X0.25S0
G1 X0.65S500
G1 X0.35S0
G1 X1.6S500
G1 X0.5S0
G1 X3.65S500
G1 X0.45S0
G1 X2.45S500
G1 X0.7S0
G1 X0.45S500
G1 X2.95S0
G1 X0.55S500
G1 X1.55S0
G1 X0.45S500
G1 X0.85S0
G1 X0.25S500
G1 X3.1S0
G1 X0.5S500
G1 X0.85S0
G1 X0.5S500
G1 X0.95S0
G1 X2.75S500
G1 X1S0
G1 X0.45S500
G1 X0.55S0
G1 X0.5S500
G1 X0.45S0
G1 X46.55S500
G1 X0.9S0
G1 X40.35S500
G0 X2.917
G0 Y0.05
G0 X-2.917
G1 X-40.35
G1 X-0.9S0
G1 X-46.55S500
G1 X-0.55S0
G1 X-0.3S500
G1 X-0.65S0
G1 X-0.35S500
G1 X-1.1S0
G1 X-1.95S500
G1 X-0.15S0
G1 X-0.65S500
G1 X-1S0
G1 X-0.4S500
G1 X-0.85S0
G1 X-0.65S500
G1 X-3.1S0
G1 X-0.1S500
G1 X-0.95S0
G1 X-0.4S500
G1 X-1.55S0
G1 X-0.6S500
G1 X-2.95S0
G1 X-0.35S500
G1 X-0.7S0
G1 X-2.55S500
G1 X-0.35S0
G1 X-3.75S500
G1 X-0.45S0
G1 X-1.65S500
G1 X-0.25S0
G1 X-0.7S500
G1 X-0.25S0
G1 X-1.7S500
G1 X-0.5S0
G1 X-1.05S500
G1 X-1.65S0
G1 X-0.55S500
G1 X-0.45S0
G1 X-117.75S500
G1 X-5S0
G1 X-51.3S500
G0 X-2.917
G0 Y0.05
G0 X2.917
G1 X51.35
G1 X4.95S0
G1 X113.75S500
G1 X0.2S0
G1 X2.7S500
G1 X0.4S0
G1 X0.7S500
G1 X0.5S0
G1 X0.55S500
G1 X1.65S0
G1 X0.95S500
G1 X0.55S0
G1 X1.65S500
G1 X0.3S0
G1 X2.6S500
G1 X0.45S0
G1 X3.85S500
G1 X0.2S0
G1 X2.6S500
G1 X0.7S0
G1 X0.35S500
G1 X1.7S0
G1 X0.25S500
G1 X0.95S0
G1 X0.6S500
G1 X1.55S0
G1 X0.4S500
G1 X3.5S0
G1 X0.1S500
G1 X0.45S0
G1 X0.95S500
G1 X0.8S0
G1 X0.1S500
G1 X1.25S0
G1 X0.55S500
G1 X0.35S0
G1 X1.8S500
G1 X1.15S0
G1 X0.25S500
G1 X1.55S0
G1 X46.6S500
G1 X0.8S0
G1 X40.4S500
G0 X2.917
G0 Y0.05
G0 X-2.917
G1 X-40.45
G1 X-0.7S0
G1 X-46.7S500
G1 X-2.85S0
G1 X-0.55S500
G1 X-0.6S0
G1 X-0.65S500
G1 X-0.4S0
G1 X-0.55S500
G1 X-2.05S0
G1 X-1.75S500
G1 X-3.3S0
G1 X-0.45S500
G1 X-1.5S0
G1 X-0.7S500
G1 X-0.8S0
G1 X-1.1S500
G1 X-1.05S0
G1 X-0.15S500
G1 X-0.8S0
G1 X-6.65S500
G1 X-0.45S0
G1 X-2.6S500
G1 X-0.3S0
G1 X-1.7S500
G1 X-0.5S0
G1 X-0.85S500
G1 X-1.75S0
G1 X-0.55S500
G1 X-0.55S0
G1 X-0.55S500
G1 X-0.65S0
G1 X-2.35S500
G1 X-0.6S0
G1 X-113.6S500
G1 X-4.9S0
G1 X-51.35S500
G0 X-2.917
G0 Y0.05
G0 X2.917
G1 X51.4
G1 X4.85S0
G1 X113.5S500
G1 X0.8S0
G1 X2.05S500
G1 X0.95S0
G1 X0.45S500
G1 X0.55S0
G1 X0.55S500
G1 X0.55S0
G1 X0.05S500
G1 X1.2S0
G1 X0.75S500
G1 X0.55S0
G1 X1.7S500
G1 X0.3S0
G1 X2.6S500
G1 X0.4S0
G1 X3.4S500
G1 X0.3S0
G1 X1.7S500
G1 X0.25S0
G1 X1.1S500
G1 X1.85S0
G1 X1.2S500
G1 X0.75S0
G1 X0.7S500
G1 X1.55S0
G1 X0.4S500
G1 X3.3S0
G1 X1.9S500
G1 X1.9S0
G1 X0.6S500
G1 X0.45S0
G1 X0.55S500
G1 X0.8S0
G1 X0.4S500
G1 X2.85S0
G1 X1.25S500
G1 X0.35S0
G1 X45.1S500
G1 X0.65S0
G1 X40.5S500
G0 X2.917
G0 Y0.05
G0 X-2.917
G1 X-40.6
G1 X-0.4S0
G1 X-45.2S500
G1 X-0.45S0
G1 X-1.3S500
G1 X-2.65S0
G1 X-0.5S500
G1 X-0.9S0
G1 X-0.4S500
G1 X-0.5S0
G1 X-0.6S500
G1 X-1.85S0
G1 X-2S500
G1 X-3.2S0
G1 X-0.45S500
G1 X-1.55S0
G1 X-0.75S500
G1 X-0.65S0
G1 X-1.25S500
G1 X-1.8S0
G1 X-1.1S500
G1 X-0.35S0
G1 X-1.65S500
G1 X-0.45S0
G1 X-3.3S500
G1 X-0.35S0
G1 X-2.6S500
G1 X-0.35S0
G1 X-1.7S500
G1 X-0.55S0
G1 X-0.65S500
G1 X-1.15S0
G1 X-0.4S500
G1 X-0.05S0
G1 X-0.05S500
G1 X-0.05S0
G1 X-0.65S500
G1 X-0.6S0
G1 X-0.4S500
G1 X-1.1S0
G1 X-1.95S500
G1 X-0.85S0
G1 X-113.45S500
G1 X-4.8S0
G1 X-51.45S500
G0 X-2.917
G0 Y0.05
G0 X2.917
G1 X51.5
G1 X4.7S0
G1 X113.45S500
G1 X0.9S0
G1 X1.85S500
G1 X1.3S0
G1 X0.25S500
G1 X0.65S0
G1 X1.25S500
G1 X1.15S0
G1 X0.55S500
G1 X0.6S0
G1 X1.65S500
G1 X0.45S0
G1 X2.5S500
G1 X0.4S0
G1 X3.3S500
G1 X0.45S0
G1 X1.65S500
G1 X0.4S0
G1 X1.1S500
G1 X1.7S0
G1 X1.35S500
G1 X0.6S0
G1 X0.7S500
G1 X1.55S0
G1 X0.5S500
G1 X3.2S0
G1 X2S500
G1 X1.8S0
G1 X0.65S500
G1 X0.6S0
G1 X0.25S500
G1 X1S0
G1 X0.45S500
G1 X2.65S0
G1 X1.25S500
G1 X0.5S0
G1 X86.2S500
G0 X2.917
G0 Y0.05
G0 X-2.917
G1 X-86.2
G1 X-0.5S0
G1 X-1.3S500
G1 X-2.55S0
G1 X-0.5S500
G1 X-1.8S0
G1 X-0.7S500
G1 X-1.75S0
G1 X-2.05S500
G1 X-3.15S0
G1 X-0.55S500
G1 X-1.55S0
G1 X-0.7S500
G1 X-0.6S0
G1 X-1.3S500
G1 X-1.75S0
G1 X-1.1S500
G1 X-0.4S0
G1 X-1.65S500
G1 X-0.5S0
G1 X-3.3S500
G1 X-0.4S0
G1 X-2.4S500
G1 X-0.55S0
G1 X-1.6S500
G1 X-0.7S0
G1 X-0.4S500
G1 X-1.1S0
G1 X-1.3S500
G1 X-2.3S0
G1 X-1.85S500
G1 X-0.85S0
G1 X-113.45S500
G1 X-4.7S0
G1 X-51.5S500
G0 X-2.917
G0 Y0.05
G0 X2.917
G1 X51.55
G1 X4.6S0
G1 X113.5S500
G1 X0.8S0
G1 X1.9S500
G1 X2.35S0
G1 X1.2S500
G1 X1.2S0
G1 X0.25S500
G1 X0.8S0
G1 X1.5S500
G1 X0.65S0
G1 X2.3S500
G1 X0.5S0
G1 X3.3S500
G1 X0.5S0
G1 X1.65S500
G1 X0.4S0
G1 X1.15S500
G1 X1.75S0
G1 X1.3S500
G1 X0.6S0
G1 X0.6S500
G1 X1.55S0
G1 X0.6S500
G1 X3.15S0
G1 X2.05S500
G1 X1.7S0
G1 X0.8S500
G1 X1.75S0
G1 X0.5S500
G1 X2.45S0
G1 X1.4S500
G1 X0.5S0
G1 X86.2S500
G0 X2.917
G0 Y0.05
G0 X-2.917
G1 X-84.15
G1 X-0.15S0
G1 X-1.9S500
G1 X-0.55S0
G1 X-1.4S500
G1 X-2.4S0
G1 X-0.5S500
G1 X-1.65S0
G1 X-0.9S500
G1 X-1.7S0
G1 X-2.05S500
G1 X-3.1S0
G1 X-0.75S500
G1 X-1.45S0
G1 X-0.65S500
G1 X-0.55S0
G1 X-1.1S500
G1 X-1.9S0
G1 X-1.2S500
G1 X-0.35S0
G1 X-1.7S500
G1 X-0.5S0
G1 X-3.3S500
G1 X-0.8S0
G1 X-1.95S500
G1 X-1.05S0
G1 X-1.15S500
G1 X-2.15S0
G1 X-1.3S500
G1 X-2.35S0
G1 X-1.95S500
G1 X-0.75S0
G1 X-113.55S500
G1 X-4.5S0
G1 X-51.6S500
G0 X-2.917
G0 Y0.05
G0 X2.917
G1 X51.65
G1 X4.45S0
G1 X112.15S500
G1 X0.05S0
G1 X1.35S500
G1 X0.7S0
G1 X2S500
G1 X2.4S0
G1 X1.25S500
G1 X2.15S0
G1 X1S500
G1 X1.25S0
G1 X1.65S500
G1 X1.1S0
G1 X3.25S500
G1 X0.45S0
G1 X1.85S500
G1 X0.2S0
G1 X1.2S500
G1 X2.3S0
G1 X0.75S500
G1 X0.55S0
G1 X0.65S500
G1 X1.4S0
G1 X0.9S500
G1 X3S0
G1 X0.45S500
G1 X0.25S0
G1 X1.35S500
G1 X1.2S0
G1 X0.05S500
G1 X0.45S0
G1 X1.05S500
G1 X1.5S0
G1 X0.45S500
G1 X2.4S0
G1 X1.45S500
G1 X0.5S0
G1 X1.75S500
G1 X0.5S0
G1 X84S500
G0 X2.917
G0 Y0.05
G0 X-2.917
G1 X-84
G1 X-0.55S0
G1 X-1.75S500
G1 X-0.4S0
G1 X-1.6S500
G1 X-2.3S0
G1 X-0.5S500
G1 X-1.35S0
G1 X-1.1S500
G1 X-0.35S0
G1 X-0.25S500
G1 X-1.15S0
G1 X-1.25S500
G1 X-0.45S0
G1 X-0.3S500
G1 X-3S0
G1 X-1.05S500
G1 X-1.35S0
G1 X-0.55S500
G1 X-0.6S0
G1 X-0.65S500
G1 X-1.25S0
G1 X-0.05S500
G1 X-1.05S0
G1 X-3.35S500
G1 X-0.35S0
G1 X-3.3S500
G1 X-1.2S0
G1 X-1.6S500
G1 X-1.2S0
G1 X-0.95S500
G1 X-2.2S0
G1 X-1.25S500
G1 X-2.45S0
G1 X-0.75S500
G1 X-0.25S0
G1 X-1S500
G1 X-0.65S0
G1 X-1.3S500
G1 X-0.15S0
G1 X-112.15S500
G1 X-4.35S0
G1 X-51.7S500
G0 X-2.917
G0 Y0.05
G0 X2.917
G1 X51.75
G1 X4.3S0
G1 X109.7S500
G1 X0.15S0
G1 X3.8S500
G1 X0.6S0
G1 X1S500
G1 X0.25S0
G1 X0.75S500
G1 X2.45S0
G1 X1.25S500
G1 X2.2S0
G1 X0.95S500
G1 X1.1S0
G1 X1.65S500
G1 X1.3S0
G1 X3.35S500
G1 X0.2S0
G1 X3.35S500
G1 X2.45S0
G1 X0.65S500
G1 X0.55S0
G1 X0.55S500
G1 X1.35S0
G1 X0.6S500
G1 X0.1S0
G1 X0.4S500
G1 X3.8S0
G1 X1.15S500
G1 X1.1S0
G1 X0.35S500
G1 X0.35S0
G1 X1.15S500
G1 X1.3S0
G1 X0.4S500
G1 X0.7S0
G1 X0.1S500
G1 X1.45S0
G1 X1.7S500
G1 X0.4S0
G1 X1.75S500
G1 X0.55S0
G1 X84S500
G0 X2.917
G0 Y0.05
G0 X-2.917
G1 X-84
G1 X-0.6S0
G1 X-1.75S500
G1 X-0.35S0
G1 X-1.8S500
G1 X-2.25S0
G1 X-0.3S500
G1 X-1.05S0
G1 X-1.35S500
G1 X-0.4S0
G1 X-0.35S500
G1 X-1.1S0
G1 X-1.1S500
G1 X-3.75S0
G1 X-0.45S500
G1 X-0.2S0
G1 X-0.6S500
G1 X-1.35S0
G1 X-0.45S500
G1 X-0.55S0
G1 X-0.6S500
G1 X-2.5S0
G1 X-6.95S500
G1 X-1.35S0
G1 X-1.7S500
G1 X-1S0
G1 X-0.9S500
G1 X-2.25S0
G1 X-1.25S500
G1 X-1.55S0
G1 X-0.15S500
G1 X-0.75S0
G1 X-0.75S500
G1 X-0.3S0
G1 X-0.95S500
G1 X-0.55S0
G1 X-3.85S500
G1 X-0.2S0
G1 X-109.7S500
G1 X-4.2S0
G1 X-51.8S500
G0 X-2.917
G0 Y0.05
G0 X2.917
G1 X51.85
G1 X4.15S0
G1 X109.65S500
G1 X0.2S0
G1 X3.95S500
G1 X0.55S0
G1 X0.8S500
G1 X0.4S0
G1 X0.7S500
G1 X0.7S0
G1 X0.35S500
G1 X1.4S0
G1 X1.25S500
G1 X2.3S0
G1 X0.9S500
G1 X0.9S0
G1 X1.75S500
G1 X1.45S0
G1 X6.85S500
G1 X2.65S0
G1 X0.55S500
G1 X0.55S0
G1 X0.3S500
G1 X1.4S0
G1 X0.6S500
G1 X0.3S0
G1 X0.45S500
G1 X0.6S0
G1 X0.1S500
G1 X1S0
G1 X0.2S500
G1 X1.9S0
G1 X1S500
G1 X1.1S0
G1 X0.35S500
G1 X0.5S0
G1 X1.35S500
G1 X1S0
G1 X0.25S500
G1 X2.1S0
G1 X2S500
G1 X0.25S0
G1 X1.85S500
G1 X0.55S0
G1 X84S500
G0 X2.917
G0 Y0.05
G0 X-2.917
G1 X-84.05
G1 X-0.45S0
G1 X-0.4S500
G1 X-0.05S0
G1 X-1.55S500
G1 X-0.15S0
G1 X-2.05S500
G1 X-3.25S0
G1 X-1.25S500
G1 X-0.7S0
G1 X-0.3S500
G1 X-1.1S0
G1 X-0.65S500
G1 X-0.05S0
G1 X-0.1S500
G1 X-2S0
G1 X-0.35S500
G1 X-0.85S0
G1 X-0.25S500
G1 X-0.5S0
G1 X-0.5S500
G1 X-0.25S0
G1 X-0.7S500
G1 X-2.05S0
G1 X-0.55S500
G1 X-2.85S0
G1 X-4S500
G1 X-0.05S0
G1 X-0.1S500
G1 X-0.05S0
G1 X-0.1S500
G1 X-0.05S0
G1 X-0.1S500
G1 X-0.05S0
G1 X-0.1S500
G1 X-0.05S0
G1 X-0.1S500
G1 X-0.05S0
G1 X-0.1S500
G1 X-0.05S0
G1 X-0.1S500
G1 X-0.05S0
G1 X-0.1S500
G1 X-0.05S0
G1 X-0.1S500
G1 X-0.05S0
G1 X-0.1S500
G1 X-0.05S0
G1 X-1.2S500
G1 X-1.5S0
G1 X-1.85S500
G1 X-0.75S0
G1 X-0.95S500
G1 X-2.35S0
G1 X-1.2S500
G1 X-1.35S0
G1 X-0.45S500
G1 X-0.7S0
G1 X-0.65S500
G1 X-1.7S0
G1 X-0.5S500
G1 X-0.05S0
G1 X-0.05S500
G1 X-0.4S0
G1 X-2.1S500
G1 X-0.15S0
G1 X-0.8S500
G1 X-0.15S0
G1 X-109.65S500
G1 X-4.1S0
G1 X-51.9S500
G0 X-2.917
G0 Y0.05
G0 X2.917
G1 X52
G1 X3.95S0
G1 X110.65S500
G1 X0.2S0
G1 X2S500
G1 X0.7S0
G1 X0.45S500
G1 X1.6S0
G1 X0.65S500
G1 X0.65S0
G1 X0.5S500
G1 X1.35S0
G1 X1.15S500
G1 X2.45S0
G1 X0.95S500
G1 X0.6S0
G1 X1.25S500
G1 X0.1S0
G1 X0.5S500
G1 X1.65S0
G1 X1S500
G1 X1.8S0
G1 X3.85S500
G1 X3S0
G1 X0.5S500
G1 X1.95S0
G1 X0.7S500
G1 X0.3S0
G1 X0.55S500
G1 X0.4S0
G1 X0.3S500
G1 X0.8S0
G1 X0.4S500
G1 X2.35S0
G1 X0.45S500
G1 X1.15S0
G1 X0.25S500
G1 X0.8S0
G1 X1.2S500
G1 X3.15S0
G1 X3.6S500
G1 X0.4S0
G1 X0.3S500
G1 X0.3S0
G1 X84.15S500
G0 X2.917
G0 Y0.05
G0 X-2.917
G1 X-84.75
G1 X-0.4S0
G1 X-3.6S500
G1 X-3.15S0
G1 X-1.1S500
G1 X-1S0
G1 X-0.1S500
G1 X-1.25S0
G1 X-0.3S500
G1 X-2.4S0
G1 X-0.4S500
G1 X-0.85S0
G1 X-0.3S500
G1 X-0.3S0
G1 X-0.65S500
G1 X-0.25S0
G1 X-0.8S500
G1 X-1.85S0
G1 X-0.5S500
G1 X-3.05S0
G1 X-3.75S500
G1 X-2S0
G1 X-0.8S500
G1 X-1.75S0
G1 X-0.45S500
G1 X-0.2S0
G1 X-1.25S500
G1 X-0.45S0
G1 X-1.05S500
G1 X-2.55S0
G1 X-1.05S500
G1 X-1.35S0
G1 X-0.55S500
G1 X-0.65S0
G1 X-0.65S500
G1 X-1.5S0
G1 X-0.5S500
G1 X-0.7S0
G1 X-2.05S500
G1 X-0.2S0
G1 X-110.6S500
G1 X-3.85S0
G1 X-52.1S500
G0 X-2.917
G0 Y0.05
G0 X2.917
G1 X48.8
G1 X0.05S0
G1 X3.35S500
G1 X3.75S0
G1 X112.9S500
G1 X0.75S0
G1 X0.45S500
G1 X1.45S0
G1 X0.6S500
G1 X0.7S0
G1 X0.55S500
G1 X1.35S0
G1 X1S500
G1 X2.55S0
G1 X1.15S500
G1 X0.35S0
G1 X1.25S500
G1 X0.3S0
G1 X0.4S500
G1 X1.75S0
G1 X0.75S500
G1 X2.05S0
G1 X3.7S500
G1 X3.15S0
G1 X0.5S500
G1 X1.75S0
G1 X1.85S500
G1 X0.15S0
G1 X0.3S500
G1 X0.9S0
G1 X0.35S500
G1 X2.55S0
G1 X0.1S500
G1 X2.55S0
G1 X1S500
G1 X3.15S0
G1 X0.65S500
G1 X0.35S0
G1 X2.6S500
G1 X0.4S0
G1 X84.75S500
G0 X2.917
G0 Y0.05
G0 X-2.917
G1 X-84.8
G1 X-0.3S0
G1 X-2.55S500
G1 X-0.5S0
G1 X-0.6S500
G1 X-3.25S0
G1 X-0.7S500
G1 X-5.5S0
G1 X-0.2S500
G1 X-1.3S0
G1 X-2S500
G1 X-1.65S0
G1 X-0.55S500
G1 X-3.2S0
G1 X-3.65S500
G1 X-2.05S0
G1 X-0.7S500
G1 X-1.8S0
G1 X-0.4S500
G1 X-0.35S0
G1 X-2.7S500
G1 X-2.6S0
G1 X-0.95S500
G1 X-1.4S0
G1 X-0.55S500
G1 X-0.75S0
G1 X-0.55S500
G1 X-1.35S0
G1 X-0.55S500
G1 X-0.7S0
G1 X-111.9S500
G1 X-0.05S0
G1 X-1S500
G1 X-0.1S0
G1 X-0.05S500
G1 X-0.15S0
G1 X-0.05S500
G1 X-0.15S0
G1 X-0.05S500
G1 X-0.15S0
G1 X-0.05S500
G1 X-0.15S0
G1 X-0.05S500
G1 X-0.2S0
G1 X-0.05S500
G1 X-2.2S0
G1 X-3.6S500
G1 X-0.15S0
G1 X-48.75S500
G0 X-2.917
G0 Y0.05
G0 X2.917
G1 X48.65
G1 X0.3S0
G1 X7.85S500
G1 X0.2S0
G1 X110.75S500
G1 X0.25S0
G1 X0.9S500
G1 X0.7S0
G1 X0.5S500
G1 X1.35S0
G1 X0.4S500
G1 X0.9S0
G1 X0.55S500
G1 X0.55S0
G1 X0.35S500
G1 X0.55S0
G1 X0.85S500
G1 X2.6S0
G1 X2.7S500
G1 X0.4S0
G1 X0.4S500
G1 X1.85S0
G1 X0.6S500
G1 X2.15S0
G1 X2S500
G1 X0.2S0
G1 X1.4S500
G1 X3.2S0
G1 X0.6S500
G1 X1.6S0
G1 X0.35S500
G1 X0.05S0
G1 X0.1S500
G1 X0.05S0
G1 X1.45S500
G1 X11S0
G1 X0.5S500
G1 X0.85S0
G1 X2.25S500
G1 X0.3S0
G1 X84.8S500
G0 X2.917
G0 Y0.05
G0 X-2.917
G1 X-84.85
G1 X-0.05S0
G1 X-2.35S500
G1 X-0.95S0
G1 X-0.45S500
G1 X-1.7S0
G1 X-0.05S500
G1 X-0.05S0
G1 X-0.05S500
G1 X-4S0
G1 X-0.1S500
G1 X-5.1S0
G1 X-1.3S500
G1 X-0.45S0
G1 X-0.3S500
G1 X-1.55S0
G1 X-0.55S500
G1 X-3.25S0
G1 X-1.35S500
G1 X-0.3S0
G1 X-0.05S500
G1 X-0.05S0
G1 X-1.85S500
G1 X-2.15S0
G1 X-0.6S500
G1 X-1.85S0
G1 X-0.4S500
G1 X-0.45S0
G1 X-2.7S500
G1 X-1.95S0
G1 X-0.1S500
G1 X-0.5S0
G1 X-0.85S500
G1 X-0.45S0
G1 X-0.5S500
G1 X-0.55S0
G1 X-0.5S500
G1 X-1.05S0
G1 X-0.3S500
G1 X-1.25S0
G1 X-0.55S500
G1 X-0.6S0
G1 X-0.9S500
G1 X-0.5S0
G1 X-110.55S500
G1 X-0.4S0
G1 X-7.55S500
G1 X-0.5S0
G1 X-48.6S500
G0 X-2.917
G0 Y0.05
G0 X2.917
G1 X48.65
G1 X0.55S0
G1 X7.4S500
G1 X0.5S0
G1 X110.45S500
G1 X0.6S0
G1 X0.85S500
G1 X0.6S0
G1 X0.5S500
G1 X1.3S0
G1 X0.25S500
G1 X1.1S0
G1 X0.5S500
G1 X0.5S0
G1 X0.6S500
G1 X0.45S0
G1 X0.75S500
G1 X0.5S0
G1 X0.3S500
G1 X1.7S0
G1 X2.8S500
G1 X0.4S0
G1 X0.45S500
G1 X1.85S0
G1 X0.65S500
G1 X2.15S0
G1 X0.6S500
G1 X0.15S0
G1 X1S500
G1 X0.5S0
G1 X1.25S500
G1 X3.3S0
G1 X0.55S500
G1 X1.55S0
G1 X0.25S500
G1 X0.5S0
G1 X1.35S500
G1 X5S0
G1 X0.25S500
G1 X3.85S0
G1 X0.25S500
G1 X1.7S0
G1 X0.35S500
G1 X1.05S0
G1 X1.35S500
G1 X0.2S0
G1 X85.65S500
G0 X2.917
G0 Y0.05
G0 X-2.917
G1 X-85.6
G1 X-0.35S0
G1 X-1.2S500
G1 X-1.15S0
G1 X-0.25S500
G1 X-1.7S0
G1 X-0.35S500
G1 X-3.7S0
G1 X-0.35S500
G1 X-5S0
G1 X-1.35S500
G1 X-0.6S0
G1 X-0.05S500
G1 X-1.6S0
G1 X-0.6S500
G1 X-3.3S0
G1 X-0.5S500
G1 X-0.2S0
G1 X-0.5S500
G1 X-0.6S0
G1 X-0.9S500
G1 X-0.3S0
G1 X-0.45S500
G1 X-2.2S0
G1 X-0.65S500
G1 X-1.8S0
G1 X-0.55S500
G1 X-0.35S0
G1 X-2.95S500
G1 X-1.5S0
G1 X-0.35S500
G1 X-0.5S0
G1 X-0.75S500
G1 X-0.45S0
G1 X-0.55S500
G1 X-0.55S0
G1 X-0.5S500
G1 X-1.15S0
G1 X-0.15S500
G1 X-1.3S0
G1 X-0.55S500
G1 X-0.55S0
G1 X-0.85S500
G1 X-0.7S0
G1 X-110.45S500
G1 X-0.55S0
G1 X-7.15S500
G1 X-0.65S0
G1 X-48.7S500
G0 X-2.917
G0 Y0.05
G0 X2.917
G1 X48.7
G1 X0.75S0
G1 X6.9S500
G1 X0.7S0
G1 X110.4S500
G1 X0.75S0
G1 X0.9S500
G1 X0.55S0
G1 X0.55S500
G1 X2.55S0
G1 X0.5S500
G1 X0.55S0
G1 X0.6S500
G1 X0.45S0
G1 X0.7S500
G1 X0.45S0
G1 X0.4S500
G1 X1.4S0
G1 X3.05S500
G1 X0.25S0
G1 X0.7S500
G1 X1.7S0
G1 X0.8S500
G1 X2.15S0
G1 X0.4S500
G1 X0.35S0
G1 X0.8S500
G1 X0.65S0
G1 X0.45S500
G1 X0.35S0
G1 X0.35S500
G1 X0.65S0
G1 X1S500
G1 X1.75S0
G1 X0.55S500
G1 X2.25S0
G1 X1.4S500
G1 X4.95S0
G1 X0.35S500
G1 X3.7S0
G1 X0.35S500
G1 X0.8S0
G1 X0.35S500
G1 X1.9S0
G1 X1.2S500
G1 X0.45S0
G1 X85.55S500
G0 X2.917
G0 Y0.05
G0 X-2.917
G1 X-85.5
G1 X-0.55S0
G1 X-1.15S500
G1 X-1.8S0
G1 X-0.55S500
G1 X-0.65S0
G1 X-0.4S500
G1 X-3.65S0
G1 X-0.35S500
G1 X-4.95S0
G1 X-1.45S500
G1 X-2.25S0
G1 X-0.5S500
G1 X-1.7S0
G1 X-1.15S500
G1 X-0.7S0
G1 X-0.2S500
G1 X-0.4S0
G1 X-0.45S500
G1 X-0.7S0
G1 X-0.75S500
G1 X-0.5S0
G1 X-0.1S500
G1 X-2.2S0
G1 X-0.9S500
G1 X-1.65S0
G1 X-4.2S500
G1 X-1.2S0
G1 X-0.45S500
G1 X-0.5S0
G1 X-0.65S500
G1 X-0.4S0
G1 X-0.6S500
G1 X-0.55S0
G1 X-0.55S500
G1 X-1.85S0
G1 X-0.2S500
G1 X-0.55S0
G1 X-0.5S500
G1 X-0.5S0
G1 X-0.9S500
G1 X-0.85S0
G1 X-110.4S500
G1 X-0.85S0
G1 X-6.5S500
G1 X-0.9S0
G1 X-48.75S500
G0 X-2.917
G0 Y0.05
G0 X2.917
G1 X48.8
G1 X8.15S0
G1 X109.35S500
G1 X0.05S0
G1 X0.1S500
G1 X0.05S0
G1 X0.9S500
G1 X0.85S0
G1 X1S500
G1 X0.4S0
G1 X0.5S500
G1 X0.5S0
G1 X0.4S500
G1 X1.7S0
G1 X0.6S500
G1 X0.5S0
G1 X0.65S500
G1 X0.35S0
G1 X0.65S500
G1 X0.45S0
G1 X0.5S500
G1 X1.1S0
G1 X4.3S500
G1 X1.6S0
G1 X1.05S500
G1 X2.75S0
G1 X0.65S500
G1 X0.75S0
G1 X0.45S500
G1 X0.5S0
G1 X0.05S500
G1 X0.7S0
G1 X1.25S500
G1 X1.7S0
G1 X0.45S500
G1 X2.25S0
G1 X1.5S500
G1 X4.95S0
G1 X0.3S500
G1 X3.65S0
G1 X0.4S500
G1 X0.55S0
G1 X0.65S500
G1 X1.65S0
G1 X0.3S500
G1 X0.3S0
G1 X0.7S500
G1 X0.6S0
G1 X85.45S500
G0 X2.917
G0 Y0.05
G0 X-2.917
G1 X-85.4
G1 X-0.7S0
G1 X-0.55S500
G1 X-0.45S0
G1 X-0.4S500
G1 X-1.45S0
G1 X-0.75S500
G1 X-0.5S0
G1 X-0.4S500
G1 X-3.6S0
G1 X-0.35S500
G1 X-4.9S0
G1 X-1.55S500
G1 X-2.25S0
G1 X-0.35S500
G1 X-1.75S0
G1 X-1.3S500
G1 X-1.25S0
G1 X-0.45S500
G1 X-0.8S0
G1 X-0.55S500
G1 X-2.75S0
G1 X-1.15S500
G1 X-1.45S0
G1 X-1.6S500
G1 X-0.15S0
G1 X-2.75S500
G1 X-0.95S0
G1 X-0.55S500
G1 X-0.55S0
G1 X-0.55S500
G1 X-0.3S0
G1 X-0.6S500
G1 X-0.6S0
G1 X-0.55S500
G1 X-1.7S0
G1 X-0.5S500
G1 X-0.4S0
G1 X-0.55S500
G1 X-0.4S0
G1 X-1S500
G1 X-0.9S0
G1 X-0.75S500
G1 X-0.45S0
G1 X-109.25S500
G1 X-8.05S0
G1 X-48.85S500
G0 X-2.917
G0 Y0.05
G0 X2.917
G1 X48.85
G1 X8.05S0
G1 X109.2S500
G1 X0.6S0
G1 X0.65S500
G1 X0.95S0
G1 X1S500
G1 X0.4S0
G1 X0.45S500
G1 X0.45S0
G1 X0.6S500
G1 X1.6S0
G1 X0.6S500
G1 X0.55S0
G1 X0.65S500
G1 X0.25S0
G1 X0.55S500
G1 X0.5S0
G1 X0.65S500
G1 X0.8S0
G1 X2.85S500
G1 X0.25S0
G1 X1.55S500
G1 X1.35S0
G1 X1.2S500
G1 X2.8S0
G1 X0.4S500
G1 X0.9S0
G1 X0.45S500
G1 X1.25S0
G1 X1.3S500
G1 X1.8S0
G1 X0.3S500
G1 X2.25S0
G1 X1.6S500
G1 X4.85S0
G1 X0.35S500
G1 X3.65S0
G1 X0.4S500
G1 X0.35S0
G1 X0.85S500
G1 X1.45S0
G1 X0.4S500
G1 X0.5S0
G1 X0.5S500
G1 X0.7S0
G1 X1.65S500
G1 X0.15S0
G1 X0.95S500
G1 X0.3S0
G1 X82.35S500
G0 X2.917
G0 Y0.05
G0 X-2.917
G1 X-82.3
G1 X-0.45S0
G1 X-0.85S500
G1 X-0.2S0
G1 X-1.55S500
G1 X-0.75S0
G1 X-0.45S500
G1 X-0.5S0
G1 X-0.5S500
G1 X-1.4S0
G1 X-0.95S500
G1 X-0.15S0
G1 X-0.45S500
G1 X-3.65S0
G1 X-0.35S500
G1 X-4.8S0
G1 X-1.75S500
G1 X-4.3S0
G1 X-1.25S500
G1 X-1.3S0
G1 X-0.45S500
G1 X-1.05S0
G1 X-0.15S500
G1 X-2.85S0
G1 X-1.25S500
G1 X-1.3S0
G1 X-1.7S500
G1 X-0.1S0
G1 X-2.95S500
G1 X-0.65S0
G1 X-0.75S500
G1 X-0.55S0
G1 X-0.5S500
G1 X-0.25S0
G1 X-0.6S500
G1 X-0.6S0
G1 X-0.6S500
G1 X-1.5S0
G1 X-0.65S500
G1 X-0.55S0
G1 X-0.35S500
G1 X-0.45S0
G1 X-1.05S500
G1 X-0.95S0
G1 X-0.55S500
G1 X-0.65S0
G1 X-109.25S500
G1 X-8S0
G1 X-48.85S500
G0 X-2.917
G0 Y0.05
G0 X2.917
G1 X48.9
G1 X7.95S0
G1 X109.2S500
G1 X0.7S0
G1 X0.55S500
G1 X0.9S0
G1 X1.1S500
G1 X0.5S0
G1 X0.25S500
G1 X0.6S0
G1 X1.4S500
G1 X0.75S0
G1 X0.6S500
G1 X0.65S0
G1 X0.6S500
G1 X0.15S0
G1 X0.55S500
G1 X0.5S0
G1 X6.25S500
G1 X1.25S0
G1 X1.25S500
G1 X4.05S0
G1 X0.45S500
G1 X0.45S0
G1 X0.1S500
G1 X0.8S0
G1 X1.25S500
G1 X0.7S0
G1 X0.25S500
G1 X3.3S0
G1 X2.55S500
G1 X4S0
G1 X0.35S500
G1 X3.7S0
G1 X1.45S500
G1 X1.5S0
G1 X0.45S500
G1 X0.5S0
G1 X0.45S500
G1 X0.75S0
G1 X1.5S500
G1 X0.3S0
G1 X0.8S500
G1 X0.45S0
G1 X82.3S500
G0 X2.917
G0 Y0.05
G0 X-2.917
G1 X-82.2
G1 X-0.65S0
G1 X-0.7S500
G1 X-0.3S0
G1 X-1.45S500
G1 X-0.8S0
G1 X-0.45S500
G1 X-0.5S0
G1 X-0.45S500
G1 X-1.5S0
G1 X-1.45S500
G1 X-3.7S0
G1 X-0.35S500
G1 X-3.9S0
G1 X-2.7S500
G1 X-3.15S0
G1 X-0.45S500
G1 X-0.65S0
G1 X-1.15S500
G1 X-0.75S0
G1 X-0.3S500
G1 X-0.35S0
G1 X-0.45S500
G1 X-4.05S0
G1 X-1.3S500
G1 X-1.15S0
G1 X-6.3S500
G1 X-0.55S0
G1 X-0.45S500
G1 X-0.15S0
G1 X-0.6S500
G1 X-0.7S0
G1 X-0.55S500
G1 X-0.75S0
G1 X-1.35S500
G1 X-1.45S0
G1 X-1.15S500
G1 X-0.85S0
G1 X-0.5S500
G1 X-0.7S0
G1 X-0.8S500
G1 X-0.2S0
G1 X-108.3S500
G1 X-7.85S0
G1 X-48.95S500
G0 X-2.917
G0 Y0.05
G0 X2.917
G1 X48.95
G1 X7.85S0
G1 X108.25S500
G1 X0.3S0
G1 X0.75S500
G1 X0.75S0
G1 X0.45S500
G1 X0.85S0
G1 X1.15S500
G1 X1.6S0
G1 X1.2S500
G1 X0.75S0
G1 X0.55S500
G1 X0.75S0
G1 X0.55S500
G1 X0.15S0
G1 X0.4S500
G1 X0.55S0
G1 X6.35S500
G1 X1.15S0
G1 X1.3S500
G1 X4.05S0
G1 X0.4S500
G1 X0.4S0
G1 X0.35S500
G1 X0.95S0
G1 X0.05S500
G1 X0.05S0
G1 X0.8S500
G1 X0.7S0
G1 X0.45S500
G1 X2.15S0
G1 X0.25S500
G1 X0.65S0
G1 X2.85S500
G1 X3.8S0
G1 X0.35S500
G1 X3.7S0
G1 X1.4S500
G1 X0.9S0
G1 X0.1S500
G1 X0.6S0
G1 X0.4S500
G1 X0.5S0
G1 X0.45S500
G1 X0.8S0
G1 X1.45S500
G1 X0.25S0
G1 X0.75S500
G1 X0.65S0
G1 X82.2S500
G0 X2.917
G0 Y0.05
G0 X-2.917
G1 X-82.15
G1 X-0.75S0
G1 X-0.7S500
G1 X-0.2S0
G1 X-1S500
G1 X-0.1S0
G1 X-0.4S500
G1 X-0.8S0
G1 X-0.45S500
G1 X-0.45S0
G1 X-0.4S500
G1 X-0.55S0
G1 X-0.25S500
G1 X-0.9S0
G1 X-1.3S500
G1 X-3.75S0
G1 X-0.3S500
G1 X-3.8S0
G1 X-2.95S500
G1 X-0.5S0
G1 X-0.4S500
G1 X-2.1S0
G1 X-0.5S500
G1 X-0.65S0
G1 X-0.7S500
G1 X-1.15S0
G1 X-0.35S500
G1 X-0.45S0
G1 X-0.25S500
G1 X-4.15S0
G1 X-1.3S500
G1 X-1.1S0
G1 X-6.4S500
G1 X-0.6S0
G1 X-0.3S500
G1 X-0.2S0
G1 X-0.5S500
G1 X-0.8S0
G1 X-0.55S500
G1 X-0.75S0
G1 X-1.15S500
G1 X-1.7S0
G1 X-1.15S500
G1 X-0.75S0
G1 X-0.45S500
G1 X-0.8S0
G1 X-0.8S500
G1 X-0.3S0
G1 X-108.25S500
G1 X-7.75S0
G1 X-49S500
G0 X-2.917
G0 Y0.05
G0 X2.917
G1 X49.05
G1 X7.7S0
G1 X108.3S500
G1 X0.25S0
G1 X0.8S500
G1 X0.85S0
G1 X0.45S500
G1 X0.7S0
G1 X1.1S500
G1 X1.8S0
G1 X1.1S500
G1 X0.7S0
G1 X0.55S500
G1 X0.85S0
G1 X0.5S500
G1 X0.25S0
G1 X0.2S500
G1 X0.65S0
G1 X3.6S500
G1 X0.2S0
G1 X2.6S500
G1 X1.05S0
G1 X1.35S500
G1 X4.85S0
G1 X0.35S500
G1 X1.25S0
G1 X0.55S500
G1 X0.75S0
G1 X0.45S500
G1 X2.1S0
G1 X0.4S500
G1 X0.4S0
G1 X3.1S500
G1 X3.75S0
G1 X0.25S500
G1 X3.75S0
G1 X1.3S500
G1 X0.9S0
G1 X0.3S500
G1 X0.6S0
G1 X0.35S500
G1 X0.4S0
G1 X0.55S500
G1 X0.8S0
G1 X0.25S500
G1 X0.3S0
G1 X0.85S500
G1 X0.2S0
G1 X0.75S500
G1 X0.75S0
G1 X82.15S500
G0 X2.917
G0 Y0.05
G0 X-2.917
G1 X-82.1
G1 X-0.8S0
G1 X-0.85S500
G1 X-0.1S0
G1 X-0.75S500
G1 X-1.4S0
G1 X-0.7S500
G1 X-0.25S0
G1 X-0.35S500
G1 X-0.6S0
G1 X-0.4S500
G1 X-0.9S0
G1 X-1.3S500
G1 X-3.8S0
G1 X-0.05S500
G1 X-3.8S0
G1 X-3.25S500
G1 X-0.2S0
G1 X-0.5S500
G1 X-2.15S0
G1 X-0.4S500
G1 X-0.8S0
G1 X-0.4S500
G1 X-1.4S0
G1 X-0.2S500
G1 X-4.95S0
G1 X-1.4S500
G1 X-1S0
G1 X-2.55S500
G1 X-0.25S0
G1 X-3.65S500
G1 X-1.05S0
G1 X-0.5S500
G1 X-0.95S0
G1 X-0.45S500
G1 X-0.75S0
G1 X-1S500
G1 X-1.95S0
G1 X-1S500
G1 X-0.7S0
G1 X-0.4S500
G1 X-0.85S0
G1 X-0.95S500
G1 X-0.05S0
G1 X-108.45S500
G1 X-7.65S0
G1 X-49.05S500
G0 X-2.917
G0 Y0.05
G0 X2.917
G1 X49.1
G1 X7.6S0
G1 X106.75S500
G1 X0.3S0
G1 X2.45S500
G1 X0.9S0
G1 X0.4S500
G1 X0.6S0
G1 X0.9S500
G1 X2.05S0
G1 X0.9S500
G1 X0.8S0
G1 X0.35S500
G1 X1.15S0
G1 X0.45S500
G1 X1.05S0
G1 X3.6S500
G1 X0.35S0
G1 X2.55S500
G1 X0.85S0
G1 X1.5S500
G1 X3.3S0
G1 X0.05S500
G1 X3.35S0
G1 X0.1S500
G1 X1.05S0
G1 X0.15S500
G1 X2.3S0
G1 X4S500
G1 X7.45S0
G1 X1.4S500
G1 X1S0
G1 X0.35S500
G1 X0.7S0
G1 X1.35S500
G1 X1.4S0
G1 X0.45S500
G1 X0.15S0
G1 X0.95S500
G1 X0.8S0
G1 X82.1S500
G0 X2.917
G0 Y0.05
G0 X-2.917
G1 X-80.2
G1 X-0.8S0
G1 X-1.05S500
G1 X-0.85S0
G1 X-0.95S500
G1 X-1.85S0
G1 X-1.45S500
G1 X-0.75S0
G1 X-0.4S500
G1 X-1S0
G1 X-2.05S500
G1 X-3.45S0
G1 X-0.4S500
G1 X-2.9S0
G1 X-4S500
G1 X-4.5S0
G1 X-0.05S500
G1 X-2.3S0
G1 X-0.45S500
G1 X-0.8S0
G1 X-0.4S500
G1 X-1.8S0
G1 X-1.75S500
G1 X-0.65S0
G1 X-1S500
G1 X-0.25S0
G1 X-1.25S500
G1 X-0.3S0
G1 X-3.65S500
G1 X-1.1S0
G1 X-0.35S500
G1 X-1.4S0
G1 X-0.25S500
G1 X-0.85S0
G1 X-0.75S500
G1 X-2.2S0
G1 X-0.75S500
G1 X-0.4S0
G1 X-0.55S500
G1 X-0.9S0
G1 X-2.3S500
G1 X-0.6S0
G1 X-106.7S500
G1 X-7.55S0
G1 X-49.1S500
G0 X-2.917
G0 Y0.05
G0 X2.917
G1 X49.15
G1 X7.45S0
G1 X106.7S500
G1 X0.75S0
G1 X2.25S500
G1 X0.95S0
G1 X0.55S500
G1 X0.35S0
G1 X0.65S500
G1 X2.3S0
G1 X0.55S500
G1 X0.95S0
G1 X0.25S500
G1 X1.45S0
G1 X0.35S500
G1 X1.05S0
G1 X3.7S500
G1 X0.3S0
G1 X1.15S500
G1 X0.5S0
G1 X0.85S500
G1 X0.6S0
G1 X1.75S500
G1 X1.75S0
G1 X0.55S500
G1 X0.65S0
G1 X0.6S500
G1 X2.1S0
G1 X0.3S500
G1 X4.45S0
G1 X4S500
G1 X2.75S0
G1 X0.65S500
G1 X3.3S0
G1 X2S500
G1 X1.1S0
G1 X0.3S500
G1 X0.9S0
G1 X1.4S500
G1 X1.8S0
G1 X1.05S500
G1 X0.75S0
G1 X1S500
G1 X0.95S0
G1 X80.1S500
G0 X2.917
G0 Y0.05
G0 X-2.917
G1 X-80.05
G1 X-1.05S0
G1 X-0.95S500
G1 X-0.75S0
G1 X-1.05S500
G1 X-1.75S0
G1 X-1.4S500
G1 X-0.95S0
G1 X-0.3S500
G1 X-1.1S0
G1 X-2.05S500
G1 X-3.2S0
G1 X-0.75S500
G1 X-2.7S0
G1 X-3.95S500
G1 X-4.5S0
G1 X-0.3S500
G1 X-2.1S0
G1 X-0.65S500
G1 X-0.55S0
G1 X-0.65S500
G1 X-1.75S0
G1 X-1.75S500
G1 X-0.5S0
G1 X-0.9S500
G1 X-0.6S0
G1 X-1.1S500
G1 X-0.2S0
G1 X-3.75S500
G1 X-1.15S0
G1 X-0.15S500
G1 X-1.55S0
G1 X-0.3S500
G1 X-0.95S0
G1 X-0.45S500
G1 X-2.35S0
G1 X-0.65S500
G1 X-0.3S0
G1 X-0.55S500
G1 X-0.95S0
G1 X-2.3S500
G1 X-0.75S0
G1 X-106.75S500
G1 X-7.4S0
G1 X-49.15S500
G0 X-2.917
G0 Y0.05
G0 X2.917
G1 X49.15
G1 X7.45S0
G1 X106.7S500
G1 X0.8S0
G1 X2.3S500
G1 X0.9S0
G1 X0.6S500
G1 X0.25S0
G1 X0.6S500
G1 X2.45S0
G1 X0.3S500
G1 X1.05S0
G1 X0.3S500
G1 X2.8S0
G1 X1.65S500
G1 X0.15S0
G1 X3.25S500
G1 X0.7S0
G1 X0.8S500
G1 X0.5S0
G1 X1.75S500
G1 X1.75S0
G1 X0.65S500
G1 X0.55S0
G1 X0.75S500
G1 X1.95S0
G1 X0.45S500
G1 X4.5S0
G1 X3.85S500
G1 X2.75S0
G1 X0.85S500
G1 X3.15S0
G1 X2.05S500
G1 X1.15S0
G1 X0.05S500
G1 X1.15S0
G1 X1.35S500
G1 X1.7S0
G1 X1.2S500
G1 X0.65S0
G1 X0.95S500
G1 X1.1S0
G1 X80S500
G0 X2.917
G0 Y0.05
G0 X-2.917
G1 X-79.95
G1 X-1.1S0
G1 X-1S500
G1 X-0.55S0
G1 X-1.3S500
G1 X-1.7S0
G1 X-1.3S500
G1 X-2.35S0
G1 X-2.05S500
G1 X-3.1S0
G1 X-0.95S500
G1 X-2.8S0
G1 X-3.8S500
G1 X-4.5S0
G1 X-0.4S500
G1 X-2S0
G1 X-0.8S500
G1 X-0.5S0
G1 X-0.7S500
G1 X-1.75S0
G1 X-1.75S500
G1 X-0.4S0
G1 X-0.8S500
G1 X-0.85S0
G1 X-3.15S500
G1 X-0.15S0
G1 X-1.7S500
G1 X-1.75S0
G1 X-0.4S500
G1 X-0.6S0
G1 X-0.3S500
G1 X-1.1S0
G1 X-0.2S500
G1 X-2.45S0
G1 X-0.7S500
G1 X-0.15S0
G1 X-0.6S500
G1 X-1S0
G1 X-2.25S500
G1 X-0.75S0
G1 X-106.8S500
G1 X-7.35S0
G1 X-49.2S500
G0 X-2.917
G0 Y0.05
G0 X2.917
G1 X49.25
G1 X7.25S0
G1 X106.85S500
G1 X0.8S0
G1 X2.25S500
G1 X0.95S0
G1 X0.6S500
G1 X0.1S0
G1 X0.75S500
G1 X3.75S0
G1 X0.3S500
G1 X0.5S0
G1 X0.6S500
G1 X1.6S0
G1 X1.75S500
G1 X0.15S0
G1 X3.15S500
G1 X0.9S0
G1 X0.7S500
G1 X0.45S0
G1 X1.6S500
G1 X1.9S0
G1 X0.7S500
G1 X0.4S0
G1 X0.9S500
G1 X1.95S0
G1 X0.45S500
G1 X3.05S0
G1 X0.05S500
G1 X1.5S0
G1 X3.6S500
G1 X2.9S0
G1 X1S500
G1 X3.1S0
G1 X2S500
G1 X2.4S0
G1 X1.25S500
G1 X1.6S0
G1 X1.5S500
G1 X0.4S0
G1 X1.15S500
G1 X1.05S0
G1 X79.9S500
G0 X2.917
G0 Y0.05
G0 X-2.917
G1 X-79.85
G1 X-0.65S0
G1 X-0.05S500
G1 X-0.05S0
G1 X-1.55S500
G1 X-0.25S0
G1 X-1.05S500
G1 X-0.3S0
G1 X-0.5S500
G1 X-1.35S0
G1 X-1S500
G1 X-0.1S0
G1 X-0.05S500
G1 X-0.7S0
G1 X-0.1S500
G1 X-1.6S0
G1 X-2S500
G1 X-3.15S0
G1 X-1.1S500
G1 X-3.85S0
G1 X-2.4S500
G1 X-1.6S0
G1 X-0.25S500
G1 X-2.95S0
G1 X-0.4S500
G1 X-1.95S0
G1 X-0.95S500
G1 X-0.5S0
G1 X-0.65S500
G1 X-2.05S0
G1 X-1.4S500
G1 X-0.45S0
G1 X-0.65S500
G1 X-1S0
G1 X-3.1S500
G1 X-0.05S0
G1 X-1.25S500
G1 X-0.3S0
G1 X-0.4S500
G1 X-1.45S0
G1 X-0.7S500
G1 X-0.55S0
G1 X-0.15S500
G1 X-2.75S0
G1 X-0.25S500
G1 X-0.85S0
G1 X-1.35S500
G1 X-1S0
G1 X-2.25S500
G1 X-0.6S0
G1 X-107.05S500
G1 X-7.25S0
G1 X-49.25S500
G0 X-2.917
G0 Y0.05
G0 X2.917
G1 X49.3
G1 X7.15S0
G1 X107.25S500
G1 X0.45S0
G1 X2.25S500
G1 X1S0
G1 X1.4S500
G1 X0.7S0
G1 X0.4S500
G1 X3.3S0
G1 X0.85S500
G1 X1.35S0
G1 X0.4S500
G1 X0.45S0
G1 X4.35S500
G1 X1S0
G1 X0.65S500
G1 X0.4S0
G1 X1.4S500
G1 X2S0
G1 X0.65S500
G1 X0.55S0
G1 X1S500
G1 X1.95S0
G1 X0.3S500
G1 X2.95S0
G1 X0.4S500
G1 X1.6S0
G1 X2.25S500
G1 X3.9S0
G1 X1.15S500
G1 X3.2S0
G1 X1.9S500
G1 X1.5S0
G1 X0.3S500
G1 X0.85S0
G1 X0.85S500
G1 X0.5S0
G1 X0.1S500
G1 X0.75S0
G1 X0.5S500
G1 X0.5S0
G1 X1.7S500
G1 X0.25S0
G1 X1S500
G1 X0.55S0
G1 X79.8S500
G0 X2.917
G0 Y0.05
G0 X-2.917
G1 X-79.75
G1 X-0.6S0
G1 X-0.95S500
G1 X-0.35S0
G1 X-1.55S500
G1 X-0.6S0
G1 X-0.5S500
G1 X-0.65S0
G1 X-0.3S500
G1 X-0.4S0
G1 X-0.9S500
G1 X-0.8S0
G1 X-0.35S500
G1 X-1.4S0
G1 X-0.6S500
G1 X-0.2S0
G1 X-1.1S500
G1 X-3.3S0
G1 X-1.15S500
G1 X-3.9S0
G1 X-2.1S500
G1 X-1.6S0
G1 X-0.55S500
G1 X-2.95S0
G1 X-0.2S500
G1 X-1.95S0
G1 X-1S500
G1 X-0.6S0
G1 X-0.65S500
G1 X-2S0
G1 X-1.4S500
G1 X-0.45S0
G1 X-0.6S500
G1 X-1.05S0
G1 X-4.3S500
G1 X-0.45S0
G1 X-0.45S500
G1 X-1.25S0
G1 X-0.95S500
G1 X-3.2S0
G1 X-0.5S500
G1 X-0.6S0
G1 X-1.4S500
G1 X-1S0
G1 X-2.35S500
G1 X-0.25S0
G1 X-107.4S500
G1 X-7.1S0
G1 X-49.35S500
G0 X-2.917
G0 Y0.05
G0 X2.917
G1 X49.35
G1 X7.05S0
G1 X110.1S500
G1 X0.95S0
G1 X1.5S500
G1 X0.35S0
G1 X0.6S500
G1 X3.2S0
G1 X1.1S500
G1 X1.15S0
G1 X0.4S500
G1 X0.55S0
G1 X4.3S500
G1 X1.05S0
G1 X0.6S500
G1 X0.45S0
G1 X1.35S500
G1 X2S0
G1 X0.6S500
G1 X0.7S0
G1 X1.1S500
G1 X4.95S0
G1 X0.6S500
G1 X1.6S0
G1 X2S500
G1 X3.95S0
G1 X1.15S500
G1 X3.35S0
G1 X1.05S500
G1 X0.3S0
G1 X0.5S500
G1 X1.4S0
G1 X0.4S500
G1 X0.7S0
G1 X0.9S500
G1 X0.45S0
G1 X0.35S500
G1 X0.65S0
G1 X0.45S500
G1 X0.7S0
G1 X1.45S500
G1 X0.35S0
G1 X1S500
G1 X0.6S0
G1 X79.7S500
G0 X2.917
G0 Y0.05
G0 X-2.917
G1 X-79.7
G1 X-0.6S0
G1 X-1S500
G1 X-0.4S0
G1 X-1.3S500
G1 X-0.8S0
G1 X-0.45S500
G1 X-0.6S0
G1 X-0.45S500
G1 X-0.45S0
G1 X-0.95S500
G1 X-0.6S0
G1 X-0.4S500
G1 X-1.4S0
G1 X-0.5S500
G1 X-0.3S0
G1 X-1S500
G1 X-3.5S0
G1 X-1.1S500
G1 X-3.9S0
G1 X-1.9S500
G1 X-1.3S0
G1 X-0.95S500
G1 X-1.4S0
G1 X-0.15S500
G1 X-3.35S0
G1 X-0.7S500
G1 X-0.05S0
G1 X-0.35S500
G1 X-0.8S0
G1 X-0.65S500
G1 X-1S0
G1 X-0.2S500
G1 X-0.75S0
G1 X-1.35S500
G1 X-0.5S0
G1 X-0.6S500
G1 X-0.95S0
G1 X-4.35S500
G1 X-0.55S0
G1 X-0.5S500
G1 X-1S0
G1 X-1.15S500
G1 X-3.2S0
G1 X-2.45S500
G1 X-0.9S0
G1 X-110.2S500
G1 X-6.95S0
G1 X-49.4S500
G0 X-2.917
G0 Y0.05
G0 X2.917
G1 X49.4
G1 X6.95S0
G1 X110.3S500
G1 X0.85S0
G1 X2.45S500
G1 X2.05S0
G1 X0.05S500
G1 X0.05S0
G1 X0.05S500
G1 X0.9S0
G1 X1.25S500
G1 X0.9S0
G1 X0.55S500
G1 X0.55S0
G1 X4.4S500
G1 X0.9S0
G1 X0.6S500
G1 X0.5S0
G1 X0.6S500
G1 X0.05S0
G1 X0.75S500
G1 X0.55S0
G1 X0.4S500
G1 X0.95S0
G1 X0.65S500
G1 X1.35S0
G1 X0.65S500
G1 X0.75S0
G1 X0.05S500
G1 X2.3S0
G1 X0.45S500
G1 X1.2S0
G1 X1.1S500
G1 X1.4S0
G1 X1.7S500
G1 X1.5S0
G1 X0.05S500
G1 X0.05S0
G1 X0.05S500
G1 X0.75S0
G1 X0.05S500
G1 X0.05S0
G1 X0.05S500
G1 X1.3S0
G1 X1.05S500
G1 X3.6S0
G1 X0.95S500
G1 X0.45S0
G1 X0.4S500
G1 X1.4S0
G1 X0.35S500
G1 X0.6S0
G1 X1S500
G1 X0.45S0
G1 X0.5S500
G1 X0.6S0
G1 X0.4S500
G1 X0.95S0
G1 X1.15S500
G1 X0.4S0
G1 X1.05S500
G1 X0.55S0
G1 X1.05S500
G1 X0.25S0
G1 X78.4S500
G0 X2.917
G0 Y0.05
G0 X-2.917
G1 X-78.35
G1 X-0.35S0
G1 X-1S500
G1 X-0.6S0
G1 X-1S500
G1 X-0.45S0
G1 X-1.05S500
G1 X-1S0
G1 X-0.4S500
G1 X-0.6S0
G1 X-0.55S500
G1 X-0.4S0
G1 X-1.05S500
G1 X-0.6S0
G1 X-0.3S500
G1 X-1.4S0
G1 X-0.35S500
G1 X-0.45S0
G1 X-1S500
G1 X-3.65S0
G1 X-1.05S500
G1 X-1.2S0
G1 X-0.3S500
G1 X-0.5S0
G1 X-0.4S500
G1 X-1.45S0
G1 X-1.65S500
G1 X-1.35S0
G1 X-1.1S500
G1 X-1.2S0
G1 X-0.5S500
G1 X-2.15S0
G1 X-0.25S500
G1 X-0.7S0
G1 X-0.65S500
G1 X-1.3S0
G1 X-0.75S500
G1 X-0.75S0
G1 X-0.6S500
G1 X-0.5S0
G1 X-0.55S500
G1 X-0.35S0
G1 X-0.45S500
G1 X-0.5S0
G1 X-0.65S500
G1 X-0.85S0
G1 X-4.4S500
G1 X-0.65S0
G1 X-0.55S500
G1 X-0.8S0
G1 X-1.35S500
G1 X-0.75S0
G1 X-0.35S500
G1 X-2S0
G1 X-2.4S500
G1 X-0.8S0
G1 X-110.4S500
G1 X-6.85S0
G1 X-49.45S500
G0 X-2.917
G0 Y0.05
G0 X2.917
G1 X49.45
G1 X6.85S0
G1 X110.45S500
G1 X0.8S0
G1 X2.3S500
G1 X2.05S0
G1 X0.45S500
G1 X0.6S0
G1 X1.45S500
G1 X0.65S0
G1 X0.65S500
G1 X0.65S0
G1 X1.85S500
G1 X0.2S0
G1 X1.3S500
G1 X0.15S0
G1 X1S500
G1 X0.7S0
G1 X0.65S500
G1 X0.6S0
G1 X0.3S500
G1 X0.45S0
G1 X0.6S500
G1 X0.35S0
G1 X0.7S500
G1 X0.65S0
G1 X0.85S500
G1 X1.3S0
G1 X0.7S500
G1 X0.6S0
G1 X0.35S500
G1 X2.05S0
G1 X0.6S500
G1 X1.1S0
G1 X1.1S500
G1 X1.45S0
G1 X1.6S500
G1 X1.45S0
G1 X0.45S500
G1 X0.35S0
G1 X0.4S500
G1 X1.15S0
G1 X1.1S500
G1 X3.7S0
G1 X1S500
G1 X0.4S0
G1 X0.3S500
G1 X1.5S0
G1 X0.2S500
G1 X0.55S0
G1 X1.15S500
G1 X0.35S0
G1 X0.6S500
G1 X0.65S0
G1 X0.4S500
G1 X1.05S0
G1 X0.9S500
G1 X0.5S0
G1 X1.05S500
G1 X0.55S0
G1 X0.95S500
G1 X0.45S0
G1 X78.3S500
G0 X2.917
G0 Y0.05
G0 X-2.917
G1 X-78.3
G1 X-0.45S0
G1 X-0.95S500
G1 X-0.55S0
G1 X-1.05S500
G1 X-0.5S0
G1 X-0.85S500
G1 X-1.1S0
G1 X-0.35S500
G1 X-0.7S0
G1 X-0.7S500
G1 X-0.2S0
G1 X-1.2S500
G1 X-2.35S0
G1 X-0.1S500
G1 X-0.5S0
G1 X-1S500
G1 X-3.75S0
G1 X-1.1S500
G1 X-1.05S0
G1 X-0.55S500
G1 X-0.15S0
G1 X-0.6S500
G1 X-1.45S0
G1 X-1.6S500
G1 X-1.4S0
G1 X-1.1S500
G1 X-0.45S0
G1 X-0.3S500
G1 X-0.15S0
G1 X-0.8S500
G1 X-2.05S0
G1 X-0.4S500
G1 X-0.6S0
G1 X-0.65S500
G1 X-1.25S0
G1 X-1.15S500
G1 X-0.3S0
G1 X-0.85S500
G1 X-0.2S0
G1 X-0.7S500
G1 X-1.3S0
G1 X-0.75S500
G1 X-0.6S0
G1 X-0.95S500
G1 X-0.3S0
G1 X-1.2S500
G1 X-0.25S0
G1 X-1.85S500
G1 X-0.7S0
G1 X-0.6S500
G1 X-0.65S0
G1 X-1.5S500
G1 X-0.45S0
G1 X-0.55S500
G1 X-2.05S0
G1 X-2.25S500
G1 X-0.8S0
G1 X-1.6S500
G1 X-0.15S0
G1 X-108.8S500
G1 X-6.8S0
G1 X-49.45S500
G0 X-2.917
G0 Y0.05
G0 X2.917
G1 X49.5
G1 X6.75S0
G1 X108.75S500
G1 X0.3S0
G1 X1.55S500
G1 X0.8S0
G1 X2.15S500
G1 X2.1S0
G1 X0.65S500
G1 X0.3S0
G1 X1.6S500
G1 X0.55S0
G1 X0.65S500
G1 X0.7S0
G1 X1.85S500
G1 X0.3S0
G1 X1.15S500
G1 X0.3S0
G1 X1.1S500
G1 X0.4S0
G1 X0.75S500
G1 X1.3S0
G1 X3.25S500
G1 X1.25S0
G1 X0.65S500
G1 X0.55S0
G1 X0.45S500
G1 X2.05S0
G1 X1.25S500
G1 X0.45S0
G1 X1.05S500
G1 X1.35S0
G1 X1.6S500
G1 X1.55S0
G1 X1.3S500
G1 X1S0
G1 X1.2S500
G1 X3.7S0
G1 X1S500
G1 X2.9S0
G1 X2.15S500
G1 X0.75S0
G1 X0.35S500
G1 X1.1S0
G1 X0.75S500
G1 X0.5S0
G1 X1.1S500
G1 X0.55S0
G1 X0.95S500
G1 X0.45S0
G1 X78.3S500
G0 X2.917
G0 Y0.05
G0 X-2.917
G1 X-78.3
G1 X-0.45S0
G1 X-0.95S500
G1 X-0.55S0
G1 X-1.1S500
G1 X-0.55S0
G1 X-0.65S500
G1 X-1.05S0
G1 X-0.4S500
G1 X-0.85S0
G1 X-2.1S500
G1 X-2.8S0
G1 X-1.1S500
G1 X-3.65S0
G1 X-1.3S500
G1 X-1S0
G1 X-1.25S500
G1 X-1.65S0
G1 X-1.65S500
G1 X-1.6S0
G1 X-0.65S500
G1 X-0.45S0
G1 X-1.25S500
G1 X-2.1S0
G1 X-0.45S500
G1 X-0.5S0
G1 X-0.6S500
G1 X-1.25S0
G1 X-3.3S500
G1 X-1.3S0
G1 X-2.2S500
G1 X-0.35S0
G1 X-1.15S500
G1 X-0.3S0
G1 X-1.9S500
G1 X-0.65S0
G1 X-0.65S500
G1 X-0.55S0
G1 X-2.55S500
G1 X-2.15S0
G1 X-2.1S500
G1 X-0.8S0
G1 X-1.3S500
G1 X-0.55S0
G1 X-108.8S500
G1 X-6.65S0
G1 X-49.55S500
G0 X-2.917
G0 Y0.05
G0 X2.917
G1 X49.6
G1 X6.55S0
G1 X106.2S500
G1 X0.05S0
G1 X1.75S500
G1 X0.3S0
G1 X0.55S500
G1 X0.7S0
G1 X1.2S500
G1 X0.8S0
G1 X1.95S500
G1 X2.3S0
G1 X1.8S500
G1 X0.2S0
G1 X0.55S500
G1 X0.5S0
G1 X0.65S500
G1 X0.65S0
G1 X2S500
G1 X0.2S0
G1 X1.15S500
G1 X0.4S0
G1 X2.2S500
G1 X1.25S0
G1 X3.35S500
G1 X1.2S0
G1 X0.6S500
G1 X0.45S0
G1 X0.5S500
G1 X2.1S0
G1 X1.25S500
G1 X0.4S0
