; LightBurn Pro 2.0.05
; GRBL device profile, absolute coords
; Bounds: X0.03 Y1.89 to X303.19 Y211.41
G00 G17 G40 G21 G54
G90
M4
; Image @ 7500 мм/мин, 100% power
M8
G0 X5.026Y51.889
; Layer C00
G91
G0 X3.125
G1 X296.91F7500S1000
G0 X3.125
G0 Y0.09
G0 X-3.125
G1 X-296.91
G0 X-3.125
G0 Y0.09
G0 X3.125
G1 X296.91
G0 X3.125
G0 Y0.09
G0 X-3.125
G1 X-296.91
G0 X-3.125
G0 Y0.09
G0 X3.125
G1 X296.91
G0 X3.125
G0 Y0.09
G0 X-3.125
G1 X-296.91
G0 X-3.125
G0 Y0.09
G0 X3.125
G1 X296.91
G0 X3.125
G0 Y0.09
G0 X-3.125
G1 X-296.91
G0 X-3.125
G0 Y0.09
G0 X3.125
G1 X296.91
G0 X3.125
G0 Y0.09
G0 X-3.125
G1 X-296.91
G0 X-3.125
G0 Y0.09
G0 X3.125
G1 X296.91
G0 X3.125
G0 Y0.09
G0 X-3.125
G1 X-296.91
G0 X-3.125
G0 Y0.09
G0 X3.125
G1 X296.91
G0 X3.125
G0 Y0.09
G0 X-3.125
G1 X-296.91
G0 X-3.125
G0 Y0.09
G0 X3.125
G1 X296.91
G0 X3.125
G0 Y0.09
G0 X-3.125
G1 X-296.91
G0 X-3.125
G0 Y0.09
G0 X3.125
G1 X296.91
G0 X3.125
G0 Y0.09
G0 X-3.125
G1 X-296.91
G0 X-3.125
G0 Y0.09
G0 X3.125
G1 X296.91
G0 X3.125
G0 Y0.09
G0 X-3.125
G1 X-296.91
G0 X-3.125
G0 Y0.09
G0 X3.125
G1 X296.91
G0 X3.125
G0 Y0.09
G0 X-3.125
G1 X-296.91
G0 X-3.125
G0 Y0.09
G0 X3.125
G1 X296.91
G0 X3.125
G0 Y0.09
G0 X-3.125
G1 X-296.91
G0 X-3.125
G0 Y0.09
G0 X3.125
G1 X296.91
G0 X3.125
G0 Y0.09
G0 X-3.125
G1 X-296.91
G0 X-3.125
G0 Y0.09
G0 X3.125
G1 X65.43
G1 X0.36S0
G1 X231.12S1000
G0 X3.125
G0 Y0.09
G0 X-3.125
G1 X-230.76
G1 X-0.99S0
G1 X-65.16S1000
G0 X-3.125
G0 Y0.09
G0 X3.125
G1 X64.98
G1 X1.35S0
G1 X230.58S1000
G0 X3.125
G0 Y0.09
G0 X-3.125
G1 X-230.4
G1 X-1.71S0
G1 X-64.8S1000
G0 X-3.125
G0 Y0.09
G0 X3.125
G1 X64.71
G1 X1.89S0
G1 X230.31S1000
G0 X3.125
G0 Y0.09
G0 X-3.125
G1 X-230.22
G1 X-2.07S0
G1 X-64.62S1000
G0 X-3.125
G0 Y0.09
G0 X3.125
G1 X64.62
G1 X2.07S0
G1 X230.22S1000
G0 X3.125
G0 Y0.09
G0 X-3.125
G1 X-230.13
G1 X-2.25S0
G1 X-64.53S1000
G0 X-3.125
G0 Y0.09
G0 X3.125
G1 X64.53
G1 X2.25S0
G1 X230.13S1000
G0 X3.125
G0 Y0.09
G0 X-3.125
G1 X-230.04
G1 X-2.43S0
G1 X-64.44S1000
G0 X-3.125
G0 Y0.09
G0 X3.125
G1 X64.44
G1 X2.43S0
G1 X230.04S1000
G0 X3.125
G0 Y0.09
G0 X-3.125
G1 X-230.04
G1 X-2.43S0
G1 X-64.44S1000
G0 X-3.125
G0 Y0.09
G0 X3.125
G1 X64.44
G1 X2.43S0
G1 X194.13S1000
G1 X0.09S0
G1 X35.82S1000
G0 X3.125
G0 Y0.09
G0 X-3.125
G1 X-35.37
G1 X-1.08S0
G1 X-193.59S1000
G1 X-2.43S0
G1 X-64.44S1000
G0 X-3.125
G0 Y0.09
G0 X3.125
G1 X64.44
G1 X2.43S0
G1 X193.41S1000
G1 X1.44S0
G1 X35.19S1000
G0 X3.125
G0 Y0.09
G0 X-3.125
G1 X-35.1
G1 X-1.62S0
G1 X-161.28S1000
G1 X-0.45S0
G1 X-31.59S1000
G1 X-2.52S0
G1 X-64.35S1000
G0 X-3.125
G0 Y0.09
G0 X3.125
G1 X64.44
G1 X2.43S0
G1 X31.5S1000
G1 X0.63S0
G1 X161.1S1000
G1 X1.8S0
G1 X35.01S1000
G0 X3.125
G0 Y0.09
G0 X-3.125
G1 X-34.92
G1 X-1.98S0
G1 X-160.92S1000
G1 X-0.81S0
G1 X-31.41S1000
G1 X-2.43S0
G1 X-64.44S1000
G0 X-3.125
G0 Y0.09
G0 X3.125
G1 X64.53
G1 X2.25S0
G1 X31.41S1000
G1 X0.99S0
G1 X160.74S1000
G1 X2.16S0
G1 X34.83S1000
G0 X3.125
G0 Y0.09
G0 X-3.125
G1 X-34.74
G1 X-2.34S0
G1 X-20.43S1000
G1 X-0.45S0
G1 X-139.77S1000
G1 X-0.99S0
G1 X-31.41S1000
G1 X-2.25S0
G1 X-64.53S1000
G0 X-3.125
G0 Y0.09
G0 X3.125
G1 X64.53
G1 X2.25S0
G1 X31.41S1000
G1 X0.99S0
G1 X139.68S1000
G1 X0.63S0
G1 X20.34S1000
G1 X2.34S0
G1 X34.74S1000
G0 X3.125
G0 Y0.09
G0 X-3.125
G1 X-34.65
G1 X-2.52S0
G1 X-20.16S1000
G1 X-0.81S0
G1 X-139.59S1000
G1 X-0.99S0
G1 X-31.5S1000
G1 X-2.07S0
G1 X-64.62S1000
G0 X-3.125
G0 Y0.09
G0 X3.125
G1 X58.59
G1 X0.45S0
G1 X5.67S1000
G1 X1.89S0
G1 X31.59S1000
G1 X0.99S0
G1 X139.59S1000
G1 X0.9S0
G1 X20.07S1000
G1 X2.52S0
G1 X34.65S1000
G0 X3.125
G0 Y0.09
G0 X-3.125
G1 X-34.65
G1 X-2.61S0
G1 X-19.98S1000
G1 X-0.99S0
G1 X-139.59S1000
G1 X-0.81S0
G1 X-31.77S1000
G1 X-1.71S0
G1 X-5.67S1000
G1 X-0.63S0
G1 X-58.5S1000
G0 X-3.125
G0 Y0.09
G0 X3.125
G1 X58.41
G1 X0.81S0
G1 X5.67S1000
G1 X1.53S0
G1 X31.95S1000
G1 X0.63S0
G1 X139.68S1000
G1 X0.99S0
G1 X19.98S1000
G1 X2.7S0
G1 X34.56S1000
G0 X3.125
G0 Y0.09
G0 X-3.125
G1 X-34.65
G1 X-2.61S0
G1 X-19.98S1000
G1 X-0.9S0
G1 X-140.04S1000
G1 X-0.18S0
G1 X-32.31S1000
G1 X-1.17S0
G1 X-5.76S1000
G1 X-0.9S0
G1 X-58.41S1000
G0 X-3.125
G0 Y0.09
G0 X3.125
G1 X58.32
G1 X0.99S0
G1 X5.94S1000
G1 X0.81S0
G1 X125.01S1000
G1 X0.63S0
G1 X47.07S1000
G1 X0.9S0
G1 X19.98S1000
G1 X2.7S0
G1 X34.56S1000
G0 X3.125
G0 Y0.09
G0 X-3.125
G1 X-34.65
G1 X-2.61S0
G1 X-20.07S1000
G1 X-0.72S0
G1 X-46.89S1000
G1 X-1.08S0
G1 X-131.49S1000
G1 X-0.99S0
G1 X-58.41S1000
G0 X-3.125
G0 Y0.09
G0 X3.125
G1 X23.22
G1 X0.72S0
G1 X34.47S1000
G1 X0.9S0
G1 X131.49S1000
G1 X1.35S0
G1 X46.8S1000
G1 X0.54S0
G1 X20.25S1000
G1 X2.52S0
G1 X34.65S1000
G0 X3.125
G0 Y0.09
G0 X-3.125
G1 X-34.65
G1 X-2.52S0
G1 X-20.52S1000
G1 X-0.09S0
G1 X-46.8S1000
G1 X-1.62S0
G1 X-131.4S1000
G1 X-0.9S0
G1 X-34.29S1000
G1 X-1.08S0
G1 X-23.04S1000
G0 X-3.125
G0 Y0.09
G0 X3.125
G1 X22.86
G1 X1.35S0
G1 X34.29S1000
G1 X0.72S0
G1 X131.31S1000
G1 X1.89S0
G1 X67.32S1000
G1 X2.52S0
G1 X34.65S1000
G0 X3.125
G0 Y0.09
G0 X-3.125
G1 X-34.74
G1 X-2.34S0
G1 X-67.32S1000
G1 X-1.98S0
G1 X-131.4S1000
G1 X-0.54S0
G1 X-34.29S1000
G1 X-1.53S0
G1 X-22.77S1000
G0 X-3.125
G0 Y0.09
G0 X3.125
G1 X22.68
G1 X1.71S0
G1 X34.38S1000
G1 X0.18S0
G1 X131.49S1000
G1 X2.16S0
G1 X67.23S1000
G1 X2.34S0
G1 X34.74S1000
G0 X3.125
G0 Y0.09
G0 X-3.125
G1 X-34.83
G1 X-2.16S0
G1 X-67.32S1000
G1 X-2.25S0
G1 X-165.87S1000
G1 X-1.8S0
G1 X-22.68S1000
G0 X-3.125
G0 Y0.09
G0 X3.125
G1 X22.59
G1 X1.98S0
G1 X89.37S1000
G1 X0.45S0
G1 X75.96S1000
G1 X2.34S0
G1 X67.23S1000
G1 X2.16S0
G1 X34.83S1000
G0 X3.125
G0 Y0.09
G0 X-3.125
G1 X-34.92
G1 X-1.98S0
G1 X-67.32S1000
G1 X-2.43S0
G1 X-75.78S1000
G1 X-0.63S0
G1 X-89.28S1000
G1 X-1.98S0
G1 X-22.59S1000
G0 X-3.125
G0 Y0.09
G0 X3.125
G1 X22.59
G1 X1.98S0
G1 X89.19S1000
G1 X0.81S0
G1 X75.69S1000
G1 X2.52S0
G1 X67.41S1000
G1 X1.62S0
G1 X35.1S1000
G0 X3.125
G0 Y0.09
G0 X-3.125
G1 X-35.19
G1 X-1.44S0
G1 X-67.5S1000
G1 X-2.52S0
G1 X-75.6S1000
G1 X-0.99S0
G1 X-27.9S1000
G1 X-0.18S0
G1 X-60.93S1000
G1 X-2.16S0
G1 X-22.5S1000
G0 X-3.125
G0 Y0.09
G0 X3.125
G1 X22.5
G1 X2.16S0
G1 X60.84S1000
G1 X0.36S0
G1 X27.72S1000
G1 X1.08S0
G1 X66.6S1000
G1 X0.09S0
G1 X0.09S1000
G1 X0.27S0
G1 X8.55S1000
G1 X2.52S0
G1 X67.68S1000
G1 X1.08S0
G1 X35.37S1000
G0 X3.125
G0 Y0.09
G0 X-3.125
G1 X-35.73
G1 X-0.45S0
G1 X-67.95S1000
G1 X-2.61S0
G1 X-8.19S1000
G1 X-0.9S0
G1 X-66.42S1000
G1 X-1.08S0
G1 X-27.63S1000
G1 X-0.45S0
G1 X-60.84S1000
G1 X-2.16S0
G1 X-22.5S1000
G0 X-3.125
G0 Y0.09
G0 X3.125
G1 X22.5
G1 X2.16S0
G1 X60.75S1000
G1 X0.54S0
G1 X27.63S1000
G1 X1.08S0
G1 X66.24S1000
G1 X1.17S0
G1 X8.1S1000
G1 X2.7S0
G1 X104.04S1000
G0 X3.125
G0 Y0.09
G0 X-3.125
G1 X-104.04
G1 X-2.7S0
G1 X-7.92S1000
G1 X-1.44S0
G1 X-66.24S1000
G1 X-0.99S0
G1 X-27.72S1000
G1 X-0.36S0
G1 X-60.75S1000
G1 X-2.25S0
G1 X-22.5S1000
G0 X-3.125
G0 Y0.09
G0 X3.125
G1 X22.59
G1 X2.07S0
G1 X60.93S1000
G1 X0.18S0
G1 X27.9S1000
G1 X0.9S0
G1 X62.91S1000
G1 X0.18S0
G1 X3.15S1000
G1 X1.53S0
G1 X7.83S1000
G1 X2.7S0
G1 X104.04S1000
G0 X3.125
G0 Y0.09
G0 X-3.125
G1 X-104.04
G1 X-2.7S0
G1 X-7.83S1000
G1 X-1.62S0
G1 X-2.88S1000
G1 X-0.54S0
G1 X-62.82S1000
G1 X-0.72S0
G1 X-89.01S1000
G1 X-2.16S0
G1 X-22.59S1000
G0 X-3.125
G0 Y0.09
G0 X3.125
G1 X22.68
G1 X1.98S0
G1 X89.19S1000
G1 X0.54S0
G1 X62.82S1000
G1 X0.63S0
G1 X2.88S1000
G1 X1.71S0
G1 X7.74S1000
G1 X2.7S0
G1 X9.63S1000
G1 X0.54S0
G1 X93.87S1000
G0 X3.125
G0 Y0.09
G0 X-3.125
G1 X-93.87
G1 X-0.63S0
G1 X-9.63S1000
G1 X-2.61S0
G1 X-7.74S1000
G1 X-1.71S0
G1 X-2.88S1000
G1 X-0.63S0
G1 X-62.91S1000
G1 X-0.09S0
G1 X-0.09S1000
G1 X-0.09S0
G1 X-89.37S1000
G1 X-1.98S0
G1 X-22.68S1000
G0 X-3.125
G0 Y0.09
G0 X3.125
G1 X22.77
G1 X1.89S0
G1 X152.55S1000
G1 X0.63S0
G1 X2.88S1000
G1 X1.71S0
G1 X7.83S1000
G1 X2.52S0
G1 X9.63S1000
G1 X0.72S0
G1 X93.78S1000
G0 X3.125
G0 Y0.09
G0 X-3.125
G1 X-93.78
G1 X-0.72S0
G1 X-9.63S1000
G1 X-2.52S0
G1 X-7.83S1000
G1 X-1.71S0
G1 X-2.88S1000
G1 X-0.63S0
G1 X-152.55S1000
G1 X-1.8S0
G1 X-22.86S1000
G0 X-3.125
G0 Y0.09
G0 X3.125
G1 X22.95
G1 X1.62S0
G1 X152.73S1000
G1 X0.54S0
G1 X2.88S1000
G1 X1.62S0
G1 X7.92S1000
G1 X2.52S0
G1 X9.63S1000
G1 X0.72S0
G1 X93.78S1000
G0 X3.125
G0 Y0.09
G0 X-3.125
G1 X-93.87
G1 X-0.63S0
G1 X-9.72S1000
G1 X-2.43S0
G1 X-7.92S1000
G1 X-1.53S0
G1 X-3.15S1000
G1 X-0.27S0
G1 X-152.91S1000
G1 X-1.44S0
G1 X-23.04S1000
G0 X-3.125
G0 Y0.09
G0 X3.125
G1 X23.13
G1 X1.26S0
G1 X156.42S1000
G1 X1.44S0
G1 X8.1S1000
G1 X2.25S0
G1 X9.9S1000
G1 X0.45S0
G1 X93.96S1000
G0 X3.125
G0 Y0.09
G0 X-3.125
G1 X-94.05
G1 X-0.27S0
G1 X-10.08S1000
G1 X-2.07S0
G1 X-8.19S1000
G1 X-1.35S0
G1 X-156.69S1000
G1 X-0.99S0
G1 X-23.22S1000
G0 X-3.125
G0 Y0.09
G0 X3.125
G1 X23.4
G1 X0.72S0
G1 X156.87S1000
G1 X1.17S0
G1 X8.37S1000
G1 X1.89S0
G1 X104.49S1000
G0 X3.125
G0 Y0.09
G0 X-3.125
G1 X-104.67
G1 X-0.09S0
G1 X-0.09S1000
G1 X-1.44S0
G1 X-8.55S1000
G1 X-0.99S0
G1 X-181.08S1000
G0 X-3.125
G0 Y0.09
G0 X3.125
G1 X181.17
G1 X0.72S0
G1 X8.91S1000
G1 X0.9S0
G1 X105.21S1000
G0 X3.125
G0 Y0.09
G0 X-3.125
G1 X-105.57
G1 X-0.27S0
G1 X-191.07S1000
G0 X-3.125
G0 Y0.09
G0 X3.125
G1 X296.91
G0 X3.125
G0 Y0.09
G0 X-3.125
G1 X-253.17
G1 X-0.36S0
G1 X-43.38S1000
G0 X-3.125
G0 Y0.09
G0 X3.125
G1 X20.88
G1 X0.54S0
G1 X12.15S1000
G1 X0.09S0
G1 X9.54S1000
G1 X0.72S0
G1 X252.99S1000
G0 X3.125
G0 Y0.09
G0 X-3.125
G1 X-252.9
G1 X-0.9S0
G1 X-9.18S1000
G1 X-0.54S0
G1 X-11.88S1000
G1 X-0.72S0
G1 X-20.79S1000
G0 X-3.125
G0 Y0.09
G0 X3.125
G1 X20.7
G1 X0.9S0
G1 X11.7S1000
G1 X0.72S0
G1 X9.09S1000
G1 X0.99S0
G1 X252.81S1000
G0 X3.125
G0 Y0.09
G0 X-3.125
G1 X-252.72
G1 X-1.17S0
G1 X-8.91S1000
G1 X-0.9S0
G1 X-11.61S1000
G1 X-0.9S0
G1 X-20.7S1000
G0 X-3.125
G0 Y0.09
G0 X3.125
G1 X20.61
G1 X1.08S0
G1 X11.43S1000
G1 X0.99S0
G1 X8.91S1000
G1 X1.17S0
G1 X252.72S1000
G0 X3.125
G0 Y0.09
G0 X-3.125
G1 X-252.72
G1 X-1.17S0
G1 X-8.91S1000
G1 X-0.99S0
G1 X-11.43S1000
G1 X-1.08S0
G1 X-20.61S1000
G0 X-3.125
G0 Y0.09
G0 X3.125
G1 X20.7
G1 X0.9S0
G1 X11.52S1000
G1 X0.99S0
G1 X9S1000
G1 X1.08S0
G1 X186.21S1000
G1 X0.36S0
G1 X66.15S1000
G0 X3.125
G0 Y0.09
G0 X-3.125
G1 X-66.06
G1 X-0.54S0
G1 X-186.12S1000
G1 X-1.08S0
G1 X-9S1000
G1 X-0.99S0
G1 X-11.52S1000
G1 X-0.9S0
G1 X-20.7S1000
G0 X-3.125
G0 Y0.09
G0 X3.125
G1 X20.79
G1 X0.72S0
G1 X11.7S1000
G1 X0.81S0
G1 X9.18S1000
G1 X0.9S0
G1 X186.12S1000
G1 X0.72S0
G1 X65.97S1000
G0 X3.125
G0 Y0.09
G0 X-3.125
G1 X-65.88
G1 X-0.9S0
G1 X-186.12S1000
G1 X-0.72S0
G1 X-9.36S1000
G1 X-0.63S0
G1 X-11.88S1000
G1 X-0.45S0
G1 X-20.97S1000
G0 X-3.125
G0 Y0.09
G0 X3.125
G1 X33.48
G1 X0.36S0
G1 X9.63S1000
G1 X0.18S0
G1 X186.48S1000
G1 X0.99S0
G1 X65.79S1000
G0 X3.125
G0 Y0.09
G0 X-3.125
G1 X-65.79
G1 X-0.99S0
G1 X-230.13S1000
G0 X-3.125
G0 Y0.09
G0 X3.125
G1 X230.13
G1 X0.99S0
G1 X65.79S1000
G0 X3.125
G0 Y0.09
G0 X-3.125
G1 X-65.88
G1 X-0.9S0
G1 X-230.13S1000
G0 X-3.125
G0 Y0.09
G0 X3.125
G1 X72.9
G1 X0.27S0
G1 X157.05S1000
G1 X0.72S0
G1 X65.97S1000
G0 X3.125
G0 Y0.09
G0 X-3.125
G1 X-66.06
G1 X-0.54S0
G1 X-157.05S1000
G1 X-0.45S0
G1 X-72.81S1000
G0 X-3.125
G0 Y0.09
G0 X3.125
G1 X72.81
G1 X0.45S0
G1 X157.14S1000
G1 X0.36S0
G1 X66.15S1000
G0 X3.125
G0 Y0.09
G0 X-3.125
G1 X-10.35
G1 X-0.18S0
G1 X-213.21S1000
G1 X-0.36S0
G1 X-72.81S1000
G0 X-3.125
G0 Y0.09
G0 X3.125
G1 X286.11
G1 X0.63S0
G1 X10.17S1000
G0 X3.125
G0 Y0.09
G0 X-3.125
G1 X-10.08
G1 X-0.99S0
G1 X-267.03S1000
G1 X-0.27S0
G1 X-18.54S1000
G0 X-3.125
G0 Y0.09
G0 X3.125
G1 X18.45
G1 X0.45S0
G1 X151.92S1000
G1 X0.27S0
G1 X114.75S1000
G1 X1.08S0
G1 X9.99S1000
G0 X3.125
G0 Y0.09
G0 X-3.125
G1 X-9.99
G1 X-1.17S0
G1 X-114.57S1000
G1 X-0.36S0
G1 X-151.92S1000
G1 X-0.36S0
G1 X-18.54S1000
G0 X-3.125
G0 Y0.09
G0 X3.125
G1 X18.54
G1 X0.27S0
G1 X152.01S1000
G1 X0.36S0
G1 X114.57S1000
G1 X1.17S0
G1 X9.99S1000
G0 X3.125
G0 Y0.09
G0 X-3.125
G1 X-9.99
G1 X-1.17S0
G1 X-114.75S1000
G1 X-0.09S0
G1 X-170.91S1000
G0 X-3.125
G0 Y0.09
G0 X3.125
G1 X48.6
G1 X0.18S0
G1 X236.97S1000
G1 X1.17S0
G1 X9.99S1000
G0 X3.125
G0 Y0.09
G0 X-3.125
G1 X-10.08
G1 X-0.99S0
G1 X-236.97S1000
G1 X-0.36S0
G1 X-48.51S1000
G0 X-3.125
G0 Y0.09
G0 X3.125
G1 X48.6
G1 X0.54S0
G1 X236.7S1000
G1 X0.9S0
G1 X10.17S1000
G0 X3.125
G0 Y0.09
G0 X-3.125
G1 X-10.26
G1 X-0.63S0
G1 X-230.4S1000
G1 X-0.09S0
G1 X-0.09S1000
G1 X-0.18S0
G1 X-0.09S1000
G1 X-0.18S0
G1 X-0.09S1000
G1 X-0.18S0
G1 X-0.09S1000
G1 X-0.18S0
G1 X-0.09S1000
G1 X-0.18S0
G1 X-0.09S1000
G1 X-0.18S0
G1 X-0.09S1000
G1 X-0.18S0
G1 X-0.09S1000
G1 X-0.18S0
G1 X-0.09S1000
G1 X-0.18S0
G1 X-0.09S1000
G1 X-0.18S0
G1 X-0.09S1000
G1 X-0.18S0
G1 X-0.09S1000
G1 X-0.18S0
G1 X-0.09S1000
G1 X-0.18S0
G1 X-0.09S1000
G1 X-0.18S0
G1 X-0.09S1000
G1 X-0.18S0
G1 X-0.09S1000
G1 X-0.18S0
G1 X-0.09S1000
G1 X-0.18S0
G1 X-0.09S1000
G1 X-0.18S0
G1 X-0.09S1000
G1 X-0.18S0
G1 X-0.09S1000
G1 X-0.18S0
G1 X-0.09S1000
G1 X-0.18S0
G1 X-0.09S1000
G1 X-0.18S0
G1 X-0.09S1000
G1 X-0.9S0
G1 X-48.6S1000
G0 X-3.125
G0 Y0.09
G0 X3.125
G1 X48.69
G1 X7.29S0
G1 X230.22S1000
G1 X0.27S0
G1 X10.44S1000
G0 X3.125
G0 Y0.09
G0 X-3.125
G1 X-240.84
G1 X-7.38S0
G1 X-48.69S1000
G0 X-3.125
G0 Y0.09
G0 X3.125
G1 X48.78
G1 X7.38S0
G1 X240.75S1000
G0 X3.125
G0 Y0.09
G0 X-3.125
G1 X-240.75
G1 X-7.29S0
G1 X-48.87S1000
G0 X-3.125
G0 Y0.09
G0 X3.125
G1 X48.78
G1 X7.56S0
G1 X240.57S1000
G0 X3.125
G0 Y0.09
G0 X-3.125
G1 X-240.57
G1 X-7.74S0
G1 X-48.6S1000
G0 X-3.125
G0 Y0.09
G0 X3.125
G1 X48.42
G1 X8.01S0
G1 X240.48S1000
G0 X3.125
G0 Y0.09
G0 X-3.125
G1 X-240.48
G1 X-8.1S0
G1 X-48.33S1000
G0 X-3.125
G0 Y0.09
G0 X3.125
G1 X48.15
G1 X8.37S0
G1 X240.39S1000
G0 X3.125
G0 Y0.09
G0 X-3.125
G1 X-240.3
G1 X-8.55S0
G1 X-48.06S1000
G0 X-3.125
G0 Y0.09
G0 X3.125
G1 X47.97
G1 X8.64S0
G1 X240.3S1000
G0 X3.125
G0 Y0.09
G0 X-3.125
G1 X-160.92
G1 X-0.45S0
G1 X-78.84S1000
G1 X-8.82S0
G1 X-47.88S1000
G0 X-3.125
G0 Y0.09
G0 X3.125
G1 X47.79
G1 X8.91S0
G1 X78.75S1000
G1 X0.72S0
G1 X160.74S1000
G0 X3.125
G0 Y0.09
G0 X-3.125
G1 X-160.65
G1 X-0.9S0
G1 X-78.57S1000
G1 X-9.09S0
G1 X-47.7S1000
G0 X-3.125
G0 Y0.09
G0 X3.125
G1 X47.52
G1 X9.27S0
G1 X78.57S1000
G1 X0.9S0
G1 X160.65S1000
G0 X3.125
G0 Y0.09
G0 X-3.125
G1 X-160.56
G1 X-0.99S0
G1 X-15.93S1000
G1 X-0.54S0
G1 X-62.01S1000
G1 X-9.45S0
G1 X-47.43S1000
G0 X-3.125
G0 Y0.09
G0 X3.125
G1 X47.34
G1 X9.54S0
G1 X61.83S1000
G1 X0.9S0
G1 X15.75S1000
G1 X0.99S0
G1 X160.56S1000
G0 X3.125
G0 Y0.09
G0 X-3.125
G1 X-160.56
G1 X-0.99S0
G1 X-15.57S1000
G1 X-1.26S0
G1 X-61.56S1000
G1 X-6.3S0
G1 X-0.09S1000
G1 X-3.33S0
G1 X-47.25S1000
G0 X-3.125
G0 Y0.09
G0 X3.125
G1 X47.25
G1 X3.15S0
G1 X0.18S1000
G1 X6.39S0
G1 X61.47S1000
G1 X1.44S0
G1 X15.48S1000
G1 X0.99S0
G1 X160.56S1000
G0 X3.125
G0 Y0.09
G0 X-3.125
G1 X-160.65
G1 X-0.9S0
G1 X-15.39S1000
G1 X-1.62S0
G1 X-61.29S1000
G1 X-0.72S0
G1 X-0.18S1000
G1 X-5.76S0
G1 X-0.18S1000
G1 X-3.06S0
G1 X-47.16S1000
G0 X-3.125
G0 Y0.09
G0 X3.125
G1 X47.07
G1 X2.97S0
G1 X0.27S1000
G1 X6.75S0
G1 X61.2S1000
G1 X1.8S0
G1 X15.39S1000
G1 X0.72S0
G1 X160.74S1000
G0 X3.125
G0 Y0.09
G0 X-3.125
G1 X-160.83
G1 X-0.54S0
G1 X-15.48S1000
G1 X-1.89S0
G1 X-61.02S1000
G1 X-0.54S0
G1 X-0.27S1000
G1 X-6.21S0
G1 X-0.27S1000
G1 X-2.88S0
G1 X-46.98S1000
G0 X-3.125
G0 Y0.09
G0 X3.125
G1 X46.89
G1 X2.7S0
G1 X7.02S1000
G1 X0.54S0
G1 X61.02S1000
G1 X1.98S0
G1 X176.76S1000
G0 X3.125
G0 Y0.09
G0 X-3.125
G1 X-176.76
G1 X-2.07S0
G1 X-60.84S1000
G1 X-0.45S0
G1 X-7.29S1000
G1 X-2.7S0
G1 X-46.8S1000
G0 X-3.125
G0 Y0.09
G0 X3.125
G1 X46.71
G1 X2.52S0
G1 X7.65S1000
G1 X0.36S0
G1 X60.84S1000
G1 X2.07S0
G1 X176.76S1000
G0 X3.125
G0 Y0.09
G0 X-3.125
G1 X-176.76
G1 X-2.07S0
G1 X-60.84S1000
G1 X-0.27S0
G1 X-7.83S1000
G1 X-2.52S0
G1 X-46.62S1000
G0 X-3.125
G0 Y0.09
G0 X3.125
G1 X46.53
G1 X2.43S0
G1 X69.03S1000
G1 X2.16S0
G1 X176.76S1000
G0 X3.125
G0 Y0.09
G0 X-3.125
G1 X-176.76
G1 X-2.16S0
G1 X-69.21S1000
G1 X-2.34S0
G1 X-46.44S1000
G0 X-3.125
G0 Y0.09
G0 X3.125
G1 X46.44
G1 X2.16S0
G1 X69.3S1000
G1 X2.25S0
G1 X176.76S1000
G0 X3.125
G0 Y0.09
G0 X-3.125
G1 X-176.76
G1 X-2.25S0
G1 X-69.48S1000
G1 X-2.07S0
G1 X-46.35S1000
G0 X-3.125
G0 Y0.09
G0 X3.125
G1 X46.26
G1 X2.07S0
G1 X69.57S1000
G1 X2.25S0
G1 X176.76S1000
G0 X3.125
G0 Y0.09
G0 X-3.125
G1 X-176.85
G1 X-2.07S0
G1 X-69.84S1000
G1 X-1.98S0
G1 X-46.17S1000
G0 X-3.125
G0 Y0.09
G0 X3.125
G1 X46.08
G1 X8.91S0
G1 X63S1000
G1 X2.07S0
G1 X149.58S1000
G1 X0.54S0
G1 X26.73S1000
G0 X3.125
G0 Y0.09
G0 X-3.125
G1 X-26.55
G1 X-0.9S0
G1 X-149.49S1000
G1 X-1.98S0
G1 X-62.82S1000
G1 X-9.09S0
G1 X-46.08S1000
G0 X-3.125
G0 Y0.09
G0 X3.125
G1 X27
G1 X0.09S0
G1 X18.99S1000
G1 X9.27S0
G1 X62.73S1000
G1 X1.89S0
G1 X149.4S1000
G1 X1.08S0
G1 X26.46S1000
G0 X3.125
G0 Y0.09
G0 X-3.125
G1 X-26.37
G1 X-1.26S0
G1 X-137.07S1000
G1 X-0.36S0
G1 X-11.97S1000
G1 X-1.8S0
G1 X-62.64S1000
G1 X-9.18S0
G1 X-18.9S1000
G1 X-0.54S0
G1 X-26.82S1000
G0 X-3.125
G0 Y0.09
G0 X3.125
G1 X26.73
G1 X0.72S0
G1 X18.99S1000
G1 X9S0
G1 X62.73S1000
G1 X1.62S0
G1 X11.88S1000
G1 X0.63S0
G1 X136.98S1000
G1 X1.26S0
G1 X26.37S1000
G0 X3.125
G0 Y0.09
G0 X-3.125
G1 X-26.37
G1 X-1.35S0
G1 X-136.8S1000
G1 X-0.72S0
G1 X-11.97S1000
G1 X-1.53S0
G1 X-62.64S1000
G1 X-9S0
G1 X-18.99S1000
G1 X-0.9S0
G1 X-26.64S1000
G0 X-3.125
G0 Y0.09
G0 X3.125
G1 X26.64
G1 X0.9S0
G1 X19.17S1000
G1 X8.91S0
G1 X62.73S1000
G1 X1.26S0
G1 X11.97S1000
G1 X0.9S0
G1 X81.18S1000
G1 X0.27S0
G1 X55.26S1000
G1 X1.44S0
G1 X26.28S1000
G0 X3.125
G0 Y0.09
G0 X-3.125
G1 X-26.28
G1 X-1.44S0
G1 X-55.08S1000
G1 X-0.63S0
G1 X-81S1000
G1 X-0.99S0
G1 X-11.97S1000
G1 X-1.08S0
G1 X-62.73S1000
G1 X-8.82S0
G1 X-19.35S1000
G1 X-0.99S0
G1 X-26.55S1000
G0 X-3.125
G0 Y0.09
G0 X3.125
G1 X26.55
G1 X1.08S0
G1 X19.35S1000
G1 X8.82S0
G1 X62.91S1000
G1 X0.45S0
G1 X12.33S1000
G1 X0.99S0
G1 X81S1000
G1 X0.63S0
G1 X55.08S1000
G1 X1.35S0
G1 X26.37S1000
G0 X3.125
G0 Y0.09
G0 X-3.125
G1 X-26.37
G1 X-1.26S0
G1 X-19.62S1000
G1 X-0.27S0
G1 X-35.19S1000
G1 X-0.81S0
G1 X-80.91S1000
G1 X-0.99S0
G1 X-75.6S1000
G1 X-8.73S0
G1 X-19.62S1000
G1 X-0.9S0
G1 X-26.64S1000
G0 X-3.125
G0 Y0.09
G0 X3.125
G1 X26.64
G1 X0.81S0
G1 X19.8S1000
G1 X8.64S0
G1 X75.69S1000
G1 X0.9S0
G1 X81S1000
G1 X0.72S0
G1 X35.28S1000
G1 X0.09S0
G1 X19.71S1000
G1 X1.26S0
G1 X26.37S1000
G0 X3.125
G0 Y0.09
G0 X-3.125
G1 X-26.46
G1 X-1.08S0
G1 X-55.17S1000
G1 X-0.81S0
G1 X-81S1000
G1 X-0.81S0
G1 X-75.6S1000
G1 X-8.55S0
G1 X-20.07S1000
G1 X-0.63S0
G1 X-26.73S1000
G0 X-3.125
G0 Y0.09
G0 X3.125
G1 X26.91
G1 X0.36S0
G1 X20.25S1000
G1 X8.55S0
G1 X75.6S1000
G1 X0.72S0
G1 X81.09S1000
G1 X0.63S0
G1 X55.35S1000
G1 X0.9S0
G1 X26.55S1000
G0 X3.125
G0 Y0.09
G0 X-3.125
G1 X-26.73
G1 X-0.54S0
G1 X-55.53S1000
G1 X-0.54S0
G1 X-81.27S1000
G1 X-0.54S0
G1 X-75.6S1000
G1 X-8.73S0
G1 X-47.43S1000
G0 X-3.125
G0 Y0.09
G0 X3.125
G1 X47.25
G1 X8.91S0
G1 X75.78S1000
G1 X0.18S0
G1 X164.79S1000
G0 X3.125
G0 Y0.09
G0 X-3.125
G1 X-240.66
G1 X-9S0
G1 X-47.25S1000
G0 X-3.125
G0 Y0.09
G0 X3.125
G1 X47.16
G1 X9.18S0
G1 X240.57S1000
G0 X3.125
G0 Y0.09
G0 X-3.125
G1 X-240.57
G1 X-5.94S0
G1 X-0.09S1000
G1 X-3.24S0
G1 X-47.07S1000
G0 X-3.125
G0 Y0.09
G0 X3.125
G1 X46.98
G1 X3.15S0
G1 X0.09S1000
G1 X6.21S0
G1 X240.48S1000
G0 X3.125
G0 Y0.09
G0 X-3.125
G1 X-240.39
G1 X-6.39S0
G1 X-0.18S1000
G1 X-3.06S0
G1 X-46.89S1000
G0 X-3.125
G0 Y0.09
G0 X3.125
G1 X46.8
G1 X2.88S0
G1 X0.27S1000
G1 X6.66S0
G1 X240.3S1000
G0 X3.125
G0 Y0.09
G0 X-3.125
G1 X-240.21
G1 X-6.84S0
G1 X-0.36S1000
G1 X-2.79S0
G1 X-46.71S1000
G0 X-3.125
G0 Y0.09
G0 X3.125
G1 X46.62
G1 X2.7S0
G1 X6.57S1000
G1 X0.9S0
G1 X240.12S1000
G0 X3.125
G0 Y0.09
G0 X-3.125
G1 X-240.03
G1 X-0.63S0
G1 X-7.02S1000
G1 X-2.7S0
G1 X-46.53S1000
G0 X-3.125
G0 Y0.09
G0 X3.125
G1 X46.44
G1 X2.61S0
G1 X7.38S1000
G1 X0.45S0
G1 X240.03S1000
G0 X3.125
G0 Y0.09
G0 X-3.125
G1 X-116.01
G1 X-0.36S0
G1 X-123.66S1000
G1 X-0.27S0
G1 X-7.74S1000
G1 X-2.52S0
G1 X-46.35S1000
G0 X-3.125
G0 Y0.09
G0 X3.125
G1 X46.26
G1 X2.43S0
G1 X131.76S1000
G1 X0.54S0
G1 X115.92S1000
G0 X3.125
G0 Y0.09
G0 X-3.125
G1 X-115.83
G1 X-0.72S0
G1 X-131.85S1000
G1 X-2.34S0
G1 X-46.17S1000
G0 X-3.125
G0 Y0.09
G0 X3.125
G1 X46.08
G1 X2.25S0
G1 X132.03S1000
G1 X0.72S0
G1 X115.83S1000
G0 X3.125
G0 Y0.09
G0 X-3.125
G1 X-115.83
G1 X-0.72S0
G1 X-132.12S1000
G1 X-2.25S0
G1 X-45.99S1000
G0 X-3.125
G0 Y0.09
G0 X3.125
G1 X45.9
G1 X2.16S0
G1 X132.39S1000
G1 X0.54S0
G1 X115.92S1000
G0 X3.125
G0 Y0.09
G0 X-3.125
G1 X-116.01
G1 X-0.45S0
G1 X-132.48S1000
G1 X-2.07S0
G1 X-45.9S1000
G0 X-3.125
G0 Y0.09
G0 X3.125
G1 X45.81
G1 X1.98S0
G1 X249.12S1000
G0 X3.125
G0 Y0.09
G0 X-3.125
G1 X-241.65
G1 X-9.54S0
G1 X-45.72S1000
G0 X-3.125
G0 Y0.09
G0 X3.125
G1 X45.72
G1 X9.72S0
G1 X241.47S1000
G0 X3.125
G0 Y0.09
G0 X-3.125
G1 X-241.38
G1 X-9.72S0
G1 X-45.81S1000
G0 X-3.125
G0 Y0.09
G0 X3.125
G1 X45.99
G1 X9.63S0
G1 X241.29S1000
G0 X3.125
G0 Y0.09
G0 X-3.125
G1 X-241.2
G1 X-9.54S0
G1 X-46.17S1000
G0 X-3.125
G0 Y0.09
G0 X3.125
G1 X46.26
G1 X9.54S0
G1 X241.11S1000
G0 X3.125
G0 Y0.09
G0 X-3.125
G1 X-145.62
G1 X-0.72S0
G1 X-94.68S1000
G1 X-9.45S0
G1 X-46.44S1000
G0 X-3.125
G0 Y0.09
G0 X3.125
G1 X46.53
G1 X9.45S0
G1 X94.32S1000
G1 X1.26S0
G1 X145.35S1000
G0 X3.125
G0 Y0.09
G0 X-3.125
G1 X-145.17
G1 X-1.53S0
G1 X-94.23S1000
G1 X-9.27S0
G1 X-46.71S1000
G0 X-3.125
G0 Y0.09
G0 X3.125
G1 X46.8
G1 X9.27S0
G1 X94.05S1000
G1 X1.71S0
G1 X145.08S1000
G0 X3.125
G0 Y0.09
G0 X-3.125
G1 X-144.99
G1 X-1.98S0
G1 X-93.78S1000
G1 X-9.18S0
G1 X-46.98S1000
G0 X-3.125
G0 Y0.09
G0 X3.125
G1 X47.16
G1 X9.09S0
G1 X69.21S1000
G1 X0.54S0
G1 X23.85S1000
G1 X2.25S0
G1 X144.81S1000
G0 X3.125
G0 Y0.09
G0 X-3.125
G1 X-144.72
G1 X-2.43S0
G1 X-23.67S1000
G1 X-0.72S0
G1 X-69.12S1000
G1 X-9S0
G1 X-47.25S1000
G0 X-3.125
G0 Y0.09
G0 X3.125
G1 X47.43
G1 X8.91S0
G1 X68.94S1000
G1 X0.9S0
G1 X23.49S1000
G1 X2.52S0
G1 X144.72S1000
G0 X3.125
G0 Y0.09
G0 X-3.125
G1 X-144.63
G1 X-2.7S0
G1 X-23.4S1000
G1 X-0.9S0
G1 X-68.85S1000
G1 X-8.91S0
G1 X-47.52S1000
G0 X-3.125
G0 Y0.09
G0 X3.125
G1 X47.7
G1 X8.82S0
G1 X68.76S1000
G1 X0.9S0
G1 X23.4S1000
G1 X2.79S0
G1 X144.54S1000
G0 X3.125
G0 Y0.09
G0 X-3.125
G1 X-144.54
G1 X-2.79S0
G1 X-23.4S1000
G1 X-0.9S0
G1 X-68.76S1000
G1 X-8.64S0
G1 X-47.88S1000
G0 X-3.125
G0 Y0.09
G0 X3.125
G1 X47.97
G1 X8.64S0
G1 X6.39S1000
G1 X0.45S0
G1 X61.92S1000
G1 X0.81S0
G1 X23.31S1000
G1 X2.88S0
G1 X6.39S1000
G1 X0.45S0
G1 X137.7S1000
G0 X3.125
G0 Y0.09
G0 X-3.125
G1 X-137.61
G1 X-0.63S0
G1 X-6.21S1000
G1 X-2.97S0
G1 X-23.4S1000
G1 X-0.72S0
G1 X-61.83S1000
G1 X-0.63S0
G1 X-6.21S1000
G1 X-8.64S0
G1 X-48.06S1000
G0 X-3.125
G0 Y0.09
G0 X3.125
G1 X48.33
G1 X8.46S0
G1 X6.03S1000
G1 X0.9S0
G1 X61.83S1000
G1 X0.45S0
G1 X23.4S1000
G1 X3.06S0
G1 X6.12S1000
G1 X0.9S0
G1 X137.43S1000
G0 X3.125
G0 Y0.09
G0 X-3.125
G1 X-137.43
G1 X-0.99S0
G1 X-6.03S1000
G1 X-3.06S0
G1 X-85.68S1000
G1 X-0.99S0
G1 X-5.85S1000
G1 X-8.46S0
G1 X-48.42S1000
G0 X-3.125
G0 Y0.09
G0 X3.125
G1 X48.51
G1 X8.46S0
G1 X5.76S1000
G1 X0.99S0
G1 X85.59S1000
G1 X3.15S0
G1 X5.94S1000
G1 X1.08S0
G1 X137.43S1000
G0 X3.125
G0 Y0.09
G0 X-3.125
G1 X-137.43
G1 X-1.08S0
G1 X-5.85S1000
G1 X-3.24S0
G1 X-85.5S1000
G1 X-1.17S0
G1 X-5.67S1000
G1 X-0.72S0
G1 X-7.38S1000
G1 X-0.18S0
G1 X-48.69S1000
G0 X-3.125
G0 Y0.09
G0 X3.125
G1 X56.52
G1 X0.54S0
G1 X5.58S1000
G1 X1.08S0
G1 X85.59S1000
G1 X3.24S0
G1 X5.85S1000
G1 X1.08S0
G1 X137.43S1000
G0 X3.125
G0 Y0.09
G0 X-3.125
G1 X-137.43
G1 X-1.08S0
G1 X-5.85S1000
G1 X-3.24S0
G1 X-85.59S1000
G1 X-1.17S0
G1 X-5.4S1000
G1 X-0.45S0
G1 X-56.7S1000
G0 X-3.125
G0 Y0.09
G0 X3.125
G1 X56.88
G1 X0.18S0
G1 X5.49S1000
G1 X1.08S0
G1 X13.05S1000
G1 X0.54S0
G1 X72.18S1000
G1 X3.06S0
G1 X5.94S1000
G1 X0.99S0
G1 X137.52S1000
G0 X3.125
G0 Y0.09
G0 X-3.125
G1 X-137.61
G1 X-0.81S0
G1 X-6.03S1000
G1 X-3.06S0
G1 X-72S1000
G1 X-0.81S0
G1 X-12.96S1000
G1 X-1.08S0
G1 X-14.04S1000
G1 X-0.09S0
G1 X-48.42S1000
G0 X-3.125
G0 Y0.09
G0 X3.125
G1 X48.33
G1 X0.27S0
G1 X13.86S1000
G1 X1.17S0
G1 X12.87S1000
G1 X0.9S0
G1 X72S1000
G1 X3.06S0
G1 X6.12S1000
G1 X0.63S0
G1 X137.7S1000
G0 X3.125
G0 Y0.09
G0 X-3.125
G1 X-137.79
G1 X-0.45S0
G1 X-6.21S1000
G1 X-2.97S0
G1 X-40.41S1000
G1 X-0.09S0
G1 X-31.5S1000
G1 X-0.99S0
G1 X-12.96S1000
G1 X-0.99S0
G1 X-13.77S1000
G1 X-0.45S0
G1 X-48.33S1000
G0 X-3.125
G0 Y0.09
G0 X3.125
G1 X48.33
G1 X0.63S0
G1 X13.5S1000
G1 X1.08S0
G1 X12.96S1000
G1 X0.99S0
G1 X31.41S1000
G1 X0.27S0
G1 X40.32S1000
G1 X2.97S0
G1 X144.45S1000
G0 X3.125
G0 Y0.09
G0 X-3.125
G1 X-144.45
G1 X-2.97S0
G1 X-40.23S1000
G1 X-0.36S0
G1 X-31.41S1000
G1 X-1.08S0
G1 X-12.87S1000
G1 X-0.99S0
G1 X-13.41S1000
G1 X-0.63S0
G1 X-48.51S1000
G0 X-3.125
G0 Y0.09
G0 X3.125
G1 X48.51
G1 X0.99S0
G1 X13.05S1000
G1 X0.9S0
G1 X13.05S1000
G1 X0.99S0
G1 X31.41S1000
G1 X0.27S0
G1 X40.41S1000
G1 X2.88S0
G1 X144.45S1000
G0 X3.125
G0 Y0.09
G0 X-3.125
G1 X-144.54
G1 X-2.79S0
G1 X-72.18S1000
G1 X-0.81S0
G1 X-13.14S1000
G1 X-0.81S0
G1 X-7.2S1000
G1 X-6.84S0
G1 X-48.6S1000
G0 X-3.125
G0 Y0.09
G0 X3.125
G1 X48.69
G1 X7.02S0
G1 X7.02S1000
G1 X0.63S0
G1 X13.23S1000
G1 X0.72S0
G1 X72.36S1000
G1 X2.61S0
G1 X144.63S1000
G0 X3.125
G0 Y0.09
G0 X-3.125
G1 X-144.72
G1 X-2.43S0
G1 X-72.54S1000
G1 X-0.09S0
G1 X-0.09S1000
G1 X-0.18S0
G1 X-13.59S1000
G1 X-0.36S0
G1 X-7.02S1000
G1 X-7.11S0
G1 X-48.78S1000
G0 X-3.125
G0 Y0.09
G0 X3.125
G1 X48.87
G1 X7.11S0
G1 X93.78S1000
G1 X2.34S0
G1 X144.81S1000
G0 X3.125
G0 Y0.09
G0 X-3.125
G1 X-144.99
G1 X-2.07S0
G1 X-93.78S1000
G1 X-7.11S0
G1 X-48.96S1000
G0 X-3.125
G0 Y0.09
G0 X3.125
G1 X49.05
G1 X7.02S0
G1 X93.96S1000
G1 X1.8S0
G1 X145.08S1000
G0 X3.125
G0 Y0.09
G0 X-3.125
G1 X-145.26
G1 X-1.53S0
G1 X-93.96S1000
G1 X-7.02S0
G1 X-49.14S1000
G0 X-3.125
G0 Y0.09
G0 X3.125
G1 X49.23
G1 X6.93S0
G1 X94.23S1000
G1 X0.9S0
G1 X145.62S1000
G0 X3.125
G0 Y0.09
G0 X-3.125
G1 X-240.66
G1 X-7.02S0
G1 X-49.23S1000
G0 X-3.125
G0 Y0.09
G0 X3.125
G1 X49.41
G1 X6.84S0
G1 X240.66S1000
G0 X3.125
G0 Y0.09
G0 X-3.125
G1 X-240.57
G1 X-6.93S0
G1 X-14.04S1000
G1 X-0.36S0
G1 X-35.01S1000
G0 X-3.125
G0 Y0.09
G0 X3.125
G1 X34.92
G1 X0.54S0
G1 X14.04S1000
G1 X6.93S0
G1 X240.48S1000
G0 X3.125
G0 Y0.09
G0 X-3.125
G1 X-240.48
G1 X-6.84S0
G1 X-14.13S1000
G1 X-0.54S0
G1 X-34.92S1000
G0 X-3.125
G0 Y0.09
G0 X3.125
G1 X34.92
G1 X0.54S0
G1 X14.22S1000
G1 X6.84S0
G1 X127.71S1000
G1 X0.18S0
G1 X112.5S1000
G0 X3.125
G0 Y0.09
G0 X-3.125
G1 X-112.41
G1 X-0.36S0
G1 X-127.53S1000
G1 X-6.84S0
G1 X-14.4S1000
G1 X-0.45S0
G1 X-34.92S1000
G0 X-3.125
G0 Y0.09
G0 X3.125
G1 X35.01
G1 X0.27S0
G1 X14.49S1000
G1 X6.93S0
G1 X127.35S1000
G1 X0.45S0
G1 X3.06S1000
G1 X0.36S0
G1 X47.61S1000
G1 X0.27S0
G1 X61.11S1000
G0 X3.125
G0 Y0.09
G0 X-3.125
G1 X-60.84
G1 X-0.9S0
G1 X-47.25S1000
G1 X-0.36S0
G1 X-3.15S1000
G1 X-0.27S0
G1 X-127.35S1000
G1 X-6.93S0
G1 X-49.86S1000
G0 X-3.125
G0 Y0.09
G0 X3.125
G1 X49.95
G1 X6.93S0
G1 X127.26S1000
G1 X0.18S0
G1 X3.24S1000
G1 X0.36S0
G1 X4.41S1000
G1 X0.63S0
G1 X42.03S1000
G1 X1.26S0
G1 X60.66S1000
G0 X3.125
G0 Y0.09
G0 X-3.125
G1 X-60.57
G1 X-1.53S0
G1 X-39.6S1000
G1 X-0.27S0
G1 X-1.89S1000
G1 X-0.72S0
G1 X-5.31S1000
G1 X-0.36S0
G1 X-129.69S1000
G1 X-7.02S0
G1 X-49.95S1000
G0 X-3.125
G0 Y0.09
G0 X3.125
G1 X50.04
G1 X3.78S0
G1 X0.09S1000
G1 X3.24S0
G1 X129.51S1000
G1 X0.54S0
G1 X5.13S1000
G1 X0.72S0
G1 X1.89S1000
G1 X0.27S0
G1 X39.6S1000
G1 X1.62S0
G1 X60.48S1000
G0 X3.125
G0 Y0.09
G0 X-3.125
G1 X-60.39
G1 X-1.8S0
G1 X-37.17S1000
G1 X-0.18S0
G1 X-2.07S1000
G1 X-0.36S0
G1 X-1.89S1000
G1 X-0.72S0
G1 X-4.95S1000
G1 X-0.72S0
G1 X-1.35S1000
G1 X-0.54S0
G1 X-2.16S1000
G1 X-0.18S0
G1 X-0.63S1000
G1 X-0.36S0
G1 X-123.03S1000
G1 X-0.81S0
G1 X-0.45S1000
G1 X-3.42S0
G1 X-0.09S1000
G1 X-3.6S0
G1 X-50.04S1000
G0 X-3.125
G0 Y0.09
G0 X3.125
G1 X50.04
G1 X3.42S0
G1 X0.18S1000
G1 X3.42S0
G1 X0.18S1000
G1 X1.17S0
G1 X123.03S1000
G1 X0.45S0
G1 X0.54S1000
G1 X0.27S0
G1 X1.98S1000
G1 X0.72S0
G1 X1.35S1000
G1 X0.81S0
G1 X3.24S1000
G1 X0.18S0
G1 X1.35S1000
G1 X0.63S0
G1 X1.98S1000
G1 X0.36S0
G1 X0.9S1000
G1 X0.09S0
G1 X0.99S1000
G1 X0.27S0
G1 X37.08S1000
G1 X1.89S0
G1 X60.39S1000
G0 X3.125
G0 Y0.09
G0 X-3.125
G1 X-60.3
G1 X-1.98S0
G1 X-37.08S1000
G1 X-0.45S0
G1 X-0.72S1000
G1 X-0.27S0
G1 X-0.9S1000
G1 X-0.27S0
G1 X-2.07S1000
G1 X-0.63S0
G1 X-1.26S1000
G1 X-0.81S0
G1 X-2.52S1000
G1 X-0.81S0
G1 X-1.44S1000
G1 X-0.72S0
G1 X-1.98S1000
G1 X-0.18S0
G1 X-0.63S1000
G1 X-0.54S0
G1 X-122.85S1000
G1 X-4.95S0
G1 X-0.18S1000
G1 X-3.42S0
G1 X-49.95S1000
G0 X-3.125
G0 Y0.09
G0 X3.125
G1 X49.95
G1 X0.54S0
G1 X1.89S1000
G1 X0.81S0
G1 X3.69S1000
G1 X1.44S0
G1 X121.77S1000
G1 X0.18S0
G1 X1.17S1000
G1 X0.45S0
G1 X2.79S1000
G1 X0.72S0
G1 X1.53S1000
G1 X0.81S0
G1 X2.25S1000
G1 X0.99S0
G1 X1.26S1000
G1 X0.45S0
G1 X2.25S1000
G1 X0.36S0
G1 X0.81S1000
G1 X0.27S0
G1 X0.72S1000
G1 X0.36S0
G1 X37.17S1000
G1 X1.98S0
G1 X60.3S1000
G0 X3.125
G0 Y0.09
G0 X-3.125
G1 X-60.21
G1 X-2.16S0
G1 X-31.41S1000
G1 X-0.36S0
G1 X-5.31S1000
G1 X-0.36S0
G1 X-0.72S1000
G1 X-0.36S0
G1 X-0.63S1000
G1 X-0.45S0
G1 X-2.25S1000
G1 X-0.45S0
G1 X-1.26S1000
G1 X-0.99S0
G1 X-2.07S1000
G1 X-0.9S0
G1 X-0.72S1000
G1 X-0.18S0
G1 X-0.72S1000
G1 X-0.72S0
G1 X-2.88S1000
G1 X-0.36S0
G1 X-1.17S1000
G1 X-0.18S0
G1 X-2.07S1000
G1 X-0.27S0
G1 X-119.7S1000
G1 X-1.35S0
G1 X-3.69S1000
G1 X-0.81S0
G1 X-1.89S1000
G1 X-0.45S0
G1 X-49.86S1000
G0 X-3.125
G0 Y0.09
G0 X3.125
G1 X49.95
G1 X0.18S0
G1 X1.89S1000
G1 X0.81S0
G1 X3.69S1000
G1 X1.35S0
G1 X119.7S1000
G1 X0.54S0
G1 X6.03S1000
G1 X0.09S0
G1 X0.54S1000
G1 X0.54S0
G1 X0.81S1000
G1 X0.36S0
G1 X0.63S1000
G1 X0.81S0
G1 X2.07S1000
G1 X0.9S0
G1 X1.26S1000
G1 X0.54S0
G1 X2.25S1000
G1 X0.54S0
G1 X0.63S1000
G1 X0.27S0
G1 X6.3S1000
G1 X0.45S0
G1 X31.41S1000
G1 X2.16S0
G1 X60.21S1000
G0 X3.125
G0 Y0.09
G0 X-3.125
G1 X-60.21
G1 X-2.16S0
G1 X-31.41S1000
G1 X-0.72S0
G1 X-1.8S1000
G1 X-0.54S0
G1 X-3.78S1000
G1 X-0.09S0
G1 X-0.63S1000
G1 X-0.63S0
G1 X-1.35S1000
G1 X-0.27S0
G1 X-0.63S1000
G1 X-0.54S0
G1 X-1.26S1000
G1 X-0.9S0
G1 X-1.98S1000
G1 X-0.81S0
G1 X-0.63S1000
G1 X-0.45S0
G1 X-0.9S1000
G1 X-0.36S0
G1 X-0.36S1000
G1 X-0.81S0
G1 X-5.49S1000
G1 X-0.81S0
G1 X-119.61S1000
G1 X-1.35S0
G1 X-3.78S1000
G1 X-0.81S0
G1 X-51.84S1000
G0 X-3.125
G0 Y0.09
G0 X3.125
G1 X51.66
G1 X0.81S0
G1 X3.87S1000
G1 X1.35S0
G1 X119.88S1000
G1 X0.72S0
G1 X5.22S1000
G1 X1.08S0
G1 X1.53S1000
G1 X0.54S0
G1 X0.63S1000
G1 X0.72S0
G1 X2.07S1000
G1 X0.81S0
G1 X1.26S1000
G1 X0.63S0
G1 X0.54S1000
G1 X0.45S0
G1 X1.17S1000
G1 X0.81S0
G1 X2.16S1000
G1 X0.18S0
G1 X1.98S1000
G1 X0.63S0
G1 X0.45S1000
G1 X0.18S0
G1 X0.99S1000
G1 X0.72S0
G1 X31.5S1000
G1 X2.25S0
G1 X60.12S1000
G0 X3.125
G0 Y0.09
G0 X-3.125
G1 X-60.12
G1 X-2.25S0
G1 X-31.5S1000
G1 X-0.72S0
G1 X-0.99S1000
G1 X-0.18S0
G1 X-0.45S1000
G1 X-0.72S0
G1 X-1.89S1000
G1 X-0.36S0
G1 X-1.89S1000
G1 X-0.9S0
G1 X-0.99S1000
G1 X-0.72S0
G1 X-0.45S1000
G1 X-0.63S0
G1 X-1.26S1000
G1 X-0.63S0
G1 X-2.25S1000
G1 X-0.63S0
G1 X-0.63S1000
G1 X-0.54S0
G1 X-1.53S1000
G1 X-0.54S0
G1 X-0.27S1000
G1 X-0.45S0
G1 X-5.04S1000
G1 X-0.72S0
G1 X-120.06S1000
G1 X-1.35S0
G1 X-3.87S1000
G1 X-0.9S0
G1 X-51.48S1000
G0 X-3.125
G0 Y0.09
G0 X3.125
G1 X51.3
G1 X1.17S0
G1 X3.69S1000
G1 X1.35S0
G1 X120.24S1000
G1 X0.9S0
G1 X1.98S1000
G1 X0.36S0
G1 X2.43S1000
G1 X0.36S0
G1 X0.45S1000
G1 X0.54S0
G1 X1.53S1000
G1 X0.54S0
G1 X0.63S1000
G1 X0.45S0
G1 X2.52S1000
G1 X0.54S0
G1 X1.17S1000
G1 X0.72S0
G1 X0.36S1000
G1 X0.81S0
G1 X0.9S1000
G1 X0.9S0
G1 X1.89S1000
G1 X0.36S0
G1 X1.89S1000
G1 X0.81S0
G1 X0.36S1000
G1 X0.27S0
G1 X0.9S1000
G1 X0.63S0
G1 X31.68S1000
G1 X2.16S0
G1 X60.12S1000
G0 X3.125
G0 Y0.09
G0 X-3.125
G1 X-60.12
G1 X-2.16S0
G1 X-31.77S1000
G1 X-0.54S0
G1 X-0.9S1000
G1 X-0.18S0
G1 X-0.45S1000
G1 X-0.9S0
G1 X-1.8S1000
G1 X-0.45S0
G1 X-0.63S1000
G1 X-0.18S0
G1 X-0.99S1000
G1 X-0.99S0
G1 X-0.63S1000
G1 X-1.17S0
G1 X-0.09S1000
G1 X-0.81S0
G1 X-0.54S1000
G1 X-0.18S0
G1 X-0.36S1000
G1 X-0.63S0
G1 X-3.69S1000
G1 X-0.45S0
G1 X-1.62S1000
G1 X-0.36S0
G1 X-3.06S1000
G1 X-0.9S0
G1 X-1.62S1000
G1 X-0.9S0
G1 X-1.35S1000
G1 X-0.09S0
G1 X-118.98S1000
G1 X-1.35S0
G1 X-3.51S1000
G1 X-1.44S0
G1 X-32.13S1000
G1 X-0.45S0
G1 X-18.54S1000
G0 X-3.125
G0 Y0.09
G0 X3.125
G1 X18.45
G1 X0.72S0
G1 X31.77S1000
G1 X1.71S0
G1 X3.33S1000
G1 X1.35S0
G1 X119.07S1000
G1 X0.27S0
G1 X1.35S1000
G1 X0.81S0
G1 X1.44S1000
G1 X1.17S0
G1 X1.17S1000
G1 X0.27S0
G1 X3.51S1000
G1 X0.36S0
G1 X3.6S1000
G1 X1.53S0
G1 X0.09S1000
G1 X2.52S0
G1 X0.18S1000
G1 X1.26S0
G1 X0.81S1000
G1 X0.36S0
G1 X0.45S1000
G1 X0.45S0
G1 X1.8S1000
G1 X0.9S0
G1 X0.63S1000
G1 X0.18S0
G1 X33.21S1000
G1 X2.07S0
G1 X60.12S1000
G0 X3.125
G0 Y0.09
G0 X-3.125
G1 X-60.12
G1 X-1.98S0
G1 X-28.26S1000
G1 X-0.27S0
G1 X-4.5S1000
G1 X-0.36S0
G1 X-0.63S1000
G1 X-1.08S0
G1 X-1.8S1000
G1 X-0.54S0
G1 X-0.36S1000
G1 X-0.36S0
G1 X-0.63S1000
G1 X-5.94S0
G1 X-1.44S1000
G1 X-0.27S0
G1 X-1.71S1000
G1 X-0.09S0
G1 X-0.99S1000
G1 X-0.27S0
G1 X-2.34S1000
G1 X-0.36S0
G1 X-0.81S1000
G1 X-1.53S0
G1 X-1.35S1000
G1 X-0.63S0
G1 X-1.62S1000
G1 X-0.36S0
G1 X-1.08S1000
G1 X-0.18S0
G1 X-117.81S1000
G1 X-1.35S0
G1 X-3.15S1000
G1 X-1.98S0
G1 X-31.5S1000
G1 X-0.9S0
G1 X-18.36S1000
G0 X-3.125
G0 Y0.09
G0 X3.125
G1 X18.36
G1 X0.9S0
G1 X31.32S1000
G1 X2.34S0
G1 X2.88S1000
G1 X1.35S0
G1 X116.64S1000
G1 X0.09S0
G1 X1.17S1000
G1 X0.36S0
G1 X0.9S1000
G1 X0.45S0
G1 X1.71S1000
G1 X0.36S0
G1 X1.35S1000
G1 X1.71S0
G1 X0.72S1000
G1 X0.36S0
G1 X2.34S1000
G1 X0.27S0
G1 X2.7S1000
G1 X0.45S0
G1 X1.26S1000
G1 X3.87S0
G1 X0.18S1000
G1 X2.07S0
G1 X0.63S1000
G1 X0.27S0
G1 X0.27S1000
G1 X0.63S0
G1 X1.8S1000
G1 X0.99S0
G1 X0.72S1000
G1 X0.54S0
G1 X1.17S1000
G1 X0.18S0
G1 X2.88S1000
G1 X0.45S0
G1 X28.17S1000
G1 X1.98S0
G1 X51.75S1000
G1 X0.45S0
G1 X7.92S1000
G0 X3.125
G0 Y0.09
G0 X-3.125
G1 X-7.92
G1 X-0.45S0
G1 X-51.84S1000
G1 X-1.8S0
G1 X-28.17S1000
G1 X-0.54S0
G1 X-2.79S1000
G1 X-0.36S0
G1 X-1.08S1000
G1 X-0.54S0
G1 X-0.72S1000
G1 X-0.9S0
G1 X-1.8S1000
G1 X-0.72S0
G1 X-0.36S1000
G1 X-0.18S0
G1 X-0.54S1000
G1 X-1.89S0
G1 X-0.45S1000
G1 X-0.99S0
G1 X-0.09S1000
G1 X-2.79S0
G1 X-1.17S1000
G1 X-0.54S0
G1 X-6.3S1000
G1 X-1.17S0
G1 X-0.09S1000
G1 X-0.72S0
G1 X-3.06S1000
G1 X-0.63S0
G1 X-0.72S1000
G1 X-0.54S0
G1 X-1.08S1000
G1 X-0.36S0
G1 X-116.55S1000
G1 X-6.66S0
G1 X-31.14S1000
G1 X-0.9S0
G1 X-18.36S1000
G0 X-3.125
G0 Y0.09
G0 X3.125
G1 X18.45
G1 X0.81S0
G1 X30.96S1000
G1 X6.75S0
G1 X116.55S1000
G1 X0.45S0
G1 X1.08S1000
G1 X0.63S0
G1 X0.72S1000
G1 X0.63S0
G1 X2.88S1000
G1 X0.63S0
G1 X0.45S1000
G1 X1.08S0
G1 X6.21S1000
G1 X0.54S0
G1 X1.08S1000
G1 X2.79S0
G1 X0.36S1000
G1 X0.9S0
G1 X0.54S1000
G1 X1.71S0
G1 X1.08S1000
G1 X0.9S0
G1 X1.71S1000
G1 X0.81S0
G1 X0.72S1000
G1 X0.54S0
G1 X0.81S1000
G1 X0.63S0
G1 X2.61S1000
G1 X0.18S0
G1 X0.54S1000
G1 X0.09S0
G1 X28.17S1000
G1 X1.71S0
G1 X51.84S1000
G1 X0.54S0
G1 X7.83S1000
G0 X3.125
G0 Y0.09
G0 X-3.125
G1 X-7.92
G1 X-0.45S0
G1 X-51.93S1000
G1 X-1.44S0
G1 X-27S1000
G1 X-0.27S0
G1 X-0.9S1000
G1 X-0.09S0
G1 X-0.72S1000
G1 X-0.36S0
G1 X-2.43S1000
G1 X-0.72S0
G1 X-0.72S1000
G1 X-0.45S0
G1 X-0.9S1000
G1 X-0.63S0
G1 X-1.71S1000
G1 X-1.08S0
G1 X-0.99S1000
G1 X-1.53S0
G1 X-0.72S1000
G1 X-0.99S0
G1 X-0.27S1000
G1 X-1.44S0
G1 X-0.18S1000
G1 X-1.17S0
G1 X-1.08S1000
G1 X-0.36S0
G1 X-3.87S1000
G1 X-0.18S0
G1 X-2.34S1000
G1 X-0.9S0
G1 X-0.63S1000
G1 X-0.72S0
G1 X-2.7S1000
G1 X-0.72S0
G1 X-0.81S1000
G1 X-0.45S0
G1 X-1.26S1000
G1 X-0.36S0
G1 X-116.64S1000
G1 X-6.84S0
G1 X-30.78S1000
G1 X-0.81S0
G1 X-18.45S1000
G0 X-3.125
G0 Y0.09
G0 X3.125
G1 X18.54
G1 X0.63S0
G1 X31.68S1000
G1 X6.03S0
G1 X116.55S1000
G1 X0.45S0
G1 X1.26S1000
G1 X0.45S0
G1 X0.81S1000
G1 X0.72S0
G1 X2.79S1000
G1 X0.72S0
G1 X0.63S1000
G1 X0.81S0
G1 X2.25S1000
G1 X0.36S0
G1 X3.87S1000
G1 X0.27S0
G1 X0.99S1000
G1 X0.9S0
G1 X0.54S1000
G1 X1.53S0
G1 X0.18S1000
G1 X1.08S0
G1 X0.9S1000
G1 X1.08S0
G1 X1.17S1000
G1 X1.08S0
G1 X1.89S1000
G1 X0.09S0
G1 X1.35S1000
G1 X0.27S0
G1 X0.72S1000
G1 X0.63S0
G1 X2.52S1000
G1 X0.36S0
G1 X0.81S1000
G1 X0.09S0
G1 X0.81S1000
G1 X0.54S0
G1 X27.09S1000
G1 X0.99S0
G1 X52.2S1000
G1 X0.36S0
G1 X7.92S1000
G0 X3.125
G0 Y0.09
G0 X-3.125
G1 X-8.01
G1 X-0.09S0
G1 X-32.58S1000
G1 X-0.18S0
G1 X-19.71S1000
G1 X-0.81S0
G1 X-27.18S1000
G1 X-0.63S0
G1 X-1.62S1000
G1 X-0.45S0
G1 X-2.52S1000
G1 X-0.54S0
G1 X-1.44S1000
G1 X-0.27S0
G1 X-1.44S1000
G1 X-0.27S0
G1 X-0.9S1000
G1 X-1.17S0
G1 X-1.17S1000
G1 X-0.81S0
G1 X-0.99S1000
G1 X-1.98S0
G1 X-0.36S1000
G1 X-0.54S0
G1 X-0.63S1000
G1 X-0.81S0
G1 X-5.04S1000
G1 X-0.45S0
G1 X-2.25S1000
G1 X-0.81S0
G1 X-0.63S1000
G1 X-0.72S0
G1 X-1.98S1000
G1 X-0.27S0
G1 X-0.63S1000
G1 X-0.63S0
G1 X-0.9S1000
G1 X-0.27S0
G1 X-1.44S1000
G1 X-0.27S0
G1 X-116.73S1000
G1 X-5.94S0
G1 X-31.77S1000
G1 X-0.45S0
G1 X-18.63S1000
G0 X-3.125
G0 Y0.09
G0 X3.125
G1 X50.94
G1 X5.76S0
G1 X115.65S1000
G1 X0.09S0
G1 X1.17S1000
G1 X0.09S0
G1 X2.61S1000
G1 X0.63S0
G1 X0.63S1000
G1 X0.45S0
G1 X1.89S1000
G1 X0.81S0
G1 X0.63S1000
G1 X0.54S0
G1 X2.43S1000
G1 X0.45S0
G1 X4.95S1000
G1 X0.9S0
G1 X0.54S1000
G1 X0.63S0
G1 X0.36S1000
G1 X2.07S0
G1 X0.9S1000
G1 X0.81S0
G1 X1.17S1000
G1 X1.17S0
G1 X0.81S1000
G1 X0.54S0
G1 X1.17S1000
G1 X0.63S0
G1 X1.26S1000
G1 X0.36S0
G1 X2.61S1000
G1 X0.45S0
G1 X1.53S1000
G1 X0.72S0
G1 X27.45S1000
G1 X0.27S0
G1 X19.89S1000
G1 X0.45S0
G1 X40.5S1000
G0 X3.125
G0 Y0.09
G0 X-3.125
G1 X-40.41
G1 X-0.72S0
G1 X-47.43S1000
G1 X-0.81S0
G1 X-1.62S1000
G1 X-0.18S0
G1 X-2.79S1000
G1 X-0.09S0
G1 X-1.35S1000
G1 X-0.81S0
G1 X-0.99S1000
G1 X-0.63S0
G1 X-0.72S1000
G1 X-1.35S0
G1 X-1.08S1000
G1 X-0.9S0
G1 X-0.63S1000
G1 X-2.25S0
G1 X-0.27S1000
G1 X-0.9S0
G1 X-0.27S1000
G1 X-0.99S0
G1 X-4.86S1000
G1 X-0.45S0
G1 X-2.7S1000
G1 X-0.18S0
G1 X-0.72S1000
G1 X-0.9S0
G1 X-1.8S1000
G1 X-0.54S0
G1 X-0.72S1000
G1 X-0.63S0
G1 X-3.6S1000
G1 X-0.36S0
G1 X-115.56S1000
G1 X-5.76S0
G1 X-50.94S1000
G0 X-3.125
G0 Y0.09
G0 X3.125
G1 X51.03
G1 X5.58S0
G1 X115.65S1000
G1 X0.36S0
G1 X3.33S1000
G1 X0.09S0
G1 X0.09S1000
G1 X0.63S0
G1 X0.81S1000
G1 X0.54S0
G1 X1.8S1000
G1 X1.26S0
G1 X8.46S1000
G1 X1.17S0
G1 X0.09S1000
G1 X3.69S0
G1 X0.09S1000
G1 X1.26S0
G1 X1.08S1000
G1 X1.53S0
G1 X0.54S1000
G1 X0.99S0
G1 X0.09S1000
G1 X1.71S0
G1 X5.67S1000
G1 X0.72S0
G1 X47.52S1000
G1 X0.81S0
G1 X40.32S1000
G0 X3.125
G0 Y0.09
G0 X-3.125
G1 X-40.23
G1 X-0.99S0
G1 X-47.52S1000
G1 X-0.63S0
G1 X-0.81S1000
G1 X-0.27S0
G1 X-4.5S1000
G1 X-2.97S0
G1 X-0.36S1000
G1 X-0.9S0
G1 X-0.18S1000
G1 X-0.63S0
G1 X-0.9S1000
G1 X-5.22S0
G1 X-0.09S1000
G1 X-0.99S0
G1 X-2.52S1000
G1 X-0.18S0
G1 X-3.96S1000
G1 X-0.09S0
G1 X-1.71S1000
G1 X-1.35S0
G1 X-0.54S1000
G1 X-0.18S0
G1 X-0.99S1000
G1 X-0.54S0
G1 X-0.99S1000
G1 X-0.9S0
G1 X-3.15S1000
G1 X-0.27S0
G1 X-115.83S1000
G1 X-5.4S0
G1 X-51.12S1000
G0 X-3.125
G0 Y0.09
G0 X3.125
G1 X51.12
G1 X5.4S0
G1 X119.16S1000
G1 X0.99S0
G1 X0.99S1000
G1 X0.54S0
G1 X0.99S1000
G1 X0.18S0
G1 X0.54S1000
G1 X1.35S0
G1 X1.53S1000
G1 X0.45S0
G1 X3.78S1000
G1 X0.36S0
G1 X2.34S1000
G1 X0.99S0
G1 X0.27S1000
G1 X5.04S0
G1 X0.81S1000
G1 X0.63S0
G1 X0.27S1000
G1 X4.23S0
G1 X4.41S1000
G1 X0.45S0
G1 X0.81S1000
G1 X0.54S0
G1 X47.52S1000
G1 X0.99S0
G1 X40.23S1000
G0 X3.125
G0 Y0.09
G0 X-3.125
G1 X-40.23
G1 X-0.99S0
G1 X-47.52S1000
G1 X-0.45S0
G1 X-0.72S1000
G1 X-0.72S0
G1 X-4.32S1000
G1 X-4.23S0
G1 X-0.36S1000
G1 X-0.63S0
G1 X-0.72S1000
G1 X-1.53S0
G1 X-0.36S1000
G1 X-3.15S0
G1 X-0.36S1000
G1 X-0.81S0
G1 X-2.43S1000
G1 X-0.45S0
G1 X-3.69S1000
G1 X-0.45S0
G1 X-1.44S1000
G1 X-0.63S0
G1 X-0.45S1000
G1 X-0.27S0
G1 X-1.71S1000
G1 X-0.54S0
G1 X-1.17S1000
G1 X-0.99S0
G1 X-119.16S1000
G1 X-5.22S0
G1 X-51.21S1000
G0 X-3.125
G0 Y0.09
G0 X3.125
G1 X51.3
G1 X5.04S0
G1 X117.9S1000
G1 X0.27S0
G1 X0.54S1000
G1 X1.62S0
G1 X1.08S1000
G1 X0.54S0
G1 X1.62S1000
G1 X0.27S0
G1 X0.63S1000
G1 X0.45S0
G1 X1.53S1000
G1 X0.54S0
G1 X3.6S1000
G1 X0.45S0
G1 X2.43S1000
G1 X0.81S0
G1 X0.36S1000
G1 X3.06S0
G1 X0.45S1000
G1 X1.53S0
G1 X0.54S1000
G1 X0.81S0
G1 X0.27S1000
G1 X3.15S0
G1 X0.36S1000
G1 X0.9S0
G1 X0.63S1000
G1 X0.81S0
G1 X2.79S1000
G1 X0.9S0
G1 X0.54S1000
G1 X0.54S0
G1 X0.54S1000
G1 X0.36S0
G1 X46.53S1000
G1 X0.99S0
G1 X40.23S1000
G0 X3.125
G0 Y0.09
G0 X-3.125
G1 X-40.32
G1 X-0.81S0
G1 X-46.53S1000
G1 X-0.63S0
G1 X-0.27S1000
G1 X-0.63S0
G1 X-0.36S1000
G1 X-1.08S0
G1 X-1.98S1000
G1 X-0.09S0
G1 X-0.63S1000
G1 X-1.08S0
G1 X-0.36S1000
G1 X-0.9S0
G1 X-0.63S1000
G1 X-4.14S0
G1 X-0.45S1000
G1 X-1.53S0
G1 X-0.63S1000
G1 X-2.88S0
G1 X-0.36S1000
G1 X-0.72S0
G1 X-2.61S1000
G1 X-0.27S0
G1 X-3.78S1000
G1 X-0.45S0
G1 X-1.62S1000
G1 X-0.27S0
G1 X-0.72S1000
G1 X-0.27S0
G1 X-1.62S1000
G1 X-0.54S0
G1 X-0.99S1000
G1 X-1.62S0
G1 X-0.63S1000
G1 X-0.45S0
G1 X-117.72S1000
G1 X-5.04S0
G1 X-51.3S1000
G0 X-3.125
G0 Y0.09
G0 X3.125
G1 X51.39
G1 X4.86S0
G1 X113.58S1000
G1 X0.63S0
G1 X2.34S1000
G1 X0.63S0
G1 X0.63S1000
G1 X0.54S0
G1 X0.54S1000
G1 X1.71S0
G1 X0.81S1000
G1 X0.54S0
G1 X1.71S1000
G1 X0.27S0
G1 X2.61S1000
G1 X0.45S0
G1 X6.75S1000
G1 X0.72S0
G1 X0.18S1000
G1 X0.99S0
G1 X1.08S1000
G1 X0.81S0
G1 X0.72S1000
G1 X1.53S0
G1 X0.45S1000
G1 X3.33S0
G1 X1.71S1000
G1 X1.98S0
G1 X0.63S1000
G1 X0.36S0
G1 X0.72S1000
G1 X0.63S0
G1 X0.45S1000
G1 X2.88S0
G1 X46.71S1000
G1 X0.72S0
G1 X40.32S1000
G0 X3.125
G0 Y0.09
G0 X-3.125
G1 X-40.5
G1 X-0.36S0
G1 X-45.27S1000
G1 X-0.36S0
G1 X-1.35S1000
G1 X-2.7S0
G1 X-0.45S1000
G1 X-0.9S0
G1 X-0.36S1000
G1 X-0.54S0
G1 X-0.63S1000
G1 X-1.8S0
G1 X-1.98S1000
G1 X-3.24S0
G1 X-0.45S1000
G1 X-1.53S0
G1 X-0.72S1000
G1 X-0.72S0
G1 X-1.26S1000
G1 X-1.8S0
G1 X-1.08S1000
G1 X-0.36S0
G1 X-1.62S1000
G1 X-0.36S0
G1 X-3.42S1000
G1 X-0.36S0
G1 X-2.61S1000
G1 X-0.27S0
G1 X-1.71S1000
G1 X-0.63S0
G1 X-0.63S1000
G1 X-1.17S0
G1 X-0.36S1000
G1 X-0.09S0
G1 X-0.09S1000
G1 X-0.09S0
G1 X-0.54S1000
G1 X-0.63S0
G1 X-0.36S1000
G1 X-1.08S0
G1 X-1.98S1000
G1 X-0.81S0
G1 X-113.49S1000
G1 X-4.77S0
G1 X-51.48S1000
G0 X-3.125
G0 Y0.09
G0 X3.125
G1 X51.48
G1 X4.77S0
G1 X113.4S1000
G1 X0.9S0
G1 X1.89S1000
G1 X1.44S0
G1 X0.09S1000
G1 X0.72S0
G1 X1.26S1000
G1 X1.08S0
G1 X0.45S1000
G1 X0.72S0
G1 X1.62S1000
G1 X0.45S0
G1 X2.43S1000
G1 X0.45S0
G1 X3.24S1000
G1 X0.54S0
G1 X1.62S1000
G1 X0.45S0
G1 X1.08S1000
G1 X1.71S0
G1 X1.35S1000
G1 X0.63S0
G1 X0.63S1000
G1 X1.53S0
G1 X0.54S1000
G1 X3.15S0
G1 X2.07S1000
G1 X1.8S0
G1 X0.63S1000
G1 X0.72S0
G1 X0.09S1000
G1 X0.99S0
G1 X0.54S1000
G1 X2.52S0
G1 X1.35S1000
G1 X0.45S0
G1 X86.13S1000
G0 X3.125
G0 Y0.09
G0 X-3.125
G1 X-84.06
G1 X-0.09S0
G1 X-1.98S1000
G1 X-0.54S0
G1 X-1.35S1000
G1 X-2.43S0
G1 X-0.54S1000
G1 X-1.71S0
G1 X-0.81S1000
G1 X-1.71S0
G1 X-2.07S1000
G1 X-3.06S0
G1 X-0.72S1000
G1 X-1.44S0
G1 X-0.63S1000
G1 X-0.63S0
G1 X-1.08S1000
G1 X-1.89S0
G1 X-1.26S1000
G1 X-0.27S0
G1 X-1.71S1000
G1 X-0.54S0
G1 X-3.24S1000
G1 X-0.81S0
G1 X-1.98S1000
G1 X-1.08S0
G1 X-1.08S1000
G1 X-2.25S0
G1 X-1.26S1000
G1 X-2.34S0
G1 X-1.89S1000
G1 X-0.81S0
G1 X-113.49S1000
G1 X-4.59S0
G1 X-51.57S1000
G0 X-3.125
G0 Y0.09
G0 X3.125
G1 X51.66
G1 X4.5S0
G1 X112.05S1000
G1 X0.18S0
G1 X1.26S1000
G1 X0.72S0
G1 X1.98S1000
G1 X2.43S0
G1 X1.26S1000
G1 X2.16S0
G1 X0.99S1000
G1 X1.26S0
G1 X1.62S1000
G1 X1.08S0
G1 X3.24S1000
G1 X0.45S0
G1 X1.89S1000
G1 X0.18S0
G1 X1.26S1000
G1 X2.25S0
G1 X0.72S1000
G1 X0.63S0
G1 X0.54S1000
G1 X1.44S0
G1 X0.9S1000
G1 X3.06S0
G1 X0.36S1000
G1 X0.36S0
G1 X1.26S1000
G1 X1.26S0
G1 X0.09S1000
G1 X0.36S0
G1 X1.08S1000
G1 X1.44S0
G1 X0.45S1000
G1 X2.43S0
G1 X1.44S1000
G1 X0.54S0
G1 X1.71S1000
G1 X0.54S0
G1 X83.88S1000
G0 X3.125
G0 Y0.09
G0 X-3.125
G1 X-83.88
G1 X-0.54S0
G1 X-1.8S1000
G1 X-0.36S0
G1 X-1.71S1000
G1 X-1.44S0
G1 X-0.09S1000
G1 X-0.72S0
G1 X-0.45S1000
G1 X-1.26S0
G1 X-1.17S1000
G1 X-0.36S0
G1 X-0.27S1000
G1 X-1.17S0
G1 X-1.08S1000
G1 X-3.87S0
G1 X-0.36S1000
G1 X-0.09S0
G1 X-0.63S1000
G1 X-1.35S0
G1 X-0.54S1000
G1 X-0.54S0
G1 X-0.63S1000
G1 X-2.43S0
G1 X-3.42S1000
G1 X-0.18S0
G1 X-3.33S1000
G1 X-1.35S0
G1 X-1.62S1000
G1 X-1.17S0
G1 X-0.9S1000
G1 X-2.16S0
G1 X-1.26S1000
G1 X-2.52S0
G1 X-0.72S1000
G1 X-0.27S0
G1 X-0.99S1000
G1 X-0.54S0
G1 X-3.87S1000
G1 X-0.09S0
G1 X-109.71S1000
G1 X-4.32S0
G1 X-51.75S1000
G0 X-3.125
G0 Y0.09
G0 X3.125
G1 X51.84
G1 X4.23S0
G1 X109.62S1000
G1 X0.18S0
G1 X3.96S1000
G1 X0.54S0
G1 X0.81S1000
G1 X0.36S0
G1 X0.72S1000
G1 X0.72S0
G1 X0.36S1000
G1 X1.44S0
G1 X1.17S1000
G1 X2.34S0
G1 X0.9S1000
G1 X0.9S0
G1 X1.71S1000
G1 X1.44S0
G1 X6.93S1000
G1 X2.61S0
G1 X0.54S1000
G1 X0.54S0
G1 X0.27S1000
G1 X1.44S0
G1 X0.63S1000
G1 X0.27S0
G1 X0.45S1000
G1 X0.63S0
G1 X0.09S1000
G1 X0.99S0
G1 X0.18S1000
G1 X1.89S0
G1 X0.99S1000
G1 X1.08S0
G1 X0.36S1000
G1 X0.54S0
G1 X1.35S1000
G1 X0.99S0
G1 X0.27S1000
G1 X2.16S0
G1 X1.89S1000
G1 X0.27S0
G1 X1.89S1000
G1 X0.54S0
G1 X83.88S1000
G0 X3.125
G0 Y0.09
G0 X-3.125
G1 X-83.97
G1 X-0.45S0
G1 X-0.27S1000
G1 X-0.27S0
G1 X-1.44S1000
G1 X-0.09S0
G1 X-2.16S1000
G1 X-3.15S0
G1 X-1.26S1000
G1 X-0.72S0
G1 X-0.27S1000
G1 X-1.17S0
G1 X-0.54S1000
G1 X-2.25S0
G1 X-0.36S1000
G1 X-0.81S0
G1 X-0.27S1000
G1 X-0.45S0
G1 X-0.54S1000
G1 X-0.27S0
G1 X-0.72S1000
G1 X-1.98S0
G1 X-0.54S1000
G1 X-2.88S0
G1 X-3.96S1000
G1 X-1.71S0
G1 X-1.08S1000
G1 X-1.53S0
G1 X-1.89S1000
G1 X-0.63S0
G1 X-0.99S1000
G1 X-2.43S0
G1 X-1.17S1000
G1 X-1.35S0
G1 X-0.45S1000
G1 X-0.63S0
G1 X-0.72S1000
G1 X-1.62S0
G1 X-0.45S1000
G1 X-0.63S0
G1 X-2.07S1000
G1 X-0.18S0
G1 X-0.81S1000
G1 X-0.09S0
G1 X-109.71S1000
G1 X-3.96S0
G1 X-52.02S1000
G0 X-3.125
G0 Y0.09
G0 X3.125
G1 X52.11
G1 X3.87S0
G1 X110.61S1000
G1 X0.18S0
G1 X2.07S1000
G1 X0.72S0
G1 X0.45S1000
G1 X1.53S0
G1 X0.63S1000
G1 X0.63S0
G1 X0.54S1000
G1 X1.35S0
G1 X1.08S1000
G1 X2.52S0
G1 X1.08S1000
G1 X0.45S0
G1 X1.26S1000
G1 X0.18S0
G1 X0.45S1000
G1 X1.71S0
G1 X0.81S1000
G1 X1.98S0
G1 X3.78S1000
G1 X3.06S0
G1 X0.54S1000
G1 X1.8S0
G1 X0.81S1000
G1 X0.18S0
G1 X0.72S1000
G1 X0.27S0
G1 X0.36S1000
G1 X0.81S0
G1 X0.36S1000
G1 X2.52S0
G1 X0.18S1000
G1 X1.35S0
G1 X0.09S1000
G1 X0.99S0
G1 X1.08S1000
G1 X3.15S0
G1 X3.6S1000
G1 X0.36S0
G1 X84.69S1000
G0 X3.125
G0 Y0.09
G0 X-3.125
G1 X-84.69
G1 X-0.27S0
G1 X-2.25S1000
G1 X-0.09S0
G1 X-0.18S1000
G1 X-0.54S0
G1 X-0.63S1000
G1 X-3.24S0
G1 X-0.18S1000
G1 X-0.09S0
G1 X-0.09S1000
G1 X-0.09S0
G1 X-0.09S1000
G1 X-0.09S0
G1 X-0.09S1000
G1 X-5.58S0
G1 X-0.09S1000
G1 X-1.26S0
G1 X-2.07S1000
G1 X-1.62S0
G1 X-0.54S1000
G1 X-3.24S0
G1 X-1.44S1000
G1 X-0.09S0
G1 X-2.07S1000
G1 X-2.07S0
G1 X-0.72S1000
G1 X-1.8S0
G1 X-0.36S1000
G1 X-0.36S0
G1 X-2.79S1000
G1 X-2.52S0
G1 X-0.99S1000
G1 X-0.63S0
G1 X-0.09S1000
G1 X-0.63S0
G1 X-0.54S1000
G1 X-0.9S0
G1 X-0.45S1000
G1 X-1.35S0
G1 X-0.54S1000
G1 X-0.63S0
G1 X-111.96S1000
G1 X-0.09S0
G1 X-1.17S1000
G1 X-0.09S0
G1 X-0.09S1000
G1 X-0.09S0
G1 X-0.09S1000
G1 X-0.09S0
G1 X-0.09S1000
G1 X-0.09S0
G1 X-0.09S1000
G1 X-0.09S0
G1 X-0.09S1000
G1 X-0.09S0
G1 X-0.18S1000
G1 X-0.09S0
G1 X-0.09S1000
G1 X-0.09S0
G1 X-0.18S1000
G1 X-0.09S0
G1 X-0.09S1000
G1 X-0.09S0
G1 X-0.18S1000
G1 X-0.09S0
G1 X-0.09S1000
G1 X-0.09S0
G1 X-0.18S1000
G1 X-0.09S0
G1 X-0.18S1000
G1 X-0.09S0
G1 X-0.18S1000
G1 X-0.09S0
G1 X-3.6S1000
G1 X-0.18S0
G1 X-48.78S1000
G0 X-3.125
G0 Y0.09
G0 X3.125
G1 X48.6
G1 X0.54S0
G1 X7.56S1000
G1 X0.36S0
G1 X110.52S1000
G1 X0.54S0
G1 X0.9S1000
G1 X0.63S0
G1 X0.45S1000
G1 X1.35S0
G1 X0.27S1000
G1 X1.08S0
G1 X0.45S1000
G1 X0.54S0
G1 X0.54S1000
G1 X0.45S0
G1 X0.81S1000
G1 X0.54S0
G1 X0.09S1000
G1 X1.89S0
G1 X2.79S1000
G1 X0.36S0
G1 X0.45S1000
G1 X1.89S0
G1 X0.54S1000
G1 X2.16S0
G1 X1.89S1000
G1 X0.36S0
G1 X1.35S1000
G1 X3.24S0
G1 X0.54S1000
G1 X1.62S0
G1 X0.27S1000
G1 X0.45S0
G1 X1.26S1000
G1 X5.13S0
G1 X0.09S1000
G1 X4.05S0
G1 X0.09S1000
G1 X1.71S0
G1 X0.45S1000
G1 X0.99S0
G1 X2.34S1000
G1 X0.09S0
G1 X84.69S1000
G0 X3.125
G0 Y0.09
G0 X-3.125
G1 X-85.5
G1 X-0.36S0
G1 X-1.26S1000
G1 X-1.08S0
G1 X-0.27S1000
G1 X-1.71S0
G1 X-0.27S1000
G1 X-3.78S0
G1 X-0.36S1000
G1 X-4.95S0
G1 X-1.35S1000
G1 X-0.63S0
G1 X-0.09S1000
G1 X-1.53S0
G1 X-0.63S1000
G1 X-3.33S0
G1 X-0.45S1000
G1 X-0.18S0
G1 X-0.54S1000
G1 X-0.54S0
G1 X-0.9S1000
G1 X-0.27S0
G1 X-0.54S1000
G1 X-2.16S0
G1 X-0.72S1000
G1 X-1.71S0
G1 X-0.54S1000
G1 X-0.45S0
G1 X-2.88S1000
G1 X-1.53S0
G1 X-0.36S1000
G1 X-0.45S0
G1 X-0.72S1000
G1 X-0.54S0
G1 X-0.54S1000
G1 X-0.54S0
G1 X-0.45S1000
G1 X-1.17S0
G1 X-0.18S1000
G1 X-1.26S0
G1 X-0.54S1000
G1 X-0.54S0
G1 X-0.9S1000
G1 X-0.63S0
G1 X-110.52S1000
G1 X-0.54S0
G1 X-7.2S1000
G1 X-0.63S0
G1 X-48.69S1000
G0 X-3.125
G0 Y0.09
G0 X3.125
G1 X48.78
G1 X0.9S0
G1 X6.48S1000
G1 X0.81S0
G1 X110.43S1000
G1 X0.9S0
G1 X0.9S1000
G1 X0.45S0
G1 X0.54S1000
G1 X0.54S0
G1 X0.18S1000
G1 X1.8S0
G1 X0.63S1000
G1 X0.54S0
G1 X0.54S1000
G1 X0.45S0
G1 X0.63S1000
G1 X0.54S0
G1 X0.36S1000
G1 X1.26S0
G1 X4.14S1000
G1 X1.71S0
G1 X0.9S1000
G1 X2.16S0
G1 X0.18S1000
G1 X0.45S0
G1 X0.81S1000
G1 X0.63S0
G1 X0.45S1000
G1 X0.45S0
G1 X0.18S1000
G1 X0.72S0
G1 X1.08S1000
G1 X1.71S0
G1 X0.54S1000
G1 X2.25S0
G1 X1.44S1000
G1 X4.95S0
G1 X0.36S1000
G1 X3.6S0
G1 X0.45S1000
G1 X0.63S0
G1 X0.54S1000
G1 X1.8S0
G1 X1.17S1000
G1 X0.54S0
G1 X85.41S1000
G0 X3.125
G0 Y0.09
G0 X-3.125
G1 X-85.32
G1 X-0.63S0
G1 X-0.63S1000
G1 X-0.45S0
G1 X-0.27S1000
G1 X-1.62S0
G1 X-0.63S1000
G1 X-0.54S0
G1 X-0.36S1000
G1 X-3.69S0
G1 X-0.36S1000
G1 X-4.86S0
G1 X-1.53S1000
G1 X-2.25S0
G1 X-0.45S1000
G1 X-1.71S0
G1 X-1.26S1000
G1 X-1.26S0
G1 X-0.45S1000
G1 X-0.72S0
G1 X-0.63S1000
G1 X-2.79S0
G1 X-1.08S1000
G1 X-1.53S0
G1 X-4.32S1000
G1 X-1.08S0
G1 X-0.54S1000
G1 X-0.45S0
G1 X-0.63S1000
G1 X-0.36S0
G1 X-0.63S1000
G1 X-0.54S0
G1 X-0.54S1000
G1 X-1.71S0
G1 X-0.45S1000
G1 X-0.45S0
G1 X-0.54S1000
G1 X-0.36S0
G1 X-0.99S1000
G1 X-0.9S0
G1 X-0.9S1000
G1 X-0.27S0
G1 X-109.26S1000
G1 X-8.19S0
G1 X-48.78S1000
G0 X-3.125
G0 Y0.09
G0 X3.125
G1 X48.87
G1 X8.01S0
G1 X109.26S1000
G1 X0.54S0
G1 X0.63S1000
G1 X0.99S0
G1 X0.99S1000
G1 X0.45S0
G1 X0.36S1000
G1 X0.54S0
G1 X0.54S1000
G1 X1.62S0
G1 X0.63S1000
G1 X0.54S0
G1 X0.63S1000
G1 X0.27S0
G1 X0.54S1000
G1 X0.54S0
G1 X0.63S1000
G1 X0.81S0
G1 X2.79S1000
G1 X0.27S0
G1 X1.62S1000
G1 X1.26S0
G1 X1.26S1000
G1 X2.79S0
G1 X0.36S1000
G1 X0.9S0
G1 X0.45S1000
G1 X1.26S0
G1 X1.35S1000
G1 X1.8S0
G1 X0.27S1000
G1 X2.25S0
G1 X1.62S1000
G1 X4.86S0
G1 X0.36S1000
G1 X3.6S0
G1 X0.45S1000
G1 X0.27S0
G1 X0.9S1000
G1 X1.44S0
G1 X0.45S1000
G1 X0.45S0
G1 X0.45S1000
G1 X0.72S0
G1 X1.71S1000
G1 X0.09S0
G1 X0.99S1000
G1 X0.27S0
G1 X82.26S1000
G0 X3.125
G0 Y0.09
G0 X-3.125
G1 X-82.17
G1 X-0.54S0
G1 X-0.72S1000
G1 X-0.27S0
G1 X-1.53S1000
G1 X-0.81S0
G1 X-0.36S1000
G1 X-0.54S0
G1 X-0.45S1000
G1 X-1.53S0
G1 X-1.44S1000
G1 X-3.69S0
G1 X-0.36S1000
G1 X-3.96S0
G1 X-2.61S1000
G1 X-3.24S0
G1 X-0.27S1000
G1 X-0.72S0
G1 X-1.26S1000
G1 X-0.72S0
G1 X-0.18S1000
G1 X-0.45S0
G1 X-0.45S1000
G1 X-4.05S0
G1 X-1.26S1000
G1 X-1.26S0
G1 X-6.21S1000
G1 X-0.54S0
G1 X-0.45S1000
G1 X-0.18S0
G1 X-0.63S1000
G1 X-0.63S0
G1 X-0.63S1000
G1 X-0.72S0
G1 X-1.44S1000
G1 X-0.63S0
G1 X-0.18S1000
G1 X-0.54S0
G1 X-1.08S1000
G1 X-0.9S0
G1 X-0.54S1000
G1 X-0.72S0
G1 X-109.17S1000
G1 X-7.92S0
G1 X-48.96S1000
G0 X-3.125
G0 Y0.09
G0 X3.125
G1 X48.96
G1 X7.83S0
G1 X108.27S1000
G1 X0.27S0
G1 X0.81S1000
G1 X0.72S0
G1 X0.45S1000
G1 X0.81S0
G1 X1.17S1000
G1 X1.53S0
G1 X1.35S1000
G1 X0.72S0
G1 X0.54S1000
G1 X0.72S0
G1 X0.54S1000
G1 X0.18S0
G1 X0.45S1000
G1 X0.54S0
G1 X6.3S1000
G1 X1.17S0
G1 X1.26S1000
G1 X4.05S0
G1 X0.45S1000
G1 X0.36S0
G1 X0.36S1000
G1 X0.9S0
G1 X0.9S1000
G1 X0.72S0
G1 X0.45S1000
G1 X2.25S0
G1 X0.18S1000
G1 X0.63S0
G1 X2.88S1000
G1 X3.78S0
G1 X0.36S1000
G1 X3.69S0
G1 X1.44S1000
G1 X1.53S0
G1 X0.45S1000
G1 X0.54S0
G1 X0.36S1000
G1 X0.81S0
G1 X1.53S1000
G1 X0.27S0
G1 X0.72S1000
G1 X0.63S0
G1 X82.08S1000
G0 X3.125
G0 Y0.09
G0 X-3.125
G1 X-82.08
G1 X-0.72S0
G1 X-0.72S1000
G1 X-0.18S0
G1 X-0.9S1000
G1 X-0.27S0
G1 X-0.27S1000
G1 X-0.81S0
G1 X-0.54S1000
G1 X-0.45S0
G1 X-0.27S1000
G1 X-0.63S0
G1 X-0.27S1000
G1 X-0.9S0
G1 X-1.35S1000
G1 X-3.69S0
G1 X-0.27S1000
G1 X-3.78S0
G1 X-3.06S1000
G1 X-0.45S0
G1 X-0.36S1000
G1 X-2.16S0
G1 X-0.45S1000
G1 X-0.72S0
G1 X-0.54S1000
G1 X-1.26S0
G1 X-0.36S1000
G1 X-0.54S0
G1 X-0.09S1000
G1 X-4.23S0
G1 X-1.35S1000
G1 X-0.99S0
G1 X-2.7S1000
G1 X-0.09S0
G1 X-3.69S1000
G1 X-0.54S0
G1 X-0.27S1000
G1 X-0.27S0
G1 X-0.45S1000
G1 X-0.9S0
G1 X-0.54S1000
G1 X-0.72S0
G1 X-1.08S1000
G1 X-1.8S0
G1 X-1.08S1000
G1 X-0.72S0
G1 X-0.45S1000
G1 X-0.81S0
G1 X-0.81S1000
G1 X-0.27S0
G1 X-108.27S1000
G1 X-7.74S0
G1 X-49.05S1000
G0 X-3.125
G0 Y0.09
G0 X3.125
G1 X49.05
G1 X7.65S0
G1 X106.74S1000
G1 X0.09S0
G1 X0.09S1000
G1 X0.09S0
G1 X2.52S1000
G1 X0.81S0
G1 X0.45S1000
G1 X0.63S0
G1 X0.9S1000
G1 X2.07S0
G1 X0.9S1000
G1 X0.81S0
G1 X0.36S1000
G1 X1.08S0
G1 X0.45S1000
G1 X1.08S0
G1 X3.6S1000
G1 X0.27S0
G1 X2.61S1000
G1 X0.9S0
G1 X1.44S1000
G1 X4.95S0
G1 X0.09S1000
G1 X1.71S0
G1 X0.09S1000
G1 X0.99S0
G1 X0.27S1000
G1 X2.25S0
G1 X3.96S1000
G1 X7.47S0
G1 X1.44S1000
G1 X0.9S0
G1 X0.45S1000
G1 X0.63S0
G1 X1.35S1000
G1 X1.35S0
G1 X0.54S1000
G1 X0.18S0
G1 X0.9S1000
G1 X0.81S0
G1 X81.99S1000
G0 X3.125
G0 Y0.09
G0 X-3.125
G1 X-80.1
G1 X-0.81S0
G1 X-1.08S1000
G1 X-0.81S0
G1 X-0.9S1000
G1 X-1.89S0
G1 X-1.44S1000
G1 X-0.81S0
G1 X-0.36S1000
G1 X-0.99S0
G1 X-2.07S1000
G1 X-3.42S0
G1 X-0.45S1000
G1 X-2.88S0
G1 X-3.96S1000
G1 X-4.5S0
G1 X-0.09S1000
G1 X-2.25S0
G1 X-0.45S1000
G1 X-0.81S0
G1 X-0.45S1000
G1 X-1.8S0
G1 X-1.8S1000
G1 X-0.54S0
G1 X-0.99S1000
G1 X-0.36S0
G1 X-1.17S1000
G1 X-0.36S0
G1 X-3.6S1000
G1 X-1.08S0
G1 X-0.36S1000
G1 X-1.44S0
G1 X-0.27S1000
G1 X-0.9S0
G1 X-0.63S1000
G1 X-2.25S0
G1 X-0.72S1000
G1 X-0.36S0
G1 X-0.54S1000
G1 X-0.9S0
G1 X-2.34S1000
G1 X-0.63S0
G1 X-106.74S1000
G1 X-7.47S0
G1 X-49.14S1000
G0 X-3.125
G0 Y0.09
G0 X3.125
G1 X49.23
G1 X7.38S0
G1 X106.65S1000
G1 X0.81S0
G1 X2.34S1000
G1 X0.9S0
G1 X0.54S1000
G1 X0.27S0
G1 X0.72S1000
G1 X2.34S0
G1 X0.45S1000
G1 X0.9S0
G1 X0.36S1000
G1 X1.53S0
G1 X0.18S1000
G1 X1.08S0
G1 X3.78S1000
G1 X0.18S0
G1 X1.08S1000
G1 X0.63S0
G1 X0.9S1000
G1 X0.45S0
G1 X1.8S1000
G1 X1.71S0
G1 X0.63S1000
G1 X0.63S0
G1 X0.63S1000
G1 X2.07S0
G1 X0.36S1000
G1 X4.5S0
G1 X3.96S1000
G1 X2.7S0
G1 X0.72S1000
G1 X3.24S0
G1 X2.07S1000
G1 X1.08S0
G1 X0.27S1000
G1 X0.9S0
G1 X1.44S1000
G1 X1.71S0
G1 X1.08S1000
G1 X0.72S0
G1 X0.99S1000
G1 X1.08S0
G1 X79.92S1000
G0 X3.125
G0 Y0.09
G0 X-3.125
G1 X-79.83
G1 X-1.08S0
G1 X-1.08S1000
G1 X-0.54S0
G1 X-1.26S1000
G1 X-1.71S0
G1 X-1.35S1000
G1 X-2.34S0
G1 X-1.98S1000
G1 X-3.15S0
G1 X-0.99S1000
G1 X-2.7S0
G1 X-3.78S1000
G1 X-4.59S0
G1 X-0.36S1000
G1 X-1.98S0
G1 X-0.81S1000
G1 X-0.45S0
G1 X-0.72S1000
G1 X-1.8S0
G1 X-1.71S1000
G1 X-0.45S0
G1 X-0.81S1000
G1 X-0.81S0
G1 X-3.15S1000
G1 X-0.18S0
G1 X-1.62S1000
G1 X-1.8S0
G1 X-0.36S1000
G1 X-0.72S0
G1 X-0.27S1000
G1 X-1.08S0
G1 X-0.18S1000
G1 X-2.52S0
G1 X-0.63S1000
G1 X-0.18S0
G1 X-0.63S1000
G1 X-0.9S0
G1 X-2.25S1000
G1 X-0.81S0
G1 X-106.83S1000
G1 X-7.29S0
G1 X-49.23S1000
G0 X-3.125
G0 Y0.09
G0 X3.125
G1 X49.23
G1 X7.29S0
G1 X106.92S1000
G1 X0.72S0
G1 X2.25S1000
G1 X0.99S0
G1 X1.35S1000
G1 X0.9S0
G1 X0.18S1000
G1 X2.79S0
G1 X0.18S1000
G1 X0.54S0
G1 X0.63S1000
G1 X1.53S0
G1 X0.36S1000
G1 X0.27S0
G1 X1.17S1000
G1 X0.18S0
G1 X3.15S1000
G1 X0.9S0
G1 X0.72S1000
G1 X0.45S0
G1 X1.35S1000
G1 X2.07S0
G1 X0.63S1000
G1 X0.54S0
G1 X0.9S1000
G1 X1.98S0
G1 X0.36S1000
G1 X2.97S0
G1 X0.18S1000
G1 X1.53S0
G1 X2.61S1000
G1 X3.78S0
G1 X1.08S1000
G1 X3.15S0
G1 X1.98S1000
G1 X2.43S0
G1 X1.17S1000
G1 X1.35S0
G1 X0.63S1000
G1 X0.09S0
G1 X1.08S1000
G1 X0.36S0
G1 X1.44S1000
G1 X0.81S0
G1 X79.74S1000
G0 X3.125
G0 Y0.09
G0 X-3.125
G1 X-79.65
G1 X-0.63S0
G1 X-0.99S1000
G1 X-0.27S0
G1 X-1.62S1000
G1 X-0.54S0
G1 X-0.54S1000
G1 X-0.63S0
G1 X-0.18S1000
G1 X-0.54S0
G1 X-0.81S1000
G1 X-0.81S0
G1 X-0.36S1000
G1 X-1.44S0
G1 X-1.89S1000
G1 X-3.24S0
G1 X-1.17S1000
G1 X-3.87S0
G1 X-2.25S1000
G1 X-1.62S0
G1 X-0.45S1000
G1 X-2.88S0
G1 X-0.27S1000
G1 X-1.98S0
G1 X-0.99S1000
G1 X-0.54S0
G1 X-0.63S1000
G1 X-2.07S0
G1 X-1.44S1000
G1 X-0.36S0
G1 X-0.63S1000
G1 X-1.08S0
G1 X-4.23S1000
G1 X-0.54S0
G1 X-0.36S1000
G1 X-1.35S0
G1 X-0.81S1000
G1 X-3.33S0
G1 X-0.45S1000
G1 X-0.63S0
G1 X-1.44S1000
G1 X-0.99S0
G1 X-2.25S1000
G1 X-0.45S0
G1 X-107.28S1000
G1 X-7.11S0
G1 X-49.32S1000
G0 X-3.125
G0 Y0.09
G0 X3.125
G1 X49.41
G1 X7.02S0
G1 X110.07S1000
G1 X0.99S0
G1 X1.53S1000
G1 X0.09S0
G1 X0.09S1000
G1 X0.09S0
G1 X0.63S1000
G1 X3.15S0
G1 X1.17S1000
G1 X1.08S0
G1 X0.45S1000
G1 X0.54S0
G1 X4.32S1000
G1 X0.99S0
G1 X0.63S1000
G1 X0.45S0
G1 X1.35S1000
G1 X1.98S0
G1 X0.63S1000
G1 X0.72S0
G1 X1.08S1000
G1 X3.51S0
G1 X0.09S1000
G1 X1.35S0
G1 X0.63S1000
G1 X0.09S0
G1 X0.09S1000
G1 X1.44S0
G1 X1.98S1000
G1 X3.87S0
G1 X1.17S1000
G1 X3.42S0
G1 X0.99S1000
G1 X0.36S0
G1 X0.45S1000
G1 X1.44S0
G1 X0.36S1000
G1 X0.72S0
G1 X0.9S1000
G1 X0.45S0
G1 X0.36S1000
G1 X0.63S0
G1 X0.45S1000
G1 X0.72S0
G1 X1.44S1000
G1 X0.36S0
G1 X0.99S1000
G1 X0.54S0
G1 X79.65S1000
G0 X3.125
G0 Y0.09
G0 X-3.125
G1 X-78.3
G1 X-0.27S0
G1 X-0.99S1000
G1 X-0.63S0
G1 X-0.99S1000
G1 X-0.45S0
G1 X-1.17S1000
G1 X-0.9S0
G1 X-0.45S1000
G1 X-0.54S0
G1 X-0.54S1000
G1 X-0.36S0
G1 X-0.99S1000
G1 X-0.63S0
G1 X-0.36S1000
G1 X-1.44S0
G1 X-0.45S1000
G1 X-0.36S0
G1 X-0.99S1000
G1 X-3.6S0
G1 X-1.08S1000
G1 X-1.26S0
G1 X-0.18S1000
G1 X-0.81S0
G1 X-0.09S1000
G1 X-1.44S0
G1 X-1.71S1000
G1 X-1.44S0
G1 X-1.08S1000
G1 X-1.26S0
G1 X-0.36S1000
G1 X-2.25S0
G1 X-0.09S1000
G1 X-0.81S0
G1 X-0.63S1000
G1 X-1.35S0
G1 X-0.63S1000
G1 X-0.9S0
G1 X-0.45S1000
G1 X-0.63S0
G1 X-0.54S1000
G1 X-0.09S0
G1 X-0.09S1000
G1 X-0.09S0
G1 X-0.54S1000
G1 X-0.45S0
G1 X-0.63S1000
G1 X-0.9S0
G1 X-4.41S1000
G1 X-0.54S0
G1 X-0.63S1000
G1 X-0.81S0
G1 X-1.26S1000
G1 X-0.9S0
G1 X-0.18S1000
G1 X-2.07S0
G1 X-2.43S1000
G1 X-0.81S0
G1 X-110.34S1000
G1 X-6.93S0
G1 X-49.41S1000
G0 X-3.125
G0 Y0.09
G0 X3.125
G1 X49.5
G1 X6.75S0
G1 X110.52S1000
G1 X0.81S0
G1 X2.25S1000
G1 X2.07S0
G1 X0.45S1000
G1 X0.63S0
G1 X1.44S1000
G1 X0.63S0
G1 X0.72S1000
G1 X0.54S0
G1 X1.89S1000
G1 X0.18S0
G1 X1.35S1000
G1 X0.09S0
G1 X0.99S1000
G1 X0.72S0
G1 X0.72S1000
G1 X0.54S0
G1 X0.36S1000
G1 X0.36S0
G1 X0.63S1000
G1 X0.36S0
G1 X0.72S1000
G1 X0.63S0
G1 X0.9S1000
G1 X1.26S0
G1 X0.72S1000
G1 X0.54S0
G1 X0.36S1000
G1 X2.07S0
G1 X0.63S1000
G1 X1.08S0
G1 X1.17S1000
G1 X1.35S0
G1 X1.62S1000
G1 X1.44S0
G1 X0.45S1000
G1 X0.36S0
G1 X0.45S1000
G1 X1.08S0
G1 X1.08S1000
G1 X3.78S0
G1 X0.9S1000
G1 X0.54S0
G1 X0.27S1000
G1 X1.44S0
G1 X0.27S1000
G1 X0.54S0
G1 X1.08S1000
G1 X0.36S0
G1 X0.63S1000
G1 X0.63S0
G1 X0.36S1000
G1 X1.08S0
G1 X0.9S1000
G1 X0.54S0
G1 X1.08S1000
G1 X0.54S0
G1 X0.9S1000
G1 X0.45S0
G1 X78.21S1000
G0 X3.125
G0 Y0.09
G0 X-3.125
G1 X-78.21
G1 X-0.45S0
G1 X-0.9S1000
G1 X-0.54S0
G1 X-1.17S1000
G1 X-0.45S0
G1 X-0.81S1000
G1 X-1.08S0
G1 X-0.36S1000
G1 X-0.72S0
G1 X-2.16S1000
G1 X-2.88S0
G1 X-0.99S1000
G1 X-3.69S0
G1 X-1.26S1000
G1 X-0.99S0
G1 X-1.26S1000
G1 X-1.53S0
G1 X-1.62S1000
G1 X-1.35S0
G1 X-1.08S1000
G1 X-0.45S0
G1 X-1.26S1000
G1 X-1.98S0
G1 X-0.54S1000
G1 X-0.54S0
G1 X-0.63S1000
G1 X-1.26S0
G1 X-3.24S1000
G1 X-1.26S0
G1 X-0.81S1000
G1 X-0.36S0
G1 X-1.08S1000
G1 X-0.36S0
G1 X-1.17S1000
G1 X-0.27S0
G1 X-1.8S1000
G1 X-0.72S0
G1 X-0.63S1000
G1 X-0.63S0
G1 X-1.53S1000
G1 X-0.36S0
G1 X-0.63S1000
G1 X-2.07S0
G1 X-2.16S1000
G1 X-0.81S0
G1 X-1.53S1000
G1 X-0.27S0
G1 X-108.81S1000
G1 X-6.75S0
G1 X-49.5S1000
G0 X-3.125
G0 Y0.09
G0 X3.125
G1 X49.59
G1 X6.57S0
G1 X108.09S1000
G1 X0.09S0
G1 X0.72S1000
G1 X0.63S0
G1 X1.17S1000
G1 X0.81S0
G1 X2.07S1000
G1 X2.16S0
G1 X1.89S1000
G1 X0.18S0
G1 X0.54S1000
G1 X0.45S0
G1 X0.72S1000
G1 X0.63S0
G1 X1.98S1000
G1 X0.18S0
G1 X1.17S1000
G1 X0.36S0
G1 X2.25S1000
G1 X1.26S0
G1 X3.33S1000
G1 X1.26S0
G1 X0.54S1000
G1 X0.45S0
G1 X0.54S1000
G1 X2.07S0
G1 X1.26S1000
G1 X0.45S0
G1 X0.54S1000
G1 X1.71S0
G1 X1.62S1000
G1 X1.71S0
G1 X1.26S1000
G1 X0.9S0
G1 X0.36S1000
G1 X0.27S0
G1 X0.72S1000
G1 X3.69S0
G1 X1.08S1000
G1 X2.79S0
G1 X2.07S1000
G1 X0.9S0
G1 X0.36S1000
G1 X1.08S0
G1 X0.63S1000
G1 X0.54S0
G1 X1.17S1000
G1 X0.54S0
G1 X0.9S1000
G1 X0.45S0
G1 X78.21S1000
G0 X3.125
G0 Y0.09
G0 X-3.125
G1 X-78.21
G1 X-0.36S0
G1 X-0.99S1000
G1 X-0.54S0
G1 X-0.63S1000
G1 X-0.27S0
G1 X-0.27S1000
G1 X-0.54S0
G1 X-0.54S1000
G1 X-0.99S0
G1 X-0.45S1000
G1 X-0.99S0
G1 X-2.16S1000
G1 X-2.7S0
G1 X-1.08S1000
G1 X-3.69S0
G1 X-0.63S1000
G1 X-0.45S0
G1 X-0.27S1000
G1 X-0.9S0
G1 X-1.26S1000
G1 X-0.99S0
G1 X-0.09S1000
G1 X-0.63S0
G1 X-1.71S1000
G1 X-1.71S0
G1 X-0.45S1000
G1 X-0.36S0
G1 X-1.35S1000
G1 X-2.16S0
G1 X-0.54S1000
G1 X-0.27S0
G1 X-0.63S1000
G1 X-1.17S0
G1 X-3.42S1000
G1 X-1.26S0
G1 X-2.16S1000
G1 X-0.45S0
G1 X-1.17S1000
G1 X-0.09S0
G1 X-2.07S1000
G1 X-0.63S0
G1 X-0.72S1000
G1 X-0.45S0
G1 X-0.45S1000
G1 X-0.27S0
G1 X-1.8S1000
G1 X-2.34S0
G1 X-1.89S1000
G1 X-0.81S0
G1 X-1.17S1000
G1 X-0.72S0
G1 X-0.54S1000
G1 X-0.45S0
G1 X-1.53S1000
G1 X-0.27S0
G1 X-106.11S1000
G1 X-6.57S0
G1 X-49.59S1000
G0 X-3.125
G0 Y0.09
G0 X3.125
G1 X49.68
G1 X6.39S0
G1 X106.2S1000
G1 X0.36S0
G1 X1.44S1000
G1 X0.45S0
G1 X0.72S1000
G1 X0.54S0
G1 X1.17S1000
G1 X0.81S0
G1 X1.89S1000
G1 X2.43S0
G1 X1.71S1000
G1 X0.45S0
G1 X0.18S1000
G1 X0.63S0
G1 X0.81S1000
G1 X0.18S0
G1 X3.69S1000
G1 X0.36S0
G1 X2.16S1000
G1 X1.26S0
G1 X3.42S1000
G1 X1.17S0
G1 X1.44S1000
G1 X2.16S0
G1 X1.35S1000
G1 X0.36S0
G1 X0.45S1000
G1 X1.71S0
G1 X1.71S1000
G1 X1.8S0
G1 X1.17S1000
G1 X1.71S0
G1 X0.54S1000
G1 X3.69S0
G1 X1.17S1000
G1 X2.7S0
G1 X1.98S1000
G1 X1.08S0
G1 X0.63S1000
G1 X0.81S0
G1 X0.54S1000
G1 X1.08S0
G1 X0.72S1000
G1 X0.45S0
G1 X79.56S1000
G0 X3.125
G0 Y0.09
G0 X-3.125
G1 X-79.56
G1 X-0.45S0
G1 X-0.72S1000
G1 X-0.99S0
G1 X-0.54S1000
G1 X-0.45S0
G1 X-1.08S1000
G1 X-0.99S0
G1 X-1.89S1000
G1 X-2.88S0
G1 X-1.17S1000
G1 X-3.78S0
G1 X-0.45S1000
G1 X-1.71S0
G1 X-0.9S1000
G1 X-2.07S0
G1 X-1.62S1000
G1 X-1.89S0
G1 X-0.36S1000
G1 X-0.36S0
G1 X-1.35S1000
G1 X-2.16S0
G1 X-1.44S1000
G1 X-1.17S0
G1 X-3.24S1000
G1 X-1.44S0
G1 X-2.16S1000
G1 X-0.18S0
G1 X-4.68S1000
G1 X-1.44S0
G1 X-1.71S1000
G1 X-2.43S0
G1 X-1.89S1000
G1 X-0.81S0
G1 X-1.17S1000
G1 X-0.45S0
G1 X-0.81S1000
G1 X-0.45S0
G1 X-1.35S1000
G1 X-0.45S0
G1 X-106.29S1000
G1 X-6.21S0
G1 X-49.77S1000
G0 X-3.125
G0 Y0.09
G0 X3.125
G1 X31.23
G1 X0.18S0
G1 X18.45S1000
G1 X6.03S0
G1 X105.66S1000
G1 X0.36S0
G1 X0.27S1000
G1 X0.54S0
G1 X1.35S1000
G1 X0.54S0
G1 X0.81S1000
G1 X0.45S0
G1 X0.99S1000
G1 X0.9S0
G1 X1.98S1000
G1 X2.43S0
G1 X1.62S1000
G1 X1.53S0
G1 X6.84S1000
G1 X2.07S0
G1 X1.44S1000
G1 X0.9S0
G1 X0.27S1000
G1 X1.17S0
G1 X1.53S1000
G1 X2.16S0
G1 X0.63S1000
G1 X0.18S0
G1 X0.54S1000
G1 X0.99S0
G1 X0.36S1000
G1 X1.26S0
G1 X1.53S1000
G1 X2.34S0
G1 X0.72S1000
G1 X1.71S0
G1 X0.36S1000
G1 X3.87S0
G1 X1.17S1000
G1 X2.97S0
G1 X0.99S1000
G1 X0.27S0
G1 X0.54S1000
G1 X0.36S0
G1 X0.36S1000
G1 X0.36S0
G1 X0.99S1000
G1 X0.45S0
G1 X0.54S1000
G1 X0.9S0
G1 X0.9S1000
G1 X0.18S0
G1 X79.74S1000
G0 X3.125
G0 Y0.09
G0 X-3.125
G1 X-78.93
G1 X-0.45S0
G1 X-1.53S1000
G1 X-0.99S0
G1 X-0.09S1000
G1 X-0.72S0
G1 X-0.9S1000
G1 X-0.36S0
G1 X-0.54S1000
G1 X-0.09S0
G1 X-0.63S1000
G1 X-0.45S0
G1 X-0.81S1000
G1 X-3.15S0
G1 X-1.08S1000
G1 X-5.94S0
G1 X-0.72S1000
G1 X-2.34S0
G1 X-1.44S1000
G1 X-1.26S0
G1 X-0.45S1000
G1 X-1.71S0
G1 X-0.63S1000
G1 X-0.63S0
G1 X-0.09S1000
G1 X-1.35S0
G1 X-1.71S1000
G1 X-2.25S0
G1 X-1.08S1000
G1 X-2.43S0
G1 X-7.02S1000
G1 X-1.35S0
G1 X-1.71S1000
G1 X-2.34S0
G1 X-1.17S1000
G1 X-0.36S0
G1 X-0.54S1000
G1 X-0.81S0
G1 X-1.08S1000
G1 X-0.36S0
G1 X-0.9S1000
G1 X-0.45S0
G1 X-1.26S1000
G1 X-1.26S0
G1 X-0.54S1000
G1 X-0.36S0
G1 X-104.85S1000
G1 X-5.76S0
G1 X-18.45S1000
G1 X-0.45S0
G1 X-31.14S1000
G0 X-3.125
G0 Y0.09
G0 X3.125
G1 X31.14
G1 X0.63S0
G1 X8.91S1000
G1 X0.27S0
G1 X9.27S1000
G1 X5.4S0
G1 X105.03S1000
G1 X0.36S0
G1 X0.63S1000
G1 X1.17S0
G1 X1.26S1000
G1 X0.36S0
G1 X2.34S1000
G1 X0.81S0
G1 X0.63S1000
G1 X0.45S0
G1 X1.26S1000
G1 X2.25S0
G1 X1.62S1000
G1 X1.17S0
G1 X5.94S1000
G1 X0.36S0
G1 X0.72S1000
G1 X3.06S0
G1 X0.63S1000
G1 X2.25S0
G1 X2.16S1000
G1 X0.81S0
G1 X0.36S1000
G1 X0.45S0
G1 X0.63S1000
G1 X1.71S0
G1 X0.54S1000
G1 X1.26S0
G1 X1.26S1000
G1 X2.52S0
G1 X0.63S1000
G1 X5.94S0
G1 X1.08S1000
G1 X0.45S0
G1 X0.45S1000
G1 X2.34S0
G1 X0.72S1000
G1 X0.54S0
G1 X1.17S1000
G1 X0.45S0
G1 X0.81S1000
G1 X1.71S0
G1 X1.44S1000
G1 X0.72S0
G1 X78.84S1000
G0 X3.125
G0 Y0.09
G0 X-3.125
G1 X-78.84
G1 X-0.72S0
G1 X-0.81S1000
G1 X-0.09S0
G1 X-0.54S1000
G1 X-1.8S0
G1 X-0.72S1000
G1 X-0.45S0
G1 X-1.17S1000
G1 X-0.63S0
G1 X-0.63S1000
G1 X-2.34S0
G1 X-0.63S1000
G1 X-0.18S0
G1 X-1.17S1000
G1 X-6.03S0
G1 X-0.54S1000
G1 X-2.61S0
G1 X-1.17S1000
G1 X-1.26S0
G1 X-0.45S1000
G1 X-1.8S0
G1 X-0.63S1000
G1 X-0.45S0
G1 X-0.36S1000
G1 X-0.72S0
G1 X-2.34S1000
G1 X-2.16S0
G1 X-0.54S1000
G1 X-1.44S0
G1 X-0.27S1000
G1 X-1.44S0
G1 X-0.63S1000
G1 X-0.45S0
G1 X-1.71S1000
G1 X-0.09S0
G1 X-4.14S1000
G1 X-0.72S0
G1 X-0.18S1000
G1 X-0.27S0
G1 X-1.62S1000
G1 X-2.16S0
G1 X-1.35S1000
G1 X-0.45S0
G1 X-0.63S1000
G1 X-0.81S0
G1 X-0.81S1000
G1 X-0.09S0
G1 X-0.99S1000
G1 X-0.18S0
G1 X-1.89S1000
G1 X-1.17S0
G1 X-0.72S1000
G1 X-0.18S0
G1 X-119.7S1000
G1 X-0.54S0
G1 X-8.55S1000
G1 X-0.72S0
G1 X-31.23S1000
G0 X-3.125
G0 Y0.09
G0 X3.125
G1 X31.23
G1 X1.08S0
G1 X8.01S1000
G1 X0.63S0
G1 X120.69S1000
G1 X1.17S0
G1 X1.71S1000
G1 X0.36S0
G1 X0.9S1000
G1 X0.18S0
G1 X0.81S1000
G1 X0.81S0
G1 X0.72S1000
G1 X0.36S0
G1 X1.35S1000
G1 X2.16S0
G1 X1.71S1000
G1 X0.09S0
G1 X0.36S1000
G1 X0.63S0
G1 X3.96S1000
G1 X0.36S0
G1 X1.62S1000
G1 X0.54S0
G1 X0.54S1000
G1 X1.35S0
G1 X0.36S1000
G1 X1.44S0
G1 X0.45S1000
G1 X0.54S0
G1 X0.18S1000
G1 X1.53S0
G1 X2.25S1000
G1 X0.81S0
G1 X0.27S1000
G1 X0.54S0
G1 X0.63S1000
G1 X1.8S0
G1 X0.45S1000
G1 X1.35S0
G1 X0.99S1000
G1 X2.7S0
G1 X0.54S1000
G1 X6.12S0
G1 X1.98S1000
G1 X2.25S0
G1 X0.63S1000
G1 X0.72S0
G1 X1.08S1000
G1 X0.54S0
G1 X0.54S1000
G1 X1.89S0
G1 X0.36S1000
G1 X0.36S0
G1 X0.63S1000
G1 X0.81S0
G1 X0.45S1000
G1 X0.36S0
G1 X78.03S1000
G0 X3.125
G0 Y0.09
G0 X-3.125
G1 X-77.76
G1 X-0.63S0
G1 X-0.45S1000
G1 X-0.9S0
G1 X-0.54S1000
G1 X-3.69S0
G1 X-1.08S1000
G1 X-0.63S0
G1 X-0.72S1000
G1 X-2.25S0
G1 X-1.98S1000
G1 X-6.12S0
G1 X-0.54S1000
G1 X-2.79S0
G1 X-0.9S1000
G1 X-1.53S0
G1 X-0.09S1000
G1 X-1.98S0
G1 X-0.63S1000
G1 X-1.71S0
G1 X-0.36S1000
G1 X-0.54S0
G1 X-1.26S1000
G1 X-1.44S0
G1 X-0.27S1000
G1 X-0.54S0
G1 X-0.45S1000
G1 X-1.44S0
G1 X-0.36S1000
G1 X-1.35S0
G1 X-0.45S1000
G1 X-0.54S0
G1 X-1.71S1000
G1 X-0.45S0
G1 X-3.96S1000
G1 X-0.63S0
G1 X-0.27S1000
G1 X-0.18S0
G1 X-1.62S1000
G1 X-1.98S0
G1 X-1.53S1000
G1 X-0.18S0
G1 X-0.81S1000
G1 X-0.81S0
G1 X-1.98S1000
G1 X-0.45S0
G1 X-1.62S1000
G1 X-1.08S0
G1 X-120.78S1000
G1 X-9.72S0
G1 X-31.23S1000
G0 X-3.125
G0 Y0.09
G0 X3.125
G1 X31.32
G1 X9.54S0
G1 X120.78S1000
G1 X1.17S0
G1 X1.62S1000
G1 X0.45S0
G1 X1.98S1000
G1 X0.9S0
G1 X0.99S1000
G1 X0.09S0
G1 X1.35S1000
G1 X1.89S0
G1 X1.62S1000
G1 X0.36S0
G1 X0.18S1000
G1 X0.63S0
G1 X3.87S1000
G1 X0.54S0
G1 X1.8S1000
G1 X0.54S0
G1 X0.45S1000
G1 X1.35S0
G1 X0.27S1000
G1 X1.44S0
G1 X0.54S1000
G1 X0.45S0
G1 X0.27S1000
G1 X1.44S0
G1 X1.08S1000
G1 X2.79S0
G1 X0.54S1000
G1 X3.69S0
G1 X0.81S1000
G1 X2.88S0
G1 X0.45S1000
G1 X6.3S0
G1 X1.8S1000
G1 X2.43S0
G1 X0.63S1000
G1 X0.54S0
G1 X1.08S1000
G1 X3.78S0
G1 X0.45S1000
G1 X0.99S0
G1 X0.45S1000
G1 X0.99S0
G1 X77.4S1000
G0 X3.125
G0 Y0.09
G0 X-3.125
G1 X-77.31
G1 X-1.08S0
G1 X-0.54S1000
G1 X-0.99S0
G1 X-0.63S1000
G1 X-3.51S0
G1 X-1.17S1000
G1 X-0.36S0
G1 X-0.72S1000
G1 X-2.43S0
G1 X-1.71S1000
G1 X-6.39S0
G1 X-0.45S1000
G1 X-2.88S0
G1 X-0.72S1000
G1 X-3.78S0
G1 X-0.45S1000
G1 X-2.88S0
G1 X-0.99S1000
G1 X-1.35S0
G1 X-0.36S1000
G1 X-0.54S0
G1 X-0.54S1000
G1 X-2.07S0
G1 X-0.18S1000
G1 X-0.72S0
G1 X-0.45S1000
G1 X-0.54S0
G1 X-1.89S1000
G1 X-0.54S0
G1 X-3.87S1000
G1 X-1.35S0
G1 X-1.44S1000
G1 X-1.71S0
G1 X-1.26S1000
G1 X-0.36S0
G1 X-0.9S1000
G1 X-0.9S0
G1 X-2.16S1000
G1 X-0.45S0
G1 X-1.62S1000
G1 X-0.99S0
G1 X-120.96S1000
G1 X-9.45S0
G1 X-31.32S1000
G0 X-3.125
G0 Y0.09
G0 X3.125
G1 X31.41
G1 X9.36S0
G1 X120.96S1000
G1 X0.99S0
G1 X0.45S1000
G1 X0.09S0
G1 X1.08S1000
G1 X0.36S0
G1 X2.25S1000
G1 X1.08S0
G1 X0.72S1000
G1 X0.45S0
G1 X1.53S1000
G1 X1.35S0
G1 X1.26S1000
G1 X1.53S0
G1 X3.87S1000
G1 X0.45S0
G1 X2.07S1000
G1 X0.54S0
G1 X0.63S1000
G1 X0.36S0
G1 X0.36S1000
G1 X1.98S0
G1 X0.54S1000
G1 X0.54S0
G1 X0.54S1000
G1 X1.26S0
G1 X0.9S1000
G1 X2.97S0
G1 X0.18S1000
G1 X3.96S0
G1 X0.72S1000
G1 X2.88S0
G1 X0.54S1000
G1 X6.48S0
G1 X1.35S1000
G1 X2.7S0
G1 X1.98S1000
G1 X3.6S0
G1 X0.54S1000
G1 X1.17S0
G1 X0.54S1000
G1 X1.17S0
G1 X77.22S1000
G0 X3.125
G0 Y0.09
G0 X-3.125
G1 X-77.22
G1 X-0.36S0
G1 X-0.27S1000
G1 X-0.54S0
G1 X-0.54S1000
G1 X-1.26S0
G1 X-0.54S1000
G1 X-4.14S0
G1 X-1.35S1000
G1 X-2.97S0
G1 X-0.9S1000
G1 X-6.66S0
G1 X-0.54S1000
G1 X-2.79S0
G1 X-0.81S1000
G1 X-7.02S0
G1 X-0.99S1000
G1 X-1.17S0
G1 X-0.63S1000
G1 X-0.45S0
G1 X-0.54S1000
G1 X-2.16S0
G1 X-0.27S1000
G1 X-0.27S0
G1 X-0.72S1000
G1 X-0.45S0
G1 X-0.81S1000
G1 X-0.45S0
G1 X-0.9S1000
G1 X-0.45S0
G1 X-0.81S1000
G1 X-1.08S0
G1 X-2.07S1000
G1 X-1.62S0
G1 X-1.17S1000
G1 X-1.17S0
G1 X-1.53S1000
G1 X-0.54S0
G1 X-0.63S1000
G1 X-1.17S0
G1 X-3.69S1000
G1 X-0.18S0
G1 X-0.54S1000
G1 X-0.9S0
G1 X-0.81S1000
G1 X-0.54S0
G1 X-119.61S1000
G1 X-9.27S0
G1 X-31.41S1000
G0 X-3.125
G0 Y0.09
G0 X3.125
G1 X31.41
G1 X9.27S0
G1 X119.43S1000
G1 X0.9S0
G1 X0.54S1000
G1 X0.99S0
G1 X4.32S1000
G1 X1.35S0
G1 X0.54S1000
G1 X0.72S0
G1 X1.44S1000
G1 X0.9S0
G1 X1.26S1000
G1 X1.71S0
G1 X1.89S1000
G1 X1.53S0
G1 X0.63S1000
G1 X0.27S0
G1 X0.9S1000
G1 X0.72S0
G1 X0.81S1000
G1 X0.27S0
G1 X1.17S1000
G1 X2.34S0
G1 X1.44S1000
G1 X1.26S0
G1 X1.08S1000
G1 X6.93S0
G1 X0.9S1000
G1 X2.7S0
G1 X0.54S1000
G1 X6.75S0
G1 X0.81S1000
G1 X3.06S0
G1 X1.17S1000
G1 X4.23S0
G1 X0.45S1000
G1 X1.35S0
G1 X0.54S1000
G1 X0.45S0
G1 X0.54S1000
G1 X0.18S0
G1 X0.99S1000
G1 X0.18S0
G1 X76.05S1000
G0 X3.125
G0 Y0.09
G0 X-3.125
G1 X-75.96
G1 X-0.36S0
G1 X-0.9S1000
G1 X-0.09S0
G1 X-0.72S1000
G1 X-0.36S0
G1 X-0.45S1000
G1 X-0.72S0
G1 X-0.09S1000
G1 X-0.63S0
G1 X-0.54S1000
G1 X-2.25S0
G1 X-0.18S1000
G1 X-1.71S0
G1 X-1.08S1000
G1 X-3.24S0
G1 X-0.63S1000
G1 X-6.93S0
G1 X-0.45S1000
G1 X-2.25S0
G1 X-1.26S1000
G1 X-6.93S0
G1 X-1.26S1000
G1 X-1.35S0
G1 X-1.17S1000
G1 X-2.52S0
G1 X-2.16S1000
G1 X-0.81S0
G1 X-1.62S1000
G1 X-1.71S0
G1 X-1.89S1000
G1 X-1.71S0
G1 X-3.33S1000
G1 X-0.9S0
G1 X-0.54S1000
G1 X-1.44S0
G1 X-1.17S1000
G1 X-0.18S0
G1 X-2.88S1000
G1 X-1.08S0
G1 X-0.45S1000
G1 X-1.44S0
G1 X-118.89S1000
G1 X-9.18S0
G1 X-31.5S1000
G0 X-3.125
G0 Y0.09
G0 X3.125
G1 X31.5
G1 X9.36S0
G1 X116.28S1000
G1 X0.18S0
G1 X2.16S1000
G1 X1.62S0
G1 X0.27S1000
G1 X1.17S0
G1 X2.79S1000
G1 X0.45S0
G1 X0.99S1000
G1 X0.72S0
G1 X0.27S1000
G1 X0.54S0
G1 X0.45S1000
G1 X1.08S0
G1 X3.15S1000
G1 X1.62S0
G1 X0.81S1000
G1 X0.45S0
G1 X0.63S1000
G1 X1.89S0
G1 X1.53S1000
G1 X0.81S0
G1 X2.16S1000
G1 X2.7S0
G1 X0.72S1000
G1 X1.62S0
G1 X1.26S1000
G1 X6.84S0
G1 X1.44S1000
G1 X2.25S0
G1 X0.27S1000
G1 X7.02S0
G1 X0.72S1000
G1 X3.15S0
G1 X0.99S1000
G1 X1.71S0
G1 X0.36S1000
G1 X2.25S0
G1 X0.36S1000
G1 X0.54S0
G1 X0.36S1000
G1 X0.63S0
G1 X0.36S1000
G1 X0.36S0
G1 X0.81S1000
G1 X0.27S0
G1 X0.72S1000
G1 X0.45S0
G1 X1.8S1000
G1 X0.09S0
G1 X73.98S1000
G0 X3.125
G0 Y0.09
G0 X-3.125
G1 X-75.78
G1 X-0.54S0
G1 X-0.63S1000
G1 X-0.36S0
G1 X-0.72S1000
G1 X-0.54S0
G1 X-0.18S1000
G1 X-0.63S0
G1 X-0.45S1000
G1 X-0.72S0
G1 X-0.09S1000
G1 X-2.34S0
G1 X-0.36S1000
G1 X-1.8S0
G1 X-0.81S1000
G1 X-3.24S0
G1 X-0.63S1000
G1 X-9.54S0
G1 X-1.53S1000
G1 X-6.75S0
G1 X-1.35S1000
G1 X-1.71S0
G1 X-0.63S1000
G1 X-2.61S0
G1 X-2.25S1000
G1 X-0.9S0
G1 X-1.35S1000
G1 X-2.16S0
G1 X-0.45S1000
G1 X-0.45S0
G1 X-0.81S1000
G1 X-1.44S0
G1 X-3.24S1000
G1 X-1.17S0
G1 X-0.45S1000
G1 X-0.45S0
G1 X-0.45S1000
G1 X-0.72S0
G1 X-0.81S1000
G1 X-0.63S0
G1 X-1.26S1000
G1 X-0.27S0
G1 X-1.08S1000
G1 X-3.24S0
G1 X-118.53S1000
G1 X-9.27S0
G1 X-31.59S1000
G0 X-3.125
G0 Y0.09
G0 X3.125
G1 X31.59
G1 X9.36S0
G1 X118.44S1000
G1 X3.24S0
G1 X0.99S1000
G1 X0.45S0
G1 X1.17S1000
G1 X0.63S0
G1 X0.81S1000
G1 X0.63S0
G1 X0.54S1000
G1 X0.45S0
G1 X0.45S1000
G1 X1.35S0
G1 X3.42S1000
G1 X1.08S0
G1 X0.81S1000
G1 X0.45S0
G1 X0.45S1000
G1 X2.16S0
G1 X1.26S1000
G1 X0.99S0
G1 X2.25S1000
G1 X2.61S0
G1 X0.54S1000
G1 X0.72S0
G1 X0.27S1000
G1 X0.9S0
G1 X1.17S1000
G1 X6.84S0
G1 X1.53S1000
G1 X6.03S0
G1 X0.54S1000
G1 X3.06S0
G1 X0.63S1000
G1 X3.15S0
G1 X0.81S1000
G1 X0.36S0
G1 X0.36S1000
G1 X1.17S0
G1 X0.18S1000
G1 X3.33S0
G1 X0.27S1000
G1 X1.53S0
G1 X0.45S1000
G1 X0.63S0
G1 X0.63S1000
G1 X0.54S0
G1 X75.69S1000
G0 X3.125
G0 Y0.09
G0 X-3.125
G1 X-75.6
G1 X-0.45S0
G1 X-0.72S1000
G1 X-7.65S0
G1 X-0.45S1000
G1 X-0.36S0
G1 X-0.72S1000
G1 X-0.36S0
G1 X-0.27S1000
G1 X-2.52S0
G1 X-0.45S1000
G1 X-3.15S0
G1 X-0.63S1000
G1 X-6.03S0
G1 X-0.72S1000
G1 X-0.27S0
G1 X-0.45S1000
G1 X-6.93S0
G1 X-1.17S1000
G1 X-0.81S0
G1 X-0.54S1000
G1 X-0.72S0
G1 X-0.45S1000
G1 X-2.43S0
G1 X-2.25S1000
G1 X-1.17S0
G1 X-1.08S1000
G1 X-2.34S0
G1 X-0.36S1000
G1 X-0.54S0
G1 X-0.72S1000
G1 X-1.17S0
G1 X-1.17S1000
G1 X-0.09S0
G1 X-1.35S1000
G1 X-1.98S0
G1 X-0.63S1000
G1 X-0.45S0
G1 X-0.45S1000
G1 X-0.63S0
G1 X-0.63S1000
G1 X-0.9S0
G1 X-1.08S1000
G1 X-0.54S0
G1 X-0.81S1000
G1 X-2.25S0
G1 X-0.27S1000
G1 X-0.81S0
G1 X-0.81S1000
G1 X-0.27S0
G1 X-117.18S1000
G1 X-9.45S0
G1 X-31.68S1000
G0 X-3.125
G0 Y0.09
G0 X3.125
G1 X31.68
G1 X9.45S0
G1 X117.09S1000
G1 X0.54S0
G1 X0.63S1000
G1 X0.9S0
G1 X0.18S1000
G1 X2.34S0
G1 X0.72S1000
G1 X0.54S0
G1 X1.17S1000
G1 X0.9S0
G1 X0.45S1000
G1 X0.81S0
G1 X0.36S1000
G1 X0.45S0
G1 X0.72S1000
G1 X2.16S0
G1 X0.9S1000
G1 X0.36S0
G1 X1.08S1000
G1 X1.26S0
G1 X0.63S1000
G1 X0.54S0
G1 X0.27S1000
G1 X2.52S0
G1 X0.9S1000
G1 X1.35S0
G1 X1.08S1000
G1 X0.36S0
G1 X0.81S1000
G1 X2.25S0
G1 X0.45S1000
G1 X0.72S0
G1 X0.63S1000
G1 X0.99S0
G1 X1.08S1000
G1 X7.83S0
G1 X0.36S1000
G1 X5.49S0
G1 X0.18S1000
G1 X0.45S0
G1 X0.63S1000
G1 X3.42S0
G1 X0.09S1000
G1 X2.52S0
G1 X0.45S1000
G1 X0.36S0
G1 X0.54S1000
G1 X0.54S0
G1 X0.36S1000
G1 X7.74S0
G1 X0.72S1000
G1 X0.45S0
G1 X75.51S1000
G0 X3.125
G0 Y0.09
G0 X-3.125
G1 X-75.42
G1 X-0.54S0
G1 X-0.72S1000
G1 X-8.64S0
G1 X-0.54S1000
G1 X-0.27S0
G1 X-0.54S1000
G1 X-6.12S0
G1 X-0.54S1000
G1 X-0.45S0
G1 X-0.27S1000
G1 X-2.79S0
G1 X-0.27S1000
G1 X-9.18S0
G1 X-0.18S1000
G1 X-1.17S0
G1 X-0.81S1000
G1 X-1.17S0
G1 X-0.81S1000
G1 X-0.63S0
G1 X-0.45S1000
G1 X-2.16S0
G1 X-0.9S1000
G1 X-0.45S0
G1 X-0.99S1000
G1 X-1.44S0
G1 X-0.81S1000
G1 X-1.35S0
G1 X-0.18S1000
G1 X-1.08S0
G1 X-0.27S1000
G1 X-0.36S0
G1 X-0.63S1000
G1 X-0.72S0
G1 X-0.09S1000
G1 X-0.63S0
G1 X-0.99S1000
G1 X-0.36S0
G1 X-0.81S1000
G1 X-1.8S0
G1 X-1.26S1000
G1 X-2.97S0
G1 X-1.17S1000
G1 X-0.45S0
G1 X-0.72S1000
G1 X-0.99S0
G1 X-0.81S1000
G1 X-1.62S0
G1 X-0.54S1000
G1 X-0.72S0
G1 X-116.91S1000
G1 X-9.45S0
G1 X-31.77S1000
G0 X-3.125
G0 Y0.09
G0 X3.125
G1 X31.77
G1 X9.54S0
G1 X62.91S1000
G1 X0.45S0
G1 X53.46S1000
G1 X0.81S0
G1 X0.45S1000
G1 X1.53S0
G1 X0.99S1000
G1 X0.9S0
G1 X0.72S1000
G1 X0.45S0
G1 X1.26S1000
G1 X0.27S0
G1 X0.27S1000
G1 X2.25S0
G1 X1.53S1000
G1 X1.71S0
G1 X0.72S1000
G1 X0.27S0
G1 X0.99S1000
G1 X0.63S0
G1 X0.36S1000
G1 X0.54S0
G1 X0.63S1000
G1 X0.36S0
G1 X0.27S1000
G1 X0.99S0
G1 X0.36S1000
G1 X1.35S0
G1 X0.72S1000
G1 X1.53S0
G1 X0.99S1000
G1 X0.36S0
G1 X0.9S1000
G1 X2.07S0
G1 X0.54S1000
G1 X0.54S0
G1 X0.81S1000
G1 X1.44S0
G1 X0.63S1000
G1 X1.08S0
G1 X0.36S1000
G1 X8.91S0
G1 X0.54S1000
G1 X2.61S0
G1 X0.36S1000
G1 X7.2S0
G1 X0.54S1000
G1 X0.27S0
G1 X0.36S1000
G1 X7.02S0
G1 X0.09S1000
G1 X1.71S0
G1 X0.72S1000
G1 X0.45S0
G1 X75.42S1000
G0 X3.125
G0 Y0.09
G0 X-3.125
G1 X-73.89
G1 X-0.09S0
G1 X-1.35S1000
G1 X-0.54S0
G1 X-0.72S1000
G1 X-1.62S0
G1 X-0.27S1000
G1 X-7.02S0
G1 X-0.18S1000
G1 X-0.36S0
G1 X-0.54S1000
G1 X-7.2S0
G1 X-0.45S1000
G1 X-2.52S0
G1 X-0.63S1000
G1 X-8.91S0
G1 X-0.27S1000
G1 X-1.17S0
G1 X-0.36S1000
G1 X-1.62S0
G1 X-0.81S1000
G1 X-0.54S0
G1 X-0.54S1000
G1 X-1.98S0
G1 X-0.99S1000
G1 X-0.36S0
G1 X-1.08S1000
G1 X-1.44S0
G1 X-0.72S1000
G1 X-1.35S0
G1 X-0.27S1000
G1 X-1.62S0
G1 X-0.72S1000
G1 X-0.54S0
G1 X-0.36S1000
G1 X-0.81S0
G1 X-0.99S1000
G1 X-0.09S0
G1 X-0.54S1000
G1 X-1.89S0
G1 X-1.53S1000
G1 X-2.16S0
G1 X-1.98S1000
G1 X-0.27S0
G1 X-0.81S1000
G1 X-0.81S0
G1 X-1.08S1000
G1 X-1.53S0
G1 X-0.36S1000
G1 X-0.9S0
G1 X-53.37S1000
G1 X-0.63S0
G1 X-62.73S1000
G1 X-9.63S0
G1 X-31.77S1000
G0 X-3.125
G0 Y0.09
G0 X3.125
G1 X31.68
G1 X9.72S0
G1 X62.73S1000
G1 X0.63S0
G1 X50.76S1000
G1 X0.18S0
G1 X2.43S1000
G1 X0.81S0
G1 X0.45S1000
G1 X1.62S0
G1 X0.99S1000
G1 X0.81S0
G1 X3.15S1000
G1 X1.98S0
G1 X1.71S1000
G1 X1.98S0
G1 X1.35S1000
G1 X0.99S0
G1 X0.18S1000
G1 X0.54S0
G1 X0.81S1000
G1 X3.33S0
G1 X0.72S1000
G1 X1.35S0
G1 X2.52S1000
G1 X1.71S0
G1 X0.72S1000
G1 X0.63S0
G1 X0.63S1000
G1 X1.8S0
G1 X0.18S1000
G1 X10.35S0
G1 X0.81S1000
G1 X2.43S0
G1 X0.36S1000
G1 X7.38S0
G1 X0.45S1000
G1 X4.77S0
G1 X0.36S1000
G1 X2.43S0
G1 X0.36S1000
G1 X1.62S0
G1 X0.54S1000
G1 X0.72S0
G1 X0.99S1000
G1 X0.45S0
G1 X73.8S1000
G0 X3.125
G0 Y0.09
G0 X-3.125
G1 X-73.8
G1 X-4.41S0
G1 X-0.27S1000
G1 X-2.43S0
G1 X-0.45S1000
G1 X-1.62S0
G1 X-0.45S1000
G1 X-2.52S0
G1 X-0.45S1000
G1 X-7.56S0
G1 X-0.36S1000
G1 X-2.25S0
G1 X-0.9S1000
G1 X-12.42S0
G1 X-0.54S1000
G1 X-0.63S0
G1 X-0.81S1000
G1 X-1.44S0
G1 X-1.8S1000
G1 X-0.27S0
G1 X-0.72S1000
G1 X-0.99S0
G1 X-0.9S1000
G1 X-3.42S0
G1 X-0.81S1000
G1 X-1.98S0
G1 X-0.81S1000
G1 X-1.53S0
G1 X-0.36S1000
G1 X-0.36S0
G1 X-1.8S1000
G1 X-1.8S0
G1 X-3.24S1000
G1 X-0.81S0
G1 X-0.81S1000
G1 X-1.08S0
G1 X-0.09S1000
G1 X-0.63S0
G1 X-0.45S1000
G1 X-0.72S0
G1 X-2.34S1000
G1 X-0.54S0
G1 X-50.49S1000
G1 X-0.72S0
G1 X-62.64S1000
G1 X-9.9S0
G1 X-31.59S1000
G0 X-3.125
G0 Y0.09
G0 X3.125
G1 X31.59
G1 X9.9S0
G1 X62.64S1000
G1 X0.72S0
G1 X50.49S1000
G1 X0.63S0
G1 X2.34S1000
G1 X0.54S0
G1 X0.54S1000
G1 X0.54S0
G1 X0.27S1000
G1 X1.08S0
G1 X0.72S1000
G1 X0.9S0
G1 X3.33S1000
G1 X1.53S0
G1 X1.89S1000
G1 X0.27S0
G1 X0.63S1000
G1 X1.44S0
G1 X0.63S1000
G1 X1.98S0
G1 X0.9S1000
G1 X3.51S0
G1 X0.9S1000
G1 X0.81S0
G1 X0.72S1000
G1 X0.45S0
G1 X1.89S1000
G1 X1.17S0
G1 X0.99S1000
G1 X0.63S0
G1 X0.36S1000
G1 X12.51S0
G1 X0.99S1000
G1 X2.25S0
G1 X0.27S1000
G1 X7.11S0
G1 X0.27S1000
G1 X0.27S0
G1 X0.36S1000
G1 X0.81S0
G1 X0.81S1000
G1 X0.9S0
G1 X0.54S1000
G1 X1.53S0
G1 X0.54S1000
G1 X7.02S0
G1 X73.8S1000
G0 X3.125
G0 Y0.09
G0 X-3.125
G1 X-72.9
G1 X-0.18S0
G1 X-0.81S1000
G1 X-7.02S0
G1 X-0.36S1000
G1 X-1.71S0
G1 X-0.54S1000
G1 X-0.72S0
G1 X-0.9S1000
G1 X-0.63S0
G1 X-0.45S1000
G1 X-0.36S0
G1 X-0.36S1000
G1 X-9.09S0
G1 X-1.44S1000
G1 X-6.21S0
G1 X-0.72S1000
G1 X-0.72S0
G1 X-0.27S1000
G1 X-1.53S0
G1 X-0.09S1000
G1 X-3.96S0
G1 X-1.08S1000
G1 X-0.54S0
G1 X-2.43S1000
G1 X-0.45S0
G1 X-0.81S1000
G1 X-0.72S0
G1 X-0.9S1000
G1 X-1.08S0
G1 X-0.18S1000
G1 X-2.34S0
G1 X-0.81S1000
G1 X-1.98S0
G1 X-0.63S1000
G1 X-1.35S0
G1 X-0.72S1000
G1 X-0.27S0
G1 X-1.98S1000
G1 X-0.63S0
G1 X-4.05S1000
G1 X-0.99S0
G1 X-0.63S1000
G1 X-1.17S0
G1 X-0.27S1000
G1 X-0.63S0
G1 X-3.24S1000
G1 X-0.72S0
G1 X-50.58S1000
G1 X-0.63S0
G1 X-62.55S1000
G1 X-4.14S0
G1 X-0.09S1000
G1 X-5.85S0
G1 X-31.5S1000
G0 X-3.125
G0 Y0.09
G0 X3.125
G1 X31.5
G1 X5.67S0
G1 X0.09S1000
G1 X4.41S0
G1 X62.55S1000
G1 X0.45S0
G1 X50.67S1000
G1 X0.72S0
G1 X0.72S1000
G1 X0.45S0
G1 X2.07S1000
G1 X0.63S0
G1 X0.27S1000
G1 X1.17S0
G1 X0.72S1000
G1 X1.26S0
G1 X3.96S1000
G1 X0.27S0
G1 X1.17S1000
G1 X0.09S0
G1 X0.81S1000
G1 X0.27S0
G1 X0.81S1000
G1 X1.26S0
G1 X0.63S1000
G1 X1.98S0
G1 X0.54S1000
G1 X2.52S0
G1 X0.36S1000
G1 X0.9S0
G1 X1.08S1000
G1 X0.54S0
G1 X0.99S1000
G1 X0.45S0
G1 X2.7S1000
G1 X0.09S0
G1 X1.17S1000
G1 X2.16S0
G1 X0.36S1000
G1 X1.26S0
G1 X0.27S1000
G1 X1.44S0
G1 X0.54S1000
G1 X0.27S0
G1 X1.08S1000
G1 X6.3S0
G1 X1.35S1000
G1 X2.43S0
G1 X0.18S1000
G1 X6.3S0
G1 X0.45S1000
G1 X0.54S0
G1 X0.36S1000
G1 X0.45S0
G1 X0.99S1000
G1 X0.81S0
G1 X0.36S1000
G1 X9.09S0
G1 X0.81S1000
G1 X0.36S0
G1 X72.81S1000
G0 X3.125
G0 Y0.09
G0 X-3.125
G1 X-72.18
G1 X-0.18S0
G1 X-0.45S1000
G1 X-0.45S0
G1 X-0.81S1000
G1 X-1.8S0
G1 X-0.27S1000
G1 X-7.02S0
G1 X-0.27S1000
G1 X-0.81S0
G1 X-0.99S1000
G1 X-0.36S0
G1 X-0.36S1000
G1 X-0.63S0
G1 X-0.54S1000
G1 X-6.12S0
G1 X-0.36S1000
G1 X-2.43S0
G1 X-1.17S1000
G1 X-6.48S0
G1 X-1.89S1000
G1 X-1.26S0
G1 X-0.27S1000
G1 X-1.17S0
G1 X-0.54S1000
G1 X-2.16S0
G1 X-3.24S1000
G1 X-0.09S0
G1 X-0.63S1000
G1 X-0.36S0
G1 X-1.17S1000
G1 X-0.45S0
G1 X-1.17S1000
G1 X-0.9S0
G1 X-0.18S1000
G1 X-0.81S0
G1 X-0.09S1000
G1 X-1.98S0
G1 X-0.18S1000
G1 X-1.98S0
G1 X-0.63S1000
G1 X-1.26S0
G1 X-0.81S1000
G1 X-0.45S0
G1 X-0.45S1000
G1 X-0.45S0
G1 X-5.13S1000
G1 X-1.44S0
G1 X-0.72S1000
G1 X-2.16S0
G1 X-1.89S1000
G1 X-0.63S0
G1 X-0.63S1000
G1 X-0.63S0
G1 X-50.85S1000
G1 X-0.27S0
G1 X-62.64S1000
G1 X-4.59S0
G1 X-0.09S1000
G1 X-5.58S0
G1 X-31.41S1000
G0 X-3.125
G0 Y0.09
G0 X3.125
G1 X31.41
G1 X5.49S0
G1 X0.09S1000
G1 X4.77S0
G1 X113.76S1000
G1 X0.63S0
G1 X0.45S1000
G1 X0.72S0
G1 X1.71S1000
G1 X1.62S0
G1 X0.18S1000
G1 X0.54S0
G1 X0.81S1000
G1 X1.8S0
G1 X1.35S1000
G1 X0.9S0
G1 X2.43S1000
G1 X1.62S0
G1 X1.17S1000
G1 X0.63S0
G1 X0.63S1000
G1 X4.14S0
G1 X0.27S1000
G1 X1.53S0
G1 X2.97S1000
G1 X0.45S0
G1 X0.54S1000
G1 X0.09S0
G1 X2.79S1000
G1 X2.52S0
G1 X0.9S1000
G1 X2.34S0
G1 X1.71S1000
G1 X6.75S0
G1 X0.72S1000
G1 X2.79S0
G1 X0.45S1000
G1 X6.03S0
G1 X0.63S1000
G1 X0.81S0
G1 X1.44S1000
G1 X8.01S0
G1 X0.45S1000
G1 X1.53S0
G1 X0.99S1000
G1 X1.26S0
G1 X72.09S1000
G0 X3.125
G0 Y0.09
G0 X-3.125
G1 X-71.28
G1 X-0.27S0
G1 X-0.54S1000
G1 X-1.44S0
G1 X-1.26S1000
G1 X-1.17S0
G1 X-0.36S1000
G1 X-8.01S0
G1 X-1.26S1000
G1 X-0.99S0
G1 X-0.63S1000
G1 X-6.12S0
G1 X-0.36S1000
G1 X-3.15S0
G1 X-0.45S1000
G1 X-1.62S0
G1 X-0.36S1000
G1 X-4.86S0
G1 X-1.62S1000
G1 X-1.89S0
G1 X-1.17S1000
G1 X-2.79S0
G1 X-2.52S1000
G1 X-0.18S0
G1 X-0.45S1000
G1 X-0.45S0
G1 X-3.24S1000
G1 X-1.35S0
G1 X-0.27S1000
G1 X-4.05S0
G1 X-0.63S1000
G1 X-0.63S0
G1 X-0.9S1000
G1 X-1.98S0
G1 X-0.72S1000
G1 X-0.27S0
G1 X-1.26S1000
G1 X-1.35S0
G1 X-0.9S1000
G1 X-1.98S0
G1 X-0.81S1000
G1 X-0.45S0
G1 X-0.36S1000
G1 X-1.62S0
G1 X-1.62S1000
G1 X-0.72S0
G1 X-0.45S1000
G1 X-0.63S0
G1 X-4.86S1000
G1 X-0.09S0
G1 X-108.81S1000
G1 X-1.44S0
G1 X-2.61S1000
G1 X-0.9S0
G1 X-4.32S1000
G1 X-1.17S0
G1 X-31.32S1000
G0 X-3.125
G0 Y0.09
G0 X3.125
G1 X31.32
G1 X0.63S0
G1 X4.77S1000
G1 X0.81S0
G1 X3.51S1000
G1 X0.81S0
G1 X21.96S1000
G1 X0.27S0
G1 X86.4S1000
G1 X0.27S0
G1 X4.77S1000
G1 X0.72S0
G1 X0.36S1000
G1 X0.63S0
G1 X1.62S1000
G1 X1.62S0
G1 X0.45S1000
G1 X0.54S0
G1 X0.72S1000
G1 X2.07S0
G1 X0.63S1000
G1 X1.62S0
G1 X1.08S1000
G1 X0.36S0
G1 X0.72S1000
G1 X2.16S0
G1 X0.81S1000
G1 X0.54S0
G1 X0.63S1000
G1 X4.05S0
G1 X0.36S1000
G1 X1.26S0
G1 X2.07S1000
G1 X0.09S0
G1 X1.08S1000
G1 X0.54S0
G1 X0.27S1000
G1 X0.27S0
G1 X2.52S1000
G1 X2.79S0
G1 X1.26S1000
G1 X1.8S0
G1 X1.62S1000
G1 X4.86S0
G1 X0.45S1000
G1 X1.35S0
G1 X0.54S1000
G1 X3.24S0
G1 X0.27S1000
G1 X6.3S0
G1 X0.63S1000
G1 X0.9S0
G1 X0.45S1000
G1 X0.18S0
G1 X0.63S1000
G1 X8.01S0
G1 X0.27S1000
G1 X1.26S0
G1 X1.17S1000
G1 X1.53S0
G1 X0.54S1000
G1 X0.36S0
G1 X71.19S1000
G0 X3.125
G0 Y0.09
G0 X-3.125
G1 X-71.1
G1 X-0.54S0
G1 X-0.63S1000
G1 X-1.44S0
G1 X-0.99S1000
G1 X-9.72S0
G1 X-0.36S1000
G1 X-0.36S0
G1 X-0.36S1000
G1 X-0.81S0
G1 X-0.81S1000
G1 X-9.9S0
G1 X-0.63S1000
G1 X-1.26S0
G1 X-0.27S1000
G1 X-5.04S0
G1 X-1.53S1000
G1 X-1.8S0
G1 X-1.17S1000
G1 X-2.88S0
G1 X-2.52S1000
G1 X-1.08S0
G1 X-0.9S1000
G1 X-0.36S0
G1 X-2.07S1000
G1 X-1.08S0
G1 X-0.54S1000
G1 X-4.05S0
G1 X-0.36S1000
G1 X-0.54S0
G1 X-0.99S1000
G1 X-2.07S0
G1 X-0.81S1000
G1 X-0.36S0
G1 X-1.08S1000
G1 X-1.8S0
G1 X-0.18S1000
G1 X-2.34S0
G1 X-0.72S1000
G1 X-0.45S0
G1 X-0.54S1000
G1 X-1.62S0
G1 X-0.63S1000
G1 X-0.27S0
G1 X-0.72S1000
G1 X-0.63S0
G1 X-0.36S1000
G1 X-0.63S0
G1 X-4.77S1000
G1 X-0.45S0
G1 X-86.13S1000
G1 X-0.45S0
G1 X-21.87S1000
G1 X-0.63S0
G1 X-3.87S1000
G1 X-0.9S0
G1 X-4.77S1000
G1 X-0.54S0
G1 X-31.23S1000
G0 X-3.125
G0 Y0.09
G0 X3.125
G1 X31.14
G1 X0.45S0
G1 X4.86S1000
G1 X0.81S0
G1 X4.23S1000
G1 X0.45S0
G1 X21.87S1000
G1 X0.72S0
G1 X85.86S1000
G1 X0.45S0
G1 X4.86S1000
G1 X0.54S0
G1 X0.45S1000
G1 X0.54S0
G1 X0.72S1000
G1 X0.27S0
G1 X0.63S1000
G1 X1.62S0
G1 X0.45S1000
G1 X0.63S0
G1 X0.54S1000
G1 X4.41S0
G1 X1.08S1000
G1 X0.27S0
G1 X0.99S1000
G1 X1.17S0
G1 X0.27S1000
G1 X0.63S0
G1 X0.99S1000
G1 X3.06S0
G1 X0.45S1000
G1 X1.26S0
G1 X0.63S1000
G1 X1.08S0
G1 X2.07S1000
G1 X0.36S0
G1 X0.9S1000
G1 X1.08S0
G1 X0.9S1000
G1 X0.45S0
G1 X1.26S1000
G1 X2.88S0
G1 X1.08S1000
G1 X1.89S0
G1 X1.53S1000
G1 X6.39S0
G1 X0.54S1000
G1 X10.35S0
G1 X0.72S1000
G1 X0.63S0
G1 X0.36S1000
G1 X10.53S0
G1 X0.9S1000
G1 X1.35S0
G1 X0.72S1000
G1 X0.54S0
G1 X71.1S1000
G0 X3.125
G0 Y0.09
G0 X-3.125
G1 X-71.1
G1 X-0.54S0
G1 X-0.9S1000
G1 X-1.26S0
G1 X-0.63S1000
G1 X-6.66S0
G1 X-0.09S1000
G1 X-4.05S0
G1 X-0.09S1000
G1 X-0.81S0
G1 X-0.54S1000
G1 X-0.99S0
G1 X-0.45S1000
G1 X-0.63S0
G1 X-0.36S1000
G1 X-8.19S0
G1 X-0.54S1000
G1 X-6.21S0
G1 X-0.36S1000
G1 X-0.45S0
G1 X-0.72S1000
G1 X-1.98S0
G1 X-0.99S1000
G1 X-2.79S0
G1 X-1.26S1000
G1 X-0.72S0
G1 X-0.81S1000
G1 X-1.08S0
G1 X-0.81S1000
G1 X-0.54S0
G1 X-2.07S1000
G1 X-0.9S0
G1 X-0.81S1000
G1 X-1.08S0
G1 X-0.72S1000
G1 X-1.26S0
G1 X-0.36S1000
G1 X-1.17S0
G1 X-0.9S1000
G1 X-0.72S0
G1 X-0.54S1000
G1 X-0.36S0
G1 X-3.06S1000
G1 X-4.32S0
G1 X-0.45S1000
G1 X-0.9S0
G1 X-0.18S1000
G1 X-1.71S0
G1 X-0.81S1000
G1 X-0.09S0
G1 X-0.72S1000
G1 X-0.54S0
G1 X-0.45S1000
G1 X-0.45S0
G1 X-0.45S1000
G1 X-0.18S0
G1 X-0.54S1000
G1 X-0.27S0
G1 X-0.72S1000
G1 X-0.09S0
G1 X-2.7S1000
G1 X-0.45S0
G1 X-79.38S1000
G1 X-7.11S0
G1 X-22.05S1000
G1 X-0.18S0
G1 X-4.32S1000
G1 X-1.08S0
G1 X-4.95S1000
G1 X-0.18S0
G1 X-31.14S1000
G0 X-3.125
G0 Y0.09
G0 X3.125
G1 X36.18
G1 X1.26S0
G1 X26.46S1000
G1 X7.38S0
G1 X82.17S1000
G1 X0.36S0
G1 X0.54S1000
G1 X0.99S0
G1 X0.45S1000
G1 X0.36S0
G1 X0.63S1000
G1 X0.54S0
G1 X1.44S1000
G1 X0.45S0
G1 X0.09S1000
G1 X2.34S0
G1 X0.36S1000
G1 X0.72S0
G1 X0.18S1000
G1 X3.51S0
G1 X3.96S1000
G1 X0.81S0
G1 X0.99S1000
G1 X0.9S0
G1 X0.54S1000
G1 X1.08S0
G1 X0.72S1000
G1 X1.08S0
G1 X0.9S1000
G1 X0.9S0
G1 X2.07S1000
G1 X0.72S0
G1 X0.63S1000
G1 X1.08S0
G1 X0.81S1000
G1 X0.72S0
G1 X1.53S1000
G1 X1.89S0
G1 X0.09S1000
G1 X0.54S0
G1 X0.99S1000
G1 X1.98S0
G1 X0.63S1000
G1 X0.54S0
G1 X0.45S1000
G1 X6.12S0
G1 X0.45S1000
G1 X8.28S0
G1 X0.36S1000
G1 X0.54S0
G1 X0.72S1000
G1 X0.9S0
G1 X0.54S1000
G1 X2.25S0
G1 X0.09S1000
G1 X2.34S0
G1 X0.36S1000
G1 X6.75S0
G1 X0.36S1000
G1 X1.35S0
G1 X0.9S1000
G1 X0.54S0
G1 X71.1S1000
G0 X3.125
G0 Y0.09
G0 X-3.125
G1 X-71.1
G1 X-0.54S0
G1 X-0.9S1000
G1 X-8.46S0
G1 X-0.36S1000
G1 X-2.16S0
G1 X-0.45S1000
G1 X-2.07S0
G1 X-0.54S1000
G1 X-0.72S0
G1 X-0.9S1000
G1 X-0.54S0
G1 X-0.27S1000
G1 X-4.59S0
G1 X-0.09S1000
G1 X-10.26S0
G1 X-0.45S1000
G1 X-0.54S0
G1 X-0.63S1000
G1 X-1.98S0
G1 X-0.9S1000
G1 X-0.54S0
G1 X-0.27S1000
G1 X-1.71S0
G1 X-1.8S1000
G1 X-0.54S0
G1 X-0.81S1000
G1 X-1.08S0
G1 X-0.54S1000
G1 X-0.81S0
G1 X-2.16S1000
G1 X-0.72S0
G1 X-1.08S1000
G1 X-1.08S0
G1 X-0.63S1000
G1 X-0.99S0
G1 X-0.63S1000
G1 X-0.9S0
G1 X-0.72S1000
G1 X-1.26S0
G1 X-3.78S1000
G1 X-3.33S0
G1 X-0.45S1000
G1 X-0.63S0
G1 X-0.45S1000
G1 X-1.98S0
G1 X-0.45S1000
G1 X-0.36S0
G1 X-1.35S1000
G1 X-0.54S0
G1 X-0.72S1000
G1 X-0.36S0
G1 X-0.45S1000
G1 X-1.08S0
G1 X-0.36S1000
G1 X-0.54S0
G1 X-81.99S1000
G1 X-7.38S0
G1 X-26.46S1000
G1 X-1.53S0
G1 X-36S1000
G0 X-3.125
G0 Y0.09
G0 X3.125
G1 X35.82
G1 X1.8S0
G1 X26.46S1000
G1 X7.29S0
G1 X82.08S1000
G1 X0.54S0
G1 X0.36S1000
G1 X0.99S0
G1 X0.45S1000
G1 X0.27S0
G1 X0.81S1000
G1 X0.54S0
G1 X1.35S1000
G1 X0.27S0
G1 X0.63S1000
G1 X1.98S0
G1 X0.36S1000
G1 X0.54S0
G1 X0.54S1000
G1 X3.33S0
G1 X3.6S1000
G1 X1.53S0
G1 X0.72S1000
G1 X0.72S0
G1 X0.81S1000
G1 X0.81S0
G1 X0.63S1000
G1 X1.08S0
G1 X1.26S1000
G1 X0.63S0
G1 X2.16S1000
G1 X0.9S0
G1 X0.54S1000
G1 X0.9S0
G1 X1.08S1000
G1 X0.27S0
G1 X0.81S1000
G1 X0.45S0
G1 X0.72S1000
G1 X1.53S0
G1 X0.36S1000
G1 X0.54S0
G1 X0.9S1000
G1 X1.17S0
G1 X0.36S1000
G1 X0.36S0
G1 X0.72S1000
G1 X0.54S0
G1 X0.45S1000
G1 X10.17S0
G1 X0.36S1000
G1 X4.41S0
G1 X0.27S1000
G1 X0.54S0
G1 X0.99S1000
G1 X0.63S0
G1 X0.54S1000
G1 X2.07S0
G1 X0.54S1000
G1 X2.16S0
G1 X0.18S1000
G1 X7.65S0
G1 X0.27S1000
G1 X0.63S0
G1 X0.9S1000
G1 X0.63S0
G1 X71.01S1000
G0 X3.125
G0 Y0.09
G0 X-3.125
G1 X-71.01
G1 X-0.54S0
G1 X-0.99S1000
G1 X-0.63S0
G1 X-0.27S1000
G1 X-9.99S0
G1 X-0.54S1000
G1 X-1.98S0
G1 X-0.63S1000
G1 X-0.54S0
G1 X-1.08S1000
G1 X-5.13S0
G1 X-0.45S1000
G1 X-10.17S0
G1 X-0.54S1000
G1 X-0.45S0
G1 X-0.9S1000
G1 X-0.09S0
G1 X-0.36S1000
G1 X-1.26S0
G1 X-0.9S1000
G1 X-0.54S0
G1 X-0.27S1000
G1 X-1.62S0
G1 X-0.54S1000
G1 X-0.72S0
G1 X-2.16S1000
G1 X-0.72S0
G1 X-0.72S1000
G1 X-0.72S0
G1 X-2.25S1000
G1 X-0.63S0
G1 X-1.35S1000
G1 X-1.17S0
G1 X-0.63S1000
G1 X-0.45S0
G1 X-0.99S1000
G1 X-0.72S0
G1 X-0.72S1000
G1 X-1.53S0
G1 X-3.6S1000
G1 X-3.33S0
G1 X-0.54S1000
G1 X-0.54S0
G1 X-0.36S1000
G1 X-1.89S0
G1 X-0.72S1000
G1 X-0.27S0
G1 X-1.26S1000
G1 X-0.54S0
G1 X-0.81S1000
G1 X-0.45S0
G1 X-0.45S1000
G1 X-0.9S0
G1 X-0.27S1000
G1 X-0.54S0
G1 X-81.99S1000
G1 X-7.56S0
G1 X-26.37S1000
G1 X-1.89S0
G1 X-35.73S1000
G0 X-3.125
G0 Y0.09
G0 X3.125
G1 X35.55
G1 X2.16S0
G1 X13.32S1000
G1 X3.78S0
G1 X9S1000
G1 X7.74S0
G1 X79.65S1000
G1 X0.18S0
G1 X2.25S1000
G1 X0.54S0
G1 X0.36S1000
G1 X0.45S0
G1 X0.72S1000
G1 X0.45S0
G1 X0.81S1000
G1 X0.54S0
G1 X1.26S1000
G1 X0.27S0
G1 X1.35S1000
G1 X1.17S0
G1 X0.45S1000
G1 X0.45S0
G1 X0.54S1000
G1 X2.34S0
G1 X0.09S1000
G1 X0.9S0
G1 X2.88S1000
G1 X0.18S0
G1 X0.63S1000
G1 X1.62S0
G1 X0.63S1000
G1 X0.54S0
G1 X1.98S1000
G1 X1.35S0
G1 X1.53S1000
G1 X0.63S0
G1 X2.34S1000
G1 X0.54S0
G1 X3.6S1000
G1 X0.81S0
G1 X0.45S1000
G1 X2.43S0
G1 X0.9S1000
G1 X0.54S0
G1 X0.09S1000
G1 X0.72S0
G1 X1.26S1000
G1 X0.45S0
G1 X0.54S1000
G1 X10.17S0
G1 X0.54S1000
G1 X4.95S0
G1 X0.63S1000
G1 X0.27S0
G1 X1.53S1000
G1 X1.98S0
G1 X0.45S1000
G1 X7.2S0
G1 X1.17S1000
G1 X1.62S0
G1 X0.36S1000
G1 X0.54S0
G1 X1.08S1000
G1 X0.54S0
G1 X70.92S1000
G0 X3.125
G0 Y0.09
G0 X-3.125
G1 X-70.74
G1 X-0.72S0
G1 X-0.99S1000
G1 X-0.72S0
G1 X-0.36S1000
G1 X-1.35S0
G1 X-1.53S1000
G1 X-7.11S0
G1 X-0.27S1000
G1 X-1.98S0
G1 X-0.45S1000
G1 X-0.18S0
G1 X-0.9S1000
G1 X-0.45S0
G1 X-0.63S1000
G1 X-2.07S0
G1 X-0.36S1000
G1 X-2.43S0
G1 X-0.54S1000
G1 X-10.17S0
G1 X-0.63S1000
G1 X-0.36S0
G1 X-1.08S1000
G1 X-0.72S0
G1 X-0.36S1000
G1 X-0.45S0
G1 X-0.9S1000
G1 X-2.43S0
G1 X-0.27S1000
G1 X-0.99S0
G1 X-3.78S1000
G1 X-0.27S0
G1 X-2.34S1000
G1 X-0.63S0
G1 X-1.8S1000
G1 X-1.26S0
G1 X-1.98S1000
G1 X-0.45S0
G1 X-0.63S1000
G1 X-1.53S0
G1 X-0.72S1000
G1 X-0.36S0
G1 X-2.61S1000
G1 X-0.9S0
G1 X-0.36S1000
G1 X-2.16S0
G1 X-0.54S1000
G1 X-0.54S0
G1 X-0.27S1000
G1 X-1.08S0
G1 X-1.53S1000
G1 X-0.27S0
G1 X-1.26S1000
G1 X-0.54S0
G1 X-0.72S1000
G1 X-0.54S0
G1 X-1.44S1000
G1 X-0.54S0
G1 X-2.25S1000
G1 X-0.36S0
G1 X-79.47S1000
G1 X-7.92S0
G1 X-8.55S1000
G1 X-4.5S0
G1 X-12.87S1000
G1 X-2.34S0
G1 X-35.46S1000
G0 X-3.125
G0 Y0.09
G0 X3.125
G1 X33.21
G1 X4.77S0
G1 X12.51S1000
G1 X4.86S0
G1 X8.28S1000
G1 X8.01S0
G1 X79.47S1000
G1 X0.36S0
G1 X2.34S1000
G1 X0.45S0
G1 X1.44S1000
G1 X0.54S0
G1 X0.72S1000
G1 X0.54S0
G1 X1.26S1000
G1 X0.36S0
G1 X1.71S1000
G1 X1.53S0
G1 X0.54S1000
G1 X0.72S0
G1 X0.18S1000
G1 X1.35S0
G1 X0.45S1000
G1 X0.81S0
G1 X2.52S1000
G1 X0.45S0
G1 X0.9S1000
G1 X1.35S0
G1 X0.72S1000
G1 X0.27S0
G1 X2.07S1000
G1 X1.17S0
G1 X2.07S1000
G1 X0.54S0
G1 X0.54S1000
G1 X0.27S0
G1 X5.49S1000
G1 X3.69S0
G1 X0.9S1000
G1 X0.45S0
G1 X0.27S1000
G1 X0.9S0
G1 X0.9S1000
G1 X0.54S0
G1 X0.63S1000
G1 X10.17S0
G1 X0.45S1000
G1 X2.34S0
G1 X0.45S1000
G1 X1.08S0
G1 X1.53S1000
G1 X0.54S0
G1 X0.72S1000
G1 X0.45S0
G1 X0.45S1000
G1 X1.98S0
G1 X0.09S1000
G1 X7.11S0
G1 X1.71S1000
G1 X1.35S0
G1 X0.27S1000
G1 X0.72S0
G1 X0.99S1000
G1 X0.81S0
G1 X70.65S1000
G0 X3.125
G0 Y0.09
G0 X-3.125
G1 X-69.66
G1 X-0.09S0
G1 X-0.9S1000
G1 X-0.9S0
G1 X-0.9S1000
G1 X-0.72S0
G1 X-0.27S1000
G1 X-1.26S0
G1 X-0.45S1000
G1 X-0.09S0
G1 X-0.09S1000
G1 X-0.09S0
G1 X-0.09S1000
G1 X-0.09S0
G1 X-0.09S1000
G1 X-0.09S0
G1 X-0.09S1000
G1 X-0.09S0
G1 X-0.09S1000
G1 X-0.09S0
G1 X-0.45S1000
G1 X-8.1S0
G1 X-0.36S1000
G1 X-0.63S0
G1 X-0.36S1000
G1 X-0.63S0
G1 X-0.63S1000
G1 X-0.54S0
G1 X-1.71S1000
G1 X-0.9S0
G1 X-0.45S1000
G1 X-2.61S0
G1 X-0.09S1000
G1 X-5.58S0
G1 X-0.09S1000
G1 X-3.06S0
G1 X-0.09S1000
G1 X-1.44S0
G1 X-0.36S1000
G1 X-0.09S0
G1 X-0.09S1000
G1 X-0.81S0
G1 X-0.09S1000
G1 X-0.09S0
G1 X-0.09S1000
G1 X-0.09S0
G1 X-0.09S1000
G1 X-0.09S0
G1 X-0.09S1000
G1 X-1.8S0
G1 X-0.18S1000
G1 X-0.09S0
G1 X-0.45S1000
G1 X-3.42S0
G1 X-0.09S1000
G1 X-0.09S0
G1 X-1.53S1000
G1 X-0.09S0
G1 X-4.05S1000
G1 X-0.36S0
G1 X-0.45S1000
G1 X-0.54S0
G1 X-2.16S1000
G1 X-1.08S0
G1 X-1.98S1000
G1 X-0.45S0
G1 X-0.63S1000
G1 X-1.17S0
G1 X-1.08S1000
G1 X-0.45S0
G1 X-2.52S1000
G1 X-0.63S0
G1 X-0.63S1000
G1 X-1.17S0
G1 X-0.54S1000
G1 X-0.54S0
G1 X-0.63S1000
G1 X-1.26S0
G1 X-1.89S1000
G1 X-0.36S0
G1 X-1.17S1000
G1 X-0.63S0
G1 X-0.63S1000
G1 X-0.54S0
G1 X-1.53S1000
G1 X-0.36S0
G1 X-2.52S1000
G1 X-0.27S0
G1 X-79.38S1000
G1 X-8.28S0
G1 X-8.01S1000
G1 X-5.04S0
G1 X-8.82S1000
G1 X-8.91S0
G1 X-32.67S1000
G0 X-3.125
G0 Y0.09
G0 X3.125
G1 X32.49
G1 X9.09S0
G1 X8.73S1000
G1 X5.22S0
G1 X7.83S1000
G1 X8.46S0
G1 X78.39S1000
G1 X0.09S0
G1 X0.81S1000
G1 X0.18S0
G1 X1.08S1000
G1 X0.27S0
G1 X1.35S1000
G1 X0.36S0
G1 X1.44S1000
G1 X0.54S0
G1 X0.63S1000
G1 X0.72S0
G1 X1.08S1000
G1 X0.45S0
G1 X1.89S1000
G1 X1.08S0
G1 X0.72S1000
G1 X0.54S0
G1 X0.54S1000
G1 X1.17S0
G1 X0.72S1000
G1 X0.54S0
G1 X2.52S1000
G1 X0.27S0
G1 X1.26S1000
G1 X1.26S0
G1 X0.54S1000
G1 X0.45S0
G1 X1.17S1000
G1 X0.27S0
G1 X0.54S1000
G1 X0.99S0
G1 X2.43S1000
G1 X0.36S0
G1 X0.45S1000
G1 X0.36S0
G1 X1.08S1000
G1 X0.36S0
G1 X2.43S1000
G1 X0.54S0
G1 X1.53S1000
G1 X3.33S0
G1 X0.09S1000
G1 X4.14S0
G1 X0.36S1000
G1 X1.17S0
G1 X0.36S1000
G1 X2.88S0
G1 X0.27S1000
G1 X8.19S0
G1 X0.45S1000
G1 X0.9S0
G1 X1.71S1000
G1 X0.54S0
G1 X0.45S1000
G1 X0.81S0
G1 X0.36S1000
G1 X0.63S0
G1 X0.54S1000
G1 X7.92S0
G1 X0.36S1000
G1 X1.17S0
G1 X0.45S1000
G1 X2.25S0
G1 X0.72S1000
G1 X1.08S0
G1 X0.54S1000
G1 X0.54S0
G1 X69.48S1000
G0 X3.125
G0 Y0.09
G0 X-3.125
G1 X-69.48
G1 X-0.72S0
G1 X-0.45S1000
G1 X-1.08S0
G1 X-0.63S1000
G1 X-2.25S0
G1 X-0.36S1000
G1 X-1.35S0
G1 X-0.36S1000
G1 X-7.74S0
G1 X-0.63S1000
G1 X-0.63S0
G1 X-0.36S1000
G1 X-0.81S0
G1 X-0.54S1000
G1 X-0.45S0
G1 X-1.71S1000
G1 X-0.99S0
G1 X-0.36S1000
G1 X-8.28S0
G1 X-0.09S1000
G1 X-2.97S0
G1 X-0.45S1000
G1 X-1.08S0
G1 X-0.36S1000
G1 X-7.38S0
G1 X-1.35S1000
G1 X-1.17S0
G1 X-2.16S1000
G1 X-0.36S0
G1 X-1.89S1000
G1 X-0.36S0
G1 X-2.52S1000
G1 X-0.81S0
G1 X-0.54S1000
G1 X-0.36S0
G1 X-1.17S1000
G1 X-0.36S0
G1 X-0.63S1000
G1 X-1.26S0
G1 X-4.05S1000
G1 X-0.45S0
G1 X-0.99S1000
G1 X-0.99S0
G1 X-0.45S1000
G1 X-0.63S0
G1 X-1.17S1000
G1 X-0.36S0
G1 X-1.44S1000
G1 X-0.18S0
G1 X-0.54S1000
G1 X-0.45S0
G1 X-0.99S1000
G1 X-0.81S0
G1 X-0.72S1000
G1 X-0.36S0
G1 X-1.53S1000
G1 X-0.36S0
G1 X-1.35S1000
G1 X-0.36S0
G1 X-1.89S1000
G1 X-0.36S0
G1 X-78.21S1000
G1 X-8.55S0
G1 X-7.65S1000
G1 X-5.4S0
G1 X-8.55S1000
G1 X-5.58S0
G1 X-0.09S1000
G1 X-3.69S0
G1 X-32.31S1000
G0 X-3.125
G0 Y0.09
G0 X3.125
G1 X32.22
G1 X3.69S0
G1 X0.09S1000
G1 X5.67S0
G1 X8.46S1000
G1 X5.49S0
G1 X7.47S1000
G1 X8.82S0
G1 X76.05S1000
G1 X0.27S0
G1 X1.71S1000
G1 X0.54S0
G1 X1.8S1000
G1 X0.36S0
G1 X0.72S1000
G1 X0.18S0
G1 X0.54S1000
G1 X0.36S0
G1 X1.53S1000
G1 X0.27S0
G1 X0.72S1000
G1 X0.99S0
G1 X0.81S1000
G1 X0.54S0
G1 X0.36S1000
G1 X0.36S0
G1 X2.88S1000
G1 X0.72S0
G1 X0.18S1000
G1 X0.9S0
G1 X1.26S1000
G1 X0.45S0
G1 X4.05S1000
G1 X1.35S0
G1 X0.63S1000
G1 X0.18S0
G1 X1.26S1000
G1 X0.36S0
G1 X0.54S1000
G1 X0.72S0
G1 X2.61S1000
G1 X0.36S0
G1 X1.98S1000
G1 X0.36S0
G1 X1.62S1000
G1 X2.07S0
G1 X1.17S1000
G1 X7.11S0
G1 X0.45S1000
G1 X1.08S0
G1 X0.36S1000
G1 X0.45S0
G1 X0.18S1000
G1 X10.62S0
G1 X0.36S1000
G1 X1.17S0
G1 X1.62S1000
G1 X0.45S0
G1 X0.45S1000
G1 X0.81S0
G1 X0.54S1000
G1 X0.63S0
G1 X0.63S1000
G1 X7.65S0
G1 X0.36S1000
G1 X1.35S0
G1 X0.45S1000
G1 X2.16S0
G1 X0.54S1000
G1 X1.08S0
G1 X0.45S1000
G1 X0.81S0
G1 X69.48S1000
G0 X3.125
G0 Y0.09
G0 X-3.125
G1 X-68.49
G1 X-0.18S0
G1 X-0.9S1000
G1 X-0.81S0
G1 X-0.54S1000
G1 X-0.99S0
G1 X-0.36S1000
G1 X-2.25S0
G1 X-0.45S1000
G1 X-1.44S0
G1 X-0.18S1000
G1 X-7.74S0
G1 X-0.45S1000
G1 X-0.81S0
G1 X-0.54S1000
G1 X-0.9S0
G1 X-0.36S1000
G1 X-0.54S0
G1 X-0.36S1000
G1 X-2.43S0
G1 X-0.18S1000
G1 X-10.62S0
G1 X-0.36S1000
G1 X-0.36S0
G1 X-0.36S1000
G1 X-1.17S0
G1 X-0.27S1000
G1 X-7.11S0
G1 X-1.17S1000
G1 X-2.34S0
G1 X-1.44S1000
G1 X-0.27S0
G1 X-2.07S1000
G1 X-0.36S0
G1 X-2.7S1000
G1 X-0.54S0
G1 X-0.63S1000
G1 X-0.18S0
G1 X-2.16S1000
G1 X-1.44S0
G1 X-4.05S1000
G1 X-0.45S0
G1 X-1.35S1000
G1 X-1.8S0
G1 X-2.61S1000
G1 X-0.54S0
G1 X-0.36S1000
G1 X-0.54S0
G1 X-0.81S1000
G1 X-0.9S0
G1 X-0.81S1000
G1 X-0.18S0
G1 X-0.63S1000
G1 X-0.27S0
G1 X-0.63S1000
G1 X-0.45S0
G1 X-0.45S1000
G1 X-0.45S0
G1 X-0.63S1000
G1 X-0.18S0
G1 X-1.98S1000
G1 X-0.45S0
G1 X-1.71S1000
G1 X-0.27S0
G1 X-76.05S1000
G1 X-8.91S0
G1 X-7.29S1000
G1 X-5.58S0
G1 X-8.46S1000
G1 X-5.76S0
G1 X-0.09S1000
G1 X-3.69S0
G1 X-32.13S1000
G0 X-3.125
G0 Y0.09
G0 X3.125
G1 X32.13
G1 X3.51S0
G1 X0.27S1000
G1 X5.85S0
G1 X8.28S1000
G1 X5.67S0
G1 X7.2S1000
G1 X9.09S0
G1 X75.96S1000
G1 X0.18S0
G1 X1.62S1000
G1 X0.63S0
G1 X2.79S1000
G1 X0.54S0
G1 X0.45S1000
G1 X0.54S0
G1 X0.27S1000
G1 X0.63S0
G1 X1.44S1000
G1 X0.9S0
G1 X0.9S1000
G1 X0.45S0
G1 X0.45S1000
G1 X0.54S0
G1 X1.98S1000
G1 X2.16S0
G1 X1.53S1000
G1 X0.36S0
G1 X3.15S1000
G1 X0.54S0
G1 X0.36S1000
G1 X1.71S0
G1 X1.08S1000
G1 X0.36S0
G1 X1.26S1000
G1 X0.54S0
G1 X2.79S1000
G1 X0.36S0
G1 X2.07S1000
G1 X0.27S0
G1 X1.35S1000
G1 X2.52S0
G1 X1.08S1000
G1 X9.36S0
G1 X0.18S1000
G1 X14.22S0
G1 X0.36S1000
G1 X0.9S0
G1 X0.54S1000
G1 X0.9S0
G1 X0.36S1000
G1 X9.36S0
G1 X0.45S1000
G1 X2.34S0
G1 X0.18S1000
G1 X0.99S0
G1 X0.63S1000
G1 X0.81S0
G1 X0.81S1000
G1 X0.36S0
G1 X68.4S1000
G0 X3.125
G0 Y0.09
G0 X-3.125
G1 X-68.4
G1 X-0.45S0
G1 X-0.72S1000
G1 X-0.9S0
G1 X-0.54S1000
G1 X-3.42S0
G1 X-0.45S1000
G1 X-9.45S0
G1 X-0.36S1000
G1 X-1.17S0
G1 X-0.54S1000
G1 X-19.62S0
G1 X-0.18S1000
G1 X-1.89S0
G1 X-0.18S1000
G1 X-2.79S0
G1 X-1.08S1000
G1 X-2.7S0
G1 X-0.99S1000
G1 X-0.36S0
G1 X-2.25S1000
G1 X-0.36S0
G1 X-2.88S1000
G1 X-0.45S0
G1 X-1.26S1000
G1 X-0.36S0
G1 X-0.99S1000
G1 X-2.97S0
G1 X-1.17S1000
G1 X-0.09S0
G1 X-1.53S1000
G1 X-0.45S0
G1 X-1.8S1000
G1 X-1.89S0
G1 X-1.89S1000
G1 X-0.54S0
G1 X-0.54S1000
G1 X-0.36S0
G1 X-1.08S1000
G1 X-0.72S0
G1 X-1.26S1000
G1 X-1.71S0
G1 X-0.45S1000
G1 X-0.54S0
G1 X-1.8S1000
G1 X-0.18S0
G1 X-0.9S1000
G1 X-0.54S0
G1 X-77.76S1000
G1 X-9.18S0
G1 X-7.02S1000
G1 X-5.76S0
G1 X-8.28S1000
G1 X-5.85S0
G1 X-0.36S1000
G1 X-3.51S0
G1 X-32.04S1000
G0 X-3.125
G0 Y0.09
G0 X3.125
G1 X31.95
G1 X3.51S0
G1 X0.54S1000
G1 X5.85S0
G1 X8.1S1000
G1 X5.94S0
G1 X6.84S1000
G1 X9.36S0
G1 X77.58S1000
G1 X0.45S0
G1 X0.99S1000
G1 X0.45S0
G1 X1.53S1000
G1 X0.63S0
G1 X0.54S1000
G1 X1.71S0
G1 X1.26S1000
G1 X0.54S0
G1 X1.35S1000
G1 X0.09S0
G1 X0.72S1000
G1 X0.45S0
G1 X1.8S1000
G1 X1.89S0
G1 X1.8S1000
G1 X0.54S0
G1 X2.7S1000
G1 X2.16S0
G1 X0.27S1000
G1 X0.72S0
G1 X0.81S1000
G1 X0.63S0
G1 X0.99S1000
G1 X0.45S0
G1 X2.97S1000
G1 X0.45S0
G1 X1.44S1000
G1 X0.09S0
G1 X0.72S1000
G1 X0.45S0
G1 X0.72S1000
G1 X1.44S0
G1 X0.18S1000
G1 X1.26S0
G1 X0.99S1000
G1 X2.61S0
G1 X0.63S1000
G1 X1.53S0
G1 X0.36S1000
G1 X10.17S0
G1 X0.18S1000
G1 X8.91S0
G1 X0.63S1000
G1 X1.44S0
G1 X0.27S1000
G1 X1.26S0
G1 X0.09S1000
G1 X8.1S0
G1 X0.54S1000
G1 X3.33S0
G1 X0.54S1000
G1 X0.81S0
G1 X0.81S1000
G1 X0.36S0
G1 X68.49S1000
G0 X3.125
G0 Y0.09
G0 X-3.125
G1 X-68.58
G1 X-0.27S0
G1 X-0.9S1000
G1 X-0.81S0
G1 X-0.45S1000
G1 X-3.33S0
G1 X-0.54S1000
G1 X-7.92S0
G1 X-0.45S1000
G1 X-2.88S0
G1 X-0.63S1000
G1 X-8.73S0
G1 X-0.27S1000
G1 X-10.17S0
G1 X-0.36S1000
G1 X-1.44S0
G1 X-0.99S1000
G1 X-2.25S0
G1 X-0.99S1000
G1 X-1.26S0
G1 X-0.45S1000
G1 X-1.26S0
G1 X-0.72S1000
G1 X-0.45S0
G1 X-0.54S1000
G1 X-0.36S0
G1 X-1.26S1000
G1 X-0.54S0
G1 X-3.06S1000
G1 X-0.45S0
G1 X-0.9S1000
G1 X-0.63S0
G1 X-0.81S1000
G1 X-0.72S0
G1 X-0.54S1000
G1 X-2.07S0
G1 X-2.52S1000
G1 X-0.63S0
G1 X-1.71S1000
G1 X-1.98S0
G1 X-1.62S1000
G1 X-0.54S0
G1 X-1.26S1000
G1 X-0.27S0
G1 X-2.34S1000
G1 X-1.8S0
G1 X-0.54S1000
G1 X-0.72S0
G1 X-1.44S1000
G1 X-0.45S0
G1 X-1.17S1000
G1 X-0.27S0
G1 X-77.49S1000
G1 X-9.54S0
G1 X-6.75S1000
G1 X-5.94S0
G1 X-8.1S1000
G1 X-5.76S0
G1 X-0.72S1000
G1 X-3.42S0
G1 X-31.95S1000
G0 X-3.125
G0 Y0.09
G0 X3.125
G1 X31.86
G1 X3.42S0
G1 X0.81S1000
G1 X5.85S0
G1 X7.92S1000
G1 X6.12S0
G1 X6.57S1000
G1 X9.63S0
G1 X78.93S1000
G1 X0.45S0
G1 X1.44S1000
G1 X0.72S0
G1 X0.54S1000
G1 X1.8S0
G1 X2.25S1000
G1 X0.36S0
G1 X1.26S1000
G1 X0.54S0
G1 X1.44S1000
G1 X2.07S0
G1 X1.53S1000
G1 X0.9S0
G1 X2.34S1000
G1 X2.16S0
G1 X0.63S1000
G1 X0.99S0
G1 X0.36S1000
G1 X0.99S0
G1 X0.63S1000
G1 X0.45S0
G1 X3.24S1000
G1 X0.54S0
G1 X1.17S1000
G1 X0.45S0
G1 X0.45S1000
G1 X0.54S0
G1 X0.63S1000
G1 X1.26S0
G1 X0.45S1000
G1 X1.53S0
G1 X0.72S1000
G1 X2.07S0
G1 X1.26S1000
G1 X1.53S0
G1 X0.09S1000
G1 X10.17S0
G1 X0.36S1000
G1 X5.67S0
G1 X0.09S1000
G1 X2.88S0
G1 X0.63S1000
G1 X2.88S0
G1 X0.54S1000
G1 X7.92S0
G1 X0.54S1000
G1 X3.42S0
G1 X0.18S1000
G1 X0.9S0
G1 X69.84S1000
G0 X3.125
G0 Y0.09
G0 X-3.125
G1 X-69.12
G1 X-0.36S0
G1 X-0.45S1000
G1 X-4.41S0
G1 X-0.54S1000
G1 X-8.01S0
G1 X-0.54S1000
G1 X-2.79S0
G1 X-0.72S1000
G1 X-1.89S0
G1 X-0.18S1000
G1 X-0.54S0
G1 X-0.36S1000
G1 X-5.67S0
G1 X-0.18S1000
G1 X-6.3S0
G1 X-0.27S1000
G1 X-2.07S0
G1 X-0.18S1000
G1 X-3.06S0
G1 X-0.72S1000
G1 X-0.09S0
G1 X-0.45S1000
G1 X-1.98S0
G1 X-0.81S1000
G1 X-1.53S0
G1 X-0.54S1000
G1 X-1.26S0
G1 X-0.63S1000
G1 X-0.36S0
G1 X-0.45S1000
G1 X-0.54S0
G1 X-0.99S1000
G1 X-0.72S0
G1 X-2.43S1000
G1 X-0.18S0
G1 X-0.63S1000
G1 X-0.54S0
G1 X-0.45S1000
G1 X-2.52S0
G1 X-0.63S1000
G1 X-2.25S0
G1 X-2.16S1000
G1 X-1.08S0
G1 X-1.26S1000
G1 X-2.34S0
G1 X-1.26S1000
G1 X-0.54S0
G1 X-0.45S1000
G1 X-0.09S0
G1 X-0.72S1000
G1 X-0.45S0
G1 X-2.16S1000
G1 X-0.63S0
G1 X-0.27S1000
G1 X-0.9S0
G1 X-0.63S1000
G1 X-0.72S0
G1 X-1.35S1000
G1 X-0.45S0
G1 X-78.93S1000
G1 X-6.39S0
G1 X-0.09S1000
G1 X-3.24S0
G1 X-6.39S1000
G1 X-5.76S0
G1 X-0.09S1000
G1 X-0.36S0
G1 X-7.83S1000
G1 X-5.85S0
G1 X-0.99S1000
G1 X-3.42S0
G1 X-31.77S1000
G0 X-3.125
G0 Y0.09
G0 X3.125
G1 X31.77
G1 X3.33S0
G1 X1.08S1000
G1 X5.85S0
G1 X7.74S1000
G1 X0.45S0
G1 X0.09S1000
G1 X5.76S0
G1 X6.3S1000
G1 X3.06S0
G1 X0.18S1000
G1 X6.66S0
G1 X76.32S1000
G1 X0.36S0
G1 X2.25S1000
G1 X0.27S0
G1 X1.35S1000
G1 X0.72S0
G1 X0.72S1000
G1 X0.81S0
G1 X0.36S1000
G1 X0.72S0
G1 X1.89S1000
G1 X0.63S0
G1 X0.63S1000
G1 X0.36S0
G1 X0.36S1000
G1 X0.63S0
G1 X1.44S1000
G1 X1.98S0
G1 X1.17S1000
G1 X1.17S0
G1 X1.98S1000
G1 X0.9S0
