; LightBurn Pro 2.0.05
; GRBL device profile, absolute coords
; Bounds: X-2.77 Y0.8 to X300.07 Y210.4
G00 G17 G40 G21 G54
G90
M4
; Image @ 7000.02 мм/мин, 50% power
M8
G0 X2.284Y50.799
; Layer C00
G91
G0 X2.917
G1 X296.95F7000.02S500
G0 X2.916
G0 Y0.05
G0 X-2.916
G1 X-297
G0 X-2.917
G0 Y0.05
G0 X2.917
G1 X297
G0 X2.916
G0 Y0.05
G0 X-2.916
G1 X-297
G0 X-2.917
G0 Y0.05
G0 X2.917
G1 X297
G0 X2.916
G0 Y0.05
G0 X-2.916
G1 X-297
G0 X-2.917
G0 Y0.05
G0 X2.917
G1 X297
G0 X2.916
G0 Y0.05
G0 X-2.916
G1 X-297
G0 X-2.917
G0 Y0.05
G0 X2.917
G1 X297
G0 X2.916
G0 Y0.05
G0 X-2.916
G1 X-297
G0 X-2.917
G0 Y0.05
G0 X2.917
G1 X297
G0 X2.916
G0 Y0.05
G0 X-2.916
G1 X-297
G0 X-2.917
G0 Y0.05
G0 X2.917
G1 X297
G0 X2.916
G0 Y0.05
G0 X-2.916
G1 X-297
G0 X-2.917
G0 Y0.05
G0 X2.917
G1 X297
G0 X2.916
G0 Y0.05
G0 X-2.916
G1 X-297
G0 X-2.917
G0 Y0.05
G0 X2.917
G1 X297
G0 X2.916
G0 Y0.05
G0 X-2.916
G1 X-297
G0 X-2.917
G0 Y0.05
G0 X2.917
G1 X297
G0 X2.916
G0 Y0.05
G0 X-2.916
G1 X-297
G0 X-2.917
G0 Y0.05
G0 X2.917
G1 X297
G0 X2.916
G0 Y0.05
G0 X-2.916
G1 X-297
G0 X-2.917
G0 Y0.05
G0 X2.917
G1 X297
G0 X2.916
G0 Y0.05
G0 X-2.916
G1 X-297
G0 X-2.917
G0 Y0.05
G0 X2.917
G1 X297
G0 X2.916
G0 Y0.05
G0 X-2.916
G1 X-297
G0 X-2.917
G0 Y0.05
G0 X2.917
G1 X297
G0 X2.916
G0 Y0.05
G0 X-2.916
G1 X-297
G0 X-2.917
G0 Y0.05
G0 X2.917
G1 X297
G0 X2.916
G0 Y0.05
G0 X-2.916
G1 X-297
G0 X-2.917
G0 Y0.05
G0 X2.917
G1 X297
G0 X2.916
G0 Y0.05
G0 X-2.916
G1 X-297
G0 X-2.917
G0 Y0.05
G0 X2.917
G1 X297
G0 X2.916
G0 Y0.05
G0 X-2.916
G1 X-297
G0 X-2.917
G0 Y0.05
G0 X2.917
G1 X297
G0 X2.916
G0 Y0.05
G0 X-2.916
G1 X-297
G0 X-2.917
G0 Y0.05
G0 X2.917
G1 X297
G0 X2.916
G0 Y0.05
G0 X-2.916
G1 X-297
G0 X-2.917
G0 Y0.05
G0 X2.917
G1 X297
G0 X2.916
G0 Y0.05
G0 X-2.916
G1 X-297
G0 X-2.917
G0 Y0.05
G0 X2.917
G1 X297
G0 X2.916
G0 Y0.05
G0 X-2.916
G1 X-297
G0 X-2.917
G0 Y0.05
G0 X2.917
G1 X297
G0 X2.916
G0 Y0.05
G0 X-2.916
G1 X-297
G0 X-2.917
G0 Y0.05
G0 X2.917
G1 X297
G0 X2.916
G0 Y0.05
G0 X-2.916
G1 X-297
G0 X-2.917
G0 Y0.05
G0 X2.917
G1 X297
G0 X2.916
G0 Y0.05
G0 X-2.916
G1 X-297
G0 X-2.917
G0 Y0.05
G0 X2.917
G1 X297
G0 X2.916
G0 Y0.05
G0 X-2.916
G1 X-297
G0 X-2.917
G0 Y0.05
G0 X2.917
G1 X297
G0 X2.916
G0 Y0.05
G0 X-2.916
G1 X-297
G0 X-2.917
G0 Y0.05
G0 X2.917
G1 X297
G0 X2.916
G0 Y0.05
G0 X-2.916
G1 X-297
G0 X-2.917
G0 Y0.05
G0 X2.917
G1 X297
G0 X2.916
G0 Y0.05
G0 X-2.916
G1 X-297
G0 X-2.917
G0 Y0.05
G0 X2.917
G1 X48.8
G1 X0.45S0
G1 X247.75S500
G0 X2.916
G0 Y0.05
G0 X-2.916
G1 X-247.5
G1 X-0.85S0
G1 X-48.65S500
G0 X-2.917
G0 Y0.05
G0 X2.917
G1 X48.5
G1 X1.15S0
G1 X247.35S500
G0 X2.916
G0 Y0.05
G0 X-2.916
G1 X-247.25
G1 X-1.35S0
G1 X-48.4S500
G0 X-2.917
G0 Y0.05
G0 X2.917
G1 X48.35
G1 X1.5S0
G1 X247.15S500
G0 X2.916
G0 Y0.05
G0 X-2.916
G1 X-247.1
G1 X-1.65S0
G1 X-48.25S500
G0 X-2.917
G0 Y0.05
G0 X2.917
G1 X48.2
G1 X1.75S0
G1 X247.05S500
G0 X2.917
G0 Y0.05
G0 X-2.917
G1 X-247
G1 X-1.85S0
G1 X-48.15S500
G0 X-2.917
G0 Y0.05
G0 X2.917
G1 X48.1
G1 X1.95S0
G1 X246.95S500
G0 X2.917
G0 Y0.05
G0 X-2.917
G1 X-246.9
G1 X-2.05S0
G1 X-48.05S500
G0 X-2.917
G0 Y0.05
G0 X2.917
G1 X48
G1 X2.15S0
G1 X246.85S500
G0 X2.916
G0 Y0.05
G0 X-2.916
G1 X-246.85
G1 X-2.15S0
G1 X-48S500
G0 X-2.917
G0 Y0.05
G0 X2.917
G1 X47.95
G1 X2.25S0
G1 X246.8S500
G0 X2.916
G0 Y0.05
G0 X-2.916
G1 X-246.75
G1 X-2.3S0
G1 X-47.95S500
G0 X-2.917
G0 Y0.05
G0 X2.917
G1 X47.9
G1 X2.35S0
G1 X246.75S500
G0 X2.916
G0 Y0.05
G0 X-2.916
G1 X-246.7
G1 X-2.45S0
G1 X-47.85S500
G0 X-2.917
G0 Y0.05
G0 X2.917
G1 X47.9
G1 X2.4S0
G1 X246.7S500
G0 X2.916
G0 Y0.05
G0 X-2.916
G1 X-246.7
G1 X-2.45S0
G1 X-47.85S500
G0 X-2.917
G0 Y0.05
G0 X2.917
G1 X47.85
G1 X2.5S0
G1 X246.65S500
G0 X2.916
G0 Y0.05
G0 X-2.916
G1 X-246.7
G1 X-2.45S0
G1 X-47.85S500
G0 X-2.917
G0 Y0.05
G0 X2.917
G1 X47.8
G1 X2.55S0
G1 X246.65S500
G0 X2.916
G0 Y0.05
G0 X-2.916
G1 X-52.6
G1 X-0.05S0
G1 X-194.05S500
G1 X-2.45S0
G1 X-47.85S500
G0 X-2.917
G0 Y0.05
G0 X2.917
G1 X47.85
G1 X2.5S0
G1 X193.6S500
G1 X0.8S0
G1 X52.25S500
G0 X2.916
G0 Y0.05
G0 X-2.916
G1 X-52.1
G1 X-1.1S0
G1 X-193.5S500
G1 X-2.5S0
G1 X-47.8S500
G0 X-2.917
G0 Y0.05
G0 X2.917
G1 X47.85
G1 X2.5S0
G1 X193.35S500
G1 X1.25S0
G1 X52.05S500
G0 X2.916
G0 Y0.05
G0 X-2.916
G1 X-51.95
G1 X-1.45S0
G1 X-193.3S500
G1 X-2.45S0
G1 X-47.85S500
G0 X-2.917
G0 Y0.05
G0 X2.917
G1 X47.8
G1 X2.55S0
G1 X31.65S500
G1 X0.25S0
G1 X161.3S500
G1 X1.55S0
G1 X51.9S500
G0 X2.916
G0 Y0.05
G0 X-2.916
G1 X-51.8
G1 X-1.7S0
G1 X-161.15S500
G1 X-0.5S0
G1 X-31.55S500
G1 X-2.45S0
G1 X-47.85S500
G0 X-2.917
G0 Y0.05
G0 X2.917
G1 X47.85
G1 X2.5S0
G1 X31.45S500
G1 X0.6S0
G1 X161S500
G1 X1.85S0
G1 X51.75S500
G0 X2.916
G0 Y0.05
G0 X-2.916
G1 X-51.7
G1 X-1.9S0
G1 X-160.95S500
G1 X-0.7S0
G1 X-31.45S500
G1 X-2.45S0
G1 X-47.85S500
G0 X-2.917
G0 Y0.05
G0 X2.917
G1 X47.85
G1 X2.45S0
G1 X31.4S500
G1 X0.8S0
G1 X160.8S500
G1 X2.05S0
G1 X51.65S500
G0 X2.916
G0 Y0.05
G0 X-2.916
G1 X-51.6
G1 X-2.1S0
G1 X-160.75S500
G1 X-0.9S0
G1 X-31.35S500
G1 X-2.4S0
G1 X-47.9S500
G0 X-2.917
G0 Y0.05
G0 X2.917
G1 X47.9
G1 X2.35S0
G1 X31.4S500
G1 X0.9S0
G1 X160.7S500
G1 X2.15S0
G1 X51.6S500
G0 X2.916
G0 Y0.05
G0 X-2.916
G1 X-51.55
G1 X-2.25S0
G1 X-20.5S500
G1 X-0.3S0
G1 X-139.8S500
G1 X-1S0
G1 X-31.35S500
G1 X-2.3S0
G1 X-47.95S500
G0 X-2.917
G0 Y0.05
G0 X2.917
G1 X47.95
G1 X2.25S0
G1 X31.4S500
G1 X1S0
G1 X139.7S500
G1 X0.55S0
G1 X20.3S500
G1 X2.35S0
G1 X51.5S500
G0 X2.916
G0 Y0.05
G0 X-2.916
G1 X-51.5
G1 X-2.35S0
G1 X-20.25S500
G1 X-0.65S0
G1 X-139.65S500
G1 X-1S0
G1 X-31.4S500
G1 X-2.2S0
G1 X-48S500
G0 X-2.917
G0 Y0.05
G0 X2.917
G1 X48.05
G1 X2.1S0
G1 X31.4S500
G1 X1.05S0
G1 X139.6S500
G1 X0.75S0
G1 X20.15S500
G1 X2.45S0
G1 X51.45S500
G0 X2.916
G0 Y0.05
G0 X-2.916
G1 X-51.45
G1 X-2.45S0
G1 X-20.15S500
G1 X-0.8S0
G1 X-139.55S500
G1 X-1S0
G1 X-31.5S500
G1 X-2.05S0
G1 X-48.05S500
G0 X-2.917
G0 Y0.05
G0 X2.917
G1 X48.1
G1 X2S0
G1 X31.5S500
G1 X1S0
G1 X139.55S500
G1 X0.9S0
G1 X20S500
G1 X2.5S0
G1 X51.45S500
G0 X2.916
G0 Y0.05
G0 X-2.916
G1 X-51.4
G1 X-2.55S0
G1 X-20S500
G1 X-0.95S0
G1 X-139.55S500
G1 X-0.9S0
G1 X-31.6S500
G1 X-1.95S0
G1 X-5.65S500
G1 X-0.35S0
G1 X-42.1S500
G0 X-2.917
G0 Y0.05
G0 X2.917
G1 X42
G1 X0.55S0
G1 X5.6S500
G1 X1.85S0
G1 X31.65S500
G1 X0.9S0
G1 X139.55S500
G1 X0.95S0
G1 X20S500
G1 X2.55S0
G1 X51.4S500
G0 X2.916
G0 Y0.05
G0 X-2.916
G1 X-51.35
G1 X-2.65S0
G1 X-19.95S500
G1 X-0.95S0
G1 X-139.65S500
G1 X-0.8S0
G1 X-31.7S500
G1 X-1.75S0
G1 X-5.6S500
G1 X-0.65S0
G1 X-41.95S500
G0 X-2.917
G0 Y0.05
G0 X2.917
G1 X41.9
G1 X0.7S0
G1 X5.7S500
G1 X1.6S0
G1 X31.8S500
G1 X0.75S0
G1 X139.65S500
G1 X0.95S0
G1 X20S500
G1 X2.6S0
G1 X51.35S500
G0 X2.916
G0 Y0.05
G0 X-2.916
G1 X-51.35
G1 X-2.65S0
G1 X-19.95S500
G1 X-0.95S0
G1 X-139.75S500
G1 X-0.55S0
G1 X-32S500
G1 X-1.45S0
G1 X-5.7S500
G1 X-0.8S0
G1 X-41.85S500
G0 X-2.917
G0 Y0.05
G0 X2.917
G1 X41.85
G1 X0.9S0
G1 X5.7S500
G1 X1.3S0
G1 X32.15S500
G1 X0.35S0
G1 X139.85S500
G1 X0.95S0
G1 X19.95S500
G1 X2.65S0
G1 X51.35S500
G0 X2.916
G0 Y0.05
G0 X-2.916
G1 X-51.4
G1 X-2.55S0
G1 X-20.05S500
G1 X-0.85S0
G1 X-47.45S500
G1 X-0.05S0
G1 X-92.55S500
G1 X-0.05S0
G1 X-32.4S500
G1 X-1.1S0
G1 X-5.8S500
G1 X-0.95S0
G1 X-41.8S500
G0 X-2.917
G0 Y0.05
G0 X2.917
G1 X41.8
G1 X0.95S0
G1 X5.9S500
G1 X0.85S0
G1 X124.95S500
G1 X0.55S0
G1 X47.15S500
G1 X0.9S0
G1 X19.95S500
G1 X2.65S0
G1 X51.35S500
G0 X2.916
G0 Y0.05
G0 X-2.916
G1 X-51.35
G1 X-2.65S0
G1 X-20S500
G1 X-0.8S0
G1 X-46.95S500
G1 X-0.95S0
G1 X-125.3S500
G1 X-0.05S0
G1 X-6.15S500
G1 X-1S0
G1 X-41.8S500
G0 X-2.917
G0 Y0.05
G0 X2.917
G1 X41.8
G1 X1S0
G1 X131.45S500
G1 X1.1S0
G1 X46.9S500
G1 X0.65S0
G1 X20.15S500
G1 X2.6S0
G1 X51.35S500
G0 X2.916
G0 Y0.05
G0 X-2.916
G1 X-51.4
G1 X-2.6S0
G1 X-20.1S500
G1 X-0.65S0
G1 X-46.8S500
G1 X-1.25S0
G1 X-131.4S500
G1 X-1.05S0
G1 X-34.6S500
G1 X-0.35S0
G1 X-6.8S500
G0 X-2.917
G0 Y0.05
G0 X2.917
G1 X6.65
G1 X0.7S0
G1 X34.45S500
G1 X0.95S0
G1 X131.35S500
G1 X1.5S0
G1 X46.75S500
G1 X0.45S0
G1 X20.25S500
G1 X2.55S0
G1 X51.4S500
G0 X2.916
G0 Y0.05
G0 X-2.916
G1 X-51.4
G1 X-2.55S0
G1 X-20.4S500
G1 X-0.25S0
G1 X-46.75S500
G1 X-1.6S0
G1 X-131.3S500
G1 X-0.9S0
G1 X-34.35S500
G1 X-1S0
G1 X-6.5S500
G0 X-2.917
G0 Y0.05
G0 X2.917
G1 X6.4
G1 X1.15S0
G1 X34.3S500
G1 X0.85S0
G1 X131.3S500
G1 X1.75S0
G1 X67.3S500
G1 X2.55S0
G1 X51.4S500
G0 X2.916
G0 Y0.05
G0 X-2.916
G1 X-51.45
G1 X-2.5S0
G1 X-67.25S500
G1 X-1.8S0
G1 X-131.35S500
G1 X-0.8S0
G1 X-34.25S500
G1 X-1.3S0
G1 X-6.3S500
G0 X-2.917
G0 Y0.05
G0 X2.917
G1 X6.25
G1 X1.4S0
G1 X34.25S500
G1 X0.75S0
G1 X131.3S500
G1 X1.9S0
G1 X67.25S500
G1 X2.45S0
G1 X51.45S500
G0 X2.916
G0 Y0.05
G0 X-2.916
G1 X-51.5
G1 X-2.35S0
G1 X-67.25S500
G1 X-2.05S0
G1 X-131.3S500
G1 X-0.55S0
G1 X-34.3S500
G1 X-1.5S0
G1 X-6.2S500
G0 X-2.917
G0 Y0.05
G0 X2.917
G1 X6.15
G1 X1.6S0
G1 X34.3S500
G1 X0.45S0
G1 X131.35S500
G1 X2.05S0
G1 X67.25S500
G1 X2.35S0
G1 X51.5S500
G0 X2.916
G0 Y0.05
G0 X-2.916
G1 X-51.5
G1 X-2.3S0
G1 X-67.25S500
G1 X-2.15S0
G1 X-131.4S500
G1 X-0.25S0
G1 X-34.35S500
G1 X-1.65S0
G1 X-6.15S500
G0 X-2.917
G0 Y0.05
G0 X2.917
G1 X6.1
G1 X1.75S0
G1 X165.9S500
G1 X2.2S0
G1 X67.25S500
G1 X2.25S0
G1 X51.55S500
G0 X2.916
G0 Y0.05
G0 X-2.916
G1 X-51.6
G1 X-2.2S0
G1 X-67.2S500
G1 X-2.25S0
G1 X-165.85S500
G1 X-1.85S0
G1 X-6.05S500
G0 X-2.917
G0 Y0.05
G0 X2.917
G1 X6.05
G1 X1.9S0
G1 X89.45S500
G1 X0.35S0
G1 X75.95S500
G1 X2.35S0
G1 X67.2S500
G1 X2.2S0
G1 X51.55S500
G0 X2.916
G0 Y0.05
G0 X-2.916
G1 X-51.65
G1 X-2.05S0
G1 X-67.25S500
G1 X-2.35S0
G1 X-75.85S500
G1 X-0.55S0
G1 X-89.35S500
G1 X-1.95S0
G1 X-6S500
G0 X-2.917
G0 Y0.05
G0 X2.917
G1 X6
G1 X2S0
G1 X89.25S500
G1 X0.65S0
G1 X75.75S500
G1 X2.45S0
G1 X67.25S500
G1 X1.95S0
G1 X51.7S500
G0 X2.916
G0 Y0.05
G0 X-2.916
G1 X-51.75
G1 X-1.85S0
G1 X-67.25S500
G1 X-2.5S0
G1 X-75.7S500
G1 X-0.75S0
G1 X-89.2S500
G1 X-2.05S0
G1 X-5.95S500
G0 X-2.917
G0 Y0.05
G0 X2.917
G1 X5.95
G1 X2.05S0
G1 X89.15S500
G1 X0.85S0
G1 X75.65S500
G1 X2.45S0
G1 X67.4S500
G1 X1.7S0
G1 X51.8S500
G0 X2.916
G0 Y0.05
G0 X-2.916
G1 X-51.9
G1 X-1.55S0
G1 X-67.4S500
G1 X-2.5S0
G1 X-75.65S500
G1 X-0.9S0
G1 X-89.05S500
G1 X-2.1S0
G1 X-5.95S500
G0 X-2.917
G0 Y0.05
G0 X2.917
G1 X5.95
G1 X2.1S0
G1 X60.95S500
G1 X0.2S0
G1 X27.9S500
G1 X0.95S0
G1 X75.55S500
G1 X2.6S0
G1 X67.4S500
G1 X1.45S0
G1 X51.95S500
G0 X2.916
G0 Y0.05
G0 X-2.916
G1 X-52.05
G1 X-1.25S0
G1 X-67.55S500
G1 X-2.55S0
G1 X-8.65S500
G1 X-0.05S0
G1 X-66.85S500
G1 X-1S0
G1 X-27.75S500
G1 X-0.35S0
G1 X-60.9S500
G1 X-2.1S0
G1 X-5.95S500
G0 X-2.917
G0 Y0.05
G0 X2.917
G1 X5.9
G1 X2.2S0
G1 X60.8S500
G1 X0.4S0
G1 X27.75S500
G1 X1.05S0
G1 X66.6S500
G1 X0.45S0
G1 X8.45S500
G1 X2.6S0
G1 X67.55S500
G1 X1.1S0
G1 X52.15S500
G0 X2.916
G0 Y0.05
G0 X-2.916
G1 X-52.3
G1 X-0.8S0
G1 X-67.75S500
G1 X-2.6S0
G1 X-8.25S500
G1 X-0.75S0
G1 X-66.45S500
G1 X-1.1S0
G1 X-27.65S500
G1 X-0.45S0
G1 X-60.8S500
G1 X-2.15S0
G1 X-5.95S500
G0 X-2.917
G0 Y0.05
G0 X2.917
G1 X5.95
G1 X2.15S0
G1 X60.8S500
G1 X0.45S0
G1 X27.7S500
G1 X1S0
G1 X66.4S500
G1 X0.95S0
G1 X8.15S500
G1 X2.65S0
G1 X67.95S500
G1 X0.35S0
G1 X52.5S500
G0 X2.916
G0 Y0.05
G0 X-2.916
G1 X-120.8
G1 X-2.65S0
G1 X-8.1S500
G1 X-1.05S0
G1 X-66.35S500
G1 X-1S0
G1 X-27.7S500
G1 X-0.45S0
G1 X-60.8S500
G1 X-2.2S0
G1 X-5.9S500
G0 X-2.917
G0 Y0.05
G0 X2.917
G1 X5.95
G1 X2.15S0
G1 X60.8S500
G1 X0.45S0
G1 X27.65S500
G1 X1.05S0
G1 X66.25S500
G1 X1.25S0
G1 X8S500
G1 X2.65S0
G1 X120.8S500
G0 X2.916
G0 Y0.05
G0 X-2.916
G1 X-120.75
G1 X-2.7S0
G1 X-7.95S500
G1 X-1.35S0
G1 X-66.25S500
G1 X-0.95S0
G1 X-27.75S500
G1 X-0.35S0
G1 X-60.85S500
G1 X-2.2S0
G1 X-5.9S500
G0 X-2.917
G0 Y0.05
G0 X2.917
G1 X5.95
G1 X2.2S0
G1 X60.8S500
G1 X0.35S0
G1 X27.8S500
G1 X0.9S0
G1 X66.25S500
G1 X1.4S0
G1 X7.9S500
G1 X2.65S0
G1 X120.8S500
G0 X2.916
G0 Y0.05
G0 X-2.916
G1 X-120.8
G1 X-2.65S0
G1 X-7.85S500
G1 X-1.5S0
G1 X-3.15S500
G1 X-0.2S0
G1 X-62.9S500
G1 X-0.9S0
G1 X-27.85S500
G1 X-0.2S0
G1 X-60.9S500
G1 X-2.15S0
G1 X-5.95S500
G0 X-2.917
G0 Y0.05
G0 X2.917
G1 X6
G1 X2.1S0
G1 X89.05S500
G1 X0.8S0
G1 X62.8S500
G1 X0.4S0
G1 X3S500
G1 X1.6S0
G1 X7.8S500
G1 X2.65S0
G1 X120.8S500
G0 X2.916
G0 Y0.05
G0 X-2.916
G1 X-120.75
G1 X-2.7S0
G1 X-7.8S500
G1 X-1.6S0
G1 X-2.95S500
G1 X-0.5S0
G1 X-62.8S500
G1 X-0.75S0
G1 X-89S500
G1 X-2.1S0
G1 X-6.05S500
G0 X-2.917
G0 Y0.05
G0 X2.917
G1 X6.05
G1 X2.05S0
G1 X89.15S500
G1 X0.6S0
G1 X62.8S500
G1 X0.6S0
G1 X2.85S500
G1 X1.7S0
G1 X7.75S500
G1 X2.65S0
G1 X9.75S500
G1 X0.4S0
G1 X102.6S500
G1 X0.45S0
G1 X7.6S500
G0 X2.916
G0 Y0.05
G0 X-2.916
G1 X-7.5
G1 X-0.65S0
G1 X-102.4S500
G1 X-0.55S0
G1 X-9.7S500
G1 X-2.65S0
G1 X-7.75S500
G1 X-1.7S0
G1 X-2.8S500
G1 X-0.65S0
G1 X-62.85S500
G1 X-0.5S0
G1 X-89.15S500
G1 X-2.05S0
G1 X-6.1S500
G0 X-2.917
G0 Y0.05
G0 X2.917
G1 X6.1
G1 X2S0
G1 X89.25S500
G1 X0.35S0
G1 X62.95S500
G1 X0.6S0
G1 X2.9S500
G1 X1.65S0
G1 X7.75S500
G1 X2.65S0
G1 X9.65S500
G1 X0.6S0
G1 X102.35S500
G1 X0.7S0
G1 X7.5S500
G0 X2.916
G0 Y0.05
G0 X-2.916
G1 X-7.45
G1 X-0.8S0
G1 X-102.25S500
G1 X-0.65S0
G1 X-9.7S500
G1 X-2.6S0
G1 X-7.75S500
G1 X-1.7S0
G1 X-2.85S500
G1 X-0.65S0
G1 X-152.5S500
G1 X-1.95S0
G1 X-6.15S500
G0 X-2.917
G0 Y0.05
G0 X2.917
G1 X6.2
G1 X1.9S0
G1 X152.5S500
G1 X0.7S0
G1 X2.8S500
G1 X1.7S0
G1 X7.8S500
G1 X2.6S0
G1 X9.6S500
G1 X0.7S0
G1 X102.25S500
G1 X0.75S0
G1 X7.5S500
G0 X2.916
G0 Y0.05
G0 X-2.916
G1 X-7.45
G1 X-0.85S0
G1 X-102.2S500
G1 X-0.7S0
G1 X-9.65S500
G1 X-2.55S0
G1 X-7.8S500
G1 X-1.7S0
G1 X-2.85S500
G1 X-0.65S0
G1 X-152.55S500
G1 X-1.85S0
G1 X-6.2S500
G0 X-2.917
G0 Y0.05
G0 X2.917
G1 X6.25
G1 X1.8S0
G1 X152.6S500
G1 X0.6S0
G1 X2.9S500
G1 X1.6S0
G1 X7.85S500
G1 X2.6S0
G1 X9.6S500
G1 X0.75S0
G1 X102.15S500
G1 X0.9S0
G1 X7.4S500
G0 X2.916
G0 Y0.05
G0 X-2.916
G1 X-7.45
G1 X-0.85S0
G1 X-102.2S500
G1 X-0.7S0
G1 X-9.65S500
G1 X-2.55S0
G1 X-7.8S500
G1 X-1.65S0
G1 X-2.9S500
G1 X-0.6S0
G1 X-152.65S500
G1 X-1.7S0
G1 X-6.3S500
G0 X-2.917
G0 Y0.05
G0 X2.917
G1 X6.35
G1 X1.65S0
G1 X152.65S500
G1 X0.5S0
G1 X3S500
G1 X1.6S0
G1 X7.9S500
G1 X2.45S0
G1 X9.7S500
G1 X0.7S0
G1 X102.25S500
G1 X0.8S0
G1 X7.45S500
G0 X2.916
G0 Y0.05
G0 X-2.916
G1 X-7.5
G1 X-0.8S0
G1 X-102.2S500
G1 X-0.7S0
G1 X-9.7S500
G1 X-2.45S0
G1 X-7.9S500
G1 X-1.55S0
G1 X-3.1S500
G1 X-0.35S0
G1 X-152.8S500
G1 X-1.55S0
G1 X-6.4S500
G0 X-2.917
G0 Y0.05
G0 X2.917
G1 X6.45
G1 X1.45S0
G1 X152.95S500
G1 X0.1S0
G1 X3.25S500
G1 X1.5S0
G1 X8S500
G1 X2.35S0
G1 X9.8S500
G1 X0.6S0
G1 X102.3S500
G1 X0.75S0
G1 X7.5S500
G0 X2.916
G0 Y0.05
G0 X-2.916
G1 X-7.55
G1 X-0.7S0
G1 X-102.35S500
G1 X-0.5S0
G1 X-9.9S500
G1 X-2.3S0
G1 X-8S500
G1 X-1.45S0
G1 X-156.45S500
G1 X-1.3S0
G1 X-6.5S500
G0 X-2.917
G0 Y0.05
G0 X2.917
G1 X6.6
G1 X1.15S0
G1 X156.5S500
G1 X1.4S0
G1 X8.05S500
G1 X2.25S0
G1 X10S500
G1 X0.4S0
G1 X102.45S500
G1 X0.6S0
G1 X7.6S500
G0 X2.916
G0 Y0.05
G0 X-2.916
G1 X-7.7
G1 X-0.4S0
G1 X-102.6S500
G1 X-0.3S0
G1 X-10.05S500
G1 X-2.2S0
G1 X-8.15S500
G1 X-1.3S0
G1 X-156.65S500
G1 X-1S0
G1 X-6.65S500
G0 X-2.917
G0 Y0.05
G0 X2.917
G1 X6.75
G1 X0.85S0
G1 X156.75S500
G1 X1.25S0
G1 X8.2S500
G1 X2.05S0
G1 X113.15S500
G1 X0.15S0
G1 X7.85S500
G0 X2.916
G0 Y0.05
G0 X-2.916
G1 X-121.2
G1 X-1.95S0
G1 X-8.35S500
G1 X-1.15S0
G1 X-156.85S500
G1 X-0.7S0
G1 X-6.8S500
G0 X-2.917
G0 Y0.05
G0 X2.917
G1 X7.05
G1 X0.05S0
G1 X0.05S500
G1 X0.05S0
G1 X0.05S500
G1 X0.05S0
G1 X0.05S500
G1 X0.05S0
G1 X157S500
G1 X1.1S0
G1 X8.45S500
G1 X1.75S0
G1 X121.3S500
G0 X2.916
G0 Y0.05
G0 X-2.916
G1 X-121.5
G1 X-1.5S0
G1 X-8.6S500
G1 X-0.95S0
G1 X-164.45S500
G0 X-2.917
G0 Y0.05
G0 X2.917
G1 X164.55
G1 X0.8S0
G1 X8.75S500
G1 X1.1S0
G1 X121.8S500
G0 X2.916
G0 Y0.05
G0 X-2.916
G1 X-121.95
G1 X-0.85S0
G1 X-8.9S500
G1 X-0.7S0
G1 X-164.6S500
G0 X-2.917
G0 Y0.05
G0 X2.917
G1 X164.75
G1 X0.4S0
G1 X9.2S500
G1 X0.55S0
G1 X122.1S500
G0 X2.916
G0 Y0.05
G0 X-2.916
G1 X-122.35
G1 X-0.1S0
G1 X-174.55S500
G0 X-2.917
G0 Y0.05
G0 X2.917
G1 X297
G0 X2.916
G0 Y0.05
G0 X-2.916
G1 X-270
G1 X-0.15S0
G1 X-26.85S500
G0 X-2.917
G0 Y0.05
G0 X2.917
G1 X26.8
G1 X0.4S0
G1 X269.8S500
G0 X2.916
G0 Y0.05
G0 X-2.916
G1 X-269.75
G1 X-0.55S0
G1 X-22S500
G1 X-0.3S0
G1 X-4.4S500
G0 X-2.917
G0 Y0.05
G0 X2.917
G1 X4.3
G1 X0.55S0
G1 X12.15S500
G1 X0.1S0
G1 X9.55S500
G1 X0.7S0
G1 X269.65S500
G0 X2.916
G0 Y0.05
G0 X-2.916
G1 X-269.55
G1 X-0.85S0
G1 X-9.3S500
G1 X-0.45S0
G1 X-11.95S500
G1 X-0.65S0
G1 X-4.25S500
G0 X-2.917
G0 Y0.05
G0 X2.917
G1 X4.2
G1 X0.75S0
G1 X11.8S500
G1 X0.6S0
G1 X9.2S500
G1 X0.9S0
G1 X269.55S500
G0 X2.916
G0 Y0.05
G0 X-2.916
G1 X-269.45
G1 X-1.05S0
G1 X-9.1S500
G1 X-0.7S0
G1 X-11.7S500
G1 X-0.85S0
G1 X-4.15S500
G0 X-2.917
G0 Y0.05
G0 X2.917
G1 X4.15
G1 X0.85S0
G1 X11.65S500
G1 X0.8S0
G1 X9.05S500
G1 X1.05S0
G1 X269.45S500
G0 X2.916
G0 Y0.05
G0 X-2.916
G1 X-269.4
G1 X-1.15S0
G1 X-9S500
G1 X-0.85S0
G1 X-11.55S500
G1 X-0.95S0
G1 X-4.1S500
G0 X-2.917
G0 Y0.05
G0 X2.917
G1 X4.1
G1 X0.95S0
G1 X11.55S500
G1 X0.9S0
G1 X8.95S500
G1 X1.15S0
G1 X269.4S500
G0 X2.916
G0 Y0.05
G0 X-2.916
G1 X-269.4
G1 X-1.15S0
G1 X-8.9S500
G1 X-1S0
G1 X-11.5S500
G1 X-1S0
G1 X-4.05S500
G0 X-2.917
G0 Y0.05
G0 X2.917
G1 X4.05
G1 X1.05S0
G1 X11.45S500
G1 X1S0
G1 X8.9S500
G1 X1.15S0
G1 X269.4S500
G0 X2.916
G0 Y0.05
G0 X-2.916
G1 X-269.4
G1 X-1.15S0
G1 X-8.9S500
G1 X-1S0
G1 X-11.5S500
G1 X-1S0
G1 X-4.05S500
G0 X-2.917
G0 Y0.05
G0 X2.917
G1 X4.1
G1 X0.95S0
G1 X11.5S500
G1 X1S0
G1 X8.95S500
G1 X1.15S0
G1 X269.35S500
G0 X2.916
G0 Y0.05
G0 X-2.916
G1 X-82.85
G1 X-0.4S0
G1 X-186.15S500
G1 X-1.1S0
G1 X-8.95S500
G1 X-1S0
G1 X-11.5S500
G1 X-0.95S0
G1 X-4.1S500
G0 X-2.917
G0 Y0.05
G0 X2.917
G1 X4.15
G1 X0.85S0
G1 X11.55S500
G1 X1S0
G1 X9S500
G1 X1S0
G1 X186.15S500
G1 X0.55S0
G1 X82.75S500
G0 X2.916
G0 Y0.05
G0 X-2.916
G1 X-82.75
G1 X-0.6S0
G1 X-186.1S500
G1 X-1S0
G1 X-9.05S500
G1 X-0.9S0
G1 X-11.65S500
G1 X-0.8S0
G1 X-4.15S500
G0 X-2.917
G0 Y0.05
G0 X2.917
G1 X4.2
G1 X0.7S0
G1 X11.7S500
G1 X0.85S0
G1 X9.15S500
G1 X0.9S0
G1 X186.1S500
G1 X0.75S0
G1 X82.65S500
G0 X2.916
G0 Y0.05
G0 X-2.916
G1 X-82.6
G1 X-0.85S0
G1 X-186.1S500
G1 X-0.8S0
G1 X-9.2S500
G1 X-0.8S0
G1 X-11.8S500
G1 X-0.6S0
G1 X-4.25S500
G0 X-2.917
G0 Y0.05
G0 X2.917
G1 X4.35
G1 X0.45S0
G1 X11.9S500
G1 X0.7S0
G1 X9.3S500
G1 X0.7S0
G1 X186.1S500
G1 X0.9S0
G1 X82.6S500
G0 X2.916
G0 Y0.05
G0 X-2.916
G1 X-82.55
G1 X-0.95S0
G1 X-186.2S500
G1 X-0.55S0
G1 X-9.45S500
G1 X-0.5S0
G1 X-12.1S500
G1 X-0.05S0
G1 X-0.05S500
G1 X-0.1S0
G1 X-0.05S500
G1 X-0.05S0
G1 X-4.4S500
G0 X-2.917
G0 Y0.05
G0 X2.917
G1 X16.95
G1 X0.2S0
G1 X9.75S500
G1 X0.05S0
G1 X0.1S500
G1 X0.05S0
G1 X186.35S500
G1 X1S0
G1 X82.55S500
G0 X2.916
G0 Y0.05
G0 X-2.916
G1 X-82.55
G1 X-1S0
G1 X-213.45S500
G0 X-2.917
G0 Y0.05
G0 X2.917
G1 X213.45
G1 X1.05S0
G1 X82.5S500
G0 X2.916
G0 Y0.05
G0 X-2.916
G1 X-82.55
G1 X-0.95S0
G1 X-213.5S500
G0 X-2.917
G0 Y0.05
G0 X2.917
G1 X213.5
G1 X0.95S0
G1 X82.55S500
G0 X2.916
G0 Y0.05
G0 X-2.916
G1 X-82.6
G1 X-0.9S0
G1 X-213.5S500
G0 X-2.917
G0 Y0.05
G0 X2.917
G1 X56.35
G1 X0.1S0
G1 X157.1S500
G1 X0.85S0
G1 X82.6S500
G0 X2.916
G0 Y0.05
G0 X-2.916
G1 X-82.65
G1 X-0.8S0
G1 X-156.95S500
G1 X-0.3S0
G1 X-56.3S500
G0 X-2.917
G0 Y0.05
G0 X2.917
G1 X56.25
G1 X0.4S0
G1 X157S500
G1 X0.65S0
G1 X82.7S500
G0 X2.916
G0 Y0.05
G0 X-2.916
G1 X-82.75
G1 X-0.6S0
G1 X-157S500
G1 X-0.45S0
G1 X-56.2S500
G0 X-2.917
G0 Y0.05
G0 X2.917
G1 X56.2
G1 X0.45S0
G1 X157.1S500
G1 X0.4S0
G1 X82.85S500
G0 X2.916
G0 Y0.05
G0 X-2.916
G1 X-82.9
G1 X-0.05S0
G1 X-0.1S500
G1 X-0.05S0
G1 X-157.2S500
G1 X-0.5S0
G1 X-56.2S500
G0 X-2.917
G0 Y0.05
G0 X2.917
G1 X56.25
G1 X0.4S0
G1 X213.1S500
G1 X0.1S0
G1 X27.15S500
G0 X2.916
G0 Y0.05
G0 X-2.916
G1 X-27.05
G1 X-0.4S0
G1 X-212.95S500
G1 X-0.3S0
G1 X-56.3S500
G0 X-2.917
G0 Y0.05
G0 X2.917
G1 X269.45
G1 X0.65S0
G1 X26.9S500
G0 X2.916
G0 Y0.05
G0 X-2.916
G1 X-26.85
G1 X-0.8S0
G1 X-269.35S500
G0 X-2.917
G0 Y0.05
G0 X2.917
G1 X2
G1 X0.25S0
G1 X267S500
G1 X0.95S0
G1 X26.8S500
G0 X2.916
G0 Y0.05
G0 X-2.916
G1 X-26.75
G1 X-1.05S0
G1 X-114.8S500
G1 X-0.1S0
G1 X-152S500
G1 X-0.4S0
G1 X-1.9S500
G0 X-2.917
G0 Y0.05
G0 X2.917
G1 X1.9
G1 X0.4S0
G1 X151.95S500
G1 X0.25S0
G1 X114.65S500
G1 X1.15S0
G1 X26.7S500
G0 X2.916
G0 Y0.05
G0 X-2.916
G1 X-26.7
G1 X-1.2S0
G1 X-114.55S500
G1 X-0.35S0
G1 X-151.9S500
G1 X-0.4S0
G1 X-1.9S500
G0 X-2.917
G0 Y0.05
G0 X2.917
G1 X1.9
G1 X0.4S0
G1 X151.9S500
G1 X0.35S0
G1 X114.6S500
G1 X1.15S0
G1 X26.7S500
G0 X2.916
G0 Y0.05
G0 X-2.916
G1 X-26.7
G1 X-1.2S0
G1 X-114.55S500
G1 X-0.35S0
G1 X-151.95S500
G1 X-0.3S0
G1 X-1.95S500
G0 X-2.917
G0 Y0.05
G0 X2.917
G1 X1.95
G1 X0.25S0
G1 X152.05S500
G1 X0.25S0
G1 X114.6S500
G1 X1.2S0
G1 X26.7S500
G0 X2.916
G0 Y0.05
G0 X-2.916
G1 X-26.7
G1 X-1.15S0
G1 X-114.75S500
G1 X-0.05S0
G1 X-154.35S500
G0 X-2.917
G0 Y0.05
G0 X2.917
G1 X32.05
G1 X0.05S0
G1 X237S500
G1 X1.2S0
G1 X26.7S500
G0 X2.916
G0 Y0.05
G0 X-2.916
G1 X-26.75
G1 X-1.15S0
G1 X-236.9S500
G1 X-0.2S0
G1 X-32S500
G0 X-2.917
G0 Y0.05
G0 X2.917
G1 X31.95
G1 X0.3S0
G1 X236.9S500
G1 X1.1S0
G1 X26.75S500
G0 X2.916
G0 Y0.05
G0 X-2.916
G1 X-26.8
G1 X-1.05S0
G1 X-236.85S500
G1 X-0.35S0
G1 X-31.95S500
G0 X-2.917
G0 Y0.05
G0 X2.917
G1 X31.95
G1 X0.5S0
G1 X236.75S500
G1 X0.95S0
G1 X26.85S500
G0 X2.916
G0 Y0.05
G0 X-2.916
G1 X-26.9
G1 X-0.85S0
G1 X-236.65S500
G1 X-0.6S0
G1 X-32S500
G0 X-2.917
G0 Y0.05
G0 X2.917
G1 X32
G1 X0.75S0
G1 X236.55S500
G1 X0.75S0
G1 X26.95S500
G0 X2.916
G0 Y0.05
G0 X-2.916
G1 X-27
G1 X-0.6S0
G1 X-230.3S500
G1 X-7.05S0
G1 X-32.05S500
G0 X-2.917
G0 Y0.05
G0 X2.917
G1 X32.1
G1 X7.2S0
G1 X230.2S500
G1 X0.35S0
G1 X27.15S500
G0 X2.916
G0 Y0.05
G0 X-2.916
G1 X-27.3
G1 X-0.05S0
G1 X-230.25S500
G1 X-7.25S0
G1 X-32.15S500
G0 X-2.917
G0 Y0.05
G0 X2.917
G1 X32.15
G1 X7.35S0
G1 X257.5S500
G0 X2.916
G0 Y0.05
G0 X-2.916
G1 X-257.45
G1 X-7.35S0
G1 X-32.2S500
G0 X-2.917
G0 Y0.05
G0 X2.917
G1 X32.2
G1 X7.4S0
G1 X257.4S500
G0 X2.916
G0 Y0.05
G0 X-2.916
G1 X-257.4
G1 X-7.35S0
G1 X-32.25S500
G0 X-2.917
G0 Y0.05
G0 X2.917
G1 X32.25
G1 X7.4S0
G1 X257.35S500
G0 X2.916
G0 Y0.05
G0 X-2.916
G1 X-257.3
G1 X-7.5S0
G1 X-32.2S500
G0 X-2.917
G0 Y0.05
G0 X2.917
G1 X32.1
G1 X7.65S0
G1 X257.25S500
G0 X2.916
G0 Y0.05
G0 X-2.916
G1 X-257.25
G1 X-7.75S0
G1 X-32S500
G0 X-2.917
G0 Y0.05
G0 X2.917
G1 X31.95
G1 X7.85S0
G1 X257.2S500
G0 X2.916
G0 Y0.05
G0 X-2.916
G1 X-257.15
G1 X-7.95S0
G1 X-31.9S500
G0 X-2.917
G0 Y0.05
G0 X2.917
G1 X31.8
G1 X8.05S0
G1 X257.15S500
G0 X2.916
G0 Y0.05
G0 X-2.916
G1 X-257.1
G1 X-8.15S0
G1 X-31.75S500
G0 X-2.917
G0 Y0.05
G0 X2.917
G1 X31.7
G1 X8.2S0
G1 X257.1S500
G0 X2.916
G0 Y0.05
G0 X-2.916
G1 X-257.05
G1 X-8.35S0
G1 X-31.6S500
G0 X-2.917
G0 Y0.05
G0 X2.917
G1 X31.55
G1 X8.45S0
G1 X257S500
G0 X2.916
G0 Y0.05
G0 X-2.916
G1 X-257
G1 X-8.5S0
G1 X-31.5S500
G0 X-2.917
G0 Y0.05
G0 X2.917
G1 X31.4
G1 X8.65S0
G1 X256.95S500
G0 X2.916
G0 Y0.05
G0 X-2.916
G1 X-256.9
G1 X-8.75S0
G1 X-31.35S500
G0 X-2.917
G0 Y0.05
G0 X2.917
G1 X31.3
G1 X8.8S0
G1 X78.85S500
G1 X0.4S0
G1 X177.65S500
G0 X2.916
G0 Y0.05
G0 X-2.916
G1 X-177.5
G1 X-0.65S0
G1 X-78.7S500
G1 X-8.9S0
G1 X-31.25S500
G0 X-2.917
G0 Y0.05
G0 X2.917
G1 X31.2
G1 X8.95S0
G1 X78.65S500
G1 X0.75S0
G1 X177.45S500
G0 X2.916
G0 Y0.05
G0 X-2.916
G1 X-177.4
G1 X-0.8S0
G1 X-78.65S500
G1 X-9S0
G1 X-31.15S500
G0 X-2.917
G0 Y0.05
G0 X2.917
G1 X31.1
G1 X9.1S0
G1 X78.55S500
G1 X0.9S0
G1 X177.35S500
G0 X2.916
G0 Y0.05
G0 X-2.916
G1 X-177.35
G1 X-0.9S0
G1 X-78.5S500
G1 X-9.2S0
G1 X-31.05S500
G0 X-2.917
G0 Y0.05
G0 X2.917
G1 X30.95
G1 X9.3S0
G1 X78.5S500
G1 X0.95S0
G1 X177.3S500
G0 X2.916
G0 Y0.05
G0 X-2.916
G1 X-177.3
G1 X-0.95S0
G1 X-78.45S500
G1 X-9.4S0
G1 X-30.9S500
G0 X-2.917
G0 Y0.05
G0 X2.917
G1 X30.85
G1 X9.5S0
G1 X61.9S500
G1 X0.65S0
G1 X15.85S500
G1 X0.95S0
G1 X177.3S500
G0 X2.916
G0 Y0.05
G0 X-2.916
G1 X-177.25
G1 X-1.05S0
G1 X-15.7S500
G1 X-0.85S0
G1 X-61.8S500
G1 X-9.55S0
G1 X-30.8S500
G0 X-2.917
G0 Y0.05
G0 X2.917
G1 X30.75
G1 X3.35S0
G1 X0.05S500
G1 X6.2S0
G1 X61.7S500
G1 X1.05S0
G1 X15.65S500
G1 X1S0
G1 X177.25S500
G0 X2.916
G0 Y0.05
G0 X-2.916
G1 X-177.25
G1 X-1S0
G1 X-15.55S500
G1 X-1.2S0
G1 X-61.6S500
G1 X-6.3S0
G1 X-0.1S500
G1 X-3.3S0
G1 X-30.7S500
G0 X-2.917
G0 Y0.05
G0 X2.917
G1 X30.7
G1 X3.2S0
G1 X0.1S500
G1 X5.5S0
G1 X0.05S500
G1 X0.85S0
G1 X61.5S500
G1 X1.4S0
G1 X15.45S500
G1 X0.95S0
G1 X177.3S500
G0 X2.916
G0 Y0.05
G0 X-2.916
G1 X-177.3
G1 X-0.95S0
G1 X-15.4S500
G1 X-1.5S0
G1 X-61.4S500
G1 X-0.85S0
G1 X-0.05S500
G1 X-5.6S0
G1 X-0.15S500
G1 X-3.15S0
G1 X-30.65S500
G0 X-2.917
G0 Y0.05
G0 X2.917
G1 X30.6
G1 X3.1S0
G1 X0.15S500
G1 X5.8S0
G1 X0.05S500
G1 X0.75S0
G1 X61.35S500
G1 X1.6S0
G1 X15.35S500
G1 X0.95S0
G1 X177.3S500
G0 X2.916
G0 Y0.05
G0 X-2.916
G1 X-177.4
G1 X-0.8S0
G1 X-15.4S500
G1 X-1.65S0
G1 X-61.3S500
G1 X-0.7S0
G1 X-0.1S500
G1 X-5.9S0
G1 X-0.15S500
G1 X-3.05S0
G1 X-30.55S500
G0 X-2.917
G0 Y0.05
G0 X2.917
G1 X30.5
G1 X3S0
G1 X0.2S500
G1 X6S0
G1 X0.1S500
G1 X0.65S0
G1 X61.25S500
G1 X1.75S0
G1 X15.35S500
G1 X0.8S0
G1 X177.4S500
G0 X2.916
G0 Y0.05
G0 X-2.916
G1 X-177.5
G1 X-0.6S0
G1 X-15.4S500
G1 X-1.85S0
G1 X-61.15S500
G1 X-0.6S0
G1 X-0.15S500
G1 X-6.15S0
G1 X-0.2S500
G1 X-2.95S0
G1 X-30.45S500
G0 X-2.917
G0 Y0.05
G0 X2.917
G1 X30.4
G1 X2.9S0
G1 X0.25S500
G1 X6.25S0
G1 X0.15S500
G1 X0.6S0
G1 X61.1S500
G1 X1.85S0
G1 X15.45S500
G1 X0.5S0
G1 X177.55S500
G0 X2.916
G0 Y0.05
G0 X-2.916
G1 X-177.65
G1 X-0.35S0
G1 X-15.45S500
G1 X-1.95S0
G1 X-61.05S500
G1 X-0.5S0
G1 X-0.3S500
G1 X-0.1S0
G1 X-0.05S500
G1 X-0.05S0
G1 X-0.05S500
G1 X-0.05S0
G1 X-0.05S500
G1 X-0.05S0
G1 X-0.05S500
G1 X-0.05S0
G1 X-0.05S500
G1 X-0.05S0
G1 X-0.05S500
G1 X-0.05S0
G1 X-0.05S500
G1 X-0.05S0
G1 X-0.05S500
G1 X-0.05S0
G1 X-0.05S500
G1 X-0.05S0
G1 X-0.05S500
G1 X-0.05S0
G1 X-0.05S500
G1 X-0.05S0
G1 X-0.05S500
G1 X-0.05S0
G1 X-0.05S500
G1 X-0.05S0
G1 X-0.05S500
G1 X-0.05S0
G1 X-0.05S500
G1 X-0.05S0
G1 X-0.05S500
G1 X-0.05S0
G1 X-0.05S500
G1 X-0.05S0
G1 X-0.05S500
G1 X-0.05S0
G1 X-0.05S500
G1 X-0.05S0
G1 X-0.05S500
G1 X-0.05S0
G1 X-0.05S500
G1 X-0.05S0
G1 X-0.05S500
G1 X-0.05S0
G1 X-0.05S500
G1 X-0.05S0
G1 X-0.05S500
G1 X-0.05S0
G1 X-0.05S500
G1 X-0.05S0
G1 X-0.05S500
G1 X-0.05S0
G1 X-0.05S500
G1 X-0.05S0
G1 X-0.05S500
G1 X-0.05S0
G1 X-0.05S500
G1 X-0.05S0
G1 X-0.05S500
G1 X-0.05S0
G1 X-0.05S500
G1 X-0.05S0
G1 X-0.05S500
G1 X-0.05S0
G1 X-0.05S500
G1 X-0.05S0
G1 X-0.05S500
G1 X-0.05S0
G1 X-0.05S500
G1 X-0.05S0
G1 X-0.05S500
G1 X-0.05S0
G1 X-0.05S500
G1 X-0.05S0
G1 X-0.05S500
G1 X-0.05S0
G1 X-0.05S500
G1 X-0.05S0
G1 X-0.05S500
G1 X-0.05S0
G1 X-0.05S500
G1 X-0.05S0
G1 X-0.05S500
G1 X-0.05S0
G1 X-0.05S500
G1 X-0.05S0
G1 X-0.05S500
G1 X-0.05S0
G1 X-0.05S500
G1 X-0.05S0
G1 X-0.05S500
G1 X-0.05S0
G1 X-0.05S500
G1 X-0.05S0
G1 X-0.05S500
G1 X-0.05S0
G1 X-0.1S500
G1 X-0.05S0
G1 X-0.05S500
G1 X-0.05S0
G1 X-0.1S500
G1 X-0.05S0
G1 X-0.1S500
G1 X-0.05S0
G1 X-0.05S500
G1 X-0.05S0
G1 X-0.05S500
G1 X-0.05S0
G1 X-0.05S500
G1 X-0.05S0
G1 X-0.05S500
G1 X-0.05S0
G1 X-0.1S500
G1 X-0.05S0
G1 X-0.55S500
G1 X-2.85S0
G1 X-30.35S500
G0 X-2.917
G0 Y0.05
G0 X2.917
G1 X30.3
G1 X2.75S0
G1 X7.05S500
G1 X0.5S0
G1 X60.95S500
G1 X2S0
G1 X193.45S500
G0 X2.916
G0 Y0.05
G0 X-2.916
G1 X-193.45
G1 X-2S0
G1 X-60.95S500
G1 X-0.45S0
G1 X-7.15S500
G1 X-2.75S0
G1 X-30.25S500
G0 X-2.917
G0 Y0.05
G0 X2.917
G1 X30.2
G1 X2.7S0
G1 X7.3S500
G1 X0.45S0
G1 X60.85S500
G1 X2.1S0
G1 X193.4S500
G0 X2.916
G0 Y0.05
G0 X-2.916
G1 X-193.4
G1 X-2.05S0
G1 X-60.9S500
G1 X-0.35S0
G1 X-7.55S500
G1 X-2.6S0
G1 X-30.15S500
G0 X-2.917
G0 Y0.05
G0 X2.917
G1 X30.1
G1 X2.55S0
G1 X7.75S500
G1 X0.25S0
G1 X60.85S500
G1 X2.1S0
G1 X193.4S500
G0 X2.916
G0 Y0.05
G0 X-2.916
G1 X-193.4
G1 X-2.15S0
G1 X-60.75S500
G1 X-0.3S0
G1 X-7.85S500
G1 X-2.45S0
G1 X-30.1S500
G0 X-2.917
G0 Y0.05
G0 X2.917
G1 X30.05
G1 X2.45S0
G1 X8S500
G1 X0.2S0
G1 X60.75S500
G1 X2.15S0
G1 X193.4S500
G0 X2.916
G0 Y0.05
G0 X-2.916
G1 X-193.45
G1 X-2.1S0
G1 X-69.1S500
G1 X-2.35S0
G1 X-30S500
G0 X-2.917
G0 Y0.05
G0 X2.917
G1 X29.95
G1 X2.35S0
G1 X69.1S500
G1 X2.2S0
G1 X193.4S500
G0 X2.916
G0 Y0.05
G0 X-2.916
G1 X-193.4
G1 X-2.25S0
G1 X-69.15S500
G1 X-2.3S0
G1 X-29.9S500
G0 X-2.917
G0 Y0.05
G0 X2.917
G1 X29.85
G1 X2.25S0
G1 X69.25S500
G1 X2.25S0
G1 X193.4S500
G0 X2.916
G0 Y0.05
G0 X-2.916
G1 X-193.4
G1 X-2.25S0
G1 X-69.35S500
G1 X-2.15S0
G1 X-29.85S500
G0 X-2.917
G0 Y0.05
G0 X2.917
G1 X29.8
G1 X2.15S0
G1 X69.4S500
G1 X2.25S0
G1 X193.4S500
G0 X2.916
G0 Y0.05
G0 X-2.916
G1 X-193.45
G1 X-2.2S0
G1 X-69.5S500
G1 X-2.1S0
G1 X-29.75S500
G0 X-2.917
G0 Y0.05
G0 X2.917
G1 X29.7
G1 X2.05S0
G1 X69.6S500
G1 X2.2S0
G1 X193.45S500
G0 X2.916
G0 Y0.05
G0 X-2.916
G1 X-193.5
G1 X-2.15S0
G1 X-69.65S500
G1 X-2.05S0
G1 X-29.65S500
G0 X-2.917
G0 Y0.05
G0 X2.917
G1 X29.6
G1 X1.95S0
G1 X69.85S500
G1 X2.1S0
G1 X193.5S500
G0 X2.916
G0 Y0.05
G0 X-2.916
G1 X-43.7
G1 X-0.2S0
G1 X-149.65S500
G1 X-2.05S0
G1 X-63.25S500
G1 X-8.6S0
G1 X-29.55S500
G0 X-2.917
G0 Y0.05
G0 X2.917
G1 X29.55
G1 X8.85S0
G1 X63S500
G1 X2.05S0
G1 X149.55S500
G1 X0.5S0
G1 X43.5S500
G0 X2.916
G0 Y0.05
G0 X-2.916
G1 X-43.35
G1 X-0.75S0
G1 X-149.5S500
G1 X-2S0
G1 X-62.85S500
G1 X-9.05S0
G1 X-29.5S500
G0 X-2.917
G0 Y0.05
G0 X2.917
G1 X29.5
G1 X9.1S0
G1 X62.85S500
G1 X1.95S0
G1 X149.4S500
G1 X0.9S0
G1 X43.3S500
G0 X2.916
G0 Y0.05
G0 X-2.916
G1 X-43.25
G1 X-1S0
G1 X-149.35S500
G1 X-1.95S0
G1 X-62.75S500
G1 X-9.2S0
G1 X-29.5S500
G0 X-2.917
G0 Y0.05
G0 X2.917
G1 X10.35
G1 X0.3S0
G1 X18.95S500
G1 X9.15S0
G1 X62.7S500
G1 X1.9S0
G1 X149.35S500
G1 X1.1S0
G1 X43.2S500
G0 X2.916
G0 Y0.05
G0 X-2.916
G1 X-43.15
G1 X-1.2S0
G1 X-137.1S500
G1 X-0.25S0
G1 X-11.95S500
G1 X-1.8S0
G1 X-62.75S500
G1 X-9.15S0
G1 X-18.9S500
G1 X-0.5S0
G1 X-10.25S500
G0 X-2.917
G0 Y0.05
G0 X2.917
G1 X10.2
G1 X0.65S0
G1 X18.9S500
G1 X9.1S0
G1 X62.65S500
G1 X1.8S0
G1 X11.9S500
G1 X0.45S0
G1 X136.95S500
G1 X1.3S0
G1 X43.1S500
G0 X2.916
G0 Y0.05
G0 X-2.916
G1 X-43.1
G1 X-1.3S0
G1 X-136.9S500
G1 X-0.6S0
G1 X-11.85S500
G1 X-1.65S0
G1 X-62.65S500
G1 X-9.15S0
G1 X-18.95S500
G1 X-0.7S0
G1 X-10.15S500
G0 X-2.917
G0 Y0.05
G0 X2.917
G1 X10.1
G1 X0.8S0
G1 X19S500
G1 X9.05S0
G1 X62.65S500
G1 X1.6S0
G1 X11.85S500
G1 X0.7S0
G1 X136.8S500
G1 X1.35S0
G1 X43.1S500
G0 X2.916
G0 Y0.05
G0 X-2.916
G1 X-43.05
G1 X-1.4S0
G1 X-136.75S500
G1 X-0.8S0
G1 X-11.85S500
G1 X-1.5S0
G1 X-62.65S500
G1 X-9S0
G1 X-19.05S500
G1 X-0.9S0
G1 X-10.05S500
G0 X-2.917
G0 Y0.05
G0 X2.917
G1 X10.05
G1 X0.9S0
G1 X19.1S500
G1 X8.95S0
G1 X62.7S500
G1 X1.4S0
G1 X11.9S500
G1 X0.8S0
G1 X81.3S500
G1 X0.1S0
G1 X55.35S500
G1 X1.4S0
G1 X43.05S500
G0 X2.916
G0 Y0.05
G0 X-2.916
G1 X-43.05
G1 X-1.4S0
G1 X-55.2S500
G1 X-0.35S0
G1 X-81.15S500
G1 X-0.9S0
G1 X-11.9S500
G1 X-1.3S0
G1 X-62.65S500
G1 X-8.95S0
G1 X-19.15S500
G1 X-0.95S0
G1 X-10.05S500
G0 X-2.917
G0 Y0.05
G0 X2.917
G1 X10
G1 X1S0
G1 X19.2S500
G1 X8.9S0
G1 X62.75S500
G1 X1.15S0
G1 X11.9S500
G1 X1S0
G1 X81.05S500
G1 X0.5S0
G1 X55.1S500
G1 X1.4S0
G1 X43.05S500
G0 X2.916
G0 Y0.05
G0 X-2.916
G1 X-43.05
G1 X-1.4S0
G1 X-55.05S500
G1 X-0.6S0
G1 X-81S500
G1 X-1S0
G1 X-12.05S500
G1 X-0.9S0
G1 X-62.8S500
G1 X-8.85S0
G1 X-19.3S500
G1 X-1S0
G1 X-10S500
G0 X-2.917
G0 Y0.05
G0 X2.917
G1 X10
G1 X1S0
G1 X19.4S500
G1 X8.8S0
G1 X62.9S500
G1 X0.5S0
G1 X0.1S500
G1 X0.05S0
G1 X12.15S500
G1 X1S0
G1 X80.9S500
G1 X0.75S0
G1 X55S500
G1 X1.35S0
G1 X43.1S500
G0 X2.916
G0 Y0.05
G0 X-2.916
G1 X-43.1
G1 X-1.3S0
G1 X-19.65S500
G1 X-0.1S0
G1 X-35.35S500
G1 X-0.7S0
G1 X-80.9S500
G1 X-1S0
G1 X-75.65S500
G1 X-8.75S0
G1 X-19.5S500
G1 X-1S0
G1 X-10S500
G0 X-2.917
G0 Y0.05
G0 X2.917
G1 X10.05
G1 X0.9S0
G1 X19.55S500
G1 X8.8S0
G1 X75.6S500
G1 X1S0
G1 X80.9S500
G1 X0.75S0
G1 X35.2S500
G1 X0.25S0
G1 X19.6S500
G1 X1.3S0
G1 X43.1S500
G0 X2.916
G0 Y0.05
G0 X-2.916
G1 X-43.15
G1 X-1.25S0
G1 X-19.55S500
G1 X-0.25S0
G1 X-35.25S500
G1 X-0.75S0
G1 X-80.95S500
G1 X-0.95S0
G1 X-75.6S500
G1 X-8.7S0
G1 X-19.65S500
G1 X-0.9S0
G1 X-10.05S500
G0 X-2.917
G0 Y0.05
G0 X2.917
G1 X10.1
G1 X0.8S0
G1 X19.8S500
G1 X8.65S0
G1 X75.55S500
G1 X0.95S0
G1 X80.95S500
G1 X0.8S0
G1 X35.2S500
G1 X0.15S0
G1 X19.7S500
G1 X1.2S0
G1 X43.15S500
G0 X2.916
G0 Y0.05
G0 X-2.916
G1 X-43.2
G1 X-1.1S0
G1 X-55.15S500
G1 X-0.75S0
G1 X-80.95S500
G1 X-0.9S0
G1 X-75.55S500
G1 X-8.6S0
G1 X-19.95S500
G1 X-0.75S0
G1 X-10.1S500
G0 X-2.917
G0 Y0.05
G0 X2.917
G1 X10.25
G1 X0.55S0
G1 X20.05S500
G1 X8.55S0
G1 X75.6S500
G1 X0.8S0
G1 X81S500
G1 X0.75S0
G1 X55.15S500
G1 X1.1S0
G1 X43.2S500
G0 X2.916
G0 Y0.05
G0 X-2.916
G1 X-43.25
G1 X-1S0
G1 X-55.2S500
G1 X-0.7S0
G1 X-81.1S500
G1 X-0.7S0
G1 X-75.6S500
G1 X-8.5S0
G1 X-20.25S500
G1 X-0.45S0
G1 X-10.25S500
G0 X-2.917
G0 Y0.05
G0 X2.917
G1 X10.35
G1 X0.3S0
G1 X20.25S500
G1 X8.6S0
G1 X75.55S500
G1 X0.7S0
G1 X81.1S500
G1 X0.7S0
G1 X55.3S500
G1 X0.85S0
G1 X43.3S500
G0 X2.916
G0 Y0.05
G0 X-2.916
G1 X-43.4
G1 X-0.7S0
G1 X-55.4S500
G1 X-0.6S0
G1 X-81.2S500
G1 X-0.6S0
G1 X-75.55S500
G1 X-8.7S0
G1 X-30.85S500
G0 X-2.917
G0 Y0.05
G0 X2.917
G1 X30.8
G1 X8.75S0
G1 X75.65S500
G1 X0.45S0
G1 X81.3S500
G1 X0.45S0
G1 X55.65S500
G1 X0.45S0
G1 X43.5S500
G0 X2.916
G0 Y0.05
G0 X-2.916
G1 X-43.7
G1 X-0.05S0
G1 X-55.95S500
G1 X-0.05S0
G1 X-0.1S500
G1 X-0.05S0
G1 X-81.55S500
G1 X-0.3S0
G1 X-75.65S500
G1 X-8.9S0
G1 X-30.7S500
G0 X-2.917
G0 Y0.05
G0 X2.917
G1 X30.65
G1 X9S0
G1 X257.35S500
G0 X2.916
G0 Y0.05
G0 X-2.916
G1 X-257.35
G1 X-9S0
G1 X-30.65S500
G0 X-2.917
G0 Y0.05
G0 X2.917
G1 X30.6
G1 X3.35S0
G1 X0.05S500
G1 X5.7S0
G1 X257.3S500
G0 X2.916
G0 Y0.05
G0 X-2.916
G1 X-257.25
G1 X-5.85S0
G1 X-0.05S500
G1 X-3.3S0
G1 X-30.55S500
G0 X-2.917
G0 Y0.05
G0 X2.917
G1 X30.5
G1 X3.2S0
G1 X0.15S500
G1 X5.95S0
G1 X257.2S500
G0 X2.916
G0 Y0.05
G0 X-2.916
G1 X-257.15
G1 X-6.1S0
G1 X-0.15S500
G1 X-3.15S0
G1 X-30.45S500
G0 X-2.917
G0 Y0.05
G0 X2.917
G1 X30.4
G1 X3.15S0
G1 X0.1S500
G1 X6.25S0
G1 X257.1S500
G0 X2.916
G0 Y0.05
G0 X-2.916
G1 X-257.1
G1 X-6.3S0
G1 X-0.15S500
G1 X-3.1S0
G1 X-30.35S500
G0 X-2.917
G0 Y0.05
G0 X2.917
G1 X30.3
G1 X3.05S0
G1 X0.2S500
G1 X6.4S0
G1 X257.05S500
G0 X2.916
G0 Y0.05
G0 X-2.916
G1 X-257
G1 X-6.5S0
G1 X-0.3S500
G1 X-2.95S0
G1 X-30.25S500
G0 X-2.917
G0 Y0.05
G0 X2.917
G1 X30.2
G1 X2.9S0
G1 X0.3S500
G1 X6.65S0
G1 X256.95S500
G0 X2.916
G0 Y0.05
G0 X-2.916
G1 X-256.9
G1 X-6.8S0
G1 X-0.3S500
G1 X-2.85S0
G1 X-30.15S500
G0 X-2.917
G0 Y0.05
G0 X2.917
G1 X30.1
G1 X2.85S0
G1 X0.3S500
G1 X6.9S0
G1 X256.85S500
G0 X2.916
G0 Y0.05
G0 X-2.916
G1 X-256.85
G1 X-6.95S0
G1 X-0.35S500
G1 X-2.8S0
G1 X-30.05S500
G0 X-2.917
G0 Y0.05
G0 X2.917
G1 X30
G1 X2.75S0
G1 X6.6S500
G1 X0.9S0
G1 X256.75S500
G0 X2.916
G0 Y0.05
G0 X-2.916
G1 X-256.7
G1 X-0.7S0
G1 X-7S500
G1 X-2.65S0
G1 X-29.95S500
G0 X-2.917
G0 Y0.05
G0 X2.917
G1 X29.9
G1 X2.6S0
G1 X7.25S500
G1 X0.55S0
G1 X256.7S500
G0 X2.916
G0 Y0.05
G0 X-2.916
G1 X-256.65
G1 X-0.5S0
G1 X-7.4S500
G1 X-2.65S0
G1 X-29.8S500
G0 X-2.917
G0 Y0.05
G0 X2.917
G1 X29.8
G1 X2.55S0
G1 X7.6S500
G1 X0.4S0
G1 X123.65S500
G1 X0.25S0
G1 X132.75S500
G0 X2.916
G0 Y0.05
G0 X-2.916
G1 X-132.7
G1 X-0.4S0
G1 X-123.6S500
G1 X-0.3S0
G1 X-7.75S500
G1 X-2.5S0
G1 X-29.75S500
G0 X-2.917
G0 Y0.05
G0 X2.917
G1 X29.7
G1 X2.5S0
G1 X7.95S500
G1 X0.1S0
G1 X123.6S500
G1 X0.55S0
G1 X132.6S500
G0 X2.916
G0 Y0.05
G0 X-2.916
G1 X-132.6
G1 X-0.6S0
G1 X-131.75S500
G1 X-2.4S0
G1 X-29.65S500
G0 X-2.917
G0 Y0.05
G0 X2.917
G1 X29.6
G1 X2.35S0
G1 X131.8S500
G1 X0.7S0
G1 X132.55S500
G0 X2.916
G0 Y0.05
G0 X-2.916
G1 X-132.55
G1 X-0.7S0
G1 X-131.85S500
G1 X-2.35S0
G1 X-29.55S500
G0 X-2.917
G0 Y0.05
G0 X2.917
G1 X29.55
G1 X2.3S0
G1 X131.95S500
G1 X0.65S0
G1 X132.55S500
G0 X2.916
G0 Y0.05
G0 X-2.916
G1 X-132.55
G1 X-0.7S0
G1 X-132S500
G1 X-2.25S0
G1 X-29.5S500
G0 X-2.917
G0 Y0.05
G0 X2.917
G1 X29.45
G1 X2.2S0
G1 X132.15S500
G1 X0.65S0
G1 X132.55S500
G0 X2.916
G0 Y0.05
G0 X-2.916
G1 X-132.55
G1 X-0.7S0
G1 X-132.15S500
G1 X-2.2S0
G1 X-29.4S500
G0 X-2.917
G0 Y0.05
G0 X2.917
G1 X29.35
G1 X2.15S0
G1 X132.3S500
G1 X0.6S0
G1 X132.6S500
G0 X2.916
G0 Y0.05
G0 X-2.916
G1 X-132.65
G1 X-0.5S0
G1 X-132.45S500
G1 X-2.05S0
G1 X-29.35S500
G0 X-2.917
G0 Y0.05
G0 X2.917
G1 X29.3
G1 X2.05S0
G1 X132.6S500
G1 X0.35S0
G1 X132.7S500
G0 X2.916
G0 Y0.05
G0 X-2.916
G1 X-132.8
G1 X-0.1S0
G1 X-0.05S500
G1 X-0.05S0
G1 X-132.75S500
G1 X-2S0
G1 X-29.25S500
G0 X-2.917
G0 Y0.05
G0 X2.917
G1 X29.2
G1 X2.1S0
G1 X0.05S500
G1 X0.1S0
G1 X0.05S500
G1 X0.1S0
G1 X0.05S500
G1 X0.1S0
G1 X0.05S500
G1 X0.1S0
G1 X0.05S500
G1 X0.1S0
G1 X0.05S500
G1 X0.1S0
G1 X0.05S500
G1 X0.1S0
G1 X0.05S500
G1 X0.1S0
G1 X0.05S500
G1 X0.1S0
G1 X0.05S500
G1 X0.1S0
G1 X0.05S500
G1 X0.1S0
G1 X0.05S500
G1 X0.1S0
G1 X0.05S500
G1 X0.1S0
G1 X0.05S500
G1 X0.1S0
G1 X0.05S500
G1 X0.1S0
G1 X0.05S500
G1 X0.05S0
G1 X0.05S500
G1 X0.05S0
G1 X0.05S500
G1 X0.05S0
G1 X0.05S500
G1 X0.05S0
G1 X0.05S500
G1 X0.05S0
G1 X0.1S500
G1 X0.05S0
G1 X0.1S500
G1 X0.05S0
G1 X0.1S500
G1 X0.05S0
G1 X262.5S500
G0 X2.916
G0 Y0.05
G0 X-2.916
G1 X-258.35
G1 X-9.5S0
G1 X-29.15S500
G0 X-2.917
G0 Y0.05
G0 X2.917
G1 X29.15
G1 X9.6S0
G1 X258.25S500
G0 X2.916
G0 Y0.05
G0 X-2.916
G1 X-258.15
G1 X-9.75S0
G1 X-29.1S500
G0 X-2.917
G0 Y0.05
G0 X2.917
G1 X29.2
G1 X9.7S0
G1 X258.1S500
G0 X2.916
G0 Y0.05
G0 X-2.916
G1 X-258.05
G1 X-9.65S0
G1 X-29.3S500
G0 X-2.917
G0 Y0.05
G0 X2.917
G1 X29.35
G1 X9.65S0
G1 X258S500
G0 X2.916
G0 Y0.05
G0 X-2.916
G1 X-257.95
G1 X-9.6S0
G1 X-29.45S500
G0 X-2.917
G0 Y0.05
G0 X2.917
G1 X29.5
G1 X9.6S0
G1 X257.9S500
G0 X2.916
G0 Y0.05
G0 X-2.916
G1 X-257.85
G1 X-9.55S0
G1 X-29.6S500
G0 X-2.917
G0 Y0.05
G0 X2.917
G1 X29.65
G1 X9.6S0
G1 X257.75S500
G0 X2.916
G0 Y0.05
G0 X-2.916
G1 X-257.75
G1 X-9.5S0
G1 X-29.75S500
G0 X-2.917
G0 Y0.05
G0 X2.917
G1 X29.8
G1 X9.5S0
G1 X94.65S500
G1 X0.75S0
G1 X162.3S500
G0 X2.916
G0 Y0.05
G0 X-2.916
G1 X-162.15
G1 X-1.05S0
G1 X-94.45S500
G1 X-9.45S0
G1 X-29.9S500
G0 X-2.917
G0 Y0.05
G0 X2.917
G1 X30
G1 X9.35S0
G1 X94.35S500
G1 X1.3S0
G1 X162S500
G0 X2.916
G0 Y0.05
G0 X-2.916
G1 X-161.95
G1 X-1.4S0
G1 X-94.25S500
G1 X-9.3S0
G1 X-30.1S500
G0 X-2.917
G0 Y0.05
G0 X2.917
G1 X30.15
G1 X9.3S0
G1 X94.1S500
G1 X1.6S0
G1 X161.85S500
G0 X2.916
G0 Y0.05
G0 X-2.916
G1 X-161.75
G1 X-1.7S0
G1 X-94.05S500
G1 X-9.25S0
G1 X-30.25S500
G0 X-2.917
G0 Y0.05
G0 X2.917
G1 X30.3
G1 X9.25S0
G1 X93.9S500
G1 X1.85S0
G1 X161.7S500
G0 X2.916
G0 Y0.05
G0 X-2.916
G1 X-161.7
G1 X-1.9S0
G1 X-93.85S500
G1 X-9.2S0
G1 X-30.35S500
G0 X-2.917
G0 Y0.05
G0 X2.917
G1 X30.45
G1 X9.15S0
G1 X69.4S500
G1 X0.2S0
G1 X24.1S500
G1 X2.1S0
G1 X161.6S500
G0 X2.916
G0 Y0.05
G0 X-2.916
G1 X-161.5
G1 X-2.25S0
G1 X-23.85S500
G1 X-0.55S0
G1 X-69.2S500
G1 X-9.1S0
G1 X-30.55S500
G0 X-2.917
G0 Y0.05
G0 X2.917
G1 X30.6
G1 X9.05S0
G1 X69.15S500
G1 X0.65S0
G1 X23.75S500
G1 X2.3S0
G1 X161.5S500
G0 X2.916
G0 Y0.05
G0 X-2.916
G1 X-161.4
G1 X-2.45S0
G1 X-23.65S500
G1 X-0.75S0
G1 X-69.05S500
G1 X-9S0
G1 X-30.7S500
G0 X-2.917
G0 Y0.05
G0 X2.917
G1 X30.75
G1 X9S0
G1 X69S500
G1 X0.75S0
G1 X23.6S500
G1 X2.5S0
G1 X161.4S500
G0 X2.916
G0 Y0.05
G0 X-2.916
G1 X-161.35
G1 X-2.6S0
G1 X-23.5S500
G1 X-0.85S0
G1 X-68.9S500
G1 X-8.95S0
G1 X-30.85S500
G0 X-2.917
G0 Y0.05
G0 X2.917
G1 X30.95
G1 X8.85S0
G1 X68.9S500
G1 X0.9S0
G1 X23.4S500
G1 X2.7S0
G1 X161.3S500
G0 X2.916
G0 Y0.05
G0 X-2.916
G1 X-161.3
G1 X-2.7S0
G1 X-23.4S500
G1 X-0.85S0
G1 X-68.9S500
G1 X-8.8S0
G1 X-31.05S500
G0 X-2.917
G0 Y0.05
G0 X2.917
G1 X31.1
G1 X8.8S0
G1 X68.8S500
G1 X0.9S0
G1 X23.4S500
G1 X2.75S0
G1 X161.25S500
G0 X2.916
G0 Y0.05
G0 X-2.916
G1 X-161.25
G1 X-2.8S0
G1 X-23.35S500
G1 X-0.9S0
G1 X-68.75S500
G1 X-8.8S0
G1 X-31.15S500
G0 X-2.917
G0 Y0.05
G0 X2.917
G1 X31.25
G1 X8.7S0
G1 X68.75S500
G1 X0.9S0
G1 X23.35S500
G1 X2.85S0
G1 X161.2S500
G0 X2.916
G0 Y0.05
G0 X-2.916
G1 X-154.5
G1 X-0.25S0
G1 X-6.45S500
G1 X-2.9S0
G1 X-23.35S500
G1 X-0.8S0
G1 X-61.95S500
G1 X-0.25S0
G1 X-6.55S500
G1 X-8.65S0
G1 X-31.35S500
G0 X-2.917
G0 Y0.05
G0 X2.917
G1 X31.4
G1 X8.7S0
G1 X6.35S500
G1 X0.4S0
G1 X61.9S500
G1 X0.8S0
G1 X23.35S500
G1 X2.9S0
G1 X6.35S500
G1 X0.45S0
G1 X154.4S500
G0 X2.916
G0 Y0.05
G0 X-2.916
G1 X-154.35
G1 X-0.6S0
G1 X-6.2S500
G1 X-2.95S0
G1 X-23.4S500
G1 X-0.7S0
G1 X-61.8S500
G1 X-0.65S0
G1 X-6.25S500
G1 X-8.6S0
G1 X-31.5S500
G0 X-2.917
G0 Y0.05
G0 X2.917
G1 X31.55
G1 X8.6S0
G1 X6.15S500
G1 X0.7S0
G1 X61.85S500
G1 X0.6S0
G1 X23.4S500
G1 X2.95S0
G1 X6.25S500
G1 X0.7S0
G1 X154.25S500
G0 X2.916
G0 Y0.05
G0 X-2.916
G1 X-154.2
G1 X-0.85S0
G1 X-6.05S500
G1 X-3.1S0
G1 X-23.4S500
G1 X-0.5S0
G1 X-61.85S500
G1 X-0.8S0
G1 X-6.1S500
G1 X-8.5S0
G1 X-31.65S500
G0 X-2.917
G0 Y0.05
G0 X2.917
G1 X31.75
G1 X8.45S0
G1 X6.05S500
G1 X0.85S0
G1 X61.95S500
G1 X0.2S0
G1 X23.6S500
G1 X3.05S0
G1 X6.05S500
G1 X0.85S0
G1 X154.2S500
G0 X2.916
G0 Y0.05
G0 X-2.916
G1 X-154.15
G1 X-0.95S0
G1 X-6.05S500
G1 X-3.05S0
G1 X-85.65S500
G1 X-0.95S0
G1 X-5.9S500
G1 X-8.55S0
G1 X-31.75S500
G0 X-2.917
G0 Y0.05
G0 X2.917
G1 X31.9
G1 X8.4S0
G1 X5.9S500
G1 X0.95S0
G1 X85.65S500
G1 X3.1S0
G1 X5.95S500
G1 X1S0
G1 X154.15S500
G0 X2.916
G0 Y0.05
G0 X-2.916
G1 X-154.15
G1 X-1.05S0
G1 X-5.9S500
G1 X-3.15S0
G1 X-85.55S500
G1 X-1.05S0
G1 X-5.75S500
G1 X-8.45S0
G1 X-31.95S500
G0 X-2.917
G0 Y0.05
G0 X2.917
G1 X32
G1 X0.4S0
G1 X7.1S500
G1 X0.9S0
G1 X5.75S500
G1 X1.05S0
G1 X85.55S500
G1 X3.15S0
G1 X5.9S500
G1 X1.05S0
G1 X154.15S500
G0 X2.916
G0 Y0.05
G0 X-2.916
G1 X-154.15
G1 X-1.05S0
G1 X-5.85S500
G1 X-3.2S0
G1 X-85.55S500
G1 X-1.1S0
G1 X-5.65S500
G1 X-0.8S0
G1 X-7.35S500
G1 X-0.2S0
G1 X-32.1S500
G0 X-2.917
G0 Y0.05
G0 X2.917
G1 X32.2
G1 X0.05S0
G1 X7.6S500
G1 X0.6S0
G1 X5.65S500
G1 X1.1S0
G1 X85.55S500
G1 X3.15S0
G1 X5.85S500
G1 X1.1S0
G1 X154.15S500
G0 X2.916
G0 Y0.05
G0 X-2.916
G1 X-154.15
G1 X-1.1S0
G1 X-5.85S500
G1 X-3.15S0
G1 X-85.6S500
G1 X-1.1S0
G1 X-5.5S500
G1 X-0.5S0
G1 X-0.05S500
G1 X-0.05S0
G1 X-39.95S500
G0 X-2.917
G0 Y0.05
G0 X2.917
G1 X40.1
G1 X0.45S0
G1 X5.5S500
G1 X1.1S0
G1 X85.6S500
G1 X3.2S0
G1 X5.85S500
G1 X1S0
G1 X154.2S500
G0 X2.916
G0 Y0.05
G0 X-2.916
G1 X-154.25
G1 X-1S0
G1 X-5.85S500
G1 X-3.15S0
G1 X-72.2S500
G1 X-0.3S0
G1 X-13.15S500
G1 X-1.1S0
G1 X-5.5S500
G1 X-0.3S0
G1 X-40.2S500
G0 X-2.917
G0 Y0.05
G0 X2.917
G1 X40.3
G1 X0.15S0
G1 X5.5S500
G1 X1.15S0
G1 X13.05S500
G1 X0.5S0
G1 X72.1S500
G1 X3.15S0
G1 X5.9S500
G1 X1S0
G1 X154.2S500
G0 X2.916
G0 Y0.05
G0 X-2.916
G1 X-154.3
G1 X-0.9S0
G1 X-5.85S500
G1 X-3.15S0
G1 X-72.05S500
G1 X-0.65S0
G1 X-13.05S500
G1 X-1.1S0
G1 X-5.55S500
G1 X-0.05S0
G1 X-40.35S500
G0 X-2.917
G0 Y0.05
G0 X2.917
G1 X45.95
G1 X1.1S0
G1 X13S500
G1 X0.75S0
G1 X72S500
G1 X3.1S0
G1 X5.95S500
G1 X0.8S0
G1 X154.35S500
G0 X2.916
G0 Y0.05
G0 X-2.916
G1 X-154.4
G1 X-0.75S0
G1 X-6S500
G1 X-3.05S0
G1 X-71.95S500
G1 X-0.85S0
G1 X-12.95S500
G1 X-1.1S0
G1 X-14S500
G1 X-0.15S0
G1 X-31.8S500
G0 X-2.917
G0 Y0.05
G0 X2.917
G1 X31.75
G1 X0.3S0
G1 X13.85S500
G1 X1.1S0
G1 X12.95S500
G1 X0.9S0
G1 X71.95S500
G1 X3.1S0
G1 X6.05S500
G1 X0.6S0
G1 X154.45S500
G0 X2.916
G0 Y0.05
G0 X-2.916
G1 X-154.5
G1 X-0.5S0
G1 X-6.15S500
G1 X-3S0
G1 X-71.95S500
G1 X-1S0
G1 X-12.9S500
G1 X-1.05S0
G1 X-13.85S500
G1 X-0.4S0
G1 X-31.7S500
G0 X-2.917
G0 Y0.05
G0 X2.917
G1 X31.7
G1 X0.5S0
G1 X13.75S500
G1 X1.05S0
G1 X12.95S500
G1 X0.95S0
G1 X31.5S500
G1 X0.1S0
G1 X40.4S500
G1 X3S0
G1 X6.15S500
G1 X0.4S0
G1 X154.55S500
G0 X2.916
G0 Y0.05
G0 X-2.916
G1 X-154.65
G1 X-0.15S0
G1 X-6.35S500
G1 X-3S0
G1 X-40.25S500
G1 X-0.25S0
G1 X-31.45S500
G1 X-1S0
G1 X-12.9S500
G1 X-1.1S0
G1 X-13.65S500
G1 X-0.5S0
G1 X-31.75S500
G0 X-2.917
G0 Y0.05
G0 X2.917
G1 X31.8
G1 X0.6S0
G1 X13.55S500
G1 X1S0
G1 X12.95S500
G1 X1S0
G1 X31.4S500
G1 X0.3S0
G1 X40.35S500
G1 X2.9S0
G1 X161.15S500
G0 X2.916
G0 Y0.05
G0 X-2.916
G1 X-161.15
G1 X-2.95S0
G1 X-40.25S500
G1 X-0.35S0
G1 X-31.4S500
G1 X-1S0
G1 X-12.95S500
G1 X-1S0
G1 X-13.35S500
G1 X-0.7S0
G1 X-31.9S500
G0 X-2.917
G0 Y0.05
G0 X2.917
G1 X31.9
G1 X0.85S0
G1 X13.2S500
G1 X1S0
G1 X12.95S500
G1 X1S0
G1 X31.45S500
G1 X0.25S0
G1 X40.35S500
G1 X2.85S0
G1 X161.2S500
G0 X2.916
G0 Y0.05
G0 X-2.916
G1 X-161.15
G1 X-2.9S0
G1 X-40.35S500
G1 X-0.25S0
G1 X-31.45S500
G1 X-0.95S0
G1 X-13.05S500
G1 X-0.9S0
G1 X-13.1S500
G1 X-0.9S0
G1 X-32S500
G0 X-2.917
G0 Y0.05
G0 X2.917
G1 X31.95
G1 X1.25S0
G1 X12.8S500
G1 X0.9S0
G1 X13.05S500
G1 X0.9S0
G1 X31.6S500
G1 X0.05S0
G1 X40.5S500
G1 X2.8S0
G1 X161.2S500
G0 X2.916
G0 Y0.05
G0 X-2.916
G1 X-161.25
G1 X-2.7S0
G1 X-72.25S500
G1 X-0.8S0
G1 X-13.15S500
G1 X-0.75S0
G1 X-7.2S500
G1 X-6.85S0
G1 X-32.05S500
G0 X-2.917
G0 Y0.05
G0 X2.917
G1 X32.1
G1 X6.95S0
G1 X7.05S500
G1 X0.75S0
G1 X13.2S500
G1 X0.75S0
G1 X72.3S500
G1 X2.65S0
G1 X161.25S500
G0 X2.916
G0 Y0.05
G0 X-2.916
G1 X-161.3
G1 X-2.65S0
G1 X-72.3S500
G1 X-0.65S0
G1 X-13.3S500
G1 X-0.6S0
G1 X-7.05S500
G1 X-7S0
G1 X-32.15S500
G0 X-2.917
G0 Y0.05
G0 X2.917
G1 X32.15
G1 X7.05S0
G1 X7.05S500
G1 X0.5S0
G1 X13.4S500
G1 X0.5S0
G1 X72.5S500
G1 X2.5S0
G1 X161.35S500
G0 X2.916
G0 Y0.05
G0 X-2.916
G1 X-161.4
G1 X-2.45S0
G1 X-72.7S500
G1 X-0.15S0
G1 X-13.65S500
G1 X-0.3S0
G1 X-7.05S500
G1 X-7.05S0
G1 X-32.25S500
G0 X-2.917
G0 Y0.05
G0 X2.917
G1 X32.25
G1 X7.15S0
G1 X93.8S500
G1 X2.3S0
G1 X161.5S500
G0 X2.916
G0 Y0.05
G0 X-2.916
G1 X-161.6
G1 X-2.15S0
G1 X-93.85S500
G1 X-7.05S0
G1 X-32.35S500
G0 X-2.917
G0 Y0.05
G0 X2.917
G1 X32.4
G1 X7.05S0
G1 X93.85S500
G1 X2S0
G1 X161.7S500
G0 X2.916
G0 Y0.05
G0 X-2.916
G1 X-161.7
G1 X-1.9S0
G1 X-93.9S500
G1 X-7.05S0
G1 X-32.45S500
G0 X-2.917
G0 Y0.05
G0 X2.917
G1 X32.45
G1 X7.05S0
G1 X93.9S500
G1 X1.75S0
G1 X161.85S500
G0 X2.916
G0 Y0.05
G0 X-2.916
G1 X-161.9
G1 X-1.6S0
G1 X-93.95S500
G1 X-7.05S0
G1 X-32.5S500
G0 X-2.917
G0 Y0.05
G0 X2.917
G1 X32.55
G1 X7.05S0
G1 X94S500
G1 X1.35S0
G1 X162.05S500
G0 X2.916
G0 Y0.05
G0 X-2.916
G1 X-162.25
G1 X-1S0
G1 X-94.15S500
G1 X-7S0
G1 X-32.6S500
G0 X-2.917
G0 Y0.05
G0 X2.917
G1 X32.65
G1 X7S0
G1 X94.4S500
G1 X0.3S0
G1 X162.65S500
G0 X2.916
G0 Y0.05
G0 X-2.916
G1 X-257.35
G1 X-6.95S0
G1 X-32.7S500
G0 X-2.917
G0 Y0.05
G0 X2.917
G1 X32.75
G1 X6.95S0
G1 X257.3S500
G0 X2.916
G0 Y0.05
G0 X-2.916
G1 X-257.3
G1 X-6.9S0
G1 X-32.8S500
G0 X-2.917
G0 Y0.05
G0 X2.917
G1 X18.5
G1 X0.2S0
G1 X14.1S500
G1 X6.95S0
G1 X257.25S500
G0 X2.916
G0 Y0.05
G0 X-2.916
G1 X-257.25
G1 X-6.9S0
G1 X-14.05S500
G1 X-0.4S0
G1 X-18.4S500
G0 X-2.917
G0 Y0.05
G0 X2.917
G1 X18.35
G1 X0.45S0
G1 X14.1S500
G1 X6.9S0
G1 X257.2S500
G0 X2.916
G0 Y0.05
G0 X-2.916
G1 X-257.15
G1 X-6.9S0
G1 X-14.1S500
G1 X-0.5S0
G1 X-18.35S500
G0 X-2.917
G0 Y0.05
G0 X2.917
G1 X18.3
G1 X0.55S0
G1 X14.15S500
G1 X6.9S0
G1 X257.1S500
G0 X2.916
G0 Y0.05
G0 X-2.916
G1 X-257.1
G1 X-6.9S0
G1 X-14.15S500
G1 X-0.55S0
G1 X-18.3S500
G0 X-2.917
G0 Y0.05
G0 X2.917
G1 X18.3
G1 X0.55S0
G1 X14.2S500
G1 X6.9S0
G1 X127.75S500
G1 X0.05S0
G1 X129.25S500
G0 X2.916
G0 Y0.05
G0 X-2.916
G1 X-129.2
G1 X-0.25S0
G1 X-127.55S500
G1 X-6.9S0
G1 X-14.25S500
G1 X-0.5S0
G1 X-18.35S500
G0 X-2.917
G0 Y0.05
G0 X2.917
G1 X18.35
G1 X0.5S0
G1 X14.3S500
G1 X6.9S0
G1 X127.45S500
G1 X0.4S0
G1 X129.1S500
G0 X2.916
G0 Y0.05
G0 X-2.916
G1 X-125.8
G1 X-0.15S0
G1 X-3.2S500
G1 X-0.35S0
G1 X-127.4S500
G1 X-6.95S0
G1 X-14.35S500
G1 X-0.4S0
G1 X-18.4S500
G0 X-2.917
G0 Y0.05
G0 X2.917
G1 X18.5
G1 X0.2S0
G1 X14.5S500
G1 X6.9S0
G1 X127.4S500
G1 X0.4S0
G1 X3.1S500
G1 X0.3S0
G1 X47.55S500
G1 X0.35S0
G1 X77.8S500
G0 X2.916
G0 Y0.05
G0 X-2.916
G1 X-77.6
G1 X-0.75S0
G1 X-47.3S500
G1 X-0.4S0
G1 X-3.1S500
G1 X-0.35S0
G1 X-127.35S500
G1 X-6.9S0
G1 X-33.25S500
G0 X-2.917
G0 Y0.05
G0 X2.917
G1 X33.3
G1 X6.9S0
G1 X127.3S500
G1 X0.3S0
G1 X3.2S500
G1 X0.35S0
G1 X4.55S500
G1 X0.1S0
G1 X0.05S500
G1 X0.1S0
G1 X0.05S500
G1 X0.05S0
G1 X42.25S500
G1 X1S0
G1 X77.5S500
G0 X2.916
G0 Y0.05
G0 X-2.916
G1 X-77.35
G1 X-1.25S0
G1 X-42.05S500
G1 X-0.6S0
G1 X-4.4S500
G1 X-0.4S0
G1 X-3.15S500
G1 X-0.25S0
G1 X-127.3S500
G1 X-6.9S0
G1 X-33.35S500
G0 X-2.917
G0 Y0.05
G0 X2.917
G1 X33.35
G1 X6.95S0
G1 X127.35S500
G1 X0.05S0
G1 X2.5S500
G1 X0.05S0
G1 X0.75S500
G1 X0.35S0
G1 X4.35S500
G1 X0.7S0
G1 X41.9S500
G1 X1.35S0
G1 X77.35S500
G0 X2.916
G0 Y0.05
G0 X-2.916
G1 X-77.25
G1 X-1.5S0
G1 X-39.65S500
G1 X-0.2S0
G1 X-2S500
G1 X-0.7S0
G1 X-4.45S500
G1 X-0.15S0
G1 X-0.75S500
G1 X-0.25S0
G1 X-129.7S500
G1 X-7S0
G1 X-33.4S500
G0 X-2.917
G0 Y0.05
G0 X2.917
G1 X33.4
G1 X7.05S0
G1 X129.6S500
G1 X0.4S0
G1 X5.25S500
G1 X0.75S0
G1 X1.9S500
G1 X0.25S0
G1 X39.6S500
G1 X1.55S0
G1 X77.25S500
G0 X2.916
G0 Y0.05
G0 X-2.916
G1 X-77.2
G1 X-1.65S0
G1 X-39.5S500
G1 X-0.3S0
G1 X-1.95S500
G1 X-0.75S0
G1 X-5.1S500
G1 X-0.5S0
G1 X-129.5S500
G1 X-7.1S0
G1 X-33.45S500
G0 X-2.917
G0 Y0.05
G0 X2.917
G1 X33.45
G1 X3.75S0
G1 X0.05S500
G1 X3.35S0
G1 X0.75S500
G1 X0.45S0
G1 X123.2S500
G1 X0.1S0
G1 X3.15S500
G1 X0.25S0
G1 X1.55S500
G1 X0.7S0
G1 X4.95S500
G1 X0.75S0
G1 X1.9S500
G1 X0.3S0
G1 X2.2S500
G1 X0.1S0
G1 X37.2S500
G1 X1.7S0
G1 X77.15S500
G0 X2.916
G0 Y0.05
G0 X-2.916
G1 X-77.1
G1 X-1.85S0
G1 X-37.1S500
G1 X-0.2S0
G1 X-2.1S500
G1 X-0.35S0
G1 X-1.9S500
G1 X-0.75S0
G1 X-4.8S500
G1 X-0.75S0
G1 X-1.4S500
G1 X-0.55S0
G1 X-2.1S500
G1 X-0.2S0
G1 X-0.65S500
G1 X-0.3S0
G1 X-123.1S500
G1 X-0.75S0
G1 X-0.45S500
G1 X-3.45S0
G1 X-0.05S500
G1 X-3.6S0
G1 X-33.5S500
G0 X-2.917
G0 Y0.05
G0 X2.917
G1 X33.5
G1 X3.5S0
G1 X0.1S500
G1 X3.45S0
G1 X0.25S500
G1 X1.05S0
G1 X123S500
G1 X0.4S0
G1 X0.55S500
G1 X0.3S0
G1 X2.05S500
G1 X0.6S0
G1 X1.35S500
G1 X0.8S0
G1 X4.8S500
G1 X0.7S0
G1 X1.95S500
G1 X0.35S0
G1 X1.95S500
G1 X0.3S0
G1 X37.1S500
G1 X1.85S0
G1 X77.1S500
G0 X2.916
G0 Y0.05
G0 X-2.916
G1 X-77.05
G1 X-1.9S0
G1 X-37.1S500
G1 X-0.35S0
G1 X-0.95S500
G1 X-0.1S0
G1 X-0.9S500
G1 X-0.3S0
G1 X-2.05S500
G1 X-0.65S0
G1 X-1.3S500
G1 X-0.2S0
G1 X-3.25S500
G1 X-0.75S0
G1 X-1.35S500
G1 X-0.7S0
G1 X-2S500
G1 X-0.3S0
G1 X-0.55S500
G1 X-0.45S0
G1 X-122.9S500
G1 X-1.25S0
G1 X-0.15S500
G1 X-3.4S0
G1 X-0.2S500
G1 X-3.45S0
G1 X-33.45S500
G0 X-2.917
G0 Y0.05
G0 X2.917
G1 X33.45
G1 X3.35S0
G1 X0.2S500
G1 X4.9S0
G1 X122.9S500
G1 X0.5S0
G1 X0.6S500
G1 X0.25S0
G1 X1.9S500
G1 X0.8S0
G1 X1.3S500
G1 X0.9S0
G1 X2.6S500
G1 X0.05S0
G1 X0.1S500
G1 X0.05S0
G1 X0.1S500
G1 X0.45S0
G1 X1.25S500
G1 X0.6S0
G1 X2.05S500
G1 X0.3S0
G1 X0.9S500
G1 X0.2S0
G1 X0.8S500
G1 X0.45S0
G1 X37.05S500
G1 X1.95S0
G1 X77.05S500
G0 X2.916
G0 Y0.05
G0 X-2.916
G1 X-77.05
G1 X-1.95S0
G1 X-37.1S500
G1 X-0.4S0
G1 X-0.75S500
G1 X-0.25S0
G1 X-0.85S500
G1 X-0.35S0
G1 X-2.15S500
G1 X-0.55S0
G1 X-1.2S500
G1 X-0.95S0
G1 X-2.35S500
G1 X-0.85S0
G1 X-1.4S500
G1 X-0.8S0
G1 X-1.95S500
G1 X-0.2S0
G1 X-0.6S500
G1 X-0.55S0
G1 X-122.9S500
G1 X-1.55S0
G1 X-0.55S500
G1 X-0.05S0
G1 X-0.1S500
G1 X-0.05S0
G1 X-0.1S500
G1 X-0.05S0
G1 X-0.1S500
G1 X-0.05S0
G1 X-0.05S500
G1 X-0.05S0
G1 X-0.05S500
G1 X-0.05S0
G1 X-0.05S500
G1 X-0.05S0
G1 X-0.05S500
G1 X-0.05S0
G1 X-0.05S500
G1 X-0.05S0
G1 X-0.05S500
G1 X-0.05S0
G1 X-0.05S500
G1 X-0.05S0
G1 X-0.05S500
G1 X-0.05S0
G1 X-0.05S500
G1 X-0.05S0
G1 X-0.05S500
G1 X-0.05S0
G1 X-0.05S500
G1 X-0.05S0
G1 X-0.05S500
G1 X-0.05S0
G1 X-0.05S500
G1 X-0.05S0
G1 X-0.05S500
G1 X-0.05S0
G1 X-0.05S500
G1 X-0.05S0
G1 X-0.05S500
G1 X-0.05S0
G1 X-0.1S500
G1 X-0.05S0
G1 X-0.8S500
G1 X-0.8S0
G1 X-0.1S500
G1 X-0.05S0
G1 X-0.1S500
G1 X-0.05S0
G1 X-0.1S500
G1 X-0.05S0
G1 X-0.1S500
G1 X-0.05S0
G1 X-0.1S500
G1 X-0.05S0
G1 X-0.1S500
G1 X-0.05S0
G1 X-0.1S500
G1 X-0.05S0
G1 X-0.15S500
G1 X-0.05S0
G1 X-0.2S500
G1 X-0.05S0
G1 X-0.25S500
G1 X-0.75S0
G1 X-33.4S500
G0 X-2.917
G0 Y0.05
G0 X2.917
G1 X33.35
G1 X0.6S0
G1 X1.85S500
G1 X0.8S0
G1 X3.65S500
G1 X1.5S0
G1 X121.8S500
G1 X0.05S0
G1 X1.2S500
G1 X0.5S0
G1 X2.75S500
G1 X0.8S0
G1 X1.5S500
G1 X0.85S0
G1 X2.2S500
G1 X1S0
G1 X1.25S500
G1 X0.4S0
G1 X2.25S500
G1 X0.35S0
G1 X0.85S500
G1 X0.3S0
G1 X0.7S500
G1 X0.35S0
G1 X37.15S500
G1 X2S0
G1 X77S500
G0 X2.916
G0 Y0.05
G0 X-2.916
G1 X-76.95
G1 X-2.05S0
G1 X-31.55S500
G1 X-0.15S0
G1 X-5.4S500
G1 X-0.45S0
G1 X-0.7S500
G1 X-0.3S0
G1 X-0.75S500
G1 X-0.4S0
G1 X-2.25S500
G1 X-0.45S0
G1 X-1.25S500
G1 X-1S0
G1 X-2.1S500
G1 X-0.85S0
G1 X-1.6S500
G1 X-0.7S0
G1 X-2.85S500
G1 X-0.4S0
G1 X-1.15S500
G1 X-0.2S0
G1 X-2.15S500
G1 X-0.1S0
G1 X-119.6S500
G1 X-1.5S0
G1 X-3.6S500
G1 X-0.8S0
G1 X-1.9S500
G1 X-0.5S0
G1 X-33.35S500
G0 X-2.917
G0 Y0.05
G0 X2.917
G1 X33.3
G1 X0.45S0
G1 X1.9S500
G1 X0.8S0
G1 X3.6S500
G1 X1.45S0
G1 X119.65S500
G1 X0.3S0
G1 X2.05S500
G1 X0.15S0
G1 X1.2S500
G1 X0.35S0
G1 X2.85S500
G1 X0.75S0
G1 X0.75S500
G1 X0.2S0
G1 X0.65S500
G1 X0.9S0
G1 X2.05S500
G1 X1S0
G1 X1.2S500
G1 X0.45S0
G1 X2.3S500
G1 X0.45S0
G1 X0.7S500
G1 X0.35S0
G1 X0.7S500
G1 X0.3S0
G1 X5.4S500
G1 X0.3S0
G1 X31.45S500
G1 X2.1S0
G1 X76.95S500
G0 X2.916
G0 Y0.05
G0 X-2.916
G1 X-76.95
G1 X-2.1S0
G1 X-31.45S500
G1 X-0.4S0
G1 X-5.45S500
G1 X-0.05S0
G1 X-0.85S500
G1 X-0.3S0
G1 X-0.7S500
G1 X-0.45S0
G1 X-2.25S500
G1 X-0.5S0
G1 X-1.25S500
G1 X-1S0
G1 X-1.95S500
G1 X-0.85S0
G1 X-0.65S500
G1 X-0.35S0
G1 X-0.7S500
G1 X-0.7S0
G1 X-2.95S500
G1 X-0.25S0
G1 X-1.3S500
G1 X-0.05S0
G1 X-2.05S500
G1 X-0.45S0
G1 X-119.6S500
G1 X-1.4S0
G1 X-0.05S500
G1 X-0.05S0
G1 X-3.6S500
G1 X-0.85S0
G1 X-1.85S500
G1 X-0.3S0
G1 X-33.35S500
G0 X-2.917
G0 Y0.05
G0 X2.917
G1 X33.4
G1 X0.15S0
G1 X1.85S500
G1 X0.85S0
G1 X3.7S500
G1 X1.4S0
G1 X119.65S500
G1 X0.5S0
G1 X6S500
G1 X0.05S0
G1 X0.05S500
G1 X0.05S0
G1 X0.5S500
G1 X0.55S0
G1 X0.8S500
G1 X0.4S0
G1 X0.65S500
G1 X0.85S0
G1 X1.9S500
G1 X0.95S0
G1 X1.3S500
G1 X0.5S0
G1 X2.25S500
G1 X0.55S0
G1 X0.6S500
G1 X0.3S0
G1 X6.25S500
G1 X0.55S0
G1 X31.4S500
G1 X2.15S0
G1 X76.9S500
G0 X2.916
G0 Y0.05
G0 X-2.916
G1 X-76.9
G1 X-2.15S0
G1 X-31.4S500
G1 X-0.7S0
G1 X-1.95S500
G1 X-0.35S0
G1 X-3.8S500
G1 X-0.25S0
G1 X-0.6S500
G1 X-0.6S0
G1 X-2.2S500
G1 X-0.6S0
G1 X-1.25S500
G1 X-0.9S0
G1 X-1.95S500
G1 X-0.85S0
G1 X-0.6S500
G1 X-0.45S0
G1 X-0.85S500
G1 X-0.4S0
G1 X-0.5S500
G1 X-0.6S0
G1 X-5.6S500
G1 X-0.65S0
G1 X-119.6S500
G1 X-1.4S0
G1 X-3.75S500
G1 X-0.85S0
G1 X-1.8S500
G1 X-0.05S0
G1 X-33.45S500
G0 X-2.917
G0 Y0.05
G0 X2.917
G1 X35.25
G1 X0.8S0
G1 X3.8S500
G1 X1.35S0
G1 X119.55S500
G1 X0.8S0
G1 X5.5S500
G1 X0.85S0
G1 X0.4S500
G1 X0.3S0
G1 X0.95S500
G1 X0.45S0
G1 X0.55S500
G1 X0.8S0
G1 X2.05S500
G1 X0.8S0
G1 X1.3S500
G1 X0.55S0
G1 X0.7S500
G1 X0.25S0
G1 X1.3S500
G1 X0.7S0
G1 X0.6S500
G1 X0.05S0
G1 X3.85S500
G1 X0.5S0
G1 X1.8S500
G1 X0.7S0
G1 X31.45S500
G1 X2.15S0
G1 X76.9S500
G0 X2.916
G0 Y0.05
G0 X-2.916
G1 X-76.85
G1 X-2.2S0
G1 X-31.45S500
G1 X-0.75S0
G1 X-1.1S500
G1 X-0.1S0
G1 X-0.5S500
G1 X-0.65S0
G1 X-4.35S500
G1 X-0.75S0
G1 X-1.2S500
G1 X-0.45S0
G1 X-0.55S500
G1 X-0.6S0
G1 X-1.25S500
G1 X-0.85S0
G1 X-2S500
G1 X-0.75S0
G1 X-0.6S500
G1 X-0.5S0
G1 X-1.6S500
G1 X-1S0
G1 X-5.35S500
G1 X-0.9S0
G1 X-119.55S500
G1 X-1.4S0
G1 X-3.8S500
G1 X-0.8S0
G1 X-35.15S500
G0 X-2.917
G0 Y0.05
G0 X2.917
G1 X35.05
G1 X0.8S0
G1 X3.85S500
G1 X1.4S0
G1 X119.85S500
G1 X0.75S0
G1 X5.2S500
G1 X1.15S0
G1 X1.5S500
G1 X0.55S0
G1 X0.6S500
G1 X0.7S0
G1 X2.1S500
G1 X0.75S0
G1 X1.3S500
G1 X0.6S0
G1 X0.5S500
G1 X0.55S0
G1 X1.1S500
G1 X0.8S0
G1 X2.15S500
G1 X0.25S0
G1 X1.9S500
G1 X0.7S0
G1 X0.45S500
G1 X0.15S0
G1 X1.05S500
G1 X0.7S0
G1 X31.5S500
G1 X2.2S0
G1 X76.85S500
G0 X2.916
G0 Y0.05
G0 X-2.916
G1 X-76.85
G1 X-2.25S0
G1 X-31.5S500
G1 X-0.7S0
G1 X-0.95S500
G1 X-0.25S0
G1 X-0.4S500
G1 X-0.7S0
G1 X-1.9S500
G1 X-0.35S0
G1 X-1.95S500
G1 X-0.9S0
G1 X-1S500
G1 X-0.65S0
G1 X-0.5S500
G1 X-0.6S0
G1 X-1.3S500
G1 X-0.65S0
G1 X-2.25S500
G1 X-0.6S0
G1 X-0.6S500
G1 X-0.5S0
G1 X-1.55S500
G1 X-0.65S0
G1 X-0.15S500
G1 X-0.4S0
G1 X-5.15S500
G1 X-0.7S0
G1 X-120.05S500
G1 X-1.35S0
G1 X-3.85S500
G1 X-0.9S0
G1 X-34.9S500
G0 X-2.917
G0 Y0.05
G0 X2.917
G1 X34.8
G1 X1.05S0
G1 X3.75S500
G1 X1.35S0
G1 X120.15S500
G1 X0.75S0
G1 X5S500
G1 X0.4S0
G1 X0.35S500
G1 X0.5S0
G1 X1.55S500
G1 X0.5S0
G1 X0.65S500
G1 X0.55S0
G1 X2.4S500
G1 X0.5S0
G1 X1.3S500
G1 X0.65S0
G1 X0.4S500
G1 X0.8S0
G1 X0.9S500
G1 X0.9S0
G1 X1.9S500
G1 X0.4S0
G1 X1.85S500
G1 X0.8S0
G1 X0.4S500
G1 X0.25S0
G1 X0.9S500
G1 X0.7S0
G1 X31.55S500
G1 X2.25S0
G1 X76.8S500
G0 X2.916
G0 Y0.05
G0 X-2.916
G1 X-76.8
G1 X-2.2S0
G1 X-31.65S500
G1 X-0.65S0
G1 X-0.95S500
G1 X-0.2S0
G1 X-0.4S500
G1 X-0.8S0
G1 X-1.8S500
G1 X-0.45S0
G1 X-1.9S500
G1 X-0.9S0
G1 X-0.85S500
G1 X-0.85S0
G1 X-0.4S500
G1 X-0.65S0
G1 X-1.25S500
G1 X-0.5S0
G1 X-2.5S500
G1 X-0.45S0
G1 X-0.65S500
G1 X-0.5S0
G1 X-1.55S500
G1 X-0.55S0
G1 X-0.45S500
G1 X-0.3S0
G1 X-2.45S500
G1 X-0.35S0
G1 X-2.05S500
G1 X-0.85S0
G1 X-120.25S500
G1 X-1.35S0
G1 X-3.65S500
G1 X-1.2S0
G1 X-34.7S500
G0 X-2.917
G0 Y0.05
G0 X2.917
G1 X34.65
G1 X1.3S0
G1 X3.55S500
G1 X1.35S0
G1 X120.4S500
G1 X0.85S0
G1 X1.75S500
G1 X0.75S0
G1 X2.3S500
G1 X0.2S0
G1 X0.6S500
G1 X0.45S0
G1 X1.6S500
G1 X0.45S0
G1 X0.75S500
G1 X0.3S0
G1 X2.55S500
G1 X0.55S0
G1 X1.2S500
G1 X0.7S0
G1 X0.3S500
G1 X1S0
G1 X0.75S500
G1 X0.95S0
G1 X1.8S500
G1 X0.4S0
G1 X1.85S500
G1 X0.85S0
G1 X0.45S500
G1 X0.2S0
G1 X0.95S500
G1 X0.5S0
G1 X31.75S500
G1 X2.15S0
G1 X76.85S500
G0 X2.916
G0 Y0.05
G0 X-2.916
G1 X-76.8
G1 X-2.2S0
G1 X-31.8S500
G1 X-0.4S0
G1 X-0.95S500
G1 X-0.2S0
G1 X-0.55S500
G1 X-0.85S0
G1 X-1.8S500
G1 X-0.45S0
G1 X-0.6S500
G1 X-0.2S0
G1 X-0.95S500
G1 X-1S0
G1 X-0.65S500
G1 X-1.15S0
G1 X-0.1S500
G1 X-0.85S0
G1 X-0.55S500
G1 X-0.15S0
G1 X-0.35S500
G1 X-0.65S0
G1 X-3.6S500
G1 X-0.45S0
G1 X-1.7S500
G1 X-0.3S0
G1 X-3.05S500
G1 X-0.95S0
G1 X-1.6S500
G1 X-0.85S0
G1 X-1.35S500
G1 X-0.1S0
G1 X-119.05S500
G1 X-1.35S0
G1 X-3.45S500
G1 X-1.45S0
G1 X-32.15S500
G1 X-0.4S0
G1 X-2S500
G0 X-2.917
G0 Y0.05
G0 X2.917
G1 X1.95
G1 X0.6S0
G1 X31.85S500
G1 X1.65S0
G1 X3.35S500
G1 X1.35S0
G1 X119S500
G1 X0.25S0
G1 X1.4S500
G1 X0.85S0
G1 X1.45S500
G1 X1.15S0
G1 X1.2S500
G1 X0.25S0
G1 X1.55S500
G1 X0.1S0
G1 X1.85S500
G1 X0.35S0
G1 X3.6S500
G1 X1.35S0
G1 X0.3S500
G1 X2.35S0
G1 X0.4S500
G1 X1.15S0
G1 X0.85S500
G1 X0.3S0
G1 X0.5S500
G1 X0.45S0
G1 X1.8S500
G1 X0.95S0
G1 X0.55S500
G1 X0.1S0
G1 X1.05S500
G1 X0.05S0
G1 X0.05S500
G1 X0.05S0
G1 X0.05S500
G1 X0.05S0
G1 X31.95S500
G1 X2.15S0
G1 X76.8S500
G0 X2.916
G0 Y0.05
G0 X-2.916
G1 X-76.8
G1 X-2.1S0
G1 X-33.05S500
G1 X-0.05S0
G1 X-0.05S500
G1 X-0.2S0
G1 X-0.6S500
G1 X-1S0
G1 X-1.8S500
G1 X-0.5S0
G1 X-0.4S500
G1 X-0.35S0
G1 X-0.8S500
G1 X-1.35S0
G1 X-0.05S500
G1 X-4.3S0
G1 X-3.45S500
G1 X-0.35S0
G1 X-3.45S500
G1 X-0.35S0
G1 X-1S500
G1 X-1.35S0
G1 X-1.4S500
G1 X-0.7S0
G1 X-1.5S500
G1 X-0.3S0
G1 X-119.05S500
G1 X-1.35S0
G1 X-3.25S500
G1 X-1.8S0
G1 X-31.7S500
G1 X-0.75S0
G1 X-1.85S500
G0 X-2.917
G0 Y0.05
G0 X2.917
G1 X1.8
G1 X0.85S0
G1 X31.55S500
G1 X1.95S0
G1 X3.15S500
G1 X1.35S0
G1 X117.85S500
G1 X0.05S0
G1 X1.15S500
G1 X0.4S0
G1 X1.6S500
G1 X0.6S0
G1 X1.35S500
G1 X1.5S0
G1 X0.8S500
G1 X0.45S0
G1 X2.4S500
G1 X0.1S0
G1 X0.95S500
G1 X0.2S0
G1 X1.7S500
G1 X0.25S0
G1 X1.45S500
G1 X5.9S0
G1 X0.75S500
G1 X0.35S0
G1 X0.35S500
G1 X0.55S0
G1 X1.8S500
G1 X1S0
G1 X0.65S500
G1 X0.35S0
G1 X4.5S500
G1 X0.15S0
G1 X28.3S500
G1 X2.05S0
G1 X76.85S500
G0 X2.916
G0 Y0.05
G0 X-2.916
G1 X-24.75
G1 X-0.25S0
G1 X-51.85S500
G1 X-2S0
G1 X-28.2S500
G1 X-0.35S0
G1 X-4.35S500
G1 X-0.45S0
G1 X-0.7S500
G1 X-1S0
G1 X-1.8S500
G1 X-0.6S0
G1 X-0.3S500
G1 X-0.35S0
G1 X-0.65S500
G1 X-5.95S0
G1 X-1.4S500
G1 X-0.35S0
G1 X-2.7S500
G1 X-0.25S0
G1 X-2.35S500
G1 X-0.4S0
G1 X-0.75S500
G1 X-1.65S0
G1 X-1.3S500
G1 X-0.55S0
G1 X-1.65S500
G1 X-0.4S0
G1 X-0.95S500
G1 X-0.3S0
G1 X-117.85S500
G1 X-1.35S0
G1 X-3S500
G1 X-2.1S0
G1 X-31.45S500
G1 X-0.9S0
G1 X-1.8S500
G0 X-2.917
G0 Y0.05
G0 X2.917
G1 X1.8
G1 X0.9S0
G1 X31.35S500
G1 X2.25S0
G1 X2.9S500
G1 X1.35S0
G1 X117.85S500
G1 X0.4S0
G1 X0.95S500
G1 X0.4S0
G1 X1.7S500
G1 X0.4S0
G1 X1.3S500
G1 X1.75S0
G1 X0.75S500
G1 X0.3S0
G1 X2.35S500
G1 X0.25S0
G1 X2.7S500
G1 X0.45S0
G1 X1.3S500
G1 X3.85S0
G1 X0.1S500
G1 X2.1S0
G1 X0.6S500
G1 X0.35S0
G1 X0.3S500
G1 X0.6S0
G1 X1.85S500
G1 X1S0
G1 X0.6S500
G1 X0.55S0
G1 X1.25S500
G1 X0.2S0
G1 X2.8S500
G1 X0.45S0
G1 X28.15S500
G1 X2S0
G1 X51.8S500
G1 X0.4S0
G1 X24.65S500
G0 X2.916
G0 Y0.05
G0 X-2.916
G1 X-24.65
G1 X-0.45S0
G1 X-51.75S500
G1 X-1.95S0
G1 X-28.15S500
G1 X-0.5S0
G1 X-2.75S500
G1 X-0.35S0
G1 X-1.15S500
G1 X-0.5S0
G1 X-0.65S500
G1 X-1.05S0
G1 X-1.75S500
G1 X-0.7S0
G1 X-0.3S500
G1 X-0.25S0
G1 X-0.55S500
G1 X-2S0
G1 X-0.3S500
G1 X-3.9S0
G1 X-1.2S500
G1 X-0.55S0
G1 X-2.65S500
G1 X-0.2S0
G1 X-2.4S500
G1 X-0.25S0
G1 X-0.75S500
G1 X-1.8S0
G1 X-1.35S500
G1 X-0.3S0
G1 X-1.7S500
G1 X-0.5S0
G1 X-0.8S500
G1 X-0.5S0
G1 X-1.1S500
G1 X-0.2S0
G1 X-116.6S500
G1 X-1.35S0
G1 X-1.35S500
G1 X-0.05S0
G1 X-0.1S500
G1 X-0.05S0
G1 X-0.1S500
G1 X-0.05S0
G1 X-0.1S500
G1 X-0.05S0
G1 X-0.15S500
G1 X-0.05S0
G1 X-0.7S500
G1 X-2.45S0
G1 X-31.25S500
G1 X-0.9S0
G1 X-1.8S500
G0 X-2.917
G0 Y0.05
G0 X2.917
G1 X1.8
G1 X0.9S0
G1 X31.15S500
G1 X6.65S0
G1 X116.5S500
G1 X0.35S0
G1 X1.1S500
G1 X0.5S0
G1 X0.8S500
G1 X0.55S0
G1 X1.7S500
G1 X0.05S0
G1 X0.1S500
G1 X0.05S0
G1 X1.2S500
G1 X0.7S0
G1 X0.05S500
G1 X1.25S0
G1 X0.8S500
G1 X0.05S0
G1 X2.6S500
G1 X0.05S0
G1 X2.75S500
G1 X0.5S0
G1 X1.2S500
G1 X2.85S0
G1 X0.05S500
G1 X0.95S0
G1 X0.45S500
G1 X1.9S0
G1 X0.55S500
G1 X0.25S0
G1 X0.3S500
G1 X0.75S0
G1 X1.75S500
G1 X0.95S0
G1 X0.65S500
G1 X0.6S0
G1 X1.05S500
G1 X0.4S0
G1 X2.75S500
G1 X0.55S0
G1 X28.15S500
G1 X1.85S0
G1 X51.8S500
G1 X0.5S0
G1 X24.6S500
G0 X2.916
G0 Y0.05
G0 X-2.916
G1 X-24.6
G1 X-0.5S0
G1 X-51.8S500
G1 X-1.75S0
G1 X-28.25S500
G1 X-0.25S0
G1 X-0.25S500
G1 X-0.1S0
G1 X-2.7S500
G1 X-0.5S0
G1 X-0.95S500
G1 X-0.55S0
G1 X-0.7S500
G1 X-0.9S0
G1 X-1.8S500
G1 X-0.8S0
G1 X-0.3S500
G1 X-0.2S0
G1 X-0.55S500
G1 X-1.75S0
G1 X-0.55S500
G1 X-0.9S0
G1 X-0.25S500
G1 X-2.75S0
G1 X-1.2S500
G1 X-0.45S0
G1 X-6.25S500
G1 X-1.15S0
G1 X-0.3S500
G1 X-0.65S0
G1 X-3S500
G1 X-0.6S0
G1 X-0.7S500
G1 X-0.6S0
G1 X-1.1S500
G1 X-0.4S0
G1 X-116.5S500
G1 X-6.75S0
G1 X-31S500
G1 X-0.9S0
G1 X-1.8S500
G0 X-2.917
G0 Y0.05
G0 X2.917
G1 X1.85
G1 X0.85S0
G1 X30.95S500
G1 X6.75S0
G1 X116.55S500
G1 X0.35S0
G1 X1.2S500
G1 X0.5S0
G1 X0.75S500
G1 X0.7S0
G1 X2.8S500
G1 X0.7S0
G1 X0.45S500
G1 X1.05S0
G1 X6.25S500
G1 X0.45S0
G1 X1.15S500
G1 X2.8S0
G1 X0.3S500
G1 X0.95S0
G1 X0.5S500
G1 X1.75S0
G1 X1.05S500
G1 X0.9S0
G1 X1.7S500
G1 X0.85S0
G1 X0.75S500
G1 X0.5S0
G1 X0.85S500
G1 X0.6S0
G1 X2.6S500
G1 X0.15S0
G1 X28.8S500
G1 X1.7S0
G1 X51.8S500
G1 X0.55S0
G1 X24.6S500
G0 X2.916
G0 Y0.05
G0 X-2.916
G1 X-24.6
G1 X-0.45S0
G1 X-51.95S500
G1 X-1.55S0
G1 X-27S500
G1 X-0.05S0
G1 X-1.85S500
G1 X-0.25S0
G1 X-2.55S500
G1 X-0.65S0
G1 X-0.75S500
G1 X-0.5S0
G1 X-0.8S500
G1 X-0.75S0
G1 X-1.65S500
G1 X-1.05S0
G1 X-1S500
G1 X-1.65S0
G1 X-0.65S500
G1 X-0.9S0
G1 X-0.35S500
G1 X-2.75S0
G1 X-1.15S500
G1 X-0.45S0
G1 X-6.25S500
G1 X-0.95S0
G1 X-0.55S500
G1 X-0.7S0
G1 X-2.7S500
G1 X-0.8S0
G1 X-0.7S500
G1 X-0.55S0
G1 X-1.15S500
G1 X-0.5S0
G1 X-116.5S500
G1 X-6.8S0
G1 X-30.85S500
G1 X-0.85S0
G1 X-1.85S500
G0 X-2.917
G0 Y0.05
G0 X2.917
G1 X1.85
G1 X0.85S0
G1 X30.75S500
G1 X6.9S0
G1 X116.55S500
G1 X0.4S0
G1 X1.25S500
G1 X0.45S0
G1 X0.8S500
G1 X0.75S0
G1 X2.75S500
G1 X0.6S0
G1 X0.65S500
G1 X0.95S0
G1 X2.3S500
G1 X0.2S0
G1 X3.85S500
G1 X0.35S0
G1 X1.1S500
G1 X1.15S0
G1 X0.15S500
G1 X1.45S0
G1 X0.3S500
G1 X1.05S0
G1 X0.7S500
G1 X1.45S0
G1 X1S500
G1 X1.1S0
G1 X1.75S500
G1 X0.55S0
G1 X0.95S500
G1 X0.4S0
G1 X0.75S500
G1 X0.7S0
G1 X2.45S500
G1 X0.3S0
G1 X0.75S500
G1 X0.1S0
G1 X0.9S500
G1 X0.3S0
G1 X27.05S500
G1 X1.35S0
G1 X51.95S500
G1 X0.45S0
G1 X24.65S500
G0 X2.916
G0 Y0.05
G0 X-2.916
G1 X-24.65
G1 X-0.4S0
G1 X-52.1S500
G1 X-1.1S0
G1 X-27.1S500
G1 X-0.5S0
G1 X-0.75S500
G1 X-0.15S0
G1 X-0.75S500
G1 X-0.35S0
G1 X-2.5S500
G1 X-0.65S0
G1 X-0.7S500
G1 X-0.35S0
G1 X-1.15S500
G1 X-0.05S0
G1 X-0.05S500
G1 X-0.2S0
G1 X-1.8S500
G1 X-1.15S0
G1 X-1.1S500
G1 X-1.2S0
G1 X-0.85S500
G1 X-1.1S0
G1 X-0.2S500
G1 X-1.45S0
G1 X-0.5S500
G1 X-0.9S0
G1 X-1.05S500
G1 X-0.3S0
G1 X-3.8S500
G1 X-0.4S0
G1 X-2.25S500
G1 X-0.85S0
G1 X-0.65S500
G1 X-0.7S0
G1 X-2.7S500
G1 X-0.75S0
G1 X-0.8S500
G1 X-0.45S0
G1 X-1.3S500
G1 X-0.4S0
G1 X-116.55S500
G1 X-6.05S0
G1 X-31.6S500
G1 X-0.7S0
G1 X-1.95S500
G0 X-2.917
G0 Y0.05
G0 X2.917
G1 X2
G1 X0.6S0
G1 X31.65S500
G1 X6S0
G1 X116.6S500
G1 X0.35S0
G1 X1.4S500
G1 X0.35S0
G1 X0.85S500
G1 X0.65S0
G1 X0.7S500
G1 X0.05S0
G1 X2.1S500
G1 X0.7S0
G1 X0.65S500
G1 X0.8S0
G1 X2.25S500
G1 X0.45S0
G1 X3.9S500
G1 X0.1S0
G1 X1.05S500
G1 X0.85S0
G1 X0.55S500
G1 X0.65S0
G1 X0.1S500
G1 X0.05S0
G1 X0.05S500
G1 X2.05S0
G1 X0.9S500
G1 X0.95S0
G1 X1.2S500
G1 X1.15S0
G1 X0.95S500
G1 X0.05S0
G1 X3.3S500
G1 X0.6S0
G1 X2.45S500
G1 X0.45S0
G1 X0.85S500
G1 X0.05S0
G1 X0.7S500
G1 X0.6S0
G1 X27.15S500
G1 X0.95S0
G1 X52.2S500
G1 X0.3S0
G1 X24.7S500
G0 X2.916
G0 Y0.05
G0 X-2.916
G1 X-24.8
G1 X-0.1S0
G1 X-32.55S500
G1 X-0.05S0
G1 X-19.8S500
G1 X-0.8S0
G1 X-27.2S500
G1 X-0.6S0
G1 X-1.65S500
G1 X-0.4S0
G1 X-2.5S500
G1 X-0.55S0
G1 X-1.45S500
G1 X-0.25S0
G1 X-1.45S500
G1 X-0.3S0
G1 X-0.9S500
G1 X-1.15S0
G1 X-1.2S500
G1 X-0.85S0
G1 X-0.95S500
G1 X-2S0
G1 X-0.3S500
G1 X-0.6S0
G1 X-0.6S500
G1 X-0.85S0
G1 X-5S500
G1 X-0.45S0
G1 X-2.25S500
G1 X-0.75S0
G1 X-0.7S500
G1 X-0.7S0
G1 X-1.95S500
G1 X-0.3S0
G1 X-0.65S500
G1 X-0.65S0
G1 X-0.85S500
G1 X-0.25S0
G1 X-1.45S500
G1 X-0.35S0
G1 X-116.6S500
G1 X-5.95S0
G1 X-31.75S500
G1 X-0.55S0
G1 X-2S500
G0 X-2.917
G0 Y0.05
G0 X2.917
G1 X2.1
G1 X0.35S0
G1 X31.85S500
G1 X5.9S0
G1 X116.65S500
G1 X0.25S0
G1 X2.65S500
G1 X0.6S0
G1 X0.6S500
G1 X0.5S0
G1 X1.85S500
G1 X0.8S0
G1 X0.65S500
G1 X0.6S0
G1 X2.35S500
G1 X0.5S0
G1 X4.95S500
G1 X0.85S0
G1 X0.55S500
G1 X0.65S0
G1 X0.35S500
G1 X2.05S0
G1 X0.85S500
G1 X0.85S0
G1 X1.2S500
G1 X1.2S0
G1 X0.8S500
G1 X0.45S0
G1 X1.25S500
G1 X0.5S0
G1 X1.3S500
G1 X0.5S0
G1 X2.5S500
G1 X0.45S0
G1 X1.6S500
G1 X0.7S0
G1 X27.25S500
G1 X0.6S0
G1 X19.75S500
G1 X0.4S0
G1 X57.25S500
G0 X2.916
G0 Y0.05
G0 X-2.916
G1 X-57.2
G1 X-0.5S0
G1 X-19.85S500
G1 X-0.25S0
G1 X-27.5S500
G1 X-0.7S0
G1 X-1.6S500
G1 X-0.4S0
G1 X-2.55S500
G1 X-0.4S0
G1 X-1.25S500
G1 X-0.6S0
G1 X-1.2S500
G1 X-0.5S0
G1 X-0.8S500
G1 X-1.25S0
G1 X-1.2S500
G1 X-0.8S0
G1 X-0.85S500
G1 X-2.05S0
G1 X-0.4S500
G1 X-0.65S0
G1 X-0.5S500
G1 X-0.9S0
G1 X-4.9S500
G1 X-0.45S0
G1 X-2.45S500
G1 X-0.5S0
G1 X-0.7S500
G1 X-0.8S0
G1 X-1.85S500
G1 X-0.45S0
G1 X-0.7S500
G1 X-0.55S0
G1 X-2.7S500
G1 X-0.05S0
G1 X-1.15S500
G1 X-0.1S0
G1 X-115.6S500
G1 X-5.8S0
G1 X-34.35S500
G0 X-2.917
G0 Y0.05
G0 X2.917
G1 X34.35
G1 X5.75S0
G1 X115.55S500
G1 X0.3S0
G1 X3.75S500
G1 X0.55S0
G1 X0.7S500
G1 X0.55S0
G1 X1.8S500
G1 X0.85S0
G1 X0.7S500
G1 X0.35S0
G1 X2.55S500
G1 X0.5S0
G1 X4.8S500
G1 X1S0
G1 X0.35S500
G1 X0.8S0
G1 X0.3S500
G1 X2.2S0
G1 X0.8S500
G1 X0.8S0
G1 X1.15S500
G1 X1.25S0
G1 X0.75S500
G1 X0.6S0
G1 X1.05S500
G1 X0.75S0
G1 X1.25S500
G1 X0.3S0
G1 X2.65S500
G1 X0.35S0
G1 X1.55S500
G1 X0.75S0
G1 X47.55S500
G1 X0.6S0
G1 X57.15S500
G0 X2.916
G0 Y0.05
G0 X-2.916
G1 X-57.1
G1 X-0.7S0
G1 X-47.5S500
G1 X-0.8S0
G1 X-1.6S500
G1 X-0.2S0
G1 X-4.15S500
G1 X-0.9S0
G1 X-0.95S500
G1 X-0.65S0
G1 X-0.7S500
G1 X-1.35S0
G1 X-1.1S500
G1 X-0.85S0
G1 X-0.7S500
G1 X-2.3S0
G1 X-0.25S500
G1 X-0.85S0
G1 X-0.3S500
G1 X-1S0
G1 X-4.85S500
G1 X-0.35S0
G1 X-2.8S500
G1 X-0.05S0
G1 X-0.75S500
G1 X-0.95S0
G1 X-1.8S500
G1 X-0.5S0
G1 X-0.8S500
G1 X-0.6S0
G1 X-3.6S500
G1 X-0.35S0
G1 X-115.6S500
G1 X-5.65S0
G1 X-34.4S500
G0 X-2.917
G0 Y0.05
G0 X2.917
G1 X34.45
G1 X5.6S0
G1 X115.6S500
G1 X0.4S0
G1 X3.45S500
G1 X0.65S0
G1 X0.8S500
G1 X0.55S0
G1 X1.8S500
G1 X1.1S0
G1 X3.6S500
G1 X0.15S0
G1 X4.9S500
G1 X1.05S0
G1 X0.15S500
G1 X3.6S0
G1 X0.3S500
G1 X1.15S0
G1 X1.1S500
G1 X1.45S0
G1 X0.6S500
G1 X0.8S0
G1 X0.4S500
G1 X1.5S0
G1 X5.75S500
G1 X0.75S0
G1 X47.5S500
G1 X0.8S0
G1 X57.05S500
G0 X2.916
G0 Y0.05
G0 X-2.916
G1 X-57
G1 X-0.9S0
G1 X-47.5S500
G1 X-0.7S0
G1 X-5.6S500
G1 X-2.9S0
G1 X-0.5S500
G1 X-1.5S0
G1 X-1.05S500
G1 X-5.15S0
G1 X-0.05S500
G1 X-1.1S0
G1 X-8.45S500
G1 X-1.3S0
G1 X-1.8S500
G1 X-0.5S0
G1 X-0.9S500
G1 X-0.75S0
G1 X-3.35S500
G1 X-0.3S0
G1 X-115.7S500
G1 X-5.55S0
G1 X-34.45S500
G0 X-2.917
G0 Y0.05
G0 X2.917
G1 X34.45
G1 X5.5S0
G1 X115.75S500
G1 X0.3S0
G1 X3.2S500
G1 X0.85S0
G1 X1S500
G1 X0.55S0
G1 X1S500
G1 X0.2S0
G1 X0.55S500
G1 X1.3S0
G1 X8.4S500
G1 X6.3S0
G1 X1S500
G1 X1.65S0
G1 X0.4S500
G1 X2.9S0
G1 X4.6S500
G1 X0.05S0
G1 X0.95S500
G1 X0.7S0
G1 X47.5S500
G1 X0.9S0
G1 X57S500
G0 X2.916
G0 Y0.05
G0 X-2.916
G1 X-56.95
G1 X-1S0
G1 X-47.5S500
G1 X-0.6S0
G1 X-0.85S500
G1 X-0.35S0
G1 X-4.45S500
G1 X-2.95S0
G1 X-0.3S500
G1 X-0.95S0
G1 X-0.2S500
G1 X-0.6S0
G1 X-0.9S500
G1 X-5.15S0
G1 X-0.2S500
G1 X-0.95S0
G1 X-2.45S500
G1 X-0.2S0
G1 X-3.95S500
G1 X-0.15S0
G1 X-1.65S500
G1 X-1.35S0
G1 X-0.55S500
G1 X-0.25S0
G1 X-1S500
G1 X-0.5S0
G1 X-1S500
G1 X-0.9S0
G1 X-3.2S500
G1 X-0.15S0
G1 X-115.85S500
G1 X-5.4S0
G1 X-34.55S500
G0 X-2.917
G0 Y0.05
G0 X2.917
G1 X34.55
G1 X5.35S0
G1 X119.2S500
G1 X0.95S0
G1 X1.05S500
G1 X0.5S0
G1 X1S500
G1 X0.2S0
G1 X0.55S500
G1 X1.35S0
G1 X1.55S500
G1 X0.35S0
G1 X3.8S500
G1 X0.35S0
G1 X2.35S500
G1 X0.95S0
G1 X0.25S500
G1 X5.1S0
G1 X0.85S500
G1 X0.6S0
G1 X0.3S500
G1 X4.2S0
G1 X4.35S500
G1 X0.45S0
G1 X0.8S500
G1 X0.6S0
G1 X47.55S500
G1 X0.95S0
G1 X56.95S500
G0 X2.916
G0 Y0.05
G0 X-2.916
G1 X-56.95
G1 X-0.95S0
G1 X-47.6S500
G1 X-0.45S0
G1 X-0.85S500
G1 X-0.55S0
G1 X-4.3S500
G1 X-4.2S0
G1 X-0.35S500
G1 X-0.6S0
G1 X-0.75S500
G1 X-1.7S0
G1 X-0.1S500
G1 X-3.35S0
G1 X-0.3S500
G1 X-0.9S0
G1 X-2.3S500
G1 X-0.45S0
G1 X-3.7S500
G1 X-0.45S0
G1 X-1.5S500
G1 X-0.75S0
G1 X-0.15S500
G1 X-0.45S0
G1 X-1.75S500
G1 X-0.45S0
G1 X-1.15S500
G1 X-0.95S0
G1 X-119.15S500
G1 X-5.3S0
G1 X-34.6S500
G0 X-2.917
G0 Y0.05
G0 X2.917
G1 X34.65
G1 X5.25S0
G1 X119.05S500
G1 X1.05S0
G1 X1.15S500
G1 X0.5S0
G1 X1.7S500
G1 X0.3S0
G1 X0.45S500
G1 X0.6S0
G1 X1.5S500
G1 X0.45S0
G1 X3.75S500
G1 X0.4S0
G1 X2.35S500
G1 X0.85S0
G1 X0.35S500
G1 X3.2S0
G1 X0.3S500
G1 X1.6S0
G1 X0.7S500
G1 X0.6S0
G1 X0.4S500
G1 X4.2S0
G1 X4.25S500
G1 X0.7S0
G1 X0.8S500
G1 X0.45S0
G1 X47.5S500
G1 X1S0
G1 X56.95S500
G0 X2.916
G0 Y0.05
G0 X-2.916
G1 X-56.95
G1 X-0.95S0
G1 X-46.6S500
G1 X-0.15S0
G1 X-0.8S500
G1 X-0.45S0
G1 X-0.6S500
G1 X-0.9S0
G1 X-2.8S500
G1 X-0.6S0
G1 X-0.85S500
G1 X-0.85S0
G1 X-0.3S500
G1 X-3.1S0
G1 X-0.35S500
G1 X-0.75S0
G1 X-0.6S500
G1 X-1.55S0
G1 X-0.4S500
G1 X-3.1S0
G1 X-0.4S500
G1 X-0.7S0
G1 X-2.45S500
G1 X-0.45S0
G1 X-3.65S500
G1 X-0.55S0
G1 X-1.45S500
G1 X-0.55S0
G1 X-0.5S500
G1 X-0.3S0
G1 X-1.7S500
G1 X-0.55S0
G1 X-1.05S500
G1 X-1.5S0
G1 X-118.7S500
G1 X-5.2S0
G1 X-34.65S500
G0 X-2.917
G0 Y0.05
G0 X2.917
G1 X34.65
G1 X5.15S0
G1 X117.75S500
G1 X0.35S0
G1 X0.6S500
G1 X1.55S0
G1 X1.1S500
G1 X0.5S0
G1 X1.7S500
G1 X0.25S0
G1 X0.6S500
G1 X0.45S0
G1 X1.6S500
G1 X0.4S0
G1 X3.75S500
G1 X0.4S0
G1 X2.4S500
G1 X0.75S0
G1 X0.4S500
G1 X3.05S0
G1 X0.45S500
G1 X1.6S0
G1 X0.45S500
G1 X0.85S0
G1 X0.3S500
G1 X3.05S0
G1 X0.45S500
G1 X0.9S0
G1 X0.6S500
G1 X0.8S0
G1 X2.75S500
G1 X1S0
G1 X0.5S500
G1 X0.5S0
G1 X0.6S500
G1 X0.35S0
G1 X46.55S500
G1 X0.95S0
G1 X56.95S500
G0 X2.916
G0 Y0.05
G0 X-2.916
G1 X-57
G1 X-0.9S0
G1 X-46.55S500
G1 X-0.45S0
G1 X-0.45S500
G1 X-0.6S0
G1 X-0.35S500
G1 X-1.1S0
G1 X-2.7S500
G1 X-0.95S0
G1 X-0.5S500
G1 X-0.85S0
G1 X-0.55S500
G1 X-3.1S0
G1 X-0.2S500
G1 X-0.9S0
G1 X-0.4S500
G1 X-1.6S0
G1 X-0.55S500
G1 X-2.95S0
G1 X-0.4S500
G1 X-0.7S0
G1 X-2.5S500
G1 X-0.35S0
G1 X-3.7S500
G1 X-0.5S0
G1 X-1.6S500
G1 X-0.35S0
G1 X-0.7S500
G1 X-0.2S0
G1 X-1.7S500
G1 X-0.5S0
G1 X-1.05S500
G1 X-1.65S0
G1 X-0.55S500
G1 X-0.4S0
G1 X-117.7S500
G1 X-5.1S0
G1 X-34.7S500
G0 X-2.917
G0 Y0.05
G0 X2.917
G1 X34.75
G1 X5S0
G1 X113.8S500
G1 X0.05S0
G1 X2.8S500
G1 X0.05S0
G1 X0.1S500
G1 X0.05S0
G1 X0.85S500
G1 X0.45S0
G1 X0.6S500
G1 X1.65S0
G1 X0.95S500
G1 X0.55S0
G1 X1.65S500
G1 X0.3S0
G1 X0.85S500
G1 X0.05S0
G1 X1.75S500
G1 X0.45S0
G1 X3.75S500
G1 X0.25S0
G1 X2.6S500
G1 X0.7S0
G1 X0.35S500
G1 X1.7S0
G1 X0.1S500
G1 X0.05S0
G1 X0.05S500
G1 X1S0
G1 X0.65S500
G1 X1.5S0
G1 X0.4S500
G1 X3.55S0
G1 X0.05S500
G1 X0.45S0
G1 X0.9S500
G1 X0.8S0
G1 X0.2S500
G1 X1.2S0
G1 X0.6S500
G1 X0.2S0
G1 X1.85S500
G1 X1.15S0
G1 X0.25S500
G1 X0.8S0
G1 X0.05S500
G1 X0.05S0
G1 X0.05S500
G1 X0.65S0
G1 X46.55S500
G1 X0.85S0
G1 X57S500
G0 X2.916
G0 Y0.05
G0 X-2.916
G1 X-57.1
G1 X-0.7S0
G1 X-46.65S500
G1 X-2.9S0
G1 X-0.55S500
G1 X-0.35S0
G1 X-0.05S500
G1 X-0.15S0
G1 X-0.7S500
G1 X-0.35S0
G1 X-0.55S500
G1 X-2.05S0
G1 X-1.7S500
G1 X-3.4S0
G1 X-0.4S500
G1 X-1.55S0
G1 X-0.65S500
G1 X-0.85S0
G1 X-1.05S500
G1 X-1.05S0
G1 X-0.2S500
G1 X-0.75S0
G1 X-6.65S500
G1 X-0.45S0
G1 X-2.6S500
G1 X-0.3S0
G1 X-1.7S500
G1 X-0.5S0
G1 X-0.85S500
G1 X-1.8S0
G1 X-0.5S500
G1 X-0.55S0
G1 X-0.6S500
G1 X-0.55S0
G1 X-2.45S500
G1 X-0.55S0
G1 X-113.55S500
G1 X-4.9S0
G1 X-34.8S500
G0 X-2.917
G0 Y0.05
G0 X2.917
G1 X34.8
G1 X4.9S0
G1 X113.45S500
G1 X0.75S0
G1 X2.2S500
G1 X0.8S0
G1 X0.55S500
G1 X0.55S0
G1 X0.5S500
G1 X1.8S0
G1 X0.75S500
G1 X0.55S0
G1 X1.7S500
G1 X0.3S0
G1 X2.65S500
G1 X0.4S0
G1 X3.4S500
G1 X0.3S0
G1 X1.65S500
G1 X0.2S0
G1 X1.15S500
G1 X1.85S0
G1 X1.2S500
G1 X0.75S0
G1 X0.75S500
G1 X1.5S0
G1 X0.4S500
G1 X3.3S0
G1 X1.9S500
G1 X1.95S0
G1 X0.55S500
G1 X0.4S0
G1 X0.6S500
G1 X0.75S0
G1 X0.45S500
G1 X2.8S0
G1 X1.3S500
G1 X0.3S0
G1 X45.15S500
G1 X0.65S0
G1 X57.1S500
G0 X2.916
G0 Y0.05
G0 X-2.916
G1 X-57.15
G1 X-0.5S0
G1 X-45.2S500
G1 X-0.4S0
G1 X-1.25S500
G1 X-2.75S0
G1 X-0.5S500
G1 X-0.85S0
G1 X-0.45S500
G1 X-0.45S0
G1 X-0.6S500
G1 X-1.85S0
G1 X-1.95S500
G1 X-3.25S0
G1 X-0.45S500
G1 X-1.6S0
G1 X-0.65S500
G1 X-0.7S0
G1 X-1.25S500
G1 X-1.85S0
G1 X-1.05S500
G1 X-0.35S0
G1 X-1.65S500
G1 X-0.35S0
G1 X-3.35S500
G1 X-0.4S0
G1 X-2.6S500
G1 X-0.35S0
G1 X-1.7S500
G1 X-0.55S0
G1 X-0.65S500
G1 X-1.2S0
G1 X-0.3S500
G1 X-0.25S0
G1 X-0.65S500
G1 X-0.6S0
G1 X-0.35S500
G1 X-1.05S0
G1 X-2S500
G1 X-0.85S0
G1 X-113.4S500
G1 X-4.85S0
G1 X-34.85S500
G0 X-2.917
G0 Y0.05
G0 X2.917
G1 X34.9
G1 X4.75S0
G1 X113.4S500
G1 X0.9S0
G1 X1.95S500
G1 X1.15S0
G1 X0.3S500
G1 X0.65S0
G1 X1.25S500
G1 X1.15S0
G1 X0.55S500
G1 X0.6S0
G1 X1.7S500
G1 X0.4S0
G1 X2.5S500
G1 X0.4S0
G1 X3.3S500
G1 X0.5S0
G1 X1.6S500
G1 X0.3S0
G1 X1.15S500
G1 X1.75S0
G1 X1.3S500
G1 X0.65S0
G1 X0.75S500
G1 X1.5S0
G1 X0.45S500
G1 X3.25S0
G1 X2S500
G1 X1.8S0
G1 X0.65S500
G1 X0.5S0
G1 X0.35S500
G1 X0.95S0
G1 X0.5S500
G1 X2.65S0
G1 X1.25S500
G1 X0.45S0
G1 X45.3S500
G1 X0.25S0
G1 X57.3S500
G0 X2.916
G0 Y0.05
G0 X-2.916
G1 X-102.8
G1 X-0.5S0
G1 X-1.3S500
G1 X-2.6S0
G1 X-0.5S500
G1 X-1.05S0
G1 X-0.05S500
G1 X-0.05S0
G1 X-0.05S500
G1 X-0.55S0
G1 X-0.7S500
G1 X-1.75S0
G1 X-2.1S500
G1 X-3.1S0
G1 X-0.55S500
G1 X-1.55S0
G1 X-0.7S500
G1 X-0.65S0
G1 X-1.3S500
G1 X-1.75S0
G1 X-1.05S500
G1 X-0.4S0
G1 X-1.6S500
G1 X-0.5S0
G1 X-3.3S500
G1 X-0.45S0
G1 X-2.4S500
G1 X-0.5S0
G1 X-1.6S500
G1 X-0.75S0
G1 X-0.4S500
G1 X-1.15S0
G1 X-1.25S500
G1 X-0.8S0
G1 X-0.05S500
G1 X-1.4S0
G1 X-1.85S500
G1 X-0.85S0
G1 X-113.45S500
G1 X-4.7S0
G1 X-34.95S500
G0 X-2.917
G0 Y0.05
G0 X2.917
G1 X34.95
G1 X4.65S0
G1 X113.45S500
G1 X0.8S0
G1 X1.9S500
G1 X2.35S0
G1 X1.25S500
G1 X1.15S0
G1 X0.25S500
G1 X0.8S0
G1 X1.5S500
G1 X0.65S0
G1 X2.35S500
G1 X0.45S0
G1 X3.3S500
G1 X0.5S0
G1 X1.6S500
G1 X0.4S0
G1 X1.15S500
G1 X1.8S0
G1 X1.25S500
G1 X0.6S0
G1 X0.65S500
G1 X1.55S0
G1 X0.6S500
G1 X3.15S0
G1 X2.05S500
G1 X1.7S0
G1 X0.8S500
G1 X1.7S0
G1 X0.5S500
G1 X2.5S0
G1 X1.35S500
G1 X0.55S0
G1 X102.8S500
G0 X2.916
G0 Y0.05
G0 X-2.916
G1 X-100.8
G1 X-0.1S0
G1 X-1.95S500
G1 X-0.5S0
G1 X-1.4S500
G1 X-2.45S0
G1 X-0.5S500
G1 X-1.65S0
G1 X-0.85S500
G1 X-1.65S0
G1 X-2.1S500
G1 X-3.1S0
G1 X-0.7S500
G1 X-1.5S0
G1 X-0.65S500
G1 X-0.55S0
G1 X-1.15S500
G1 X-1.9S0
G1 X-1.2S500
G1 X-0.3S0
G1 X-1.65S500
G1 X-0.5S0
G1 X-3.35S500
G1 X-0.8S0
G1 X-1.95S500
G1 X-1.05S0
G1 X-1.15S500
G1 X-2.2S0
G1 X-1.25S500
G1 X-2.35S0
G1 X-1.95S500
G1 X-0.75S0
G1 X-113.45S500
G1 X-4.6S0
G1 X-35S500
G0 X-2.917
G0 Y0.05
G0 X2.917
G1 X35.05
G1 X4.5S0
G1 X113.55S500
G1 X0.7S0
G1 X1.9S500
G1 X2.45S0
G1 X1.25S500
G1 X2.2S0
G1 X1S500
G1 X1.2S0
G1 X1.75S500
G1 X0.95S0
G1 X3.3S500
G1 X0.5S0
G1 X1.75S500
G1 X0.25S0
G1 X1.2S500
G1 X2.25S0
G1 X0.8S500
G1 X0.55S0
G1 X0.65S500
G1 X1.4S0
G1 X0.85S500
G1 X3.05S0
G1 X0.5S500
G1 X0.15S0
G1 X1.4S500
G1 X1.75S0
G1 X0.9S500
G1 X1.55S0
G1 X0.5S500
G1 X2.4S0
G1 X1.45S500
G1 X0.5S0
G1 X1.75S500
G1 X0.45S0
G1 X100.65S500
G0 X2.916
G0 Y0.05
G0 X-2.916
G1 X-100.6
G1 X-0.5S0
G1 X-1.75S500
G1 X-0.5S0
G1 X-1.5S500
G1 X-2.4S0
G1 X-0.45S500
G1 X-1.45S0
G1 X-1.05S500
G1 X-0.35S0
G1 X-0.15S500
G1 X-1.2S0
G1 X-1.3S500
G1 X-0.35S0
G1 X-0.4S500
G1 X-3S0
G1 X-0.95S500
G1 X-1.4S0
G1 X-0.6S500
G1 X-0.55S0
G1 X-0.7S500
G1 X-2.35S0
G1 X-1.3S500
G1 X-0.1S0
G1 X-1.9S500
G1 X-0.35S0
G1 X-3.25S500
G1 X-1.2S0
G1 X-1.6S500
G1 X-1.25S0
G1 X-1S500
G1 X-2.15S0
G1 X-1.25S500
G1 X-2.4S0
G1 X-0.9S500
G1 X-0.05S0
G1 X-1.1S500
G1 X-0.65S0
G1 X-1.3S500
G1 X-0.15S0
G1 X-112.05S500
G1 X-4.45S0
G1 X-35.1S500
G0 X-2.917
G0 Y0.05
G0 X2.917
G1 X35.15
G1 X4.35S0
G1 X112.1S500
G1 X0.1S0
G1 X1.4S500
G1 X0.6S0
G1 X1S500
G1 X0.25S0
G1 X0.75S500
G1 X2.4S0
G1 X1.3S500
G1 X2.2S0
G1 X0.9S500
G1 X1.2S0
G1 X1.65S500
G1 X1.2S0
G1 X3.35S500
G1 X0.3S0
G1 X3.3S500
G1 X1.05S0
G1 X0.1S500
G1 X1.25S0
G1 X0.65S500
G1 X0.6S0
G1 X0.55S500
G1 X1.35S0
G1 X1.1S500
G1 X2.95S0
G1 X0.2S500
G1 X0.65S0
G1 X1.2S500
G1 X1.1S0
G1 X0.25S500
G1 X0.35S0
G1 X1.1S500
G1 X1.3S0
G1 X0.5S500
G1 X0.7S0
G1 X0.05S500
G1 X1.55S0
G1 X1.6S500
G1 X0.4S0
G1 X1.8S500
G1 X0.55S0
G1 X100.6S500
G0 X2.916
G0 Y0.05
G0 X-2.916
G1 X-100.65
G1 X-0.55S0
G1 X-1.8S500
G1 X-0.3S0
G1 X-1.8S500
G1 X-1.35S0
G1 X-0.05S500
G1 X-0.85S0
G1 X-0.35S500
G1 X-1.1S0
G1 X-0.05S500
G1 X-0.05S0
G1 X-1.15S500
G1 X-0.4S0
G1 X-0.35S500
G1 X-1.1S0
G1 X-1.1S500
G1 X-3.8S0
G1 X-0.4S500
G1 X-0.2S0
G1 X-0.65S500
G1 X-1.3S0
G1 X-0.45S500
G1 X-0.55S0
G1 X-0.6S500
G1 X-2.55S0
G1 X-6.9S500
G1 X-1.35S0
G1 X-1.7S500
G1 X-1S0
G1 X-0.9S500
G1 X-2.2S0
G1 X-1.3S500
G1 X-1.6S0
G1 X-0.05S500
G1 X-0.85S0
G1 X-0.65S500
G1 X-0.35S0
G1 X-0.95S500
G1 X-0.55S0
G1 X-3.85S500
G1 X-0.2S0
G1 X-109.6S500
G1 X-4.25S0
G1 X-35.25S500
G0 X-2.917
G0 Y0.05
G0 X2.917
G1 X35.25
G1 X4.2S0
G1 X109.6S500
G1 X0.2S0
G1 X3.9S500
G1 X0.55S0
G1 X0.9S500
G1 X0.35S0
G1 X0.7S500
G1 X0.7S0
G1 X0.35S500
G1 X1.45S0
G1 X1.2S500
G1 X2.3S0
G1 X0.9S500
G1 X0.9S0
G1 X1.75S500
G1 X1.45S0
G1 X6.85S500
G1 X2.6S0
G1 X0.6S500
G1 X0.5S0
G1 X0.35S500
G1 X1.4S0
G1 X0.6S500
G1 X0.3S0
G1 X0.45S500
G1 X0.65S0
G1 X0.05S500
G1 X1.05S0
G1 X0.1S500
G1 X1.95S0
G1 X1S500
G1 X1.1S0
G1 X0.35S500
G1 X0.5S0
G1 X1.3S500
G1 X1S0
G1 X0.25S500
G1 X2.2S0
G1 X1.9S500
G1 X0.3S0
G1 X1.85S500
G1 X0.55S0
G1 X100.6S500
G0 X2.916
G0 Y0.05
G0 X-2.916
G1 X-100.65
G1 X-0.5S0
G1 X-1.9S500
G1 X-0.25S0
G1 X-2S500
G1 X-3.3S0
G1 X-1.25S500
G1 X-0.6S0
G1 X-0.3S500
G1 X-1.1S0
G1 X-0.9S500
G1 X-1.95S0
G1 X-0.35S500
G1 X-0.85S0
G1 X-0.25S500
G1 X-0.55S0
G1 X-0.45S500
G1 X-0.3S0
G1 X-0.6S500
G1 X-2.2S0
G1 X-0.5S500
G1 X-2.8S0
G1 X-6.75S500
G1 X-1.5S0
G1 X-1.8S500
G1 X-0.8S0
G1 X-0.95S500
G1 X-2.3S0
G1 X-1.25S500
G1 X-1.35S0
G1 X-0.4S500
G1 X-0.7S0
G1 X-0.7S500
G1 X-1.7S0
G1 X-0.65S500
G1 X-0.3S0
G1 X-2.15S500
G1 X-0.1S0
G1 X-0.85S500
G1 X-0.15S0
G1 X-109.6S500
G1 X-4.15S0
G1 X-35.3S500
G0 X-2.917
G0 Y0.05
G0 X2.917
G1 X35.4
G1 X4S0
G1 X109.65S500
G1 X0.1S0
G1 X0.8S500
G1 X0.2S0
G1 X2.05S500
G1 X0.6S0
G1 X0.5S500
G1 X1.7S0
G1 X0.6S500
G1 X0.65S0
G1 X0.5S500
G1 X1.35S0
G1 X1.15S500
G1 X2.45S0
G1 X0.9S500
G1 X0.7S0
G1 X1.85S500
G1 X1.6S0
G1 X1.1S500
G1 X1.65S0
G1 X3.9S500
G1 X2.95S0
G1 X0.5S500
G1 X2S0
G1 X0.75S500
G1 X0.25S0
G1 X0.55S500
G1 X0.45S0
G1 X0.25S500
G1 X0.8S0
G1 X0.4S500
G1 X2.3S0
G1 X0.5S500
G1 X1.1S0
G1 X0.3S500
G1 X0.75S0
G1 X1.25S500
G1 X3.15S0
G1 X2.15S500
G1 X0.1S0
G1 X1.4S500
G1 X0.3S0
G1 X0.25S500
G1 X0.45S0
G1 X100.7S500
G0 X2.916
G0 Y0.05
G0 X-2.916
G1 X-100.8
G1 X-0.25S0
G1 X-0.35S500
G1 X-0.35S0
G1 X-3.6S500
G1 X-3.2S0
G1 X-1.1S500
G1 X-0.85S0
G1 X-0.25S500
G1 X-1.2S0
G1 X-0.35S500
G1 X-2.35S0
G1 X-0.45S500
G1 X-0.8S0
G1 X-0.3S500
G1 X-0.35S0
G1 X-0.6S500
G1 X-0.3S0
G1 X-0.75S500
G1 X-1.85S0
G1 X-0.55S500
G1 X-3S0
G1 X-3.8S500
G1 X-1.85S0
G1 X-0.9S500
G1 X-1.75S0
G1 X-0.45S500
G1 X-0.2S0
G1 X-1.2S500
G1 X-0.55S0
G1 X-1S500
G1 X-2.5S0
G1 X-1.15S500
G1 X-1.3S0
G1 X-0.55S500
G1 X-0.6S0
G1 X-0.7S500
G1 X-1.5S0
G1 X-0.5S500
G1 X-0.7S0
G1 X-2S500
G1 X-0.2S0
G1 X-110.6S500
G1 X-3.95S0
G1 X-35.45S500
G0 X-2.917
G0 Y0.05
G0 X2.917
G1 X35.6
G1 X3.8S0
G1 X110.6S500
G1 X0.05S0
G1 X2.2S500
G1 X0.7S0
G1 X0.45S500
G1 X1.5S0
G1 X0.6S500
G1 X0.7S0
G1 X0.55S500
G1 X1.35S0
G1 X1.05S500
G1 X2.5S0
G1 X1.15S500
G1 X0.35S0
G1 X1.3S500
G1 X0.2S0
G1 X0.5S500
G1 X1.7S0
G1 X0.8S500
G1 X2S0
G1 X3.7S500
G1 X3.1S0
G1 X0.5S500
G1 X1.8S0
G1 X0.9S500
G1 X0.05S0
G1 X0.85S500
G1 X0.2S0
G1 X0.3S500
G1 X0.9S0
G1 X0.35S500
G1 X2.5S0
G1 X0.15S500
G1 X2.5S0
G1 X1S500
G1 X3.2S0
G1 X3.6S500
G1 X0.35S0
G1 X101.4S500
G0 X2.916
G0 Y0.05
G0 X-2.916
G1 X-101.35
G1 X-0.4S0
G1 X-2.55S500
G1 X-0.45S0
G1 X-0.6S500
G1 X-3.25S0
G1 X-0.75S500
G1 X-5.45S0
G1 X-0.2S500
G1 X-1.1S0
G1 X-0.05S500
G1 X-0.15S0
G1 X-2.05S500
G1 X-1.65S0
G1 X-0.5S500
G1 X-3.2S0
G1 X-3.6S500
G1 X-2.1S0
G1 X-0.7S500
G1 X-1.8S0
G1 X-0.4S500
G1 X-0.35S0
G1 X-2.7S500
G1 X-2.55S0
G1 X-1S500
G1 X-1.4S0
G1 X-0.55S500
G1 X-0.75S0
G1 X-0.55S500
G1 X-1.35S0
G1 X-0.5S500
G1 X-0.75S0
G1 X-112.9S500
G1 X-3.45S0
G1 X-3.55S500
G1 X-0.15S0
G1 X-32.2S500
G0 X-2.917
G0 Y0.05
G0 X2.917
G1 X32.1
G1 X0.3S0
G1 X7.85S500
G1 X0.2S0
G1 X110.75S500
G1 X0.15S0
G1 X0.95S500
G1 X0.65S0
G1 X0.55S500
G1 X1.3S0
G1 X0.5S500
G1 X0.85S0
G1 X0.55S500
G1 X0.6S0
G1 X0.3S500
G1 X0.55S0
G1 X0.9S500
G1 X2.55S0
G1 X2.7S500
G1 X0.4S0
G1 X0.45S500
G1 X1.8S0
G1 X0.65S500
G1 X2.1S0
G1 X2S500
G1 X0.15S0
G1 X1.45S500
G1 X3.2S0
G1 X0.55S500
G1 X1.65S0
G1 X2S500
G1 X10.95S0
G1 X0.55S500
G1 X0.8S0
G1 X2.3S500
G1 X0.3S0
G1 X101.4S500
G0 X2.916
G0 Y0.05
G0 X-2.916
G1 X-101.45
G1 X-0.2S0
G1 X-2.25S500
G1 X-0.9S0
G1 X-0.5S500
G1 X-11S0
G1 X-1.4S500
G1 X-0.3S0
G1 X-0.35S500
G1 X-1.55S0
G1 X-0.6S500
G1 X-3.25S0
G1 X-1.3S500
G1 X-0.3S0
G1 X-1.9S500
G1 X-2.2S0
G1 X-0.65S500
G1 X-1.8S0
G1 X-0.4S500
G1 X-0.4S0
G1 X-2.75S500
G1 X-2.55S0
G1 X-0.85S500
G1 X-0.45S0
G1 X-0.5S500
G1 X-0.55S0
G1 X-0.5S500
G1 X-1S0
G1 X-0.35S500
G1 X-1.3S0
G1 X-0.5S500
G1 X-0.65S0
G1 X-0.9S500
G1 X-0.35S0
G1 X-110.65S500
G1 X-0.25S0
G1 X-7.75S500
G1 X-0.4S0
G1 X-32.05S500
G0 X-2.917
G0 Y0.05
G0 X2.917
G1 X32.05
G1 X0.5S0
G1 X7.55S500
G1 X0.4S0
G1 X110.5S500
G1 X0.5S0
G1 X0.9S500
G1 X0.6S0
G1 X0.55S500
G1 X1.25S0
G1 X0.3S500
G1 X1.05S0
G1 X0.5S500
G1 X0.55S0
G1 X0.55S500
G1 X0.45S0
G1 X0.75S500
G1 X0.5S0
G1 X0.25S500
G1 X1.8S0
G1 X2.75S500
G1 X0.45S0
G1 X0.45S500
G1 X1.85S0
G1 X0.6S500
G1 X2.15S0
G1 X1.8S500
G1 X0.4S0
G1 X1.3S500
G1 X3.3S0
G1 X0.55S500
G1 X1.55S0
G1 X0.25S500
G1 X0.5S0
G1 X1.3S500
G1 X5.1S0
G1 X0.15S500
G1 X3.9S0
G1 X0.2S500
G1 X1.65S0
G1 X0.45S500
G1 X1S0
G1 X103.85S500
G0 X2.916
G0 Y0.05
G0 X-2.916
G1 X-102.25
G1 X-0.25S0
G1 X-1.3S500
G1 X-1.1S0
G1 X-0.3S500
G1 X-1.7S0
G1 X-0.3S500
G1 X-3.75S0
G1 X-0.3S500
G1 X-5S0
G1 X-1.35S500
G1 X-0.55S0
G1 X-0.15S500
G1 X-1.55S0
G1 X-0.6S500
G1 X-3.35S0
G1 X-0.5S500
G1 X-0.1S0
G1 X-0.6S500
G1 X-0.5S0
G1 X-0.95S500
G1 X-0.2S0
G1 X-0.55S500
G1 X-2.15S0
G1 X-0.7S500
G1 X-1.8S0
G1 X-0.55S500
G1 X-0.35S0
G1 X-2.9S500
G1 X-1.6S0
G1 X-0.3S500
G1 X-0.5S0
G1 X-0.75S500
G1 X-0.45S0
G1 X-0.55S500
G1 X-0.55S0
G1 X-0.5S500
G1 X-1.15S0
G1 X-0.2S500
G1 X-1.25S0
G1 X-0.5S500
G1 X-0.6S0
G1 X-0.9S500
G1 X-0.6S0
G1 X-110.45S500
G1 X-0.5S0
G1 X-7.35S500
G1 X-0.5S0
G1 X-32.15S500
G0 X-2.917
G0 Y0.05
G0 X2.917
G1 X32.15
G1 X0.7S0
G1 X6.95S500
G1 X0.05S0
G1 X0.05S500
G1 X0.55S0
G1 X110.45S500
G1 X0.7S0
G1 X0.9S500
G1 X0.5S0
G1 X0.55S500
G1 X2.6S0
G1 X0.5S500
G1 X0.55S0
G1 X0.6S500
G1 X0.45S0
G1 X0.7S500
G1 X0.45S0
G1 X0.4S500
G1 X1.4S0
G1 X3.05S500
G1 X0.3S0
G1 X0.65S500
G1 X1.75S0
G1 X0.7S500
G1 X2.2S0
G1 X0.4S500
G1 X0.35S0
G1 X0.85S500
G1 X0.6S0
G1 X0.45S500
G1 X0.3S0
G1 X0.4S500
G1 X0.65S0
G1 X0.15S500
G1 X0.05S0
G1 X0.15S500
G1 X0.05S0
G1 X0.1S500
G1 X0.05S0
G1 X0.1S500
G1 X0.05S0
G1 X0.1S500
G1 X0.05S0
G1 X0.05S500
G1 X1.85S0
G1 X0.55S500
G1 X2.25S0
G1 X1.4S500
G1 X4.95S0
G1 X0.35S500
G1 X3.65S0
G1 X0.35S500
G1 X0.85S0
G1 X0.1S500
G1 X0.05S0
G1 X0.1S500
G1 X0.7S0
G1 X0.05S500
G1 X1.25S0
G1 X1.2S500
G1 X0.45S0
G1 X102.15S500
G0 X2.916
G0 Y0.05
G0 X-2.916
G1 X-102.1
G1 X-0.55S0
G1 X-1.2S500
G1 X-1.8S0
G1 X-0.5S500
G1 X-0.7S0
G1 X-0.35S500
G1 X-3.65S0
G1 X-0.4S500
G1 X-4.9S0
G1 X-1.45S500
G1 X-2.25S0
G1 X-0.5S500
G1 X-1.75S0
G1 X-1.1S500
G1 X-0.7S0
G1 X-0.25S500
G1 X-0.35S0
G1 X-0.5S500
G1 X-0.6S0
G1 X-0.75S500
G1 X-0.55S0
G1 X-0.15S500
G1 X-2.15S0
G1 X-0.9S500
G1 X-1.65S0
G1 X-4.2S500
G1 X-1.2S0
G1 X-0.45S500
G1 X-0.5S0
G1 X-0.6S500
G1 X-0.45S0
G1 X-0.6S500
G1 X-0.55S0
G1 X-0.55S500
G1 X-1.9S0
G1 X-0.15S500
G1 X-0.55S0
G1 X-0.55S500
G1 X-0.45S0
G1 X-0.9S500
G1 X-0.8S0
G1 X-110.4S500
G1 X-0.85S0
G1 X-6.55S500
G1 X-0.85S0
G1 X-32.2S500
G0 X-2.917
G0 Y0.05
G0 X2.917
G1 X32.2
G1 X8.25S0
G1 X110.35S500
G1 X0.85S0
G1 X0.95S500
G1 X0.45S0
G1 X0.55S500
G1 X0.4S0
G1 X0.45S500
G1 X1.7S0
G1 X0.55S500
G1 X0.55S0
G1 X0.65S500
G1 X0.35S0
G1 X0.65S500
G1 X0.45S0
G1 X0.5S500
G1 X1.1S0
G1 X4.3S500
G1 X1.65S0
G1 X0.95S500
G1 X2.85S0
G1 X0.65S500
G1 X0.65S0
G1 X0.5S500
G1 X0.45S0
G1 X0.1S500
G1 X0.7S0
G1 X1.2S500
G1 X1.75S0
G1 X0.45S500
G1 X2.25S0
G1 X1.45S500
G1 X5S0
G1 X0.3S500
G1 X3.65S0
G1 X0.35S500
G1 X0.6S0
G1 X0.65S500
G1 X1.65S0
G1 X0.3S500
G1 X0.25S0
G1 X0.75S500
G1 X0.55S0
G1 X102.1S500
G0 X2.916
G0 Y0.05
G0 X-2.916
G1 X-102.05
G1 X-0.65S0
G1 X-0.6S500
G1 X-0.4S0
G1 X-0.35S500
G1 X-1.55S0
G1 X-0.7S500
G1 X-0.55S0
G1 X-0.4S500
G1 X-3.55S0
G1 X-0.35S500
G1 X-4.9S0
G1 X-1.55S500
G1 X-2.25S0
G1 X-0.45S500
G1 X-1.7S0
G1 X-1.3S500
G1 X-1.2S0
G1 X-0.45S500
G1 X-0.75S0
G1 X-0.65S500
G1 X-2.7S0
G1 X-1.1S500
G1 X-1.55S0
G1 X-4.35S500
G1 X-1.05S0
G1 X-0.5S500
G1 X-0.55S0
G1 X-0.6S500
G1 X-0.3S0
G1 X-0.65S500
G1 X-0.55S0
G1 X-0.55S500
G1 X-1.75S0
G1 X-0.4S500
G1 X-0.5S0
G1 X-0.45S500
G1 X-0.45S0
G1 X-0.95S500
G1 X-0.95S0
G1 X-0.8S500
G1 X-0.35S0
G1 X-109.2S500
G1 X-8.15S0
G1 X-32.25S500
G0 X-2.917
G0 Y0.05
G0 X2.917
G1 X32.25
G1 X8.1S0
G1 X109.2S500
G1 X0.5S0
G1 X0.7S500
G1 X0.9S0
G1 X1S500
G1 X0.4S0
G1 X0.5S500
G1 X0.45S0
G1 X0.55S500
G1 X1.65S0
G1 X0.6S500
G1 X0.55S0
G1 X0.65S500
G1 X0.25S0
G1 X0.55S500
G1 X0.5S0
G1 X0.65S500
G1 X0.85S0
G1 X2.8S500
G1 X0.2S0
G1 X1.6S500
G1 X1.4S0
G1 X1.15S500
G1 X2.8S0
G1 X0.5S500
G1 X0.75S0
G1 X0.45S500
G1 X1.3S0
G1 X1.3S500
G1 X1.75S0
G1 X0.35S500
G1 X2.25S0
G1 X1.6S500
G1 X4.85S0
G1 X0.35S500
G1 X3.6S0
G1 X0.4S500
G1 X0.45S0
G1 X0.8S500
G1 X1.4S0
G1 X0.45S500
G1 X0.45S0
G1 X0.5S500
G1 X0.75S0
G1 X102S500
G0 X2.916
G0 Y0.05
G0 X-2.916
G1 X-98.95
G1 X-0.35S0
G1 X-0.9S500
G1 X-0.15S0
G1 X-1.65S500
G1 X-0.7S0
G1 X-0.5S500
G1 X-0.5S0
G1 X-0.45S500
G1 X-1.45S0
G1 X-0.9S500
G1 X-0.2S0
G1 X-0.45S500
G1 X-3.6S0
G1 X-0.35S500
G1 X-4.85S0
G1 X-1.7S500
G1 X-2.4S0
G1 X-0.05S500
G1 X-1.85S0
G1 X-1.3S500
G1 X-1.25S0
G1 X-0.45S500
G1 X-1S0
G1 X-0.25S500
G1 X-2.8S0
G1 X-1.25S500
G1 X-1.3S0
G1 X-1.65S500
G1 X-0.2S0
G1 X-2.9S500
G1 X-0.7S0
G1 X-0.7S500
G1 X-0.5S0
G1 X-0.5S500
G1 X-0.3S0
G1 X-0.6S500
G1 X-0.6S0
G1 X-0.6S500
G1 X-1.55S0
G1 X-0.65S500
G1 X-0.5S0
G1 X-0.35S500
G1 X-0.45S0
G1 X-1.05S500
G1 X-0.95S0
G1 X-0.6S500
G1 X-0.6S0
G1 X-109.15S500
G1 X-8.05S0
G1 X-32.3S500
G0 X-2.917
G0 Y0.05
G0 X2.917
G1 X32.35
G1 X7.95S0
G1 X109.15S500
G1 X0.7S0
G1 X0.55S500
G1 X0.9S0
G1 X1.1S500
G1 X0.5S0
G1 X0.25S500
G1 X0.6S0
G1 X1.35S500
G1 X0.75S0
G1 X0.6S500
G1 X0.7S0
G1 X0.6S500
G1 X0.15S0
G1 X0.55S500
G1 X0.5S0
G1 X6.25S500
G1 X1.25S0
G1 X1.25S500
G1 X4S0
G1 X0.5S500
G1 X0.45S0
G1 X0.05S500
G1 X0.8S0
G1 X1.25S500
G1 X0.75S0
G1 X0.15S500
G1 X0.05S0
G1 X0.05S500
G1 X3.3S0
G1 X2.5S500
G1 X4.1S0
G1 X0.3S500
G1 X3.65S0
G1 X1.5S500
G1 X1.45S0
G1 X0.5S500
G1 X0.5S0
G1 X0.4S500
G1 X0.75S0
G1 X1.55S500
G1 X0.3S0
G1 X0.8S500
G1 X0.45S0
G1 X98.9S500
G0 X2.916
G0 Y0.05
G0 X-2.916
G1 X-98.85
G1 X-0.55S0
G1 X-0.75S500
G1 X-0.3S0
G1 X-1.5S500
G1 X-0.8S0
G1 X-0.4S500
G1 X-0.5S0
G1 X-0.5S500
G1 X-1.45S0
G1 X-1.5S500
G1 X-3.65S0
G1 X-0.35S500
G1 X-3.9S0
G1 X-2.7S500
G1 X-3.2S0
G1 X-0.4S500
G1 X-0.6S0
G1 X-1.2S500
G1 X-0.8S0
G1 X-0.25S500
G1 X-0.35S0
G1 X-0.45S500
G1 X-4.05S0
G1 X-1.25S500
G1 X-1.2S0
G1 X-6.3S500
G1 X-0.55S0
G1 X-0.5S500
G1 X-0.1S0
G1 X-0.6S500
G1 X-0.65S0
G1 X-0.6S500
G1 X-0.75S0
G1 X-1.4S500
G1 X-1.45S0
G1 X-1.05S500
G1 X-0.9S0
G1 X-0.5S500
G1 X-0.75S0
G1 X-0.85S500
G1 X-0.1S0
G1 X-108.25S500
G1 X-7.9S0
G1 X-32.35S500
G0 X-2.917
G0 Y0.05
G0 X2.917
G1 X32.4
G1 X7.8S0
G1 X108.25S500
G1 X0.25S0
G1 X0.8S500
G1 X0.7S0
G1 X0.5S500
G1 X0.8S0
G1 X1.2S500
G1 X1.5S0
G1 X1.3S500
G1 X0.75S0
G1 X0.55S500
G1 X0.7S0
G1 X0.6S500
G1 X0.15S0
G1 X0.45S500
G1 X0.55S0
G1 X6.3S500
G1 X1.15S0
G1 X1.3S500
G1 X4S0
G1 X0.45S500
G1 X0.4S0
G1 X0.35S500
G1 X0.8S0
G1 X1S500
G1 X0.7S0
G1 X0.5S500
G1 X2.2S0
G1 X0.15S500
G1 X0.7S0
G1 X2.8S500
G1 X3.85S0
G1 X0.35S500
G1 X3.7S0
G1 X1.4S500
G1 X1.55S0
G1 X0.45S500
G1 X0.5S0
G1 X0.45S500
G1 X0.8S0
G1 X1.45S500
G1 X0.25S0
G1 X0.75S500
G1 X0.65S0
G1 X98.8S500
G0 X2.916
G0 Y0.05
G0 X-2.916
G1 X-98.8
G1 X-0.7S0
G1 X-0.7S500
G1 X-0.25S0
G1 X-1.5S500
G1 X-0.8S0
G1 X-0.4S500
G1 X-0.5S0
G1 X-0.4S500
G1 X-0.6S0
G1 X-0.15S500
G1 X-0.9S0
G1 X-1.35S500
G1 X-3.65S0
G1 X-0.35S500
G1 X-3.8S0
G1 X-2.95S500
G1 X-0.6S0
G1 X-0.3S500
G1 X-2.15S0
G1 X-0.45S500
G1 X-0.65S0
G1 X-0.8S500
G1 X-1.1S0
G1 X-0.35S500
G1 X-0.4S0
G1 X-0.3S500
G1 X-4.1S0
G1 X-1.3S500
G1 X-1.1S0
G1 X-6.4S500
G1 X-0.55S0
G1 X-0.35S500
G1 X-0.2S0
G1 X-0.5S500
G1 X-0.85S0
G1 X-0.55S500
G1 X-0.7S0
G1 X-1.15S500
G1 X-1.7S0
G1 X-1.1S500
G1 X-0.8S0
G1 X-0.45S500
G1 X-0.8S0
G1 X-0.75S500
G1 X-0.35S0
G1 X-108.2S500
G1 X-7.8S0
G1 X-32.4S500
G0 X-2.917
G0 Y0.05
G0 X2.917
G1 X32.45
G1 X7.75S0
G1 X108.25S500
G1 X0.25S0
G1 X0.8S500
G1 X0.85S0
G1 X0.4S500
G1 X0.75S0
G1 X1.1S500
G1 X1.8S0
G1 X1.15S500
G1 X0.65S0
G1 X0.55S500
G1 X0.85S0
G1 X0.5S500
G1 X0.2S0
G1 X0.25S500
G1 X0.6S0
G1 X3.7S500
G1 X0.1S0
G1 X2.65S500
G1 X1.05S0
G1 X1.35S500
G1 X4.15S0
G1 X0.1S500
G1 X0.6S0
G1 X0.35S500
G1 X1.2S0
G1 X0.6S500
G1 X0.7S0
G1 X0.5S500
G1 X2.1S0
G1 X0.4S500
G1 X0.45S0
G1 X3S500
G1 X3.8S0
G1 X0.3S500
G1 X3.65S0
G1 X1.35S500
G1 X0.85S0
G1 X0.35S500
G1 X0.55S0
G1 X0.35S500
G1 X0.45S0
G1 X0.55S500
G1 X0.8S0
G1 X0.35S500
G1 X0.15S0
G1 X0.9S500
G1 X0.2S0
G1 X0.75S500
G1 X0.75S0
G1 X98.75S500
G0 X2.916
G0 Y0.05
G0 X-2.916
G1 X-98.7
G1 X-0.8S0
G1 X-0.85S500
G1 X-0.1S0
G1 X-0.8S500
G1 X-0.5S0
G1 X-0.05S500
G1 X-0.85S0
G1 X-0.65S500
G1 X-0.3S0
G1 X-0.35S500
G1 X-0.6S0
G1 X-0.35S500
G1 X-0.9S0
G1 X-1.35S500
G1 X-3.7S0
G1 X-0.15S500
G1 X-3.8S0
G1 X-3.15S500
G1 X-0.25S0
G1 X-0.5S500
G1 X-2.15S0
G1 X-0.4S500
G1 X-0.8S0
G1 X-0.45S500
G1 X-1.35S0
G1 X-0.3S500
G1 X-4.85S0
G1 X-1.4S500
G1 X-0.95S0
G1 X-2.6S500
G1 X-0.25S0
G1 X-3.6S500
G1 X-1.1S0
G1 X-0.5S500
G1 X-0.95S0
G1 X-0.45S500
G1 X-0.75S0
G1 X-1.05S500
G1 X-1.85S0
G1 X-1.05S500
G1 X-0.7S0
G1 X-0.45S500
G1 X-0.8S0
G1 X-0.95S500
G1 X-0.1S0
G1 X-108.35S500
G1 X-7.65S0
G1 X-32.5S500
G0 X-2.917
G0 Y0.05
G0 X2.917
G1 X32.5
G1 X7.65S0
G1 X106.75S500
G1 X0.15S0
G1 X2.55S500
G1 X0.85S0
G1 X0.45S500
G1 X0.6S0
G1 X0.9S500
G1 X2.05S0
G1 X0.9S500
G1 X0.85S0
G1 X0.3S500
G1 X1.15S0
G1 X0.4S500
G1 X1.1S0
G1 X3.6S500
G1 X0.35S0
G1 X2.5S500
G1 X0.9S0
G1 X1.5S500
G1 X6.65S0
G1 X0.2S500
G1 X1S0
G1 X0.15S500
G1 X2.3S0
G1 X4S500
G1 X7.45S0
G1 X1.4S500
G1 X0.95S0
G1 X0.4S500
G1 X0.65S0
G1 X1.35S500
G1 X1.4S0
G1 X0.55S500
G1 X0.1S0
G1 X0.95S500
G1 X0.8S0
G1 X98.7S500
G0 X2.916
G0 Y0.05
G0 X-2.916
G1 X-96.85
G1 X-0.7S0
G1 X-1.15S500
G1 X-0.8S0
G1 X-0.95S500
G1 X-1.95S0
G1 X-1.4S500
G1 X-0.7S0
G1 X-0.4S500
G1 X-1S0
G1 X-2S500
G1 X-3.6S0
G1 X-0.25S500
G1 X-2.95S0
G1 X-4S500
G1 X-6.9S0
G1 X-0.35S500
G1 X-0.85S0
G1 X-0.35S500
G1 X-1.85S0
G1 X-1.65S500
G1 X-0.7S0
G1 X-1.1S500
G1 X-0.15S0
G1 X-1.3S500
G1 X-0.3S0
G1 X-3.65S500
G1 X-1.1S0
G1 X-0.35S500
G1 X-1.4S0
G1 X-0.2S500
G1 X-0.9S0
G1 X-0.75S500
G1 X-2.15S0
G1 X-0.8S500
G1 X-0.45S0
G1 X-0.5S500
G1 X-0.9S0
G1 X-2.35S500
G1 X-0.55S0
G1 X-106.65S500
G1 X-7.6S0
G1 X-32.5S500
G0 X-2.917
G0 Y0.05
G0 X2.917
G1 X32.55
G1 X7.5S0
G1 X106.65S500
G1 X0.7S0
G1 X2.3S500
G1 X0.9S0
G1 X0.5S500
G1 X0.45S0
G1 X0.65S500
G1 X2.25S0
G1 X0.65S500
G1 X0.9S0
G1 X0.25S500
G1 X1.5S0
G1 X0.3S500
G1 X1.05S0
G1 X3.7S500
G1 X0.25S0
G1 X1.2S500
G1 X0.45S0
G1 X0.9S500
G1 X0.6S0
G1 X1.8S500
G1 X1.75S0
G1 X0.5S500
G1 X0.75S0
G1 X0.5S500
G1 X2.15S0
G1 X0.15S500
G1 X4.55S0
G1 X4S500
G1 X2.8S0
G1 X0.5S500
G1 X3.35S0
G1 X2.05S500
G1 X1.05S0
G1 X0.35S500
G1 X0.85S0
G1 X1.4S500
G1 X1.85S0
G1 X0.95S500
G1 X0.85S0
G1 X1S500
G1 X0.9S0
G1 X96.75S500
G0 X2.916
G0 Y0.05
G0 X-2.916
G1 X-96.7
G1 X-1S0
G1 X-0.95S500
G1 X-0.75S0
G1 X-1.05S500
G1 X-1.8S0
G1 X-1.4S500
G1 X-0.9S0
G1 X-0.35S500
G1 X-1.05S0
G1 X-2.05S500
G1 X-3.2S0
G1 X-0.7S500
G1 X-2.75S0
G1 X-4S500
G1 X-4.45S0
G1 X-0.35S500
G1 X-2.05S0
G1 X-0.6S500
G1 X-0.6S0
G1 X-0.6S500
G1 X-1.75S0
G1 X-1.8S500
G1 X-0.5S0
G1 X-0.9S500
G1 X-0.55S0
G1 X-1.1S500
G1 X-0.25S0
G1 X-3.75S500
G1 X-1.1S0
G1 X-0.3S500
G1 X-1.45S0
G1 X-0.3S500
G1 X-0.9S0
G1 X-0.5S500
G1 X-2.35S0
G1 X-0.7S500
G1 X-0.3S0
G1 X-0.5S500
G1 X-1S0
G1 X-2.25S500
G1 X-0.75S0
G1 X-106.65S500
G1 X-7.45S0
G1 X-32.6S500
G0 X-2.917
G0 Y0.05
G0 X2.917
G1 X32.6
G1 X7.4S0
G1 X106.7S500
G1 X0.75S0
G1 X2.3S500
G1 X0.95S0
G1 X0.6S500
G1 X0.25S0
G1 X0.6S500
G1 X2.4S0
G1 X0.4S500
G1 X0.95S0
G1 X0.35S500
G1 X2.85S0
G1 X1.65S500
G1 X0.05S0
G1 X2.15S500
G1 X0.05S0
G1 X1.1S500
G1 X0.7S0
G1 X0.8S500
G1 X0.5S0
G1 X1.8S500
G1 X1.7S0
G1 X0.7S500
G1 X0.55S0
G1 X0.7S500
G1 X1.95S0
G1 X0.4S500
G1 X4.5S0
G1 X3.95S500
G1 X2.7S0
G1 X0.8S500
G1 X3.15S0
G1 X2.05S500
G1 X1.15S0
G1 X0.1S500
G1 X1.1S0
G1 X1.4S500
G1 X1.7S0
G1 X1.1S500
G1 X0.75S0
G1 X0.95S500
G1 X1.1S0
G1 X96.6S500
G0 X2.916
G0 Y0.05
G0 X-2.916
G1 X-96.55
G1 X-1.1S0
G1 X-1.05S500
G1 X-0.55S0
G1 X-1.3S500
G1 X-1.7S0
G1 X-1.3S500
G1 X-2.35S0
G1 X-2.05S500
G1 X-3.05S0
G1 X-0.95S500
G1 X-2.75S0
G1 X-3.85S500
G1 X-4.5S0
G1 X-0.45S500
G1 X-1.95S0
G1 X-0.8S500
G1 X-0.45S0
G1 X-0.7S500
G1 X-1.75S0
G1 X-1.75S500
G1 X-0.45S0
G1 X-0.8S500
G1 X-0.8S0
G1 X-3.2S500
G1 X-0.2S0
G1 X-1.65S500
G1 X-1.8S0
G1 X-0.35S500
G1 X-0.65S0
G1 X-0.25S500
G1 X-1.1S0
G1 X-0.25S500
G1 X-2.4S0
G1 X-0.7S500
G1 X-0.2S0
G1 X-0.6S500
G1 X-0.9S0
G1 X-2.3S500
G1 X-0.8S0
G1 X-106.7S500
G1 X-7.35S0
G1 X-32.65S500
G0 X-2.917
G0 Y0.05
G0 X2.917
G1 X32.65
G1 X7.3S0
G1 X106.8S500
G1 X0.75S0
G1 X2.25S500
G1 X1S0
G1 X0.6S500
G1 X0.15S0
G1 X0.65S500
G1 X3.8S0
G1 X0.3S500
G1 X0.55S0
G1 X0.55S500
G1 X1.65S0
G1 X1.7S500
G1 X0.2S0
G1 X3.1S500
G1 X0.95S0
G1 X0.7S500
G1 X0.4S0
G1 X1.6S500
G1 X1.9S0
G1 X0.7S500
G1 X0.45S0
G1 X0.85S500
G1 X1.95S0
G1 X0.45S500
G1 X4.55S0
G1 X3.7S500
G1 X2.85S0
G1 X1S500
G1 X3.05S0
G1 X2S500
G1 X2.4S0
G1 X1.3S500
G1 X1.6S0
G1 X1.45S500
G1 X0.5S0
G1 X1.05S500
G1 X1.1S0
G1 X96.5S500
G0 X2.916
G0 Y0.05
G0 X-2.916
G1 X-96.5
G1 X-0.75S0
G1 X-1.45S500
G1 X-0.4S0
G1 X-1S500
G1 X-0.15S0
G1 X-0.6S500
G1 X-1.4S0
G1 X-1.15S500
G1 X-2.4S0
G1 X-2S500
G1 X-3.1S0
G1 X-1.1S500
G1 X-3.8S0
G1 X-2.55S500
G1 X-1.55S0
G1 X-0.2S500
G1 X-3S0
G1 X-0.4S500
G1 X-1.9S0
G1 X-0.95S500
G1 X-0.45S0
G1 X-0.7S500
G1 X-2S0
G1 X-1.45S500
G1 X-0.45S0
G1 X-0.65S500
G1 X-1S0
G1 X-3.1S500
G1 X-0.1S0
G1 X-1.2S500
G1 X-0.3S0
G1 X-0.35S500
G1 X-1.5S0
G1 X-0.65S500
G1 X-0.5S0
G1 X-0.25S500
G1 X-2.75S0
G1 X-0.25S500
G1 X-0.8S0
G1 X-1.4S500
G1 X-1S0
G1 X-2.25S500
G1 X-0.7S0
G1 X-106.95S500
G1 X-7.2S0
G1 X-32.7S500
G0 X-2.917
G0 Y0.05
G0 X2.917
G1 X32.7
G1 X7.2S0
G1 X107.15S500
G1 X0.5S0
G1 X2.25S500
G1 X1S0
G1 X1.35S500
G1 X0.8S0
G1 X0.35S500
G1 X2.75S0
G1 X0.1S500
G1 X0.5S0
G1 X0.8S500
G1 X1.4S0
G1 X0.4S500
G1 X0.35S0
G1 X4.4S500
G1 X0.95S0
G1 X0.7S500
G1 X0.4S0
G1 X1.4S500
G1 X2.1S0
G1 X0.6S500
G1 X0.55S0
G1 X0.9S500
G1 X1.95S0
G1 X0.4S500
G1 X2.9S0
G1 X0.3S500
G1 X1.6S0
G1 X2.35S500
G1 X3.9S0
G1 X1.15S500
G1 X3.1S0
G1 X1.95S500
G1 X1.6S0
G1 X0.15S500
G1 X0.85S0
G1 X0.95S500
G1 X1.35S0
G1 X0.55S500
G1 X0.35S0
G1 X1S500
G1 X0.25S0
G1 X0.65S500
G1 X0.05S0
G1 X1.05S500
G1 X0.6S0
G1 X96.4S500
G0 X2.916
G0 Y0.05
G0 X-2.916
G1 X-96.4
G1 X-0.55S0
G1 X-1S500
G1 X-0.25S0
G1 X-1.7S500
G1 X-0.5S0
G1 X-0.5S500
G1 X-0.7S0
G1 X-0.2S500
G1 X-0.45S0
G1 X-0.85S500
G1 X-0.85S0
G1 X-0.3S500
G1 X-1.5S0
G1 X-1.9S500
G1 X-3.25S0
G1 X-1.15S500
G1 X-3.9S0
G1 X-2.15S500
G1 X-1.6S0
G1 X-0.5S500
G1 X-2.95S0
G1 X-0.2S500
G1 X-2S0
G1 X-0.95S500
G1 X-0.6S0
G1 X-0.6S500
G1 X-2.05S0
G1 X-1.4S500
G1 X-0.45S0
G1 X-0.6S500
G1 X-1.05S0
G1 X-4.25S500
G1 X-0.5S0
G1 X-0.45S500
G1 X-1.25S0
G1 X-0.95S500
G1 X-3.25S0
G1 X-0.45S500
G1 X-0.6S0
G1 X-1.45S500
G1 X-0.95S0
G1 X-2.35S500
G1 X-0.35S0
G1 X-107.25S500
G1 X-7.15S0
G1 X-32.75S500
G0 X-2.917
G0 Y0.05
G0 X2.917
G1 X32.8
G1 X7.05S0
G1 X110S500
G1 X1S0
G1 X1.45S500
G1 X0.45S0
G1 X0.6S500
G1 X3.15S0
G1 X1.05S500
G1 X1.2S0
G1 X0.4S500
G1 X0.55S0
G1 X4.3S500
G1 X1.05S0
G1 X0.6S500
G1 X0.45S0
G1 X1.35S500
G1 X2S0
G1 X0.65S500
G1 X0.6S0
G1 X1.1S500
G1 X5S0
G1 X0.55S500
G1 X1.65S0
G1 X2S500
G1 X3.95S0
G1 X1.15S500
G1 X3.3S0
G1 X1.05S500
G1 X0.3S0
G1 X0.5S500
G1 X1.45S0
G1 X0.35S500
G1 X0.75S0
G1 X0.9S500
G1 X0.45S0
G1 X0.35S500
G1 X0.6S0
G1 X0.5S500
G1 X0.65S0
G1 X1.5S500
G1 X0.35S0
G1 X1S500
G1 X0.55S0
G1 X96.35S500
G0 X2.916
G0 Y0.05
G0 X-2.916
G1 X-96.35
G1 X-0.55S0
G1 X-1S500
G1 X-0.4S0
G1 X-1.3S500
G1 X-0.8S0
G1 X-0.45S500
G1 X-0.6S0
G1 X-0.45S500
G1 X-0.45S0
G1 X-0.9S500
G1 X-0.65S0
G1 X-0.45S500
G1 X-1.35S0
G1 X-0.5S500
G1 X-0.35S0
G1 X-0.95S500
G1 X-3.5S0
G1 X-1.1S500
G1 X-3.9S0
G1 X-1.9S500
G1 X-1.35S0
G1 X-0.95S500
G1 X-1.4S0
G1 X-0.1S500
G1 X-3.4S0
G1 X-0.65S500
G1 X-0.05S0
G1 X-0.35S500
G1 X-0.8S0
G1 X-0.6S500
G1 X-1.1S0
G1 X-0.1S500
G1 X-0.8S0
G1 X-1.35S500
G1 X-0.5S0
G1 X-0.55S500
G1 X-1S0
G1 X-4.35S500
G1 X-0.55S0
G1 X-0.45S500
G1 X-1.05S0
G1 X-1.15S500
G1 X-3.2S0
G1 X-2.45S500
G1 X-0.9S0
G1 X-110.15S500
G1 X-7S0
G1 X-32.8S500
G0 X-2.917
G0 Y0.05
G0 X2.917
G1 X32.8
G1 X7S0
G1 X110.2S500
G1 X0.85S0
G1 X2.45S500
G1 X3.15S0
G1 X1.2S500
G1 X0.95S0
G1 X0.55S500
G1 X0.55S0
G1 X4.35S500
G1 X0.95S0
G1 X0.65S500
G1 X0.45S0
G1 X1.4S500
G1 X0.6S0
G1 X0.35S500
G1 X0.95S0
G1 X0.7S500
G1 X1.3S0
G1 X0.6S500
G1 X3.15S0
G1 X0.4S500
G1 X1.25S0
G1 X1.1S500
G1 X1.35S0
G1 X1.75S500
G1 X3.85S0
G1 X1.1S500
G1 X3.55S0
G1 X0.95S500
G1 X0.4S0
G1 X0.4S500
G1 X1.4S0
G1 X0.4S500
G1 X0.65S0
G1 X0.95S500
G1 X0.4S0
G1 X0.5S500
G1 X0.6S0
G1 X0.45S500
G1 X0.9S0
G1 X1.15S500
G1 X0.45S0
G1 X1S500
G1 X0.6S0
G1 X1.05S500
G1 X0.2S0
G1 X95.05S500
G0 X2.916
G0 Y0.05
G0 X-2.916
G1 X-94.95
G1 X-0.35S0
G1 X-1S500
G1 X-0.6S0
G1 X-1S500
G1 X-0.4S0
G1 X-1.15S500
G1 X-0.95S0
G1 X-0.4S500
G1 X-0.6S0
G1 X-0.55S500
G1 X-0.4S0
G1 X-1S500
G1 X-0.6S0
G1 X-0.35S500
G1 X-1.45S0
G1 X-0.4S500
G1 X-0.4S0
G1 X-1S500
G1 X-3.55S0
G1 X-1.1S500
G1 X-1.25S0
G1 X-0.2S500
G1 X-0.65S0
G1 X-0.2S500
G1 X-1.55S0
G1 X-1.65S500
G1 X-1.4S0
G1 X-1.1S500
G1 X-1.2S0
G1 X-0.5S500
G1 X-2.15S0
G1 X-0.15S500
G1 X-0.8S0
G1 X-0.6S500
G1 X-1.35S0
G1 X-0.65S500
G1 X-0.85S0
G1 X-0.5S500
G1 X-0.55S0
G1 X-0.6S500
G1 X-0.25S0
G1 X-0.5S500
G1 X-0.5S0
G1 X-0.65S500
G1 X-0.85S0
G1 X-4.45S500
G1 X-0.55S0
G1 X-0.6S500
G1 X-0.8S0
G1 X-1.3S500
G1 X-0.85S0
G1 X-0.2S500
G1 X-2.1S0
G1 X-2.35S500
G1 X-0.85S0
G1 X-110.35S500
G1 X-6.9S0
G1 X-32.85S500
G0 X-2.917
G0 Y0.05
G0 X2.917
G1 X32.9
G1 X6.85S0
G1 X110.35S500
G1 X0.8S0
G1 X2.35S500
G1 X2.05S0
G1 X0.4S500
G1 X0.7S0
G1 X1.35S500
G1 X0.75S0
G1 X0.6S500
G1 X0.65S0
G1 X1.9S500
G1 X0.1S0
G1 X2.45S500
G1 X0.75S0
G1 X0.65S500
G1 X0.6S0
G1 X0.35S500
G1 X0.4S0
G1 X0.6S500
G1 X0.4S0
G1 X0.65S500
G1 X0.75S0
G1 X0.8S500
G1 X1.3S0
G1 X0.6S500
G1 X0.65S0
G1 X0.3S500
G1 X2.1S0
G1 X0.55S500
G1 X1.15S0
G1 X1.1S500
G1 X1.4S0
G1 X1.65S500
G1 X1.45S0
G1 X0.4S500
G1 X0.45S0
G1 X0.35S500
G1 X1.15S0
G1 X1.1S500
G1 X3.65S0
G1 X1S500
G1 X0.45S0
G1 X0.3S500
G1 X1.45S0
G1 X0.3S500
G1 X0.55S0
G1 X1.1S500
G1 X0.35S0
G1 X0.6S500
G1 X0.6S0
G1 X0.4S500
G1 X1S0
G1 X1S500
G1 X0.5S0
G1 X1.05S500
G1 X0.55S0
G1 X0.95S500
G1 X0.4S0
G1 X94.95S500
G0 X2.916
G0 Y0.05
G0 X-2.916
G1 X-94.9
G1 X-0.45S0
G1 X-0.95S500
G1 X-0.55S0
G1 X-1.05S500
G1 X-0.5S0
G1 X-0.9S500
G1 X-1.05S0
G1 X-0.4S500
G1 X-0.7S0
G1 X-0.65S500
G1 X-0.25S0
G1 X-1.15S500
G1 X-0.6S0
G1 X-0.05S500
G1 X-0.05S0
G1 X-0.05S500
G1 X-1.6S0
G1 X-0.15S500
G1 X-0.5S0
G1 X-1S500
G1 X-3.7S0
G1 X-1.1S500
G1 X-1.05S0
G1 X-0.55S500
G1 X-0.2S0
G1 X-0.5S500
G1 X-1.5S0
G1 X-1.6S500
G1 X-1.4S0
G1 X-1.1S500
G1 X-0.5S0
G1 X-0.2S500
G1 X-0.3S0
G1 X-0.75S500
G1 X-2.05S0
G1 X-0.4S500
G1 X-0.55S0
G1 X-0.65S500
G1 X-1.25S0
G1 X-0.95S500
G1 X-0.05S0
G1 X-0.05S500
G1 X-0.4S0
G1 X-0.8S500
G1 X-0.3S0
G1 X-0.65S500
G1 X-0.5S0
G1 X-0.05S500
G1 X-0.05S0
G1 X-0.05S500
G1 X-0.65S0
G1 X-0.7S500
G1 X-0.65S0
G1 X-1S500
G1 X-0.25S0
G1 X-1.2S500
G1 X-0.25S0
G1 X-1.85S500
G1 X-0.65S0
G1 X-0.65S500
G1 X-0.65S0
G1 X-1.45S500
G1 X-0.5S0
G1 X-0.55S500
G1 X-2.05S0
G1 X-2.3S500
G1 X-0.8S0
G1 X-110.45S500
G1 X-6.8S0
G1 X-32.9S500
G0 X-2.917
G0 Y0.05
G0 X2.917
G1 X32.95
G1 X6.75S0
G1 X108.7S500
G1 X0.25S0
G1 X1.6S500
G1 X0.8S0
G1 X2.15S500
G1 X2.1S0
G1 X0.6S500
G1 X0.4S0
G1 X1.55S500
G1 X0.55S0
G1 X0.65S500
G1 X0.7S0
G1 X1.85S500
G1 X0.3S0
G1 X1.15S500
G1 X0.35S0
G1 X1.05S500
G1 X0.4S0
G1 X0.75S500
G1 X1.3S0
G1 X3.25S500
G1 X1.3S0
G1 X0.55S500
G1 X0.6S0
G1 X0.45S500
G1 X2.05S0
G1 X1.25S500
G1 X0.4S0
G1 X1.1S500
G1 X1.35S0
G1 X1.6S500
G1 X1.55S0
G1 X1.3S500
G1 X1S0
G1 X1.2S500
G1 X3.7S0
G1 X1S500
G1 X2.9S0
G1 X2.15S500
G1 X0.75S0
G1 X0.3S500
G1 X1.15S0
G1 X0.75S500
G1 X0.5S0
G1 X1.1S500
G1 X0.55S0
G1 X0.95S500
G1 X0.45S0
G1 X94.9S500
G0 X2.916
G0 Y0.05
G0 X-2.916
G1 X-94.9
G1 X-0.45S0
G1 X-0.95S500
G1 X-0.55S0
G1 X-1.1S500
G1 X-0.55S0
G1 X-0.7S500
G1 X-1.1S0
G1 X-0.3S500
G1 X-0.85S0
G1 X-2.1S500
G1 X-2.85S0
G1 X-1.1S500
G1 X-3.6S0
G1 X-1.3S500
G1 X-1S0
G1 X-1.25S500
G1 X-1.65S0
G1 X-1.6S500
G1 X-1.6S0
G1 X-0.75S500
G1 X-0.4S0
G1 X-1.3S500
G1 X-2.05S0
G1 X-0.45S500
G1 X-0.5S0
G1 X-0.6S500
G1 X-1.25S0
G1 X-3.3S500
G1 X-1.25S0
G1 X-2.25S500
G1 X-0.35S0
G1 X-1.15S500
G1 X-0.3S0
G1 X-1.9S500
G1 X-0.6S0
G1 X-0.75S500
G1 X-0.5S0
G1 X-1.7S500
G1 X-0.1S0
G1 X-0.75S500
G1 X-2.15S0
G1 X-2.1S500
G1 X-0.8S0
G1 X-1.35S500
G1 X-0.5S0
G1 X-108.75S500
G1 X-6.65S0
G1 X-33S500
G0 X-2.917
G0 Y0.05
G0 X2.917
G1 X33
G1 X6.6S0
G1 X108S500
G1 X0.2S0
G1 X0.6S500
G1 X0.65S0
G1 X1.25S500
G1 X0.8S0
G1 X2S500
G1 X2.2S0
G1 X1.9S500
G1 X0.15S0
G1 X0.55S500
G1 X0.5S0
G1 X0.65S500
G1 X0.65S0
G1 X1.95S500
G1 X0.25S0
G1 X1.15S500
G1 X0.4S0
G1 X2.15S500
G1 X1.3S0
G1 X3.35S500
G1 X1.2S0
G1 X0.55S500
G1 X0.5S0
G1 X0.5S500
G1 X2.1S0
G1 X1.25S500
G1 X0.45S0
G1 X0.55S500
G1 X1.65S0
G1 X1.65S500
G1 X1.75S0
G1 X1.25S500
G1 X0.9S0
G1 X0.35S500
G1 X0.25S0
G1 X0.75S500
G1 X3.65S0
