; LightBurn Pro 2.0.05
; GRBL device profile, absolute coords
; Bounds: X0.03 Y1.87 to X303.2 Y211.42
G00 G17 G40 G21 G54
G90
M4
; Image @ 7500 мм/мин, 55% power
M8
G0 X5.026Y51.874
; Layer C00
G91
G0 X3.125
G1 X296.925F7500S550
G0 X3.125
G0 Y0.075
G0 X-3.125
G1 X-296.925
G0 X-3.125
G0 Y0.075
G0 X3.125
G1 X296.925
G0 X3.125
G0 Y0.075
G0 X-3.125
G1 X-296.925
G0 X-3.125
G0 Y0.075
G0 X3.125
G1 X296.925
G0 X3.125
G0 Y0.075
G0 X-3.125
G1 X-296.925
G0 X-3.125
G0 Y0.075
G0 X3.125
G1 X296.925
G0 X3.125
G0 Y0.075
G0 X-3.125
G1 X-296.925
G0 X-3.125
G0 Y0.075
G0 X3.125
G1 X296.925
G0 X3.125
G0 Y0.075
G0 X-3.125
G1 X-296.925
G0 X-3.125
G0 Y0.075
G0 X3.125
G1 X296.925
G0 X3.125
G0 Y0.075
G0 X-3.125
G1 X-296.925
G0 X-3.125
G0 Y0.075
G0 X3.125
G1 X296.925
G0 X3.125
G0 Y0.075
G0 X-3.125
G1 X-296.925
G0 X-3.125
G0 Y0.075
G0 X3.125
G1 X296.925
G0 X3.125
G0 Y0.075
G0 X-3.125
G1 X-296.925
G0 X-3.125
G0 Y0.075
G0 X3.125
G1 X296.925
G0 X3.125
G0 Y0.075
G0 X-3.125
G1 X-296.925
G0 X-3.125
G0 Y0.075
G0 X3.125
G1 X296.925
G0 X3.125
G0 Y0.075
G0 X-3.125
G1 X-296.925
G0 X-3.125
G0 Y0.075
G0 X3.125
G1 X296.925
G0 X3.125
G0 Y0.075
G0 X-3.125
G1 X-296.925
G0 X-3.125
G0 Y0.075
G0 X3.125
G1 X296.925
G0 X3.125
G0 Y0.075
G0 X-3.125
G1 X-296.925
G0 X-3.125
G0 Y0.075
G0 X3.125
G1 X296.925
G0 X3.125
G0 Y0.075
G0 X-3.125
G1 X-296.925
G0 X-3.125
G0 Y0.075
G0 X3.125
G1 X296.925
G0 X3.125
G0 Y0.075
G0 X-3.125
G1 X-296.925
G0 X-3.125
G0 Y0.075
G0 X3.125
G1 X296.925
G0 X3.125
G0 Y0.075
G0 X-3.125
G1 X-296.925
G0 X-3.125
G0 Y0.075
G0 X3.125
G1 X296.925
G0 X3.125
G0 Y0.075
G0 X-3.125
G1 X-296.925
G0 X-3.125
G0 Y0.075
G0 X3.125
G1 X65.25
G1 X0.75S0
G1 X230.925S550
G0 X3.125
G0 Y0.075
G0 X-3.125
G1 X-230.7
G1 X-1.2S0
G1 X-65.025S550
G0 X-3.125
G0 Y0.075
G0 X3.125
G1 X64.95
G1 X1.5S0
G1 X230.475S550
G0 X3.125
G0 Y0.075
G0 X-3.125
G1 X-230.475
G1 X-1.65S0
G1 X-64.8S550
G0 X-3.125
G0 Y0.075
G0 X3.125
G1 X64.725
G1 X1.875S0
G1 X230.325S550
G0 X3.125
G0 Y0.075
G0 X-3.125
G1 X-230.25
G1 X-2.025S0
G1 X-64.65S550
G0 X-3.125
G0 Y0.075
G0 X3.125
G1 X64.575
G1 X2.1S0
G1 X230.25S550
G0 X3.125
G0 Y0.075
G0 X-3.125
G1 X-230.175
G1 X-2.175S0
G1 X-64.575S550
G0 X-3.125
G0 Y0.075
G0 X3.125
G1 X64.5
G1 X2.25S0
G1 X230.175S550
G0 X3.125
G0 Y0.075
G0 X-3.125
G1 X-230.1
G1 X-2.325S0
G1 X-64.5S550
G0 X-3.125
G0 Y0.075
G0 X3.125
G1 X64.425
G1 X2.4S0
G1 X230.1S550
G0 X3.125
G0 Y0.075
G0 X-3.125
G1 X-230.025
G1 X-2.475S0
G1 X-64.425S550
G0 X-3.125
G0 Y0.075
G0 X3.125
G1 X64.425
G1 X2.475S0
G1 X230.025S550
G0 X3.125
G0 Y0.075
G0 X-3.125
G1 X-230.025
G1 X-2.475S0
G1 X-64.425S550
G0 X-3.125
G0 Y0.075
G0 X3.125
G1 X64.425
G1 X2.475S0
G1 X193.8S550
G1 X0.675S0
G1 X35.55S550
G0 X3.125
G0 Y0.075
G0 X-3.125
G1 X-35.325
G1 X-1.2S0
G1 X-193.5S550
G1 X-2.475S0
G1 X-64.425S550
G0 X-3.125
G0 Y0.075
G0 X3.125
G1 X64.425
G1 X2.475S0
G1 X193.425S550
G1 X1.275S0
G1 X35.325S550
G0 X3.125
G0 Y0.075
G0 X-3.125
G1 X-35.175
G1 X-1.575S0
G1 X-161.325S550
G1 X-0.225S0
G1 X-31.725S550
G1 X-2.475S0
G1 X-64.425S550
G0 X-3.125
G0 Y0.075
G0 X3.125
G1 X64.425
G1 X2.475S0
G1 X31.5S550
G1 X0.6S0
G1 X161.1S550
G1 X1.8S0
G1 X35.025S550
G0 X3.125
G0 Y0.075
G0 X-3.125
G1 X-34.95
G1 X-1.95S0
G1 X-160.95S550
G1 X-0.75S0
G1 X-31.425S550
G1 X-2.475S0
G1 X-64.425S550
G0 X-3.125
G0 Y0.075
G0 X3.125
G1 X64.425
G1 X2.4S0
G1 X31.425S550
G1 X0.9S0
G1 X160.8S550
G1 X2.1S0
G1 X34.875S550
G0 X3.125
G0 Y0.075
G0 X-3.125
G1 X-34.8
G1 X-2.25S0
G1 X-160.725S550
G1 X-0.9S0
G1 X-31.425S550
G1 X-2.325S0
G1 X-64.5S550
G0 X-3.125
G0 Y0.075
G0 X3.125
G1 X64.575
G1 X2.25S0
G1 X31.35S550
G1 X1.05S0
G1 X139.725S550
G1 X0.525S0
G1 X20.4S550
G1 X2.25S0
G1 X34.8S550
G0 X3.125
G0 Y0.075
G0 X-3.125
G1 X-34.725
G1 X-2.4S0
G1 X-20.325S550
G1 X-0.6S0
G1 X-139.65S550
G1 X-1.05S0
G1 X-31.425S550
G1 X-2.175S0
G1 X-64.575S550
G0 X-3.125
G0 Y0.075
G0 X3.125
G1 X64.65
G1 X2.025S0
G1 X31.5S550
G1 X1.05S0
G1 X139.575S550
G1 X0.825S0
G1 X20.175S550
G1 X2.4S0
G1 X34.725S550
G0 X3.125
G0 Y0.075
G0 X-3.125
G1 X-34.725
G1 X-2.475S0
G1 X-20.1S550
G1 X-0.825S0
G1 X-139.65S550
G1 X-0.975S0
G1 X-31.5S550
G1 X-2.025S0
G1 X-64.65S550
G0 X-3.125
G0 Y0.075
G0 X3.125
G1 X58.65
G1 X0.45S0
G1 X5.625S550
G1 X1.875S0
G1 X31.65S550
G1 X0.9S0
G1 X139.575S550
G1 X0.975S0
G1 X20.025S550
G1 X2.55S0
G1 X34.65S550
G0 X3.125
G0 Y0.075
G0 X-3.125
G1 X-34.65
G1 X-2.55S0
G1 X-20.025S550
G1 X-0.975S0
G1 X-139.65S550
G1 X-0.825S0
G1 X-31.725S550
G1 X-1.725S0
G1 X-5.625S550
G1 X-0.675S0
G1 X-58.5S550
G0 X-3.125
G0 Y0.075
G0 X3.125
G1 X58.5
G1 X0.75S0
G1 X5.625S550
G1 X1.5S0
G1 X32.025S550
G1 X0.6S0
G1 X139.725S550
G1 X0.975S0
G1 X19.95S550
G1 X2.7S0
G1 X34.575S550
G0 X3.125
G0 Y0.075
G0 X-3.125
G1 X-34.65
G1 X-2.55S0
G1 X-20.025S550
G1 X-0.975S0
G1 X-139.875S550
G1 X-0.375S0
G1 X-32.1S550
G1 X-1.275S0
G1 X-5.775S550
G1 X-0.9S0
G1 X-58.425S550
G0 X-3.125
G0 Y0.075
G0 X3.125
G1 X58.35
G1 X0.975S0
G1 X5.85S550
G1 X0.975S0
G1 X125.025S550
G1 X0.3S0
G1 X47.325S550
G1 X0.825S0
G1 X20.1S550
G1 X2.55S0
G1 X34.65S550
G0 X3.125
G0 Y0.075
G0 X-3.125
G1 X-34.575
G1 X-2.7S0
G1 X-20.025S550
G1 X-0.825S0
G1 X-46.95S550
G1 X-0.9S0
G1 X-125.325S550
G1 X-0.075S0
G1 X-6.15S550
G1 X-1.05S0
G1 X-58.35S550
G0 X-3.125
G0 Y0.075
G0 X3.125
G1 X23.4
G1 X0.3S0
G1 X34.65S550
G1 X1.05S0
G1 X131.4S550
G1 X1.275S0
G1 X46.8S550
G1 X0.675S0
G1 X20.175S550
G1 X2.55S0
G1 X34.65S550
G0 X3.125
G0 Y0.075
G0 X-3.125
G1 X-34.65
G1 X-2.625S0
G1 X-20.25S550
G1 X-0.45S0
G1 X-46.8S550
G1 X-1.425S0
G1 X-131.4S550
G1 X-0.975S0
G1 X-34.425S550
G1 X-0.75S0
G1 X-23.175S550
G0 X-3.125
G0 Y0.075
G0 X3.125
G1 X23.025
G1 X1.05S0
G1 X34.35S550
G1 X0.9S0
G1 X131.325S550
G1 X1.65S0
G1 X46.8S550
G1 X0.15S0
G1 X20.475S550
G1 X2.55S0
G1 X34.65S550
G0 X3.125
G0 Y0.075
G0 X-3.125
G1 X-34.725
G1 X-2.475S0
G1 X-67.275S550
G1 X-1.875S0
G1 X-131.325S550
G1 X-0.825S0
G1 X-34.2S550
G1 X-1.35S0
G1 X-22.875S550
G0 X-3.125
G0 Y0.075
G0 X3.125
G1 X22.8
G1 X1.5S0
G1 X34.2S550
G1 X0.675S0
G1 X131.325S550
G1 X2.025S0
G1 X67.275S550
G1 X2.4S0
G1 X34.725S550
G0 X3.125
G0 Y0.075
G0 X-3.125
G1 X-34.725
G1 X-2.4S0
G1 X-67.275S550
G1 X-2.025S0
G1 X-131.475S550
G1 X-0.375S0
G1 X-34.275S550
G1 X-1.65S0
G1 X-22.725S550
G0 X-3.125
G0 Y0.075
G0 X3.125
G1 X22.725
G1 X1.725S0
G1 X34.275S550
G1 X0.225S0
G1 X131.475S550
G1 X2.175S0
G1 X67.275S550
G1 X2.25S0
G1 X34.8S550
G0 X3.125
G0 Y0.075
G0 X-3.125
G1 X-34.8
G1 X-2.25S0
G1 X-67.2S550
G1 X-2.25S0
G1 X-165.9S550
G1 X-1.875S0
G1 X-22.65S550
G0 X-3.125
G0 Y0.075
G0 X3.125
G1 X22.575
G1 X1.95S0
G1 X89.4S550
G1 X0.525S0
G1 X75.825S550
G1 X2.4S0
G1 X67.275S550
G1 X2.1S0
G1 X34.875S550
G0 X3.125
G0 Y0.075
G0 X-3.125
G1 X-34.95
G1 X-1.95S0
G1 X-67.275S550
G1 X-2.4S0
G1 X-75.825S550
G1 X-0.675S0
G1 X-89.25S550
G1 X-2.025S0
G1 X-22.575S550
G0 X-3.125
G0 Y0.075
G0 X3.125
G1 X22.575
G1 X2.025S0
G1 X89.175S550
G1 X0.75S0
G1 X75.75S550
G1 X2.475S0
G1 X67.35S550
G1 X1.725S0
G1 X35.1S550
G0 X3.125
G0 Y0.075
G0 X-3.125
G1 X-35.1
G1 X-1.65S0
G1 X-67.425S550
G1 X-2.475S0
G1 X-75.675S550
G1 X-0.9S0
G1 X-89.1S550
G1 X-2.025S0
G1 X-22.575S550
G0 X-3.125
G0 Y0.075
G0 X3.125
G1 X22.5
G1 X2.1S0
G1 X60.975S550
G1 X0.3S0
G1 X27.75S550
G1 X0.975S0
G1 X75.6S550
G1 X2.625S0
G1 X67.5S550
G1 X1.35S0
G1 X35.25S550
G0 X3.125
G0 Y0.075
G0 X-3.125
G1 X-35.4
G1 X-1.05S0
G1 X-67.65S550
G1 X-2.625S0
G1 X-8.4S550
G1 X-0.525S0
G1 X-66.6S550
G1 X-1.05S0
G1 X-27.75S550
G1 X-0.375S0
G1 X-60.825S550
G1 X-2.175S0
G1 X-22.5S550
G0 X-3.125
G0 Y0.075
G0 X3.125
G1 X22.5
G1 X2.175S0
G1 X60.75S550
G1 X0.525S0
G1 X27.675S550
G1 X1.05S0
G1 X66.375S550
G1 X0.9S0
G1 X8.25S550
G1 X2.625S0
G1 X67.95S550
G1 X0.375S0
G1 X35.775S550
G0 X3.125
G0 Y0.075
G0 X-3.125
G1 X-104.1
G1 X-2.625S0
G1 X-8.1S550
G1 X-1.125S0
G1 X-66.375S550
G1 X-0.975S0
G1 X-27.675S550
G1 X-0.45S0
G1 X-60.825S550
G1 X-2.175S0
G1 X-22.5S550
G0 X-3.125
G0 Y0.075
G0 X3.125
G1 X22.5
G1 X2.175S0
G1 X60.825S550
G1 X0.375S0
G1 X27.75S550
G1 X0.975S0
G1 X66.3S550
G1 X1.275S0
G1 X8.025S550
G1 X2.625S0
G1 X104.1S550
G0 X3.125
G0 Y0.075
G0 X-3.125
G1 X-104.1
G1 X-2.625S0
G1 X-7.95S550
G1 X-1.425S0
G1 X-66.225S550
G1 X-0.9S0
G1 X-27.825S550
G1 X-0.375S0
G1 X-60.825S550
G1 X-2.1S0
G1 X-22.575S550
G0 X-3.125
G0 Y0.075
G0 X3.125
G1 X22.575
G1 X2.175S0
G1 X88.95S550
G1 X0.825S0
G1 X62.85S550
G1 X0.375S0
G1 X3S550
G1 X1.575S0
G1 X7.875S550
G1 X2.625S0
G1 X104.1S550
G0 X3.125
G0 Y0.075
G0 X-3.125
G1 X-94.05
G1 X-0.075S0
G1 X-9.975S550
G1 X-2.625S0
G1 X-7.8S550
G1 X-1.65S0
G1 X-2.925S550
G1 X-0.525S0
G1 X-62.775S550
G1 X-0.75S0
G1 X-89.1S550
G1 X-2.1S0
G1 X-22.575S550
G0 X-3.125
G0 Y0.075
G0 X3.125
G1 X22.65
G1 X2.025S0
G1 X89.175S550
G1 X0.6S0
G1 X62.775S550
G1 X0.675S0
G1 X2.85S550
G1 X1.65S0
G1 X7.8S550
G1 X2.625S0
G1 X9.675S550
G1 X0.525S0
G1 X93.9S550
G0 X3.125
G0 Y0.075
G0 X-3.125
G1 X-93.825
G1 X-0.675S0
G1 X-9.6S550
G1 X-2.625S0
G1 X-7.8S550
G1 X-1.725S0
G1 X-2.775S550
G1 X-0.675S0
G1 X-62.925S550
G1 X-0.375S0
G1 X-89.175S550
G1 X-2.1S0
G1 X-22.65S550
G0 X-3.125
G0 Y0.075
G0 X3.125
G1 X22.8
G1 X1.875S0
G1 X152.55S550
G1 X0.675S0
G1 X2.85S550
G1 X1.65S0
G1 X7.8S550
G1 X2.625S0
G1 X9.6S550
G1 X0.675S0
G1 X93.825S550
G0 X3.125
G0 Y0.075
G0 X-3.125
G1 X-93.825
G1 X-0.675S0
G1 X-9.6S550
G1 X-2.625S0
G1 X-7.8S550
G1 X-1.65S0
G1 X-2.85S550
G1 X-0.675S0
G1 X-152.625S550
G1 X-1.8S0
G1 X-22.8S550
G0 X-3.125
G0 Y0.075
G0 X3.125
G1 X22.875
G1 X1.725S0
G1 X152.625S550
G1 X0.6S0
G1 X2.925S550
G1 X1.65S0
G1 X7.875S550
G1 X2.55S0
G1 X9.6S550
G1 X0.675S0
G1 X93.825S550
G0 X3.125
G0 Y0.075
G0 X-3.125
G1 X-93.825
G1 X-0.675S0
G1 X-9.675S550
G1 X-2.475S0
G1 X-7.95S550
G1 X-1.575S0
G1 X-2.925S550
G1 X-0.525S0
G1 X-152.7S550
G1 X-1.65S0
G1 X-22.95S550
G0 X-3.125
G0 Y0.075
G0 X3.125
G1 X23.025
G1 X1.5S0
G1 X152.925S550
G1 X0.225S0
G1 X3.15S550
G1 X1.5S0
G1 X7.95S550
G1 X2.475S0
G1 X9.675S550
G1 X0.675S0
G1 X93.825S550
G0 X3.125
G0 Y0.075
G0 X-3.125
G1 X-93.9
G1 X-0.525S0
G1 X-9.825S550
G1 X-2.325S0
G1 X-8.1S550
G1 X-1.425S0
G1 X-156.45S550
G1 X-1.275S0
G1 X-23.1S550
G0 X-3.125
G0 Y0.075
G0 X3.125
G1 X23.175
G1 X1.125S0
G1 X156.6S550
G1 X1.35S0
G1 X8.1S550
G1 X2.25S0
G1 X9.975S550
G1 X0.375S0
G1 X93.975S550
G0 X3.125
G0 Y0.075
G0 X-3.125
G1 X-104.4
G1 X-2.1S0
G1 X-8.25S550
G1 X-1.275S0
G1 X-156.675S550
G1 X-0.9S0
G1 X-23.325S550
G0 X-3.125
G0 Y0.075
G0 X3.125
G1 X23.55
G1 X0.45S0
G1 X156.975S550
G1 X1.125S0
G1 X8.4S550
G1 X1.875S0
G1 X104.55S550
G0 X3.125
G0 Y0.075
G0 X-3.125
G1 X-104.85
G1 X-1.425S0
G1 X-8.625S550
G1 X-0.9S0
G1 X-181.125S550
G0 X-3.125
G0 Y0.075
G0 X3.125
G1 X181.125
G1 X0.75S0
G1 X8.925S550
G1 X0.9S0
G1 X105.225S550
G0 X3.125
G0 Y0.075
G0 X-3.125
G1 X-105.375
G1 X-0.6S0
G1 X-9.225S550
G1 X-0.375S0
G1 X-181.35S550
G0 X-3.125
G0 Y0.075
G0 X3.125
G1 X296.925
G0 X3.125
G0 Y0.075
G0 X-3.125
G1 X-253.35
G1 X-0.15S0
G1 X-43.425S550
G0 X-3.125
G0 Y0.075
G0 X3.125
G1 X21
G1 X0.075S0
G1 X0.075S550
G1 X0.15S0
G1 X21.975S550
G1 X0.6S0
G1 X253.05S550
G0 X3.125
G0 Y0.075
G0 X-3.125
G1 X-252.975
G1 X-0.75S0
G1 X-9.525S550
G1 X-0.075S0
G1 X-12.15S550
G1 X-0.525S0
G1 X-20.925S550
G0 X-3.125
G0 Y0.075
G0 X3.125
G1 X20.85
G1 X0.675S0
G1 X11.85S550
G1 X0.525S0
G1 X9.225S550
G1 X0.9S0
G1 X252.9S550
G0 X3.125
G0 Y0.075
G0 X-3.125
G1 X-252.825
G1 X-0.975S0
G1 X-9.075S550
G1 X-0.75S0
G1 X-11.7S550
G1 X-0.9S0
G1 X-20.7S550
G0 X-3.125
G0 Y0.075
G0 X3.125
G1 X20.7
G1 X0.9S0
G1 X11.625S550
G1 X0.825S0
G1 X9S550
G1 X1.125S0
G1 X252.75S550
G0 X3.125
G0 Y0.075
G0 X-3.125
G1 X-252.75
G1 X-1.125S0
G1 X-8.925S550
G1 X-0.975S0
G1 X-11.55S550
G1 X-0.9S0
G1 X-20.7S550
G0 X-3.125
G0 Y0.075
G0 X3.125
G1 X20.625
G1 X1.05S0
G1 X11.475S550
G1 X0.975S0
G1 X8.925S550
G1 X1.125S0
G1 X252.75S550
G0 X3.125
G0 Y0.075
G0 X-3.125
G1 X-252.75
G1 X-1.125S0
G1 X-8.925S550
G1 X-0.975S0
G1 X-11.475S550
G1 X-1.05S0
G1 X-20.625S550
G0 X-3.125
G0 Y0.075
G0 X3.125
G1 X20.7
G1 X0.9S0
G1 X11.55S550
G1 X0.975S0
G1 X9S550
G1 X1.05S0
G1 X186.3S550
G1 X0.3S0
G1 X66.15S550
G0 X3.125
G0 Y0.075
G0 X-3.125
G1 X-66.075
G1 X-0.525S0
G1 X-186.15S550
G1 X-1.05S0
G1 X-9S550
G1 X-0.975S0
G1 X-11.55S550
G1 X-0.9S0
G1 X-20.7S550
G0 X-3.125
G0 Y0.075
G0 X3.125
G1 X20.775
G1 X0.75S0
G1 X11.625S550
G1 X0.9S0
G1 X9.075S550
G1 X0.975S0
G1 X186.15S550
G1 X0.675S0
G1 X66S550
G0 X3.125
G0 Y0.075
G0 X-3.125
G1 X-65.925
G1 X-0.825S0
G1 X-186.15S550
G1 X-0.825S0
G1 X-9.225S550
G1 X-0.75S0
G1 X-11.775S550
G1 X-0.6S0
G1 X-20.85S550
G0 X-3.125
G0 Y0.075
G0 X3.125
G1 X21
G1 X0.3S0
G1 X12.075S550
G1 X0.525S0
G1 X9.45S550
G1 X0.525S0
G1 X186.225S550
G1 X0.975S0
G1 X65.85S550
G0 X3.125
G0 Y0.075
G0 X-3.125
G1 X-65.775
G1 X-1.05S0
G1 X-196.35S550
G1 X-0.225S0
G1 X-33.525S550
G0 X-3.125
G0 Y0.075
G0 X3.125
G1 X230.1
G1 X0.975S0
G1 X65.85S550
G0 X3.125
G0 Y0.075
G0 X-3.125
G1 X-65.85
G1 X-0.9S0
G1 X-230.175S550
G0 X-3.125
G0 Y0.075
G0 X3.125
G1 X230.1
G1 X0.975S0
G1 X65.85S550
G0 X3.125
G0 Y0.075
G0 X-3.125
G1 X-65.925
G1 X-0.825S0
G1 X-157.05S550
G1 X-0.225S0
G1 X-72.9S550
G0 X-3.125
G0 Y0.075
G0 X3.125
G1 X72.825
G1 X0.375S0
G1 X157.05S550
G1 X0.675S0
G1 X66S550
G0 X3.125
G0 Y0.075
G0 X-3.125
G1 X-66
G1 X-0.6S0
G1 X-157.05S550
G1 X-0.525S0
G1 X-72.75S550
G0 X-3.125
G0 Y0.075
G0 X3.125
G1 X72.75
G1 X0.45S0
G1 X157.275S550
G1 X0.3S0
G1 X66.15S550
G0 X3.125
G0 Y0.075
G0 X-3.125
G1 X-10.425
G1 X-0.15S0
G1 X-213.15S550
G1 X-0.375S0
G1 X-72.825S550
G0 X-3.125
G0 Y0.075
G0 X3.125
G1 X72.975
G1 X0.075S0
G1 X213.075S550
G1 X0.6S0
G1 X10.2S550
G0 X3.125
G0 Y0.075
G0 X-3.125
G1 X-10.125
G1 X-0.75S0
G1 X-286.05S550
G0 X-3.125
G0 Y0.075
G0 X3.125
G1 X18.525
G1 X0.3S0
G1 X267S550
G1 X1.05S0
G1 X10.05S550
G0 X3.125
G0 Y0.075
G0 X-3.125
G1 X-9.975
G1 X-1.125S0
G1 X-114.675S550
G1 X-0.3S0
G1 X-151.95S550
G1 X-0.375S0
G1 X-18.525S550
G0 X-3.125
G0 Y0.075
G0 X3.125
G1 X18.525
G1 X0.375S0
G1 X151.95S550
G1 X0.3S0
G1 X114.6S550
G1 X1.2S0
G1 X9.975S550
G0 X3.125
G0 Y0.075
G0 X-3.125
G1 X-9.975
G1 X-1.2S0
G1 X-114.6S550
G1 X-0.3S0
G1 X-152.025S550
G1 X-0.3S0
G1 X-18.525S550
G0 X-3.125
G0 Y0.075
G0 X3.125
G1 X18.6
G1 X0.15S0
G1 X152.1S550
G1 X0.225S0
G1 X114.675S550
G1 X1.2S0
G1 X9.975S550
G0 X3.125
G0 Y0.075
G0 X-3.125
G1 X-9.975
G1 X-1.2S0
G1 X-285.75S550
G0 X-3.125
G0 Y0.075
G0 X3.125
G1 X48.525
G1 X0.3S0
G1 X236.925S550
G1 X1.2S0
G1 X9.975S550
G0 X3.125
G0 Y0.075
G0 X-3.125
G1 X-10.125
G1 X-0.975S0
G1 X-236.85S550
G1 X-0.45S0
G1 X-48.525S550
G0 X-3.125
G0 Y0.075
G0 X3.125
G1 X48.6
G1 X0.45S0
G1 X236.85S550
G1 X0.9S0
G1 X10.125S550
G0 X3.125
G0 Y0.075
G0 X-3.125
G1 X-10.2
G1 X-0.75S0
G1 X-236.625S550
G1 X-0.75S0
G1 X-48.6S550
G0 X-3.125
G0 Y0.075
G0 X3.125
G1 X48.675
G1 X7.2S0
G1 X230.25S550
G1 X0.45S0
G1 X10.35S550
G0 X3.125
G0 Y0.075
G0 X-3.125
G1 X-240.975
G1 X-7.275S0
G1 X-48.675S550
G0 X-3.125
G0 Y0.075
G0 X3.125
G1 X48.75
G1 X7.35S0
G1 X240.825S550
G0 X3.125
G0 Y0.075
G0 X-3.125
G1 X-240.75
G1 X-7.425S0
G1 X-48.75S550
G0 X-3.125
G0 Y0.075
G0 X3.125
G1 X48.825
G1 X7.35S0
G1 X240.75S550
G0 X3.125
G0 Y0.075
G0 X-3.125
G1 X-240.6
G1 X-7.575S0
G1 X-48.75S550
G0 X-3.125
G0 Y0.075
G0 X3.125
G1 X48.6
G1 X7.725S0
G1 X240.6S550
G0 X3.125
G0 Y0.075
G0 X-3.125
G1 X-240.525
G1 X-7.875S0
G1 X-48.525S550
G0 X-3.125
G0 Y0.075
G0 X3.125
G1 X48.45
G1 X7.95S0
G1 X240.525S550
G0 X3.125
G0 Y0.075
G0 X-3.125
G1 X-240.45
G1 X-8.175S0
G1 X-48.3S550
G0 X-3.125
G0 Y0.075
G0 X3.125
G1 X48.225
G1 X8.325S0
G1 X240.375S550
G0 X3.125
G0 Y0.075
G0 X-3.125
G1 X-240.375
G1 X-8.4S0
G1 X-48.15S550
G0 X-3.125
G0 Y0.075
G0 X3.125
G1 X48.075
G1 X8.55S0
G1 X240.3S550
G0 X3.125
G0 Y0.075
G0 X-3.125
G1 X-240.225
G1 X-8.775S0
G1 X-47.925S550
G0 X-3.125
G0 Y0.075
G0 X3.125
G1 X47.85
G1 X8.85S0
G1 X78.825S550
G1 X0.525S0
G1 X160.875S550
G0 X3.125
G0 Y0.075
G0 X-3.125
G1 X-160.725
G1 X-0.825S0
G1 X-78.675S550
G1 X-8.925S0
G1 X-47.775S550
G0 X-3.125
G0 Y0.075
G0 X3.125
G1 X47.7
G1 X9.075S0
G1 X78.6S550
G1 X0.825S0
G1 X160.725S550
G0 X3.125
G0 Y0.075
G0 X-3.125
G1 X-160.65
G1 X-0.9S0
G1 X-78.525S550
G1 X-9.225S0
G1 X-47.625S550
G0 X-3.125
G0 Y0.075
G0 X3.125
G1 X47.475
G1 X9.375S0
G1 X78.525S550
G1 X0.975S0
G1 X160.575S550
G0 X3.125
G0 Y0.075
G0 X-3.125
G1 X-160.575
G1 X-0.975S0
G1 X-15.825S550
G1 X-0.75S0
G1 X-61.875S550
G1 X-9.525S0
G1 X-47.4S550
G0 X-3.125
G0 Y0.075
G0 X3.125
G1 X47.4
G1 X9.525S0
G1 X61.725S550
G1 X0.975S0
G1 X15.75S550
G1 X0.975S0
G1 X160.575S550
G0 X3.125
G0 Y0.075
G0 X-3.125
G1 X-160.575
G1 X-0.975S0
G1 X-15.6S550
G1 X-1.2S0
G1 X-61.575S550
G1 X-6.375S0
G1 X-0.075S550
G1 X-3.3S0
G1 X-47.25S550
G0 X-3.125
G0 Y0.075
G0 X3.125
G1 X47.25
G1 X3.15S0
G1 X0.15S550
G1 X5.55S0
G1 X0.075S550
G1 X0.825S0
G1 X61.425S550
G1 X1.5S0
G1 X15.45S550
G1 X0.975S0
G1 X160.575S550
G0 X3.125
G0 Y0.075
G0 X-3.125
G1 X-160.65
G1 X-0.9S0
G1 X-15.375S550
G1 X-1.65S0
G1 X-61.275S550
G1 X-0.825S0
G1 X-0.075S550
G1 X-5.775S0
G1 X-0.15S550
G1 X-3.075S0
G1 X-47.175S550
G0 X-3.125
G0 Y0.075
G0 X3.125
G1 X47.1
G1 X3S0
G1 X0.225S550
G1 X5.925S0
G1 X0.075S550
G1 X0.75S0
G1 X61.2S550
G1 X1.725S0
G1 X15.375S550
G1 X0.825S0
G1 X160.725S550
G0 X3.125
G0 Y0.075
G0 X-3.125
G1 X-160.8
G1 X-0.675S0
G1 X-15.375S550
G1 X-1.8S0
G1 X-61.2S550
G1 X-0.6S0
G1 X-0.15S550
G1 X-6.15S0
G1 X-0.225S550
G1 X-2.925S0
G1 X-47.025S550
G0 X-3.125
G0 Y0.075
G0 X3.125
G1 X46.95
G1 X2.85S0
G1 X0.3S550
G1 X6.3S0
G1 X0.225S550
G1 X0.525S0
G1 X61.05S550
G1 X1.875S0
G1 X15.525S550
G1 X0.45S0
G1 X160.875S550
G0 X3.125
G0 Y0.075
G0 X-3.125
G1 X-176.775
G1 X-2.025S0
G1 X-60.975S550
G1 X-0.45S0
G1 X-7.05S550
G1 X-2.775S0
G1 X-46.875S550
G0 X-3.125
G0 Y0.075
G0 X3.125
G1 X46.8
G1 X2.7S0
G1 X7.275S550
G1 X0.45S0
G1 X60.9S550
G1 X2.025S0
G1 X176.775S550
G0 X3.125
G0 Y0.075
G0 X-3.125
G1 X-176.775
G1 X-2.025S0
G1 X-60.9S550
G1 X-0.3S0
G1 X-7.575S550
G1 X-2.625S0
G1 X-46.725S550
G0 X-3.125
G0 Y0.075
G0 X3.125
G1 X46.725
G1 X2.475S0
G1 X7.8S550
G1 X0.225S0
G1 X60.825S550
G1 X2.1S0
G1 X176.775S550
G0 X3.125
G0 Y0.075
G0 X-3.125
G1 X-176.775
G1 X-2.1S0
G1 X-60.75S550
G1 X-0.225S0
G1 X-8.025S550
G1 X-2.475S0
G1 X-46.575S550
G0 X-3.125
G0 Y0.075
G0 X3.125
G1 X46.575
G1 X2.325S0
G1 X69.075S550
G1 X2.175S0
G1 X176.775S550
G0 X3.125
G0 Y0.075
G0 X-3.125
G1 X-176.775
G1 X-2.175S0
G1 X-69.15S550
G1 X-2.325S0
G1 X-46.5S550
G0 X-3.125
G0 Y0.075
G0 X3.125
G1 X46.425
G1 X2.175S0
G1 X69.3S550
G1 X2.25S0
G1 X176.775S550
G0 X3.125
G0 Y0.075
G0 X-3.125
G1 X-176.775
G1 X-2.25S0
G1 X-69.375S550
G1 X-2.175S0
G1 X-46.35S550
G0 X-3.125
G0 Y0.075
G0 X3.125
G1 X46.275
G1 X2.1S0
G1 X69.6S550
G1 X2.175S0
G1 X176.775S550
G0 X3.125
G0 Y0.075
G0 X-3.125
G1 X-176.85
G1 X-2.175S0
G1 X-69.675S550
G1 X-1.95S0
G1 X-46.275S550
G0 X-3.125
G0 Y0.075
G0 X3.125
G1 X46.2
G1 X1.95S0
G1 X69.825S550
G1 X2.1S0
G1 X176.85S550
G0 X3.125
G0 Y0.075
G0 X-3.125
G1 X-26.775
G1 X-0.525S0
G1 X-149.55S550
G1 X-2.1S0
G1 X-63S550
G1 X-8.85S0
G1 X-46.125S550
G0 X-3.125
G0 Y0.075
G0 X3.125
G1 X46.05
G1 X9.15S0
G1 X62.85S550
G1 X1.95S0
G1 X149.475S550
G1 X0.9S0
G1 X26.55S550
G0 X3.125
G0 Y0.075
G0 X-3.125
G1 X-26.55
G1 X-0.975S0
G1 X-149.475S550
G1 X-1.875S0
G1 X-62.775S550
G1 X-9.15S0
G1 X-46.125S550
G0 X-3.125
G0 Y0.075
G0 X3.125
G1 X26.925
G1 X0.3S0
G1 X18.975S550
G1 X9.15S0
G1 X62.7S550
G1 X1.875S0
G1 X149.4S550
G1 X1.125S0
G1 X26.475S550
G0 X3.125
G0 Y0.075
G0 X-3.125
G1 X-26.4
G1 X-1.275S0
G1 X-136.95S550
G1 X-0.525S0
G1 X-11.925S550
G1 X-1.725S0
G1 X-62.7S550
G1 X-9.075S0
G1 X-18.9S550
G1 X-0.675S0
G1 X-26.775S550
G0 X-3.125
G0 Y0.075
G0 X3.125
G1 X26.7
G1 X0.825S0
G1 X18.9S550
G1 X9.075S0
G1 X62.7S550
G1 X1.575S0
G1 X11.925S550
G1 X0.675S0
G1 X136.875S550
G1 X1.275S0
G1 X26.4S550
G0 X3.125
G0 Y0.075
G0 X-3.125
G1 X-26.325
G1 X-1.425S0
G1 X-136.725S550
G1 X-0.825S0
G1 X-11.925S550
G1 X-1.5S0
G1 X-62.625S550
G1 X-9S0
G1 X-19.05S550
G1 X-0.9S0
G1 X-26.625S550
G0 X-3.125
G0 Y0.075
G0 X3.125
G1 X26.625
G1 X0.9S0
G1 X19.125S550
G1 X9S0
G1 X62.7S550
G1 X1.275S0
G1 X11.925S550
G1 X0.9S0
G1 X81.225S550
G1 X0.225S0
G1 X55.275S550
G1 X1.425S0
G1 X26.325S550
G0 X3.125
G0 Y0.075
G0 X-3.125
G1 X-26.325
G1 X-1.425S0
G1 X-55.125S550
G1 X-0.525S0
G1 X-81.075S550
G1 X-0.9S0
G1 X-12S550
G1 X-1.125S0
G1 X-62.7S550
G1 X-8.925S0
G1 X-19.2S550
G1 X-0.975S0
G1 X-26.625S550
G0 X-3.125
G0 Y0.075
G0 X3.125
G1 X26.55
G1 X1.05S0
G1 X19.275S550
G1 X8.85S0
G1 X62.925S550
G1 X0.675S0
G1 X12.15S550
G1 X1.05S0
G1 X80.925S550
G1 X0.675S0
G1 X55.05S550
G1 X1.425S0
G1 X26.325S550
G0 X3.125
G0 Y0.075
G0 X-3.125
G1 X-26.4
G1 X-1.275S0
G1 X-19.65S550
G1 X-0.15S0
G1 X-35.325S550
G1 X-0.675S0
G1 X-80.925S550
G1 X-1.05S0
G1 X-75.675S550
G1 X-8.7S0
G1 X-19.5S550
G1 X-0.975S0
G1 X-26.625S550
G0 X-3.125
G0 Y0.075
G0 X3.125
G1 X26.625
G1 X0.9S0
G1 X19.65S550
G1 X8.7S0
G1 X75.6S550
G1 X1.05S0
G1 X80.925S550
G1 X0.75S0
G1 X35.25S550
G1 X0.225S0
G1 X19.575S550
G1 X1.275S0
G1 X26.4S550
G0 X3.125
G0 Y0.075
G0 X-3.125
G1 X-26.4
G1 X-1.2S0
G1 X-19.8S550
G1 X-0.075S0
G1 X-35.25S550
G1 X-0.75S0
G1 X-81S550
G1 X-0.9S0
G1 X-75.6S550
G1 X-8.625S0
G1 X-19.8S550
G1 X-0.825S0
G1 X-26.7S550
G0 X-3.125
G0 Y0.075
G0 X3.125
G1 X26.775
G1 X0.6S0
G1 X20.025S550
G1 X8.625S0
G1 X75.6S550
G1 X0.825S0
G1 X81S550
G1 X0.75S0
G1 X55.125S550
G1 X1.125S0
G1 X26.475S550
G0 X3.125
G0 Y0.075
G0 X-3.125
G1 X-26.55
G1 X-0.975S0
G1 X-55.275S550
G1 X-0.675S0
G1 X-81.075S550
G1 X-0.75S0
G1 X-75.6S550
G1 X-8.475S0
G1 X-20.25S550
G1 X-0.45S0
G1 X-26.85S550
G0 X-3.125
G0 Y0.075
G0 X3.125
G1 X47.475
G1 X8.625S0
G1 X75.6S550
G1 X0.675S0
G1 X81.15S550
G1 X0.6S0
G1 X55.425S550
G1 X0.75S0
G1 X26.625S550
G0 X3.125
G0 Y0.075
G0 X-3.125
G1 X-26.7
G1 X-0.075S0
G1 X-0.075S550
G1 X-0.375S0
G1 X-55.65S550
G1 X-0.45S0
G1 X-81.375S550
G1 X-0.45S0
G1 X-75.6S550
G1 X-8.85S0
G1 X-47.325S550
G0 X-3.125
G0 Y0.075
G0 X3.125
G1 X47.25
G1 X8.925S0
G1 X75.75S550
G1 X0.225S0
G1 X164.775S550
G0 X3.125
G0 Y0.075
G0 X-3.125
G1 X-240.675
G1 X-9S0
G1 X-47.25S550
G0 X-3.125
G0 Y0.075
G0 X3.125
G1 X47.175
G1 X9.15S0
G1 X240.6S550
G0 X3.125
G0 Y0.075
G0 X-3.125
G1 X-240.525
G1 X-9.3S0
G1 X-47.1S550
G0 X-3.125
G0 Y0.075
G0 X3.125
G1 X47.025
G1 X3.15S0
G1 X0.15S550
G1 X6.075S0
G1 X240.525S550
G0 X3.125
G0 Y0.075
G0 X-3.125
G1 X-240.45
G1 X-6.3S0
G1 X-0.15S550
G1 X-3.075S0
G1 X-46.95S550
G0 X-3.125
G0 Y0.075
G0 X3.125
G1 X46.875
G1 X3S0
G1 X0.225S550
G1 X6.525S0
G1 X240.3S550
G0 X3.125
G0 Y0.075
G0 X-3.125
G1 X-240.3
G1 X-6.675S0
G1 X-0.225S550
G1 X-2.925S0
G1 X-46.8S550
G0 X-3.125
G0 Y0.075
G0 X3.125
G1 X46.725
G1 X2.85S0
G1 X0.225S550
G1 X6.9S0
G1 X240.225S550
G0 X3.125
G0 Y0.075
G0 X-3.125
G1 X-240.15
G1 X-6.975S0
G1 X-0.375S550
G1 X-2.775S0
G1 X-46.65S550
G0 X-3.125
G0 Y0.075
G0 X3.125
G1 X46.575
G1 X2.7S0
G1 X6.825S550
G1 X0.75S0
G1 X240.075S550
G0 X3.125
G0 Y0.075
G0 X-3.125
G1 X-240
G1 X-0.6S0
G1 X-7.2S550
G1 X-2.625S0
G1 X-46.5S550
G0 X-3.125
G0 Y0.075
G0 X3.125
G1 X46.35
G1 X2.625S0
G1 X7.575S550
G1 X0.375S0
G1 X123.75S550
G1 X0.075S0
G1 X116.175S550
G0 X3.125
G0 Y0.075
G0 X-3.125
G1 X-116.025
G1 X-0.375S0
G1 X-123.675S550
G1 X-0.225S0
G1 X-7.8S550
G1 X-2.475S0
G1 X-46.35S550
G0 X-3.125
G0 Y0.075
G0 X3.125
G1 X46.275
G1 X2.475S0
G1 X8.025S550
G1 X0.075S0
G1 X123.6S550
G1 X0.6S0
G1 X115.875S550
G0 X3.125
G0 Y0.075
G0 X-3.125
G1 X-115.875
G1 X-0.675S0
G1 X-131.85S550
G1 X-2.325S0
G1 X-46.2S550
G0 X-3.125
G0 Y0.075
G0 X3.125
G1 X46.125
G1 X2.325S0
G1 X131.925S550
G1 X0.675S0
G1 X115.875S550
G0 X3.125
G0 Y0.075
G0 X-3.125
G1 X-115.875
G1 X-0.675S0
G1 X-132.075S550
G1 X-2.175S0
G1 X-46.125S550
G0 X-3.125
G0 Y0.075
G0 X3.125
G1 X45.975
G1 X2.25S0
G1 X132.15S550
G1 X0.675S0
G1 X115.875S550
G0 X3.125
G0 Y0.075
G0 X-3.125
G1 X-115.95
G1 X-0.525S0
G1 X-132.375S550
G1 X-2.175S0
G1 X-45.9S550
G0 X-3.125
G0 Y0.075
G0 X3.125
G1 X45.9
G1 X2.1S0
G1 X132.525S550
G1 X0.45S0
G1 X115.95S550
G0 X3.125
G0 Y0.075
G0 X-3.125
G1 X-116.1
G1 X-0.075S0
G1 X-0.075S550
G1 X-0.075S0
G1 X-132.75S550
G1 X-2.025S0
G1 X-45.825S550
G0 X-3.125
G0 Y0.075
G0 X3.125
G1 X45.75
G1 X9.375S0
G1 X241.8S550
G0 X3.125
G0 Y0.075
G0 X-3.125
G1 X-241.575
G1 X-9.6S0
G1 X-45.75S550
G0 X-3.125
G0 Y0.075
G0 X3.125
G1 X45.75
G1 X9.75S0
G1 X241.425S550
G0 X3.125
G0 Y0.075
G0 X-3.125
G1 X-241.35
G1 X-9.675S0
G1 X-45.9S550
G0 X-3.125
G0 Y0.075
G0 X3.125
G1 X45.975
G1 X9.675S0
G1 X241.275S550
G0 X3.125
G0 Y0.075
G0 X-3.125
G1 X-241.2
G1 X-9.6S0
G1 X-46.125S550
G0 X-3.125
G0 Y0.075
G0 X3.125
G1 X46.2
G1 X9.6S0
G1 X241.125S550
G0 X3.125
G0 Y0.075
G0 X-3.125
G1 X-241.05
G1 X-9.525S0
G1 X-46.35S550
G0 X-3.125
G0 Y0.075
G0 X3.125
G1 X46.5
G1 X9.375S0
G1 X94.575S550
G1 X0.9S0
G1 X145.575S550
G0 X3.125
G0 Y0.075
G0 X-3.125
G1 X-145.35
G1 X-1.275S0
G1 X-94.35S550
G1 X-9.375S0
G1 X-46.575S550
G0 X-3.125
G0 Y0.075
G0 X3.125
G1 X46.725
G1 X9.3S0
G1 X94.2S550
G1 X1.5S0
G1 X145.2S550
G0 X3.125
G0 Y0.075
G0 X-3.125
G1 X-145.125
G1 X-1.725S0
G1 X-93.975S550
G1 X-9.3S0
G1 X-46.8S550
G0 X-3.125
G0 Y0.075
G0 X3.125
G1 X46.95
G1 X9.15S0
G1 X93.9S550
G1 X1.95S0
G1 X144.975S550
G0 X3.125
G0 Y0.075
G0 X-3.125
G1 X-144.975
G1 X-2.025S0
G1 X-24.15S550
G1 X-0.225S0
G1 X-69.375S550
G1 X-9.15S0
G1 X-47.025S550
G0 X-3.125
G0 Y0.075
G0 X3.125
G1 X47.175
G1 X9.075S0
G1 X69.15S550
G1 X0.675S0
G1 X23.7S550
G1 X2.325S0
G1 X144.825S550
G0 X3.125
G0 Y0.075
G0 X-3.125
G1 X-144.75
G1 X-2.475S0
G1 X-23.55S550
G1 X-0.825S0
G1 X-69.075S550
G1 X-9S0
G1 X-47.25S550
G0 X-3.125
G0 Y0.075
G0 X3.125
G1 X47.4
G1 X9S0
G1 X68.925S550
G1 X0.825S0
G1 X23.475S550
G1 X2.625S0
G1 X144.675S550
G0 X3.125
G0 Y0.075
G0 X-3.125
G1 X-144.675
G1 X-2.625S0
G1 X-23.4S550
G1 X-0.975S0
G1 X-68.85S550
G1 X-8.85S0
G1 X-47.55S550
G0 X-3.125
G0 Y0.075
G0 X3.125
G1 X47.625
G1 X8.85S0
G1 X68.85S550
G1 X0.9S0
G1 X23.4S550
G1 X2.7S0
G1 X144.6S550
G0 X3.125
G0 Y0.075
G0 X-3.125
G1 X-144.6
G1 X-2.775S0
G1 X-23.325S550
G1 X-0.9S0
G1 X-68.775S550
G1 X-8.775S0
G1 X-47.775S550
G0 X-3.125
G0 Y0.075
G0 X3.125
G1 X47.85
G1 X8.7S0
G1 X6.6S550
G1 X0.15S0
G1 X61.95S550
G1 X0.9S0
G1 X23.4S550
G1 X2.85S0
G1 X6.525S550
G1 X0.15S0
G1 X137.85S550
G0 X3.125
G0 Y0.075
G0 X-3.125
G1 X-137.7
G1 X-0.45S0
G1 X-6.375S550
G1 X-2.925S0
G1 X-23.325S550
G1 X-0.825S0
G1 X-61.8S550
G1 X-0.45S0
G1 X-6.45S550
G1 X-8.625S0
G1 X-48S550
G0 X-3.125
G0 Y0.075
G0 X3.125
G1 X48.075
G1 X8.625S0
G1 X6.225S550
G1 X0.675S0
G1 X61.8S550
G1 X0.75S0
G1 X23.325S550
G1 X2.925S0
G1 X6.3S550
G1 X0.6S0
G1 X137.625S550
G0 X3.125
G0 Y0.075
G0 X-3.125
G1 X-137.475
G1 X-0.825S0
G1 X-6.15S550
G1 X-3.075S0
G1 X-23.325S550
G1 X-0.6S0
G1 X-61.8S550
G1 X-0.825S0
G1 X-6.075S550
G1 X-8.55S0
G1 X-48.225S550
G0 X-3.125
G0 Y0.075
G0 X3.125
G1 X48.375
G1 X8.475S0
G1 X5.925S550
G1 X0.9S0
G1 X85.725S550
G1 X3.075S0
G1 X6.075S550
G1 X0.9S0
G1 X137.475S550
G0 X3.125
G0 Y0.075
G0 X-3.125
G1 X-137.4
G1 X-1.05S0
G1 X-6S550
G1 X-3.075S0
G1 X-85.65S550
G1 X-0.975S0
G1 X-5.85S550
G1 X-8.475S0
G1 X-48.45S550
G0 X-3.125
G0 Y0.075
G0 X3.125
G1 X48.6
G1 X0.45S0
G1 X0.075S550
G1 X0.15S0
G1 X0.075S550
G1 X0.15S0
G1 X0.075S550
G1 X0.15S0
G1 X0.075S550
G1 X0.15S0
G1 X0.075S550
G1 X0.15S0
G1 X0.075S550
G1 X0.15S0
G1 X0.075S550
G1 X0.15S0
G1 X0.075S550
G1 X0.15S0
G1 X0.075S550
G1 X0.15S0
G1 X0.075S550
G1 X0.075S0
G1 X0.075S550
G1 X0.075S0
G1 X0.075S550
G1 X0.075S0
G1 X0.075S550
G1 X0.075S0
G1 X0.075S550
G1 X0.075S0
G1 X0.075S550
G1 X0.075S0
G1 X0.075S550
G1 X0.075S0
G1 X0.075S550
G1 X0.15S0
G1 X0.075S550
G1 X0.15S0
G1 X0.075S550
G1 X0.15S0
G1 X0.075S550
G1 X0.15S0
G1 X0.075S550
G1 X0.15S0
G1 X0.075S550
G1 X0.15S0
G1 X0.075S550
G1 X0.15S0
G1 X0.075S550
G1 X0.15S0
G1 X0.075S550
G1 X0.15S0
G1 X0.075S550
G1 X0.15S0
G1 X0.075S550
G1 X0.15S0
G1 X0.075S550
G1 X0.15S0
G1 X0.075S550
G1 X0.15S0
G1 X0.075S550
G1 X0.15S0
G1 X0.075S550
G1 X0.15S0
G1 X0.075S550
G1 X0.15S0
G1 X0.075S550
G1 X0.075S0
G1 X0.075S550
G1 X1.05S0
G1 X5.7S550
G1 X1.05S0
G1 X85.575S550
G1 X3.225S0
G1 X5.85S550
G1 X1.05S0
G1 X137.475S550
G0 X3.125
G0 Y0.075
G0 X-3.125
G1 X-137.4
G1 X-1.125S0
G1 X-5.85S550
G1 X-3.225S0
G1 X-85.575S550
G1 X-1.05S0
G1 X-5.7S550
G1 X-0.75S0
G1 X-7.35S550
G1 X-0.225S0
G1 X-48.675S550
G0 X-3.125
G0 Y0.075
G0 X3.125
G1 X56.475
G1 X0.6S0
G1 X5.55S550
G1 X1.125S0
G1 X85.575S550
G1 X3.15S0
G1 X5.925S550
G1 X1.05S0
G1 X137.475S550
G0 X3.125
G0 Y0.075
G0 X-3.125
G1 X-137.475
G1 X-1.05S0
G1 X-5.85S550
G1 X-3.225S0
G1 X-85.575S550
G1 X-1.125S0
G1 X-5.475S550
G1 X-0.45S0
G1 X-56.7S550
G0 X-3.125
G0 Y0.075
G0 X3.125
G1 X56.85
G1 X0.225S0
G1 X5.475S550
G1 X1.125S0
G1 X13.125S550
G1 X0.375S0
G1 X72.15S550
G1 X3.15S0
G1 X5.925S550
G1 X0.975S0
G1 X137.55S550
G0 X3.125
G0 Y0.075
G0 X-3.125
G1 X-137.55
G1 X-0.9S0
G1 X-5.925S550
G1 X-3.15S0
G1 X-72.075S550
G1 X-0.675S0
G1 X-12.975S550
G1 X-1.125S0
G1 X-5.55S550
G1 X-0.075S0
G1 X-56.925S550
G0 X-3.125
G0 Y0.075
G0 X3.125
G1 X48.375
G1 X0.15S0
G1 X13.95S550
G1 X1.125S0
G1 X12.975S550
G1 X0.825S0
G1 X72S550
G1 X3.075S0
G1 X6S550
G1 X0.825S0
G1 X137.625S550
G0 X3.125
G0 Y0.075
G0 X-3.125
G1 X-137.7
G1 X-0.675S0
G1 X-6.075S550
G1 X-3.075S0
G1 X-72S550
G1 X-0.9S0
G1 X-12.9S550
G1 X-1.125S0
G1 X-13.875S550
G1 X-0.3S0
G1 X-48.3S550
G0 X-3.125
G0 Y0.075
G0 X3.125
G1 X48.3
G1 X0.45S0
G1 X13.8S550
G1 X0.975S0
G1 X12.975S550
G1 X0.975S0
G1 X72S550
G1 X3S0
G1 X6.225S550
G1 X0.45S0
G1 X137.775S550
G0 X3.125
G0 Y0.075
G0 X-3.125
G1 X-138
G1 X-0.15S0
G1 X-6.3S550
G1 X-3S0
G1 X-40.275S550
G1 X-0.3S0
G1 X-31.425S550
G1 X-1.05S0
G1 X-12.825S550
G1 X-1.125S0
G1 X-13.65S550
G1 X-0.45S0
G1 X-48.375S550
G0 X-3.125
G0 Y0.075
G0 X3.125
G1 X48.45
G1 X0.6S0
G1 X13.5S550
G1 X0.975S0
G1 X12.975S550
G1 X0.975S0
G1 X31.425S550
G1 X0.3S0
G1 X40.35S550
G1 X2.85S0
G1 X144.525S550
G0 X3.125
G0 Y0.075
G0 X-3.125
G1 X-144.525
G1 X-2.85S0
G1 X-40.35S550
G1 X-0.3S0
G1 X-31.425S550
G1 X-0.975S0
G1 X-12.975S550
G1 X-0.975S0
G1 X-13.2S550
G1 X-0.825S0
G1 X-48.525S550
G0 X-3.125
G0 Y0.075
G0 X3.125
G1 X48.525
G1 X1.2S0
G1 X12.825S550
G1 X0.9S0
G1 X13.05S550
G1 X0.975S0
G1 X31.5S550
G1 X0.15S0
G1 X40.5S550
G1 X2.775S0
G1 X144.525S550
G0 X3.125
G0 Y0.075
G0 X-3.125
G1 X-144.525
G1 X-2.775S0
G1 X-72.225S550
G1 X-0.825S0
G1 X-13.125S550
G1 X-0.75S0
G1 X-7.275S550
G1 X-6.825S0
G1 X-48.6S550
G0 X-3.125
G0 Y0.075
G0 X3.125
G1 X48.675
G1 X6.975S0
G1 X7.05S550
G1 X0.675S0
G1 X13.275S550
G1 X0.675S0
G1 X72.375S550
G1 X2.625S0
G1 X144.6S550
G0 X3.125
G0 Y0.075
G0 X-3.125
G1 X-144.675
G1 X-2.55S0
G1 X-72.45S550
G1 X-0.525S0
G1 X-13.425S550
G1 X-0.45S0
G1 X-7.05S550
G1 X-7.05S0
G1 X-48.75S550
G0 X-3.125
G0 Y0.075
G0 X3.125
G1 X48.825
G1 X7.125S0
G1 X93.825S550
G1 X2.4S0
G1 X144.75S550
G0 X3.125
G0 Y0.075
G0 X-3.125
G1 X-144.9
G1 X-2.175S0
G1 X-93.825S550
G1 X-7.125S0
G1 X-48.9S550
G0 X-3.125
G0 Y0.075
G0 X3.125
G1 X48.975
G1 X7.05S0
G1 X93.9S550
G1 X1.95S0
G1 X145.05S550
G0 X3.125
G0 Y0.075
G0 X-3.125
G1 X-145.125
G1 X-1.8S0
G1 X-93.9S550
G1 X-7.05S0
G1 X-49.05S550
G0 X-3.125
G0 Y0.075
G0 X3.125
G1 X49.125
G1 X7.05S0
G1 X93.975S550
G1 X1.5S0
G1 X145.275S550
G0 X3.125
G0 Y0.075
G0 X-3.125
G1 X-145.575
G1 X-0.975S0
G1 X-94.2S550
G1 X-6.975S0
G1 X-49.2S550
G0 X-3.125
G0 Y0.075
G0 X3.125
G1 X49.275
G1 X6.975S0
G1 X94.425S550
G1 X0.075S0
G1 X0.075S550
G1 X0.075S0
G1 X146.025S550
G0 X3.125
G0 Y0.075
G0 X-3.125
G1 X-240.6
G1 X-6.975S0
G1 X-49.35S550
G0 X-3.125
G0 Y0.075
G0 X3.125
G1 X35.1
G1 X0.15S0
G1 X14.175S550
G1 X6.825S0
G1 X240.675S550
G0 X3.125
G0 Y0.075
G0 X-3.125
G1 X-240.6
G1 X-6.9S0
G1 X-14.025S550
G1 X-0.375S0
G1 X-35.025S550
G0 X-3.125
G0 Y0.075
G0 X3.125
G1 X34.95
G1 X0.45S0
G1 X14.1S550
G1 X6.9S0
G1 X240.525S550
G0 X3.125
G0 Y0.075
G0 X-3.125
G1 X-240.45
G1 X-6.9S0
G1 X-14.1S550
G1 X-0.6S0
G1 X-34.875S550
G0 X-3.125
G0 Y0.075
G0 X3.125
G1 X34.875
G1 X0.6S0
G1 X14.175S550
G1 X6.825S0
G1 X240.45S550
G0 X3.125
G0 Y0.075
G0 X-3.125
G1 X-112.5
G1 X-0.3S0
G1 X-127.575S550
G1 X-6.825S0
G1 X-14.25S550
G1 X-0.525S0
G1 X-34.95S550
G0 X-3.125
G0 Y0.075
G0 X3.125
G1 X34.95
G1 X0.45S0
G1 X14.325S550
G1 X6.975S0
G1 X127.425S550
G1 X0.375S0
G1 X3.15S550
G1 X0.075S0
G1 X109.2S550
G0 X3.125
G0 Y0.075
G0 X-3.125
G1 X-61.125
G1 X-0.3S0
G1 X-47.55S550
G1 X-0.375S0
G1 X-3.075S550
G1 X-0.375S0
G1 X-127.425S550
G1 X-6.9S0
G1 X-14.55S550
G1 X-0.15S0
G1 X-35.1S550
G0 X-3.125
G0 Y0.075
G0 X3.125
G1 X49.875
G1 X6.9S0
G1 X127.35S550
G1 X0.3S0
G1 X3.15S550
G1 X0.375S0
G1 X47.25S550
G1 X0.9S0
G1 X60.825S550
G0 X3.125
G0 Y0.075
G0 X-3.125
G1 X-60.675
G1 X-1.275S0
G1 X-42S550
G1 X-0.6S0
G1 X-4.425S550
G1 X-0.375S0
G1 X-3.15S550
G1 X-0.3S0
G1 X-127.275S550
G1 X-6.975S0
G1 X-49.875S550
G0 X-3.125
G0 Y0.075
G0 X3.125
G1 X49.95
G1 X6.975S0
G1 X129.75S550
G1 X0.3S0
G1 X0.675S550
G1 X0.225S0
G1 X4.5S550
G1 X0.675S0
G1 X1.95S550
G1 X0.225S0
G1 X39.675S550
G1 X1.425S0
G1 X60.6S550
G0 X3.125
G0 Y0.075
G0 X-3.125
G1 X-60.525
G1 X-1.575S0
G1 X-39.6S550
G1 X-0.225S0
G1 X-1.95S550
G1 X-0.75S0
G1 X-5.25S550
G1 X-0.375S0
G1 X-129.675S550
G1 X-6.975S0
G1 X-50.025S550
G0 X-3.125
G0 Y0.075
G0 X3.125
G1 X50.025
G1 X3.825S0
G1 X0.075S550
G1 X3.225S0
G1 X129.525S550
G1 X0.525S0
G1 X5.1S550
G1 X0.75S0
G1 X1.95S550
G1 X0.225S0
G1 X39.525S550
G1 X1.725S0
G1 X60.45S550
G0 X3.125
G0 Y0.075
G0 X-3.125
G1 X-60.375
G1 X-1.875S0
G1 X-37.125S550
G1 X-0.15S0
G1 X-2.1S550
G1 X-0.375S0
G1 X-1.875S550
G1 X-0.75S0
G1 X-4.875S550
G1 X-0.75S0
G1 X-1.425S550
G1 X-0.45S0
G1 X-2.175S550
G1 X-0.15S0
G1 X-0.675S550
G1 X-0.3S0
G1 X-123.075S550
G1 X-0.825S0
G1 X-0.45S550
G1 X-3.375S0
G1 X-0.075S550
G1 X-3.6S0
G1 X-50.1S550
G0 X-3.125
G0 Y0.075
G0 X3.125
G1 X50.025
G1 X3.45S0
G1 X0.225S550
G1 X3.375S0
G1 X0.225S550
G1 X1.125S0
G1 X123S550
G1 X0.45S0
G1 X0.525S550
G1 X0.3S0
G1 X2.025S550
G1 X0.675S0
G1 X1.35S550
G1 X0.75S0
G1 X3.3S550
G1 X0.15S0
G1 X1.35S550
G1 X0.675S0
G1 X2.025S550
G1 X0.3S0
G1 X0.9S550
G1 X0.075S0
G1 X0.975S550
G1 X0.3S0
G1 X37.125S550
G1 X1.875S0
G1 X60.375S550
G0 X3.125
G0 Y0.075
G0 X-3.125
G1 X-60.375
G1 X-1.875S0
G1 X-37.125S550
G1 X-0.375S0
G1 X-0.825S550
G1 X-0.225S0
G1 X-0.9S550
G1 X-0.3S0
G1 X-2.1S550
G1 X-0.525S0
G1 X-1.275S550
G1 X-0.525S0
G1 X-0.075S550
G1 X-0.075S0
G1 X-0.075S550
G1 X-0.075S0
G1 X-2.55S550
G1 X-0.9S0
G1 X-1.35S550
G1 X-0.75S0
G1 X-1.875S550
G1 X-0.3S0
G1 X-0.6S550
G1 X-0.45S0
G1 X-122.925S550
G1 X-4.875S0
G1 X-0.3S550
G1 X-3.3S0
G1 X-50.025S550
G0 X-3.125
G0 Y0.075
G0 X3.125
G1 X49.95
G1 X0.675S0
G1 X1.875S550
G1 X0.75S0
G1 X3.675S550
G1 X1.5S0
G1 X123S550
G1 X0.45S0
G1 X0.675S550
G1 X0.15S0
G1 X1.95S550
G1 X0.825S0
G1 X1.425S550
G1 X0.825S0
G1 X2.325S550
G1 X0.975S0
G1 X1.2S550
G1 X0.525S0
G1 X2.175S550
G1 X0.375S0
G1 X0.825S550
G1 X0.3S0
G1 X0.675S550
G1 X0.45S0
G1 X37.05S550
G1 X2.025S0
G1 X60.3S550
G0 X3.125
G0 Y0.075
G0 X-3.125
G1 X-60.3
G1 X-2.025S0
G1 X-31.575S550
G1 X-0.15S0
G1 X-5.4S550
G1 X-0.375S0
G1 X-0.675S550
G1 X-0.375S0
G1 X-0.75S550
G1 X-0.375S0
G1 X-2.25S550
G1 X-0.45S0
G1 X-1.275S550
G1 X-0.975S0
G1 X-2.1S550
G1 X-0.9S0
G1 X-1.5S550
G1 X-0.75S0
G1 X-2.85S550
G1 X-0.45S0
G1 X-1.125S550
G1 X-0.15S0
G1 X-2.175S550
G1 X-0.15S0
G1 X-119.625S550
G1 X-1.425S0
G1 X-3.675S550
G1 X-0.75S0
G1 X-1.875S550
G1 X-0.6S0
G1 X-49.875S550
G0 X-3.125
G0 Y0.075
G0 X3.125
G1 X49.875
G1 X0.375S0
G1 X1.875S550
G1 X0.825S0
G1 X3.675S550
G1 X1.425S0
G1 X119.625S550
G1 X0.45S0
G1 X2.025S550
G1 X0.075S0
G1 X1.275S550
G1 X0.3S0
G1 X2.85S550
G1 X0.75S0
G1 X0.75S550
G1 X0.3S0
G1 X0.6S550
G1 X0.9S0
G1 X1.95S550
G1 X1.05S0
G1 X1.2S550
G1 X0.525S0
G1 X2.25S550
G1 X0.45S0
G1 X0.675S550
G1 X0.3S0
G1 X0.825S550
G1 X0.225S0
G1 X5.325S550
G1 X0.375S0
G1 X31.5S550
G1 X2.1S0
G1 X60.225S550
G0 X3.125
G0 Y0.075
G0 X-3.125
G1 X-60.225
G1 X-2.1S0
G1 X-31.425S550
G1 X-0.6S0
G1 X-6.225S550
G1 X-0.225S0
G1 X-0.675S550
G1 X-0.525S0
G1 X-2.25S550
G1 X-0.525S0
G1 X-1.275S550
G1 X-0.9S0
G1 X-2.025S550
G1 X-0.825S0
G1 X-0.6S550
G1 X-0.45S0
G1 X-0.75S550
G1 X-0.525S0
G1 X-0.525S550
G1 X-0.225S0
G1 X-5.925S550
G1 X-0.525S0
G1 X-119.7S550
G1 X-1.35S0
G1 X-3.75S550
G1 X-0.825S0
G1 X-1.875S550
G1 X-0.075S0
G1 X-50.025S550
G0 X-3.125
G0 Y0.075
G0 X3.125
G1 X51.9
G1 X0.75S0
G1 X3.825S550
G1 X1.35S0
G1 X119.625S550
G1 X0.675S0
G1 X5.55S550
G1 X0.75S0
G1 X0.45S550
G1 X0.375S0
G1 X0.9S550
G1 X0.375S0
G1 X0.675S550
G1 X0.825S0
G1 X1.95S550
G1 X0.9S0
G1 X1.275S550
G1 X0.6S0
G1 X0.75S550
G1 X0.075S0
G1 X1.35S550
G1 X0.675S0
G1 X0.6S550
G1 X0.15S0
G1 X3.825S550
G1 X0.375S0
G1 X1.875S550
G1 X0.675S0
G1 X31.5S550
G1 X2.1S0
G1 X60.225S550
G0 X3.125
G0 Y0.075
G0 X-3.125
G1 X-60.15
G1 X-2.175S0
G1 X-31.5S550
G1 X-0.75S0
G1 X-1.125S550
G1 X-0.075S0
G1 X-0.45S550
G1 X-0.675S0
G1 X-4.35S550
G1 X-0.75S0
G1 X-1.2S550
G1 X-0.45S0
G1 X-0.525S550
G1 X-0.6S0
G1 X-1.275S550
G1 X-0.825S0
G1 X-2.1S550
G1 X-0.75S0
G1 X-0.525S550
G1 X-0.525S0
G1 X-1.575S550
G1 X-1.05S0
G1 X-5.325S550
G1 X-0.9S0
G1 X-119.55S550
G1 X-1.425S0
G1 X-3.825S550
G1 X-0.75S0
G1 X-51.75S550
G0 X-3.125
G0 Y0.075
G0 X3.125
G1 X51.525
G1 X0.9S0
G1 X3.825S550
G1 X1.35S0
G1 X120S550
G1 X0.675S0
G1 X5.25S550
G1 X1.2S0
G1 X1.5S550
G1 X0.525S0
G1 X0.6S550
G1 X0.6S0
G1 X2.25S550
G1 X0.675S0
G1 X1.275S550
G1 X0.6S0
G1 X0.525S550
G1 X0.6S0
G1 X1.05S550
G1 X0.825S0
G1 X2.025S550
G1 X0.375S0
G1 X1.875S550
G1 X0.675S0
G1 X0.45S550
G1 X0.225S0
G1 X0.975S550
G1 X0.675S0
G1 X31.575S550
G1 X2.175S0
G1 X60.15S550
G0 X3.125
G0 Y0.075
G0 X-3.125
G1 X-60.075
G1 X-2.25S0
G1 X-31.575S550
G1 X-0.675S0
G1 X-0.975S550
G1 X-0.225S0
G1 X-0.375S550
G1 X-0.825S0
G1 X-1.8S550
G1 X-0.45S0
G1 X-1.875S550
G1 X-0.9S0
G1 X-0.9S550
G1 X-0.825S0
G1 X-0.375S550
G1 X-0.675S0
G1 X-1.275S550
G1 X-0.45S0
G1 X-2.475S550
G1 X-0.525S0
G1 X-0.675S550
G1 X-0.525S0
G1 X-1.5S550
G1 X-0.525S0
G1 X-0.375S550
G1 X-0.375S0
G1 X-4.95S550
G1 X-0.75S0
G1 X-120.225S550
G1 X-1.35S0
G1 X-3.75S550
G1 X-1.05S0
G1 X-51.375S550
G0 X-3.125
G0 Y0.075
G0 X3.125
G1 X51.3
G1 X1.2S0
G1 X3.6S550
G1 X1.35S0
G1 X120.375S550
G1 X0.825S0
G1 X1.8S550
G1 X0.6S0
G1 X0.075S550
G1 X0.075S0
G1 X2.325S550
G1 X0.225S0
G1 X0.525S550
G1 X0.45S0
G1 X1.575S550
G1 X0.525S0
G1 X0.6S550
G1 X0.45S0
G1 X2.55S550
G1 X0.525S0
G1 X1.2S550
G1 X0.675S0
G1 X0.375S550
G1 X0.9S0
G1 X0.825S550
G1 X0.9S0
G1 X1.875S550
G1 X0.375S0
G1 X1.875S550
G1 X0.825S0
G1 X0.45S550
G1 X0.15S0
G1 X0.975S550
G1 X0.525S0
G1 X31.725S550
G1 X2.25S0
G1 X60.075S550
G0 X3.125
G0 Y0.075
G0 X-3.125
G1 X-60.075
G1 X-2.175S0
G1 X-31.875S550
G1 X-0.45S0
G1 X-0.9S550
G1 X-0.15S0
G1 X-0.525S550
G1 X-0.9S0
G1 X-1.8S550
G1 X-0.45S0
G1 X-0.6S550
G1 X-0.225S0
G1 X-0.9S550
G1 X-1.05S0
G1 X-0.6S550
G1 X-1.125S0
G1 X-0.15S550
G1 X-0.825S0
G1 X-0.6S550
G1 X-0.15S0
G1 X-0.3S550
G1 X-0.675S0
G1 X-3.6S550
G1 X-0.45S0
G1 X-1.725S550
G1 X-0.3S0
G1 X-3S550
G1 X-0.975S0
G1 X-1.575S550
G1 X-0.9S0
G1 X-1.35S550
G1 X-0.075S0
G1 X-119.1S550
G1 X-1.35S0
G1 X-3.45S550
G1 X-1.425S0
G1 X-32.175S550
G1 X-0.375S0
G1 X-18.6S550
G0 X-3.125
G0 Y0.075
G0 X3.125
G1 X18.45
G1 X0.75S0
G1 X31.8S550
G1 X1.65S0
G1 X3.3S550
G1 X1.35S0
G1 X119.025S550
G1 X0.3S0
G1 X1.425S550
G1 X0.825S0
G1 X1.425S550
G1 X1.2S0
G1 X1.125S550
G1 X0.3S0
G1 X3.45S550
G1 X0.375S0
G1 X3.6S550
G1 X1.5S0
G1 X0.15S550
G1 X2.475S0
G1 X0.225S550
G1 X1.2S0
G1 X0.825S550
G1 X0.375S0
G1 X0.45S550
G1 X0.45S0
G1 X1.8S550
G1 X0.975S0
G1 X0.6S550
G1 X0.075S0
G1 X33.225S550
G1 X2.1S0
G1 X60.15S550
G0 X3.125
G0 Y0.075
G0 X-3.125
G1 X-60.075
G1 X-2.1S0
G1 X-28.275S550
G1 X-0.15S0
G1 X-4.575S550
G1 X-0.375S0
G1 X-0.6S550
G1 X-1.05S0
G1 X-1.725S550
G1 X-0.6S0
G1 X-0.3S550
G1 X-0.375S0
G1 X-0.75S550
G1 X-5.85S0
G1 X-1.5S550
G1 X-0.225S0
G1 X-1.725S550
G1 X-0.225S0
G1 X-0.9S550
G1 X-0.15S0
G1 X-2.4S550
G1 X-0.45S0
G1 X-0.75S550
G1 X-1.575S0
G1 X-1.35S550
G1 X-0.6S0
G1 X-1.575S550
G1 X-0.375S0
G1 X-1.125S550
G1 X-0.075S0
G1 X-117.9S550
G1 X-1.35S0
G1 X-3.15S550
G1 X-1.95S0
G1 X-31.5S550
G1 X-0.9S0
G1 X-18.375S550
G0 X-3.125
G0 Y0.075
G0 X3.125
G1 X18.375
G1 X0.9S0
G1 X31.35S550
G1 X2.25S0
G1 X2.925S550
G1 X1.35S0
G1 X117.9S550
G1 X0.375S0
G1 X0.9S550
G1 X0.45S0
G1 X1.65S550
G1 X0.45S0
G1 X1.275S550
G1 X1.725S0
G1 X0.75S550
G1 X0.375S0
G1 X2.325S550
G1 X0.225S0
G1 X2.775S550
G1 X0.375S0
G1 X1.35S550
G1 X3.825S0
G1 X0.075S550
G1 X2.1S0
G1 X0.675S550
G1 X0.3S0
G1 X0.3S550
G1 X0.6S0
G1 X1.8S550
G1 X1.05S0
G1 X0.6S550
G1 X0.525S0
G1 X1.275S550
G1 X0.15S0
G1 X2.925S550
G1 X0.375S0
G1 X28.2S550
G1 X1.95S0
G1 X51.825S550
G1 X0.375S0
G1 X7.95S550
G0 X3.125
G0 Y0.075
G0 X-3.125
G1 X-7.875
G1 X-0.45S0
G1 X-51.825S550
G1 X-1.95S0
G1 X-28.125S550
G1 X-0.525S0
G1 X-2.775S550
G1 X-0.3S0
G1 X-1.2S550
G1 X-0.525S0
G1 X-0.6S550
G1 X-1.05S0
G1 X-1.8S550
G1 X-0.6S0
G1 X-0.375S550
G1 X-0.225S0
G1 X-0.6S550
G1 X-2.025S0
G1 X-0.225S550
G1 X-3.9S0
G1 X-1.2S550
G1 X-0.525S0
G1 X-2.7S550
G1 X-0.225S0
G1 X-2.4S550
G1 X-0.225S0
G1 X-0.75S550
G1 X-1.8S0
G1 X-1.35S550
G1 X-0.3S0
G1 X-1.725S550
G1 X-0.45S0
G1 X-0.825S550
G1 X-0.45S0
G1 X-1.125S550
G1 X-0.225S0
G1 X-116.625S550
G1 X-1.35S0
G1 X-0.15S550
G1 X-0.075S0
G1 X-0.3S550
G1 X-0.075S0
G1 X-0.6S550
G1 X-0.075S0
G1 X-0.225S550
G1 X-0.075S0
G1 X-0.15S550
G1 X-0.075S0
G1 X-0.15S550
G1 X-0.075S0
G1 X-0.15S550
G1 X-0.075S0
G1 X-0.15S550
G1 X-0.075S0
G1 X-0.15S550
G1 X-0.075S0
G1 X-0.075S550
G1 X-2.4S0
G1 X-31.275S550
G1 X-0.9S0
G1 X-18.375S550
G0 X-3.125
G0 Y0.075
G0 X3.125
G1 X18.45
G1 X0.825S0
G1 X31.125S550
G1 X6.675S0
G1 X116.55S550
G1 X0.3S0
G1 X1.125S550
G1 X0.525S0
G1 X0.825S550
G1 X0.525S0
G1 X3.075S550
G1 X0.675S0
G1 X0.15S550
G1 X1.2S0
G1 X6.225S550
G1 X0.525S0
G1 X1.2S550
G1 X2.85S0
G1 X0.15S550
G1 X0.9S0
G1 X0.45S550
G1 X1.875S0
G1 X0.525S550
G1 X0.225S0
G1 X0.3S550
G1 X0.75S0
G1 X1.8S550
G1 X0.9S0
G1 X0.675S550
G1 X0.6S0
G1 X1.05S550
G1 X0.375S0
G1 X2.775S550
G1 X0.6S0
G1 X28.125S550
G1 X1.8S0
G1 X51.825S550
G1 X0.525S0
G1 X7.875S550
G0 X3.125
G0 Y0.075
G0 X-3.125
G1 X-7.875
G1 X-0.525S0
G1 X-51.825S550
G1 X-1.725S0
G1 X-28.8S550
G1 X-0.15S0
G1 X-2.625S550
G1 X-0.6S0
G1 X-0.825S550
G1 X-0.525S0
G1 X-0.75S550
G1 X-0.825S0
G1 X-1.725S550
G1 X-0.9S0
G1 X-1.05S550
G1 X-1.725S0
G1 X-0.525S550
G1 X-0.9S0
G1 X-0.3S550
G1 X-2.85S0
G1 X-1.125S550
G1 X-0.45S0
G1 X-6.225S550
G1 X-1.05S0
G1 X-0.45S550
G1 X-0.75S0
G1 X-2.775S550
G1 X-0.75S0
G1 X-0.675S550
G1 X-0.525S0
G1 X-1.2S550
G1 X-0.375S0
G1 X-116.55S550
G1 X-6.825S0
G1 X-30.9S550
G1 X-0.9S0
G1 X-18.375S550
G0 X-3.125
G0 Y0.075
G0 X3.125
G1 X18.45
G1 X0.825S0
G1 X30.75S550
G1 X6.9S0
G1 X116.55S550
G1 X0.45S0
G1 X1.2S550
G1 X0.525S0
G1 X0.75S550
G1 X0.75S0
G1 X2.7S550
G1 X0.675S0
G1 X0.6S550
G1 X0.975S0
G1 X2.325S550
G1 X0.15S0
G1 X3.9S550
G1 X0.375S0
G1 X1.125S550
G1 X1.125S0
G1 X0.15S550
G1 X1.425S0
G1 X0.3S550
G1 X0.975S0
G1 X0.75S550
G1 X1.5S0
G1 X0.975S550
G1 X1.125S0
G1 X1.65S550
G1 X0.675S0
G1 X0.825S550
G1 X0.525S0
G1 X0.675S550
G1 X0.75S0
G1 X2.475S550
G1 X0.3S0
G1 X1.725S550
G1 X0.3S0
G1 X27S550
G1 X1.425S0
G1 X51.975S550
G1 X0.45S0
G1 X7.875S550
G0 X3.125
G0 Y0.075
G0 X-3.125
G1 X-7.95
G1 X-0.375S0
G1 X-52.125S550
G1 X-1.05S0
G1 X-27.15S550
G1 X-0.45S0
G1 X-0.75S550
G1 X-0.15S0
G1 X-0.75S550
G1 X-0.375S0
G1 X-2.55S550
G1 X-0.6S0
G1 X-0.75S550
G1 X-0.3S0
G1 X-1.125S550
G1 X-0.075S0
G1 X-0.075S550
G1 X-0.15S0
G1 X-1.875S550
G1 X-1.125S0
G1 X-1.125S550
G1 X-1.125S0
G1 X-0.9S550
G1 X-1.05S0
G1 X-0.225S550
G1 X-1.5S0
G1 X-0.375S550
G1 X-0.075S0
G1 X-0.075S550
G1 X-0.825S0
G1 X-1.05S550
G1 X-0.375S0
G1 X-3.75S550
G1 X-0.375S0
G1 X-2.325S550
G1 X-0.825S0
G1 X-0.6S550
G1 X-0.75S0
G1 X-2.7S550
G1 X-0.75S0
G1 X-0.75S550
G1 X-0.45S0
G1 X-1.35S550
G1 X-0.375S0
G1 X-116.625S550
G1 X-6S0
G1 X-31.65S550
G1 X-0.675S0
G1 X-18.525S550
G0 X-3.125
G0 Y0.075
G0 X3.125
G1 X18.6
G1 X0.6S0
G1 X31.65S550
G1 X6S0
G1 X116.625S550
G1 X0.375S0
G1 X1.35S550
G1 X0.375S0
G1 X0.825S550
G1 X0.6S0
G1 X0.675S550
G1 X0.225S0
G1 X2.025S550
G1 X0.675S0
G1 X0.675S550
G1 X0.75S0
G1 X2.25S550
G1 X0.45S0
G1 X3.975S550
G1 X0.075S0
G1 X1.05S550
G1 X0.825S0
G1 X0.6S550
G1 X0.6S0
G1 X0.225S550
G1 X2.025S0
G1 X0.9S550
G1 X0.975S0
G1 X1.2S550
G1 X1.125S0
G1 X0.9S550
G1 X0.15S0
G1 X3.3S550
G1 X0.525S0
G1 X2.55S550
G1 X0.375S0
G1 X0.9S550
G1 X0.075S0
G1 X0.675S550
G1 X0.6S0
G1 X27.15S550
G1 X0.9S0
G1 X52.275S550
G1 X0.225S0
G1 X8.025S550
G0 X3.125
G0 Y0.075
G0 X-3.125
G1 X-40.5
G1 X-0.45S0
G1 X-19.725S550
G1 X-0.6S0
G1 X-27.3S550
G1 X-0.675S0
G1 X-1.575S550
G1 X-0.45S0
G1 X-2.55S550
G1 X-0.525S0
G1 X-1.275S550
G1 X-0.45S0
G1 X-1.275S550
G1 X-0.45S0
G1 X-0.825S550
G1 X-1.2S0
G1 X-1.2S550
G1 X-0.825S0
G1 X-0.9S550
G1 X-2.025S0
G1 X-0.3S550
G1 X-0.675S0
G1 X-0.525S550
G1 X-0.9S0
G1 X-4.95S550
G1 X-0.45S0
G1 X-2.4S550
G1 X-0.6S0
G1 X-0.675S550
G1 X-0.75S0
G1 X-1.875S550
G1 X-0.45S0
G1 X-0.6S550
G1 X-0.675S0
G1 X-2.625S550
G1 X-0.225S0
G1 X-116.7S550
G1 X-5.925S0
G1 X-31.8S550
G1 X-0.375S0
G1 X-18.675S550
G0 X-3.125
G0 Y0.075
G0 X3.125
G1 X50.925
G1 X5.775S0
G1 X115.575S550
G1 X0.3S0
G1 X3.75S550
G1 X0.6S0
G1 X0.675S550
G1 X0.45S0
G1 X1.875S550
G1 X0.825S0
G1 X0.675S550
G1 X0.45S0
G1 X2.475S550
G1 X0.45S0
G1 X4.95S550
G1 X0.9S0
G1 X0.45S550
G1 X0.675S0
G1 X0.375S550
G1 X2.175S0
G1 X0.825S550
G1 X0.75S0
G1 X1.2S550
G1 X1.275S0
G1 X0.675S550
G1 X0.6S0
G1 X1.125S550
G1 X0.675S0
G1 X1.275S550
G1 X0.3S0
G1 X2.625S550
G1 X0.375S0
G1 X1.575S550
G1 X0.75S0
G1 X47.55S550
G1 X0.6S0
G1 X40.425S550
G0 X3.125
G0 Y0.075
G0 X-3.125
G1 X-40.425
G1 X-0.675S0
G1 X-47.475S550
G1 X-0.825S0
G1 X-1.575S550
G1 X-0.225S0
G1 X-4.125S550
G1 X-0.975S0
G1 X-0.825S550
G1 X-0.75S0
G1 X-0.675S550
G1 X-1.35S0
G1 X-1.125S550
G1 X-0.825S0
G1 X-0.675S550
G1 X-2.325S0
G1 X-0.225S550
G1 X-0.9S0
G1 X-0.225S550
G1 X-1.05S0
G1 X-4.875S550
G1 X-0.375S0
G1 X-3.6S550
G1 X-0.9S0
G1 X-1.8S550
G1 X-0.525S0
G1 X-0.75S550
G1 X-0.675S0
G1 X-3.525S550
G1 X-0.375S0
G1 X-115.65S550
G1 X-5.625S0
G1 X-51S550
G0 X-3.125
G0 Y0.075
G0 X3.125
G1 X51
G1 X5.625S0
G1 X115.65S550
G1 X0.375S0
G1 X3.45S550
G1 X0.675S0
G1 X0.825S550
G1 X0.525S0
G1 X1.8S550
G1 X1.125S0
G1 X3.6S550
G1 X0.075S0
G1 X4.95S550
G1 X1.05S0
G1 X0.15S550
G1 X3.6S0
G1 X0.225S550
G1 X1.275S0
G1 X1.05S550
G1 X1.425S0
G1 X0.6S550
G1 X0.9S0
G1 X0.225S550
G1 X1.575S0
G1 X5.775S550
G1 X0.75S0
G1 X47.475S550
G1 X0.825S0
G1 X40.35S550
G0 X3.125
G0 Y0.075
G0 X-3.125
G1 X-40.275
G1 X-0.9S0
G1 X-47.55S550
G1 X-0.6S0
G1 X-0.975S550
G1 X-0.075S0
G1 X-4.65S550
G1 X-2.85S0
G1 X-0.45S550
G1 X-1.65S0
G1 X-0.975S550
G1 X-6.3S0
G1 X-8.4S550
G1 X-1.35S0
G1 X-0.525S550
G1 X-0.225S0
G1 X-0.975S550
G1 X-0.525S0
G1 X-0.975S550
G1 X-0.825S0
G1 X-3.225S550
G1 X-0.375S0
G1 X-115.725S550
G1 X-5.475S0
G1 X-51.075S550
G0 X-3.125
G0 Y0.075
G0 X3.125
G1 X51.15
G1 X5.325S0
G1 X119.25S550
G1 X0.9S0
G1 X1.05S550
G1 X0.525S0
G1 X0.975S550
G1 X0.225S0
G1 X0.525S550
G1 X1.35S0
G1 X1.575S550
G1 X0.3S0
G1 X3.9S550
G1 X0.225S0
G1 X2.475S550
G1 X0.975S0
G1 X0.15S550
G1 X5.175S0
G1 X0.825S550
G1 X0.6S0
G1 X0.3S550
G1 X1.05S0
G1 X0.075S550
G1 X3.075S0
G1 X4.425S550
G1 X0.375S0
G1 X0.825S550
G1 X0.6S0
G1 X47.475S550
G1 X1.05S0
G1 X40.2S550
G0 X3.125
G0 Y0.075
G0 X-3.125
G1 X-40.275
G1 X-0.9S0
G1 X-47.55S550
G1 X-0.525S0
G1 X-0.825S550
G1 X-0.525S0
G1 X-4.35S550
G1 X-4.2S0
G1 X-0.375S550
G1 X-0.6S0
G1 X-0.75S550
G1 X-1.65S0
G1 X-0.15S550
G1 X-3.3S0
G1 X-0.3S550
G1 X-0.9S0
G1 X-2.4S550
G1 X-0.375S0
G1 X-3.75S550
G1 X-0.375S0
G1 X-1.5S550
G1 X-0.75S0
G1 X-0.225S550
G1 X-0.45S0
G1 X-1.725S550
G1 X-0.45S0
G1 X-1.125S550
G1 X-0.975S0
G1 X-119.175S550
G1 X-5.325S0
G1 X-51.15S550
G0 X-3.125
G0 Y0.075
G0 X3.125
G1 X51.225
G1 X5.25S0
G1 X118.725S550
G1 X0.075S0
G1 X0.075S550
G1 X0.075S0
G1 X0.075S550
G1 X1.125S0
G1 X1.125S550
G1 X0.525S0
G1 X1.725S550
G1 X0.225S0
G1 X0.525S550
G1 X0.525S0
G1 X1.5S550
G1 X0.525S0
G1 X3.675S550
G1 X0.45S0
G1 X2.4S550
G1 X0.75S0
G1 X0.45S550
G1 X3.15S0
G1 X0.3S550
G1 X1.575S0
G1 X0.6S550
G1 X0.75S0
G1 X0.3S550
G1 X3.15S0
G1 X0.075S550
G1 X0.075S0
G1 X0.075S550
G1 X0.9S0
G1 X0.825S550
G1 X0.15S0
G1 X0.075S550
G1 X0.15S0
G1 X0.075S550
G1 X0.075S0
G1 X2.925S550
G1 X0.75S0
G1 X0.075S550
G1 X0.075S0
G1 X0.6S550
G1 X0.45S0
G1 X47.55S550
G1 X0.975S0
G1 X40.2S550
G0 X3.125
G0 Y0.075
G0 X-3.125
G1 X-40.275
G1 X-0.9S0
G1 X-46.575S550
G1 X-0.375S0
G1 X-0.6S550
G1 X-0.45S0
G1 X-0.525S550
G1 X-0.975S0
G1 X-2.775S550
G1 X-0.825S0
G1 X-0.6S550
G1 X-0.9S0
G1 X-0.375S550
G1 X-3.075S0
G1 X-0.3S550
G1 X-0.9S0
G1 X-0.45S550
G1 X-1.575S0
G1 X-0.45S550
G1 X-3.075S0
G1 X-0.375S550
G1 X-0.75S0
G1 X-2.4S550
G1 X-0.45S0
G1 X-3.675S550
G1 X-0.45S0
G1 X-1.575S550
G1 X-0.45S0
G1 X-0.6S550
G1 X-0.3S0
G1 X-1.65S550
G1 X-0.525S0
G1 X-1.125S550
G1 X-1.5S0
G1 X-0.6S550
G1 X-0.3S0
G1 X-117.825S550
G1 X-5.1S0
G1 X-51.3S550
G0 X-3.125
G0 Y0.075
G0 X3.125
G1 X51.3
G1 X5.025S0
G1 X117.75S550
G1 X0.45S0
G1 X0.525S550
G1 X1.725S0
G1 X0.975S550
G1 X0.525S0
G1 X1.65S550
G1 X0.3S0
G1 X0.675S550
G1 X0.3S0
G1 X1.65S550
G1 X0.45S0
G1 X3.75S550
G1 X0.3S0
G1 X2.55S550
G1 X0.675S0
G1 X0.45S550
G1 X2.85S0
G1 X0.6S550
G1 X1.575S0
G1 X0.375S550
G1 X0.975S0
G1 X0.075S550
G1 X3.15S0
G1 X0.6S550
G1 X0.9S0
G1 X0.375S550
G1 X1.05S0
G1 X0.6S550
G1 X0.15S0
G1 X1.95S550
G1 X1.125S0
G1 X0.3S550
G1 X0.675S0
G1 X0.3S550
G1 X0.6S0
G1 X46.5S550
G1 X0.9S0
G1 X40.275S550
G0 X3.125
G0 Y0.075
G0 X-3.125
G1 X-40.35
G1 X-0.75S0
G1 X-46.65S550
G1 X-2.925S0
G1 X-0.45S550
G1 X-0.6S0
G1 X-0.675S550
G1 X-0.45S0
G1 X-0.525S550
G1 X-2.025S0
G1 X-1.725S550
G1 X-3.375S0
G1 X-0.375S550
G1 X-1.575S0
G1 X-0.675S550
G1 X-0.825S0
G1 X-1.05S550
G1 X-1.05S0
G1 X-0.15S550
G1 X-0.825S0
G1 X-6.675S550
G1 X-0.375S0
G1 X-2.625S550
G1 X-0.3S0
G1 X-1.725S550
G1 X-0.525S0
G1 X-0.825S550
G1 X-1.725S0
G1 X-0.525S550
G1 X-0.6S0
G1 X-0.6S550
G1 X-0.525S0
G1 X-2.4S550
G1 X-0.6S0
G1 X-113.55S550
G1 X-4.95S0
G1 X-51.375S550
G0 X-3.125
G0 Y0.075
G0 X3.125
G1 X51.375
G1 X4.875S0
G1 X113.475S550
G1 X0.825S0
G1 X2.1S550
G1 X0.975S0
G1 X0.375S550
G1 X0.6S0
G1 X0.525S550
G1 X0.375S0
G1 X0.225S550
G1 X1.2S0
G1 X0.75S550
G1 X0.525S0
G1 X1.725S550
G1 X0.3S0
G1 X2.625S550
G1 X0.375S0
G1 X3.375S550
G1 X0.3S0
G1 X1.725S550
G1 X0.3S0
G1 X1.05S550
G1 X1.875S0
G1 X1.2S550
G1 X0.75S0
G1 X0.675S550
G1 X1.575S0
G1 X0.375S550
G1 X3.3S0
G1 X1.875S550
G1 X1.95S0
G1 X0.525S550
G1 X0.525S0
G1 X0.525S550
G1 X0.75S0
G1 X0.525S550
G1 X2.7S0
G1 X1.35S550
G1 X0.3S0
G1 X45.225S550
G1 X0.525S0
G1 X40.425S550
G0 X3.125
G0 Y0.075
G0 X-3.125
G1 X-40.65
G1 X-0.225S0
G1 X-45.225S550
G1 X-0.45S0
G1 X-1.275S550
G1 X-2.7S0
G1 X-0.45S550
G1 X-0.975S0
G1 X-0.3S550
G1 X-0.525S0
G1 X-0.675S550
G1 X-1.8S0
G1 X-2.025S550
G1 X-3.225S0
G1 X-0.45S550
G1 X-1.5S0
G1 X-0.75S550
G1 X-0.675S0
G1 X-1.275S550
G1 X-1.725S0
G1 X-1.125S550
G1 X-0.375S0
G1 X-1.65S550
G1 X-0.45S0
G1 X-3.3S550
G1 X-0.375S0
G1 X-2.55S550
G1 X-0.375S0
G1 X-1.65S550
G1 X-0.6S0
G1 X-0.6S550
G1 X-1.2S0
G1 X-1.2S550
G1 X-0.6S0
G1 X-0.3S550
G1 X-1.2S0
G1 X-1.95S550
G1 X-0.9S0
G1 X-113.4S550
G1 X-4.725S0
G1 X-51.525S550
G0 X-3.125
G0 Y0.075
G0 X3.125
G1 X51.525
G1 X4.65S0
G1 X113.475S550
G1 X0.9S0
G1 X1.875S550
G1 X2.25S0
G1 X1.275S550
G1 X1.125S0
G1 X0.375S550
G1 X0.75S0
G1 X1.575S550
G1 X0.525S0
G1 X2.4S550
G1 X0.45S0
G1 X3.3S550
G1 X0.45S0
G1 X1.65S550
G1 X0.375S0
G1 X1.125S550
G1 X1.8S0
G1 X1.275S550
G1 X0.6S0
G1 X0.675S550
G1 X1.575S0
G1 X0.525S550
G1 X3.15S0
G1 X2.1S550
G1 X1.725S0
G1 X0.75S550
G1 X1.725S0
G1 X0.525S550
G1 X2.55S0
G1 X1.275S550
G1 X0.525S0
G1 X86.1S550
G0 X3.125
G0 Y0.075
G0 X-3.125
G1 X-84.075
G1 X-0.15S0
G1 X-1.875S550
G1 X-0.525S0
G1 X-1.425S550
G1 X-2.4S0
G1 X-0.525S550
G1 X-1.65S0
G1 X-0.9S550
G1 X-1.65S0
G1 X-2.1S550
G1 X-3.075S0
G1 X-0.75S550
G1 X-1.425S0
G1 X-0.675S550
G1 X-0.6S0
G1 X-1.05S550
G1 X-1.95S0
G1 X-1.2S550
G1 X-0.3S0
G1 X-1.725S550
G1 X-0.45S0
G1 X-3.3S550
G1 X-0.825S0
G1 X-1.95S550
G1 X-1.05S0
G1 X-1.125S550
G1 X-2.25S0
G1 X-1.275S550
G1 X-2.325S0
G1 X-1.95S550
G1 X-0.675S0
G1 X-113.55S550
G1 X-4.575S0
G1 X-51.6S550
G0 X-3.125
G0 Y0.075
G0 X3.125
G1 X51.675
G1 X4.425S0
G1 X112.125S550
G1 X0.15S0
G1 X1.275S550
G1 X0.675S0
G1 X1.125S550
G1 X0.075S0
G1 X0.825S550
G1 X2.4S0
G1 X1.275S550
G1 X2.175S0
G1 X0.975S550
G1 X1.2S0
G1 X1.65S550
G1 X1.125S0
G1 X3.3S550
G1 X0.375S0
G1 X1.95S550
G1 X0.075S0
G1 X1.275S550
G1 X2.325S0
G1 X0.75S550
G1 X0.525S0
G1 X0.6S550
G1 X1.425S0
G1 X0.9S550
G1 X3S0
G1 X0.45S550
G1 X0.3S0
G1 X1.35S550
G1 X1.2S0
G1 X0.075S550
G1 X0.375S0
G1 X1.05S550
G1 X1.5S0
G1 X0.45S550
G1 X2.4S0
G1 X1.5S550
G1 X0.45S0
G1 X1.8S550
G1 X0.45S0
G1 X83.925S550
G0 X3.125
G0 Y0.075
G0 X-3.125
G1 X-83.925
G1 X-0.525S0
G1 X-1.725S550
G1 X-0.45S0
G1 X-1.65S550
G1 X-1.5S0
G1 X-0.075S550
G1 X-0.675S0
G1 X-0.45S550
G1 X-1.275S0
G1 X-1.2S550
G1 X-0.3S0
G1 X-0.3S550
G1 X-1.125S0
G1 X-1.2S550
G1 X-0.6S0
G1 X-0.075S550
G1 X-0.075S0
G1 X-0.075S550
G1 X-2.925S0
G1 X-1.125S550
G1 X-1.35S0
G1 X-0.525S550
G1 X-0.6S0
G1 X-0.675S550
G1 X-2.4S0
G1 X-3.3S550
G1 X-0.375S0
G1 X-3.3S550
G1 X-1.2S0
G1 X-1.575S550
G1 X-1.2S0
G1 X-0.975S550
G1 X-2.175S0
G1 X-1.275S550
G1 X-2.475S0
G1 X-0.675S550
G1 X-0.3S0
G1 X-0.975S550
G1 X-0.6S0
G1 X-113.625S550
G1 X-4.35S0
G1 X-51.75S550
G0 X-3.125
G0 Y0.075
G0 X3.125
G1 X51.825
G1 X4.2S0
G1 X109.65S550
G1 X0.225S0
G1 X3.9S550
G1 X0.525S0
G1 X0.9S550
G1 X0.375S0
G1 X0.675S550
G1 X0.75S0
G1 X0.225S550
G1 X1.5S0
G1 X1.275S550
G1 X2.25S0
G1 X0.9S550
G1 X0.975S0
G1 X1.725S550
G1 X1.35S0
G1 X6.9S550
G1 X2.55S0
G1 X0.6S550
G1 X0.525S0
G1 X0.45S550
G1 X1.35S0
G1 X0.6S550
G1 X0.225S0
G1 X0.45S550
G1 X3.75S0
G1 X1.125S550
G1 X1.05S0
G1 X0.375S550
G1 X0.45S0
G1 X1.275S550
G1 X1.05S0
G1 X0.375S550
G1 X2.175S0
G1 X1.8S550
G1 X0.375S0
G1 X1.725S550
G1 X0.6S0
G1 X83.925S550
G0 X3.125
G0 Y0.075
G0 X-3.125
G1 X-83.925
G1 X-0.525S0
G1 X-1.95S550
G1 X-0.15S0
G1 X-2.025S550
G1 X-3.3S0
G1 X-1.275S550
G1 X-0.6S0
G1 X-0.375S550
G1 X-1.05S0
G1 X-0.9S550
G1 X-1.95S0
G1 X-0.375S550
G1 X-0.825S0
G1 X-0.225S550
G1 X-0.525S0
G1 X-0.45S550
G1 X-0.3S0
G1 X-0.675S550
G1 X-2.1S0
G1 X-0.525S550
G1 X-2.775S0
G1 X-6.825S550
G1 X-1.5S0
G1 X-1.8S550
G1 X-0.825S0
G1 X-0.9S550
G1 X-2.325S0
G1 X-1.2S550
G1 X-1.35S0
G1 X-0.45S550
G1 X-0.675S0
G1 X-0.675S550
G1 X-1.725S0
G1 X-0.6S550
G1 X-0.375S0
G1 X-2.175S550
G1 X-0.075S0
G1 X-0.825S550
G1 X-0.15S0
G1 X-109.65S550
G1 X-4.125S0
G1 X-51.9S550
G0 X-3.125
G0 Y0.075
G0 X3.125
G1 X52.05
G1 X3.975S0
G1 X110.55S550
G1 X0.225S0
G1 X2.025S550
G1 X0.675S0
G1 X0.45S550
G1 X1.575S0
G1 X0.675S550
G1 X0.675S0
G1 X0.45S550
G1 X1.35S0
G1 X1.2S550
G1 X2.4S0
G1 X0.975S550
G1 X0.6S0
G1 X1.275S550
G1 X0.075S0
G1 X0.525S550
G1 X1.725S0
G1 X0.9S550
G1 X1.875S0
G1 X3.825S550
G1 X2.925S0
G1 X0.525S550
G1 X1.95S0
G1 X0.75S550
G1 X0.3S0
G1 X0.525S550
G1 X0.375S0
G1 X0.3S550
G1 X0.825S0
G1 X0.45S550
G1 X2.325S0
G1 X0.375S550
G1 X1.2S0
G1 X0.225S550
G1 X0.825S0
G1 X1.2S550
G1 X3.15S0
G1 X3.6S550
G1 X0.375S0
G1 X0.375S550
G1 X0.225S0
G1 X84.075S550
G0 X3.125
G0 Y0.075
G0 X-3.125
G1 X-84.675
G1 X-0.375S0
G1 X-2.7S550
G1 X-0.075S0
G1 X-0.075S550
G1 X-0.075S0
G1 X-0.675S550
G1 X-3.15S0
G1 X-0.975S550
G1 X-0.075S0
G1 X-0.075S550
G1 X-0.975S0
G1 X-0.075S550
G1 X-1.35S0
G1 X-0.225S550
G1 X-2.475S0
G1 X-0.375S550
G1 X-0.825S0
G1 X-0.3S550
G1 X-0.225S0
G1 X-0.75S550
G1 X-0.075S0
G1 X-0.975S550
G1 X-1.8S0
G1 X-0.45S550
G1 X-3.15S0
G1 X-3.75S550
G1 X-1.95S0
G1 X-0.825S550
G1 X-1.725S0
G1 X-0.45S550
G1 X-0.225S0
G1 X-1.275S550
G1 X-0.375S0
G1 X-1.125S550
G1 X-2.55S0
G1 X-1.05S550
G1 X-1.35S0
G1 X-0.525S550
G1 X-0.675S0
G1 X-0.6S550
G1 X-1.5S0
G1 X-0.45S550
G1 X-0.75S0
G1 X-2.1S550
G1 X-0.075S0
G1 X-110.7S550
G1 X-3.75S0
G1 X-52.2S550
G0 X-3.125
G0 Y0.075
G0 X3.125
G1 X48.75
G1 X0.225S0
G1 X3.525S550
G1 X0.225S0
G1 X0.075S550
G1 X0.3S0
G1 X0.075S550
G1 X2.7S0
G1 X1.05S550
G1 X0.075S0
G1 X111.9S550
G1 X0.675S0
G1 X0.525S550
G1 X1.35S0
G1 X0.525S550
G1 X0.825S0
G1 X0.525S550
G1 X1.425S0
G1 X0.9S550
G1 X2.625S0
G1 X2.7S550
G1 X0.3S0
G1 X0.45S550
G1 X1.8S0
G1 X0.675S550
G1 X2.1S0
G1 X3.6S550
G1 X3.225S0
G1 X0.525S550
G1 X1.65S0
G1 X2.025S550
G1 X1.35S0
G1 X0.15S550
G1 X5.475S0
G1 X0.225S550
G1 X0.075S0
G1 X0.375S550
G1 X3.3S0
G1 X0.6S550
G1 X0.525S0
G1 X2.55S550
G1 X0.3S0
G1 X84.675S550
G0 X3.125
G0 Y0.075
G0 X-3.125
G1 X-84.75
G1 X-0.15S0
G1 X-2.25S550
G1 X-0.975S0
G1 X-0.45S550
G1 X-11.025S0
G1 X-1.425S550
G1 X-0.3S0
G1 X-0.3S550
G1 X-1.575S0
G1 X-0.6S550
G1 X-3.225S0
G1 X-1.35S550
G1 X-0.3S0
G1 X-1.95S550
G1 X-2.1S0
G1 X-0.675S550
G1 X-1.8S0
G1 X-0.375S550
G1 X-0.45S0
G1 X-2.7S550
G1 X-2.625S0
G1 X-0.825S550
G1 X-0.45S0
G1 X-0.45S550
G1 X-0.6S0
G1 X-0.525S550
G1 X-0.9S0
G1 X-0.45S550
G1 X-1.2S0
G1 X-0.6S550
G1 X-0.6S0
G1 X-0.9S550
G1 X-0.375S0
G1 X-110.625S550
G1 X-0.3S0
G1 X-7.725S550
G1 X-0.375S0
G1 X-48.675S550
G0 X-3.125
G0 Y0.075
G0 X3.125
G1 X48.675
G1 X0.525S0
G1 X7.425S550
G1 X0.45S0
G1 X110.475S550
G1 X0.6S0
G1 X0.9S550
G1 X0.6S0
G1 X0.525S550
G1 X1.275S0
G1 X0.225S550
G1 X1.125S0
G1 X0.45S550
G1 X0.525S0
G1 X0.6S550
G1 X0.45S0
G1 X0.75S550
G1 X0.45S0
G1 X0.3S550
G1 X1.725S0
G1 X2.85S550
G1 X0.375S0
G1 X0.45S550
G1 X1.875S0
G1 X0.6S550
G1 X2.175S0
G1 X0.6S550
G1 X0.15S0
G1 X0.975S550
G1 X0.525S0
G1 X1.2S550
G1 X3.375S0
G1 X0.525S550
G1 X1.575S0
G1 X0.225S550
G1 X0.525S0
G1 X1.35S550
G1 X4.95S0
G1 X0.3S550
G1 X3.825S0
G1 X0.225S550
G1 X1.725S0
G1 X0.3S550
G1 X1.05S0
G1 X1.35S550
G1 X0.225S0
G1 X85.575S550
G0 X3.125
G0 Y0.075
G0 X-3.125
G1 X-85.425
G1 X-0.45S0
G1 X-1.2S550
G1 X-1.95S0
G1 X-0.3S550
G1 X-0.825S0
G1 X-0.375S550
G1 X-3.675S0
G1 X-0.375S550
G1 X-4.95S0
G1 X-1.35S550
G1 X-2.25S0
G1 X-0.6S550
G1 X-1.725S0
G1 X-0.975S550
G1 X-0.675S0
G1 X-0.375S550
G1 X-0.3S0
G1 X-0.45S550
G1 X-0.675S0
G1 X-0.825S550
G1 X-0.375S0
G1 X-0.375S550
G1 X-2.175S0
G1 X-0.75S550
G1 X-1.725S0
G1 X-0.675S550
G1 X-0.225S0
G1 X-3.075S550
G1 X-1.425S0
G1 X-0.375S550
G1 X-0.45S0
G1 X-0.675S550
G1 X-0.525S0
G1 X-0.525S550
G1 X-0.6S0
G1 X-0.525S550
G1 X-2.55S0
G1 X-0.525S550
G1 X-0.525S0
G1 X-0.9S550
G1 X-0.75S0
G1 X-110.4S550
G1 X-0.675S0
G1 X-6.9S550
G1 X-0.75S0
G1 X-48.75S550
G0 X-3.125
G0 Y0.075
G0 X3.125
G1 X48.75
G1 X0.9S0
G1 X0.15S550
G1 X0.075S0
G1 X0.15S550
G1 X0.075S0
G1 X0.15S550
G1 X0.075S0
G1 X0.15S550
G1 X0.075S0
G1 X0.15S550
G1 X0.075S0
G1 X0.15S550
G1 X0.075S0
G1 X0.15S550
G1 X0.075S0
G1 X0.15S550
G1 X0.075S0
G1 X0.15S550
G1 X0.075S0
G1 X0.15S550
G1 X0.075S0
G1 X0.075S550
G1 X0.075S0
G1 X0.075S550
G1 X0.075S0
G1 X0.15S550
G1 X0.075S0
G1 X3.6S550
G1 X0.075S0
G1 X0.075S550
G1 X0.825S0
G1 X110.4S550
G1 X0.9S0
G1 X0.9S550
G1 X0.45S0
G1 X0.525S550
G1 X0.525S0
G1 X0.225S550
G1 X1.875S0
G1 X0.525S550
G1 X0.525S0
G1 X0.6S550
G1 X0.45S0
G1 X0.6S550
G1 X0.525S0
G1 X0.45S550
G1 X1.2S0
G1 X4.2S550
G1 X1.65S0
G1 X0.9S550
G1 X2.175S0
G1 X0.075S550
G1 X0.6S0
G1 X0.675S550
G1 X0.675S0
G1 X0.525S550
G1 X0.375S0
G1 X0.15S550
G1 X0.75S0
G1 X1.125S550
G1 X1.725S0
G1 X0.525S550
G1 X2.25S0
G1 X1.425S550
G1 X4.95S0
G1 X0.3S550
G1 X3.675S0
G1 X0.375S550
G1 X0.6S0
G1 X0.6S550
G1 X1.8S0
G1 X0.3S550
G1 X0.075S0
G1 X0.825S550
G1 X0.525S0
G1 X85.425S550
G0 X3.125
G0 Y0.075
G0 X-3.125
G1 X-85.35
G1 X-0.675S0
G1 X-0.525S550
G1 X-0.45S0
G1 X-0.375S550
G1 X-1.5S0
G1 X-0.675S550
G1 X-0.6S0
G1 X-0.375S550
G1 X-3.6S0
G1 X-0.375S550
G1 X-4.875S0
G1 X-1.575S550
G1 X-2.175S0
G1 X-0.45S550
G1 X-1.725S0
G1 X-1.275S550
G1 X-1.2S0
G1 X-0.45S550
G1 X-0.825S0
G1 X-0.6S550
G1 X-2.775S0
G1 X-1.05S550
G1 X-1.575S0
G1 X-4.35S550
G1 X-1.05S0
G1 X-0.525S550
G1 X-0.45S0
G1 X-0.6S550
G1 X-0.375S0
G1 X-0.6S550
G1 X-0.525S0
G1 X-0.6S550
G1 X-1.725S0
G1 X-0.45S550
G1 X-0.45S0
G1 X-0.525S550
G1 X-0.375S0
G1 X-0.975S550
G1 X-0.9S0
G1 X-0.825S550
G1 X-0.375S0
G1 X-109.275S550
G1 X-8.1S0
G1 X-48.825S550
G0 X-3.125
G0 Y0.075
G0 X3.125
G1 X48.825
G1 X8.1S0
G1 X109.2S550
G1 X0.6S0
G1 X0.6S550
G1 X0.975S0
G1 X0.975S550
G1 X0.45S0
G1 X0.45S550
G1 X0.45S0
G1 X0.6S550
G1 X1.575S0
G1 X0.6S550
G1 X0.6S0
G1 X0.6S550
G1 X0.3S0
G1 X0.525S550
G1 X0.525S0
G1 X0.6S550
G1 X0.825S0
G1 X2.85S550
G1 X0.225S0
G1 X1.575S550
G1 X1.35S0
G1 X1.2S550
G1 X2.775S0
G1 X0.45S550
G1 X0.825S0
G1 X0.525S550
G1 X1.275S0
G1 X1.275S550
G1 X1.8S0
G1 X0.225S550
G1 X2.325S0
G1 X1.575S550
G1 X4.875S0
G1 X0.3S550
G1 X3.675S0
G1 X0.45S550
G1 X0.3S0
G1 X0.825S550
G1 X1.425S0
G1 X0.45S550
G1 X0.525S0
G1 X0.45S550
G1 X0.75S0
G1 X1.65S550
G1 X0.15S0
G1 X0.9S550
G1 X0.3S0
G1 X82.275S550
G0 X3.125
G0 Y0.075
G0 X-3.125
G1 X-82.2
G1 X-0.45S0
G1 X-0.825S550
G1 X-0.225S0
G1 X-1.575S550
G1 X-0.75S0
G1 X-0.45S550
G1 X-0.45S0
G1 X-0.525S550
G1 X-1.425S0
G1 X-1.5S550
G1 X-3.675S0
G1 X-0.375S550
G1 X-3.975S0
G1 X-2.55S550
G1 X-3.3S0
G1 X-0.225S550
G1 X-0.75S0
G1 X-1.275S550
G1 X-0.75S0
G1 X-0.15S550
G1 X-0.375S0
G1 X-0.45S550
G1 X-4.125S0
G1 X-1.2S550
G1 X-1.275S0
G1 X-6.225S550
G1 X-0.525S0
G1 X-0.525S550
G1 X-0.15S0
G1 X-0.6S550
G1 X-0.675S0
G1 X-0.6S550
G1 X-0.75S0
G1 X-1.425S550
G1 X-0.525S0
G1 X-0.3S550
G1 X-0.525S0
G1 X-1.05S550
G1 X-0.9S0
G1 X-0.525S550
G1 X-0.675S0
G1 X-109.275S550
G1 X-7.95S0
G1 X-48.9S550
G0 X-3.125
G0 Y0.075
G0 X3.125
G1 X48.975
G1 X7.875S0
G1 X108.225S550
G1 X0.225S0
G1 X0.75S550
G1 X0.75S0
G1 X0.525S550
G1 X0.825S0
G1 X1.125S550
G1 X1.5S0
G1 X1.35S550
G1 X0.75S0
G1 X0.525S550
G1 X0.675S0
G1 X0.675S550
G1 X0.075S0
G1 X0.525S550
G1 X0.525S0
G1 X6.3S550
G1 X1.125S0
G1 X1.275S550
G1 X4.05S0
G1 X0.45S550
G1 X0.45S0
G1 X0.225S550
G1 X0.825S0
G1 X1.125S550
G1 X0.675S0
G1 X0.375S550
G1 X2.25S0
G1 X0.075S550
G1 X0.825S0
G1 X2.7S550
G1 X3.9S0
G1 X0.375S550
G1 X3.675S0
G1 X1.425S550
G1 X1.575S0
G1 X0.45S550
G1 X0.45S0
G1 X0.45S550
G1 X0.825S0
G1 X1.425S550
G1 X0.3S0
G1 X0.75S550
G1 X0.6S0
G1 X82.125S550
G0 X3.125
G0 Y0.075
G0 X-3.125
G1 X-82.05
G1 X-0.75S0
G1 X-0.675S550
G1 X-0.3S0
G1 X-1.425S550
G1 X-0.825S0
G1 X-0.45S550
G1 X-0.45S0
G1 X-0.375S550
G1 X-0.6S0
G1 X-0.225S550
G1 X-0.825S0
G1 X-1.35S550
G1 X-3.75S0
G1 X-0.3S550
G1 X-3.825S0
G1 X-2.925S550
G1 X-0.6S0
G1 X-0.3S550
G1 X-2.1S0
G1 X-0.525S550
G1 X-0.675S0
G1 X-0.675S550
G1 X-1.125S0
G1 X-0.375S550
G1 X-0.45S0
G1 X-0.3S550
G1 X-4.05S0
G1 X-1.35S550
G1 X-1.125S0
G1 X-6.375S550
G1 X-0.525S0
G1 X-0.375S550
G1 X-0.15S0
G1 X-0.6S550
G1 X-0.75S0
G1 X-0.525S550
G1 X-0.75S0
G1 X-1.2S550
G1 X-1.65S0
G1 X-1.125S550
G1 X-0.825S0
G1 X-0.45S550
G1 X-0.75S0
G1 X-0.75S550
G1 X-0.375S0
G1 X-108.225S550
G1 X-7.8S0
G1 X-48.975S550
G0 X-3.125
G0 Y0.075
G0 X3.125
G1 X49.05
G1 X7.725S0
G1 X108.3S550
G1 X0.225S0
G1 X0.825S550
G1 X0.825S0
G1 X0.45S550
G1 X0.75S0
G1 X1.05S550
G1 X1.8S0
G1 X1.125S550
G1 X0.675S0
G1 X0.525S550
G1 X0.9S0
G1 X0.45S550
G1 X0.3S0
G1 X0.225S550
G1 X0.6S0
G1 X3.6S550
G1 X0.225S0
G1 X2.625S550
G1 X0.975S0
G1 X1.35S550
G1 X4.875S0
G1 X0.375S550
G1 X1.275S0
G1 X0.525S550
G1 X0.75S0
G1 X0.45S550
G1 X2.1S0
G1 X0.45S550
G1 X0.375S0
G1 X3.075S550
G1 X3.75S0
G1 X0.225S550
G1 X3.75S0
G1 X1.275S550
G1 X0.9S0
G1 X0.375S550
G1 X0.6S0
G1 X0.3S550
G1 X0.375S0
G1 X0.6S550
G1 X0.825S0
G1 X0.225S550
G1 X0.3S0
G1 X0.9S550
G1 X0.15S0
G1 X0.75S550
G1 X0.75S0
G1 X82.05S550
G0 X3.125
G0 Y0.075
G0 X-3.125
G1 X-82.05
G1 X-0.75S0
G1 X-0.975S550
G1 X-0.075S0
G1 X-0.525S550
G1 X-1.425S0
G1 X-1.35S550
G1 X-0.675S0
G1 X-0.375S550
G1 X-0.975S0
G1 X-1.35S550
G1 X-7.5S0
G1 X-3.975S550
G1 X-2.25S0
G1 X-0.225S550
G1 X-0.975S0
G1 X-0.15S550
G1 X-6.75S0
G1 X-1.425S550
G1 X-0.9S0
G1 X-2.55S550
G1 X-0.3S0
G1 X-3.6S550
G1 X-1.05S0
G1 X-0.45S550
G1 X-1.2S0
G1 X-0.3S550
G1 X-0.825S0
G1 X-0.9S550
G1 X-2.1S0
G1 X-0.9S550
G1 X-0.525S0
G1 X-0.45S550
G1 X-0.9S0
G1 X-2.475S550
G1 X-0.225S0
G1 X-106.8S550
G1 X-7.575S0
G1 X-49.125S550
G0 X-3.125
G0 Y0.075
G0 X3.125
G1 X49.125
G1 X7.5S0
G1 X106.725S550
G1 X0.675S0
G1 X2.25S550
G1 X0.9S0
G1 X0.525S550
G1 X0.45S0
G1 X0.675S550
G1 X2.25S0
G1 X0.675S550
G1 X0.9S0
G1 X0.3S550
G1 X1.35S0
G1 X0.375S550
G1 X1.05S0
G1 X3.675S550
G1 X0.3S0
G1 X1.2S550
G1 X0.375S0
G1 X0.975S550
G1 X0.6S0
G1 X1.725S550
G1 X1.8S0
G1 X0.45S550
G1 X0.825S0
G1 X0.375S550
G1 X2.325S0
G1 X0.075S550
G1 X4.5S0
G1 X3.975S550
G1 X2.85S0
G1 X0.45S550
G1 X3.45S0
G1 X2.025S550
G1 X1.05S0
G1 X0.375S550
G1 X0.825S0
G1 X1.425S550
G1 X1.875S0
G1 X0.9S550
G1 X0.825S0
G1 X1.05S550
G1 X0.825S0
G1 X80.1S550
G0 X3.125
G0 Y0.075
G0 X-3.125
G1 X-79.95
G1 X-1.05S0
G1 X-0.975S550
G1 X-0.75S0
G1 X-1.05S550
G1 X-1.8S0
G1 X-1.35S550
G1 X-0.9S0
G1 X-0.375S550
G1 X-1.05S0
G1 X-2.025S550
G1 X-3.3S0
G1 X-0.6S550
G1 X-2.775S0
G1 X-3.975S550
G1 X-4.5S0
G1 X-0.3S550
G1 X-2.1S0
G1 X-0.6S550
G1 X-0.6S0
G1 X-0.6S550
G1 X-1.725S0
G1 X-1.8S550
G1 X-0.525S0
G1 X-0.9S550
G1 X-0.525S0
G1 X-1.125S550
G1 X-0.225S0
G1 X-3.75S550
G1 X-1.125S0
G1 X-0.3S550
G1 X-1.425S0
G1 X-0.3S550
G1 X-0.9S0
G1 X-0.525S550
G1 X-2.325S0
G1 X-0.675S550
G1 X-0.3S0
G1 X-0.6S550
G1 X-0.9S0
G1 X-2.325S550
G1 X-0.75S0
G1 X-106.65S550
G1 X-7.425S0
G1 X-49.2S550
G0 X-3.125
G0 Y0.075
G0 X3.125
G1 X49.2
G1 X7.35S0
G1 X106.8S550
G1 X0.75S0
G1 X2.25S550
G1 X0.975S0
G1 X0.6S550
G1 X0.225S0
G1 X0.675S550
G1 X2.4S0
G1 X0.3S550
G1 X1.05S0
G1 X0.3S550
G1 X2.775S0
G1 X1.65S550
G1 X0.15S0
G1 X3.225S550
G1 X0.75S0
G1 X0.825S550
G1 X0.45S0
G1 X1.8S550
G1 X1.725S0
G1 X0.675S550
G1 X0.525S0
G1 X0.75S550
G1 X1.95S0
G1 X0.45S550
G1 X4.5S0
G1 X3.825S550
G1 X2.775S0
G1 X0.9S550
G1 X3.075S0
G1 X2.1S550
G1 X2.325S0
G1 X1.35S550
G1 X1.725S0
G1 X1.2S550
G1 X0.6S0
G1 X0.975S550
G1 X1.125S0
G1 X79.875S550
G0 X3.125
G0 Y0.075
G0 X-3.125
G1 X-79.8
G1 X-1.125S0
G1 X-1.05S550
G1 X-0.45S0
G1 X-1.5S550
G1 X-1.575S0
G1 X-1.275S550
G1 X-2.4S0
G1 X-2.025S550
G1 X-3.075S0
G1 X-0.975S550
G1 X-2.85S0
G1 X-3.675S550
G1 X-4.575S0
G1 X-0.45S550
G1 X-1.95S0
G1 X-0.9S550
G1 X-0.45S0
G1 X-0.675S550
G1 X-1.875S0
G1 X-1.65S550
G1 X-0.375S0
G1 X-0.75S550
G1 X-0.9S0
G1 X-3.075S550
G1 X-0.225S0
G1 X-1.725S550
G1 X-1.65S0
G1 X-0.525S550
G1 X-0.525S0
G1 X-0.3S550
G1 X-3.75S0
G1 X-0.675S550
G1 X-0.225S0
G1 X-0.6S550
G1 X-0.9S0
G1 X-2.25S550
G1 X-0.825S0
G1 X-106.8S550
G1 X-7.35S0
G1 X-49.2S550
G0 X-3.125
G0 Y0.075
G0 X3.125
G1 X49.275
G1 X7.2S0
G1 X107.175S550
G1 X0.525S0
G1 X2.25S550
G1 X1.05S0
G1 X1.275S550
G1 X0.825S0
G1 X0.3S550
G1 X2.775S0
G1 X0.15S550
G1 X0.45S0
G1 X0.825S550
G1 X1.425S0
G1 X0.375S550
G1 X0.3S0
G1 X4.425S550
G1 X0.975S0
G1 X0.675S550
G1 X0.45S0
G1 X1.35S550
G1 X2.1S0
G1 X0.6S550
G1 X0.525S0
G1 X0.9S550
G1 X2.025S0
G1 X0.375S550
G1 X2.925S0
G1 X0.3S550
G1 X1.575S0
G1 X2.4S550
G1 X3.825S0
G1 X1.125S550
G1 X3.15S0
G1 X1.95S550
G1 X1.65S0
G1 X0.075S550
G1 X0.9S0
G1 X0.975S550
G1 X1.35S0
G1 X0.525S550
G1 X0.3S0
G1 X1.05S550
G1 X0.225S0
G1 X1.725S550
G1 X0.6S0
G1 X79.725S550
G0 X3.125
G0 Y0.075
G0 X-3.125
G1 X-79.65
G1 X-0.6S0
G1 X-0.975S550
G1 X-0.3S0
G1 X-1.65S550
G1 X-0.525S0
G1 X-0.525S550
G1 X-0.675S0
G1 X-0.225S550
G1 X-0.45S0
G1 X-0.825S550
G1 X-0.825S0
G1 X-0.375S550
G1 X-1.425S0
G1 X-0.6S550
G1 X-0.075S0
G1 X-1.2S550
G1 X-3.3S0
G1 X-1.125S550
G1 X-3.9S0
G1 X-2.25S550
G1 X-1.575S0
G1 X-0.45S550
G1 X-2.925S0
G1 X-0.3S550
G1 X-1.875S0
G1 X-1.05S550
G1 X-0.525S0
G1 X-0.675S550
G1 X-2.025S0
G1 X-1.425S550
G1 X-0.375S0
G1 X-0.675S550
G1 X-0.975S0
G1 X-4.35S550
G1 X-0.45S0
G1 X-0.375S550
G1 X-1.35S0
G1 X-0.9S550
G1 X-3.225S0
G1 X-0.45S550
G1 X-0.675S0
G1 X-1.35S550
G1 X-1.05S0
G1 X-2.325S550
G1 X-0.375S0
G1 X-107.25S550
G1 X-7.125S0
G1 X-49.35S550
G0 X-3.125
G0 Y0.075
G0 X3.125
G1 X49.35
G1 X7.05S0
G1 X110.1S550
G1 X0.975S0
G1 X1.5S550
G1 X0.3S0
G1 X0.675S550
G1 X3.15S0
G1 X1.125S550
G1 X1.125S0
G1 X0.45S550
G1 X0.525S0
G1 X4.275S550
G1 X1.05S0
G1 X0.6S550
G1 X0.45S0
G1 X1.35S550
G1 X2.025S0
G1 X0.6S550
G1 X0.675S0
G1 X1.125S550
G1 X4.95S0
G1 X0.6S550
G1 X1.65S0
G1 X1.95S550
G1 X3.9S0
G1 X1.125S550
G1 X3.45S0
G1 X0.975S550
G1 X0.3S0
G1 X0.525S550
G1 X1.425S0
G1 X0.375S550
G1 X0.75S0
G1 X0.9S550
G1 X0.45S0
G1 X0.375S550
G1 X0.6S0
G1 X0.45S550
G1 X0.675S0
G1 X1.425S550
G1 X0.375S0
G1 X1.05S550
G1 X0.525S0
G1 X79.65S550
G0 X3.125
G0 Y0.075
G0 X-3.125
G1 X-78.3
G1 X-0.225S0
G1 X-1.05S550
G1 X-0.6S0
G1 X-1.05S550
G1 X-0.375S0
G1 X-1.2S550
G1 X-0.9S0
G1 X-0.45S550
G1 X-0.6S0
G1 X-0.45S550
G1 X-0.45S0
G1 X-0.975S550
G1 X-0.6S0
G1 X-0.375S550
G1 X-1.425S0
G1 X-0.45S550
G1 X-0.375S0
G1 X-0.975S550
G1 X-3.525S0
G1 X-1.125S550
G1 X-3.825S0
G1 X-1.725S550
G1 X-1.425S0
G1 X-1.05S550
G1 X-1.275S0
G1 X-0.375S550
G1 X-3.15S0
G1 X-0.675S550
G1 X-1.275S0
G1 X-0.675S550
G1 X-0.9S0
G1 X-0.45S550
G1 X-0.525S0
G1 X-1.35S550
G1 X-0.525S0
G1 X-0.675S550
G1 X-0.9S0
G1 X-4.35S550
G1 X-0.6S0
G1 X-0.45S550
G1 X-0.975S0
G1 X-1.2S550
G1 X-3.15S0
G1 X-2.475S550
G1 X-0.825S0
G1 X-110.25S550
G1 X-6.975S0
G1 X-49.425S550
G0 X-3.125
G0 Y0.075
G0 X3.125
G1 X49.425
G1 X6.9S0
G1 X110.4S550
G1 X0.825S0
G1 X2.325S550
G1 X2.025S0
G1 X0.375S550
G1 X0.75S0
G1 X1.35S550
G1 X0.75S0
G1 X0.6S550
G1 X0.6S0
G1 X4.5S550
G1 X0.75S0
G1 X0.675S550
G1 X0.525S0
G1 X0.45S550
G1 X0.3S0
G1 X0.6S550
G1 X0.45S0
G1 X0.6S550
G1 X0.75S0
G1 X0.75S550
G1 X1.35S0
G1 X0.675S550
G1 X0.675S0
G1 X0.225S550
G1 X2.175S0
G1 X0.45S550
G1 X1.2S0
G1 X1.125S550
G1 X1.35S0
G1 X1.65S550
G1 X1.5S0
G1 X0.375S550
G1 X0.45S0
G1 X0.3S550
G1 X1.2S0
G1 X1.05S550
G1 X3.675S0
G1 X1.05S550
G1 X0.375S0
G1 X0.375S550
G1 X1.425S0
G1 X0.3S550
G1 X0.6S0
G1 X1.05S550
G1 X0.375S0
G1 X0.6S550
G1 X0.6S0
G1 X0.375S550
G1 X0.975S0
G1 X1.05S550
G1 X0.45S0
G1 X1.05S550
G1 X0.6S0
G1 X0.975S550
G1 X0.375S0
G1 X78.225S550
G0 X3.125
G0 Y0.075
G0 X-3.125
G1 X-78.225
G1 X-0.45S0
G1 X-0.9S550
G1 X-0.6S0
G1 X-1.05S550
G1 X-0.45S0
G1 X-0.9S550
G1 X-1.05S0
G1 X-0.375S550
G1 X-0.75S0
G1 X-0.6S550
G1 X-0.3S0
G1 X-1.2S550
G1 X-0.6S0
G1 X-0.075S550
G1 X-1.575S0
G1 X-0.15S550
G1 X-0.525S0
G1 X-0.975S550
G1 X-3.75S0
G1 X-1.125S550
G1 X-1.05S0
G1 X-0.525S550
G1 X-0.15S0
G1 X-0.6S550
G1 X-1.425S0
G1 X-1.65S550
G1 X-1.35S0
G1 X-1.125S550
G1 X-0.45S0
G1 X-0.075S550
G1 X-0.075S0
G1 X-0.15S550
G1 X-0.15S0
G1 X-0.825S550
G1 X-2.025S0
G1 X-0.375S550
G1 X-0.6S0
G1 X-0.675S550
G1 X-1.275S0
G1 X-1.125S550
G1 X-0.3S0
G1 X-0.825S550
G1 X-0.225S0
G1 X-0.75S550
G1 X-0.525S0
G1 X-0.075S550
G1 X-0.675S0
G1 X-0.675S550
G1 X-0.675S0
G1 X-0.975S550
G1 X-0.225S0
G1 X-1.275S550
G1 X-0.225S0
G1 X-1.8S550
G1 X-0.675S0
G1 X-0.675S550
G1 X-0.6S0
G1 X-1.5S550
G1 X-0.525S0
G1 X-0.525S550
G1 X-2.025S0
G1 X-2.325S550
G1 X-0.75S0
G1 X-1.65S550
G1 X-0.075S0
G1 X-108.75S550
G1 X-6.825S0
G1 X-49.5S550
G0 X-3.125
G0 Y0.075
G0 X3.125
G1 X49.575
G1 X6.675S0
G1 X108.75S550
G1 X0.3S0
G1 X1.575S550
G1 X0.825S0
G1 X2.1S550
G1 X2.1S0
G1 X0.675S550
G1 X0.3S0
G1 X1.575S550
G1 X0.525S0
G1 X0.675S550
G1 X0.675S0
G1 X1.875S550
G1 X0.3S0
G1 X1.125S550
G1 X0.375S0
G1 X1.05S550
G1 X0.3S0
G1 X0.075S550
G1 X0.075S0
G1 X0.75S550
G1 X1.275S0
G1 X3.225S550
G1 X1.275S0
G1 X0.6S550
G1 X0.6S0
G1 X0.45S550
G1 X2.025S0
G1 X1.275S550
G1 X0.45S0
G1 X1.05S550
G1 X1.35S0
G1 X1.575S550
G1 X1.575S0
G1 X1.275S550
G1 X0.975S0
G1 X1.275S550
G1 X3.675S0
G1 X1.05S550
G1 X2.85S0
G1 X2.1S550
G1 X0.825S0
G1 X0.3S550
G1 X1.125S0
G1 X0.75S550
G1 X0.525S0
G1 X1.05S550
G1 X0.6S0
G1 X0.9S550
G1 X0.45S0
G1 X78.225S550
G0 X3.125
G0 Y0.075
G0 X-3.125
G1 X-78.225
G1 X-0.45S0
G1 X-0.9S550
G1 X-0.6S0
G1 X-1.05S550
G1 X-0.6S0
G1 X-0.6S550
G1 X-1.05S0
G1 X-0.375S550
G1 X-0.9S0
G1 X-2.1S550
G1 X-2.775S0
G1 X-1.125S550
G1 X-3.675S0
G1 X-0.75S550
G1 X-0.225S0
G1 X-0.375S550
G1 X-0.9S0
G1 X-1.275S550
G1 X-1.725S0
G1 X-1.65S550
G1 X-1.575S0
G1 X-0.6S550
G1 X-0.45S0
G1 X-1.275S550
G1 X-2.1S0
G1 X-0.45S550
G1 X-0.45S0
G1 X-0.6S550
G1 X-1.275S0
G1 X-3.3S550
G1 X-1.275S0
G1 X-2.175S550
G1 X-0.45S0
G1 X-1.125S550
G1 X-0.225S0
G1 X-1.95S550
G1 X-0.675S0
G1 X-0.675S550
G1 X-0.45S0
G1 X-0.6S550
G1 X-0.075S0
G1 X-1.95S550
G1 X-2.175S0
G1 X-2.025S550
G1 X-0.825S0
G1 X-1.2S550
G1 X-0.675S0
G1 X-0.6S550
G1 X-0.15S0
G1 X-108.075S550
G1 X-6.6S0
G1 X-49.575S550
G0 X-3.125
G0 Y0.075
G0 X3.125
G1 X49.575
G1 X6.525S0
G1 X106.2S550
G1 X0.225S0
G1 X1.575S550
G1 X0.45S0
G1 X0.525S550
G1 X0.675S0
G1 X1.2S550
G1 X0.75S0
G1 X1.95S550
G1 X2.325S0
G1 X1.8S550
G1 X0.3S0
G1 X0.45S550
G1 X0.525S0
G1 X0.675S550
G1 X0.525S0
G1 X2.175S550
G1 X0.075S0
G1 X1.2S550
G1 X0.375S0
G1 X2.175S550
G1 X1.275S0
G1 X3.375S550
G1 X1.2S0
G1 X0.6S550
G1 X0.3S0
G1 X0.6S550
G1 X2.1S0
G1 X1.275S550
G1 X0.45S0
G1 X0.45S550
G1 X1.725S0
G1 X1.725S550
G1 X0.6S0
G1 X0.15S550
G1 X0.975S0
G1 X1.2S550
G1 X0.9S0
G1 X0.225S550
G1 X0.525S0
G1 X0.6S550
G1 X3.675S0
G1 X1.125S550
G1 X2.7S0
G1 X2.1S550
G1 X0.975S0
G1 X0.525S550
G1 X0.975S0
G1 X0.525S550
G1 X0.6S0
G1 X0.225S550
G1 X0.225S0
G1 X0.675S550
G1 X0.525S0
G1 X0.975S550
G1 X0.375S0
G1 X78.225S550
G0 X3.125
G0 Y0.075
G0 X-3.125
G1 X-79.575
G1 X-0.45S0
G1 X-0.675S550
G1 X-1.125S0
G1 X-0.525S550
G1 X-0.825S0
G1 X-0.6S550
G1 X-1.05S0
G1 X-2.025S550
G1 X-2.775S0
G1 X-1.125S550
G1 X-3.675S0
G1 X-0.6S550
G1 X-1.65S0
G1 X-1.125S550
G1 X-1.875S0
G1 X-1.65S550
G1 X-1.725S0
G1 X-0.45S550
G1 X-0.375S0
G1 X-1.35S550
G1 X-2.175S0
G1 X-1.425S550
G1 X-1.125S0
G1 X-3.45S550
G1 X-1.275S0
G1 X-2.175S550
G1 X-0.375S0
G1 X-3.6S550
G1 X-0.225S0
G1 X-0.825S550
G1 X-0.6S0
G1 X-0.3S550
G1 X-0.375S0
G1 X-1.725S550
G1 X-2.4S0
G1 X-1.875S550
G1 X-0.825S0
G1 X-1.125S550
G1 X-0.6S0
G1 X-0.675S550
G1 X-0.45S0
G1 X-1.425S550
G1 X-0.375S0
G1 X-106.2S550
G1 X-6.375S0
G1 X-49.725S550
G0 X-3.125
G0 Y0.075
G0 X3.125
G1 X49.725
G1 X6.3S0
G1 X106.275S550
G1 X0.45S0
G1 X1.275S550
G1 X0.525S0
G1 X0.75S550
G1 X0.45S0
G1 X1.2S550
G1 X0.825S0
G1 X1.875S550
G1 X2.475S0
G1 X1.65S550
G1 X1.35S0
G1 X4.725S550
G1 X0.3S0
G1 X2.1S550
G1 X1.35S0
G1 X3.3S550
G1 X1.125S0
G1 X1.5S550
G1 X2.175S0
G1 X1.35S550
G1 X0.375S0
G1 X0.45S550
G1 X1.8S0
G1 X1.575S550
G1 X1.95S0
G1 X1.05S550
G1 X1.725S0
G1 X0.45S550
G1 X3.75S0
G1 X1.2S550
G1 X2.775S0
G1 X1.95S550
G1 X1.05S0
G1 X1.05S550
G1 X0.375S0
G1 X0.6S550
G1 X0.975S0
G1 X0.75S550
G1 X0.45S0
G1 X79.575S550
G0 X3.125
G0 Y0.075
G0 X-3.125
G1 X-79.65
G1 X-0.3S0
G1 X-0.825S550
G1 X-0.975S0
G1 X-0.525S550
G1 X-0.45S0
G1 X-1.05S550
G1 X-0.375S0
G1 X-0.075S550
G1 X-0.6S0
G1 X-1.8S550
G1 X-2.925S0
G1 X-1.2S550
G1 X-3.75S0
G1 X-0.45S550
G1 X-1.725S0
G1 X-0.825S550
G1 X-2.175S0
G1 X-1.575S550
G1 X-1.875S0
G1 X-0.3S550
G1 X-0.45S0
G1 X-1.35S550
G1 X-2.175S0
G1 X-1.425S550
G1 X-1.2S0
G1 X-0.45S550
G1 X-0.6S0
G1 X-1.725S550
G1 X-1.875S0
G1 X-2.175S550
G1 X-0.15S0
G1 X-4.65S550
G1 X-1.5S0
G1 X-1.65S550
G1 X-2.475S0
G1 X-1.875S550
G1 X-0.825S0
G1 X-1.125S550
G1 X-0.45S0
G1 X-0.825S550
G1 X-0.45S0
G1 X-1.35S550
G1 X-0.525S0
G1 X-0.45S550
G1 X-0.15S0
G1 X-105.675S550
G1 X-6.15S0
G1 X-18.45S550
G1 X-0.075S0
G1 X-31.275S550
G0 X-3.125
G0 Y0.075
G0 X3.125
G1 X31.2
G1 X0.3S0
G1 X18.45S550
G1 X6S0
G1 X104.85S550
G1 X0.15S0
G1 X0.6S550
G1 X0.375S0
G1 X0.225S550
G1 X0.6S0
G1 X1.275S550
G1 X0.525S0
G1 X0.825S550
G1 X0.45S0
G1 X1.05S550
G1 X0.825S0
G1 X0.6S550
G1 X0.15S0
G1 X1.275S550
G1 X2.4S0
G1 X1.65S550
G1 X1.5S0
G1 X6.9S550
G1 X2.175S0
G1 X1.275S550
G1 X0.975S0
G1 X0.225S550
G1 X1.2S0
G1 X1.5S550
G1 X2.175S0
G1 X0.6S550
G1 X0.3S0
G1 X0.45S550
G1 X1.05S0
G1 X0.3S550
G1 X1.35S0
G1 X1.425S550
G1 X2.325S0
G1 X0.75S550
G1 X1.8S0
G1 X0.3S550
G1 X3.825S0
G1 X1.2S550
G1 X3S0
G1 X0.9S550
G1 X0.375S0
G1 X0.45S550
G1 X0.375S0
G1 X0.45S550
G1 X0.3S0
G1 X1.05S550
G1 X0.45S0
G1 X0.375S550
G1 X0.975S0
G1 X0.975S550
G1 X0.15S0
G1 X0.525S550
G1 X0.075S0
G1 X79.125S550
G0 X3.125
G0 Y0.075
G0 X-3.125
G1 X-78.9
G1 X-0.45S0
G1 X-1.575S550
G1 X-1.8S0
G1 X-0.9S550
G1 X-0.375S0
G1 X-1.2S550
G1 X-0.45S0
G1 X-0.825S550
G1 X-3.15S0
G1 X-1.125S550
G1 X-5.925S0
G1 X-0.675S550
G1 X-2.4S0
G1 X-1.425S550
G1 X-1.2S0
G1 X-0.45S550
G1 X-1.8S0
G1 X-0.6S550
G1 X-0.6S0
G1 X-0.15S550
G1 X-1.2S0
G1 X-1.8S550
G1 X-2.25S0
G1 X-1.125S550
G1 X-2.475S0
G1 X-6.975S550
G1 X-1.35S0
G1 X-1.65S550
G1 X-2.325S0
G1 X-1.2S550
G1 X-0.375S0
G1 X-0.6S550
G1 X-0.75S0
G1 X-1.05S550
G1 X-0.375S0
G1 X-0.975S550
G1 X-0.45S0
G1 X-1.275S550
G1 X-1.125S0
G1 X-0.6S550
G1 X-0.375S0
G1 X-104.85S550
G1 X-5.775S0
G1 X-18.45S550
G1 X-0.45S0
G1 X-31.125S550
G0 X-3.125
G0 Y0.075
G0 X3.125
G1 X31.2
G1 X0.525S0
G1 X9S550
G1 X0.225S0
G1 X9.225S550
G1 X5.475S0
G1 X105S550
G1 X0.375S0
G1 X0.6S550
G1 X1.2S0
G1 X1.275S550
G1 X0.3S0
G1 X1.35S550
G1 X0.075S0
G1 X0.975S550
G1 X0.825S0
G1 X0.6S550
G1 X0.375S0
G1 X1.275S550
G1 X2.25S0
G1 X1.725S550
G1 X1.125S0
G1 X5.925S550
G1 X0.225S0
G1 X0.075S550
G1 X0.075S0
G1 X0.75S550
G1 X2.925S0
G1 X0.675S550
G1 X2.325S0
G1 X2.175S550
G1 X0.75S0
G1 X0.375S550
G1 X0.45S0
G1 X0.6S550
G1 X1.8S0
G1 X0.45S550
G1 X1.2S0
G1 X1.35S550
G1 X2.55S0
G1 X0.6S550
G1 X5.925S0
G1 X1.125S550
G1 X0.45S0
G1 X0.375S550
G1 X2.325S0
G1 X0.75S550
G1 X0.525S0
G1 X1.2S550
G1 X0.45S0
G1 X0.825S550
G1 X1.725S0
G1 X1.5S550
G1 X0.6S0
G1 X78.9S550
G0 X3.125
G0 Y0.075
G0 X-3.125
G1 X-78.825
G1 X-0.75S0
G1 X-1.5S550
G1 X-1.725S0
G1 X-0.75S550
G1 X-0.375S0
G1 X-1.2S550
G1 X-0.675S0
G1 X-0.6S550
G1 X-2.325S0
G1 X-0.6S550
G1 X-0.225S0
G1 X-1.2S550
G1 X-6S0
G1 X-0.525S550
G1 X-2.625S0
G1 X-1.2S550
G1 X-1.275S0
G1 X-0.45S550
G1 X-1.8S0
G1 X-0.6S550
G1 X-0.45S0
G1 X-0.375S550
G1 X-0.75S0
G1 X-2.25S550
G1 X-2.25S0
G1 X-0.525S550
G1 X-1.425S0
G1 X-0.225S550
G1 X-1.425S0
G1 X-0.75S550
G1 X-0.375S0
G1 X-5.925S550
G1 X-1.125S0
G1 X-1.725S550
G1 X-2.175S0
G1 X-1.275S550
G1 X-0.45S0
G1 X-0.675S550
G1 X-0.75S0
G1 X-2.475S550
G1 X-0.15S0
G1 X-1.425S550
G1 X-1.125S0
G1 X-0.6S550
G1 X-0.3S0
G1 X-105.375S550
G1 X-4.95S0
G1 X-9.375S550
G1 X-0.375S0
G1 X-8.775S550
G1 X-0.675S0
G1 X-31.2S550
G0 X-3.125
G0 Y0.075
G0 X3.125
G1 X31.2
G1 X0.9S0
G1 X8.325S550
G1 X0.525S0
G1 X120.675S550
G1 X1.2S0
G1 X1.8S550
G1 X0.225S0
G1 X0.975S550
G1 X0.15S0
G1 X0.825S550
G1 X0.825S0
G1 X0.675S550
G1 X0.375S0
G1 X1.35S550
G1 X2.1S0
G1 X1.725S550
G1 X0.15S0
G1 X0.3S550
G1 X0.6S0
G1 X4.05S550
G1 X0.3S0
G1 X1.65S550
G1 X0.525S0
G1 X0.525S550
G1 X1.425S0
G1 X0.3S550
G1 X1.425S0
G1 X0.6S550
G1 X0.45S0
G1 X0.15S550
G1 X1.5S0
G1 X2.325S550
G1 X0.75S0
G1 X0.375S550
G1 X0.45S0
G1 X0.6S550
G1 X1.8S0
G1 X0.45S550
G1 X1.35S0
G1 X1.05S550
G1 X2.7S0
G1 X0.525S550
G1 X6S0
G1 X2.025S550
G1 X2.325S0
G1 X0.6S550
G1 X0.675S0
G1 X1.2S550
G1 X0.45S0
G1 X0.6S550
G1 X1.875S0
G1 X0.45S550
G1 X0.3S0
G1 X0.6S550
G1 X0.825S0
G1 X0.45S550
G1 X0.225S0
G1 X78.15S550
G0 X3.125
G0 Y0.075
G0 X-3.125
G1 X-77.925
G1 X-0.45S0
G1 X-0.45S550
G1 X-0.9S0
G1 X-0.525S550
G1 X-0.375S0
G1 X-0.3S550
G1 X-2.1S0
G1 X-0.3S550
G1 X-0.675S0
G1 X-1.05S550
G1 X-0.75S0
G1 X-0.6S550
G1 X-2.25S0
G1 X-2.025S550
G1 X-6.15S0
G1 X-0.45S550
G1 X-2.775S0
G1 X-0.975S550
G1 X-1.425S0
G1 X-0.3S550
G1 X-1.875S0
G1 X-0.6S550
G1 X-0.525S0
G1 X-0.15S550
G1 X-0.975S0
G1 X-2.25S550
G1 X-1.5S0
G1 X-0.225S550
G1 X-0.45S0
G1 X-0.45S550
G1 X-1.5S0
G1 X-0.375S550
G1 X-1.35S0
G1 X-0.45S550
G1 X-0.525S0
G1 X-1.725S550
G1 X-0.375S0
G1 X-3.975S550
G1 X-0.6S0
G1 X-2.1S550
G1 X-2.1S0
G1 X-1.425S550
G1 X-0.3S0
G1 X-0.75S550
G1 X-0.75S0
G1 X-0.9S550
G1 X-0.075S0
G1 X-0.975S550
G1 X-0.45S0
G1 X-1.725S550
G1 X-1.05S0
G1 X-120.75S550
G1 X-0.825S0
G1 X-7.575S550
G1 X-1.275S0
G1 X-31.275S550
G0 X-3.125
G0 Y0.075
G0 X3.125
G1 X31.275
G1 X9.675S0
G1 X120.75S550
G1 X1.125S0
G1 X1.575S550
G1 X0.525S0
G1 X1.95S550
G1 X0.825S0
G1 X2.475S550
G1 X1.95S0
G1 X1.65S550
G1 X0.225S0
G1 X0.3S550
G1 X0.6S0
G1 X3.9S550
G1 X0.45S0
G1 X1.725S550
G1 X0.6S0
G1 X0.45S550
G1 X1.275S0
G1 X0.45S550
G1 X1.425S0
G1 X0.45S550
G1 X0.525S0
G1 X0.3S550
G1 X1.425S0
G1 X1.125S550
G1 X0.675S0
G1 X0.075S550
G1 X0.15S0
G1 X0.075S550
G1 X1.725S0
G1 X0.6S550
G1 X3.675S0
G1 X0.825S550
G1 X2.85S0
G1 X0.45S550
G1 X6.225S0
G1 X1.875S550
G1 X2.325S0
G1 X0.675S550
G1 X0.675S0
G1 X1.05S550
G1 X3.75S0
G1 X0.45S550
G1 X0.9S0
G1 X0.45S550
G1 X0.825S0
G1 X0.075S550
G1 X0.075S0
G1 X77.475S550
G0 X3.125
G0 Y0.075
G0 X-3.125
G1 X-77.4
G1 X-1.05S0
G1 X-0.45S550
G1 X-0.975S0
G1 X-0.45S550
G1 X-3.75S0
G1 X-1.05S550
G1 X-0.525S0
G1 X-0.75S550
G1 X-2.325S0
G1 X-1.8S550
G1 X-6.3S0
G1 X-0.45S550
G1 X-2.85S0
G1 X-0.825S550
G1 X-3.675S0
G1 X-0.525S550
G1 X-2.85S0
G1 X-1.05S550
G1 X-1.425S0
G1 X-0.3S550
G1 X-0.525S0
G1 X-0.45S550
G1 X-1.5S0
G1 X-0.225S550
G1 X-1.425S0
G1 X-0.375S550
G1 X-0.6S0
G1 X-1.8S550
G1 X-0.45S0
G1 X-3.9S550
G1 X-0.675S0
G1 X-0.15S550
G1 X-0.375S0
G1 X-1.575S550
G1 X-1.875S0
G1 X-1.35S550
G1 X-0.15S0
G1 X-0.975S550
G1 X-0.9S0
G1 X-2.025S550
G1 X-0.45S0
G1 X-1.65S550
G1 X-1.05S0
G1 X-120.825S550
G1 X-9.6S0
G1 X-31.275S550
G0 X-3.125
G0 Y0.075
G0 X3.125
G1 X31.35
G1 X9.45S0
G1 X120.9S550
G1 X1.05S0
G1 X1.575S550
G1 X0.525S0
G1 X2.1S550
G1 X0.9S0
G1 X0.9S550
G1 X0.375S0
G1 X1.275S550
G1 X1.725S0
G1 X1.425S550
G1 X1.35S0
G1 X3.825S550
G1 X0.525S0
G1 X1.875S550
G1 X0.6S0
G1 X0.45S550
G1 X0.675S0
G1 X0.225S550
G1 X2.1S0
G1 X0.525S550
G1 X0.45S0
G1 X0.45S550
G1 X1.35S0
G1 X0.975S550
G1 X2.85S0
G1 X0.45S550
G1 X3.825S0
G1 X0.675S550
G1 X2.85S0
G1 X0.525S550
G1 X6.45S0
G1 X1.575S550
G1 X2.475S0
G1 X0.75S550
G1 X0.375S0
G1 X1.125S550
G1 X3.525S0
G1 X0.6S550
G1 X1.05S0
G1 X0.525S550
G1 X1.05S0
G1 X77.325S550
G0 X3.125
G0 Y0.075
G0 X-3.125
G1 X-77.25
G1 X-1.125S0
G1 X-0.6S550
G1 X-1.05S0
G1 X-0.6S550
G1 X-3.6S0
G1 X-2.025S550
G1 X-2.625S0
G1 X-1.425S550
G1 X-6.525S0
G1 X-0.45S550
G1 X-2.925S0
G1 X-0.675S550
G1 X-3.975S0
G1 X-0.225S550
G1 X-2.925S0
G1 X-0.975S550
G1 X-1.2S0
G1 X-0.525S550
G1 X-0.525S0
G1 X-0.525S550
G1 X-2.025S0
G1 X-0.3S550
G1 X-0.45S0
G1 X-0.6S550
G1 X-0.6S0
G1 X-1.95S550
G1 X-0.525S0
G1 X-3.825S550
G1 X-1.5S0
G1 X-1.35S550
G1 X-1.425S0
G1 X-1.425S550
G1 X-0.45S0
G1 X-0.825S550
G1 X-0.975S0
G1 X-2.25S550
G1 X-0.375S0
G1 X-1.65S550
G1 X-0.975S0
G1 X-120.9S550
G1 X-9.45S0
G1 X-31.35S550
G0 X-3.125
G0 Y0.075
G0 X3.125
G1 X31.425
G1 X9.3S0
G1 X119.7S550
G1 X0.375S0
G1 X0.825S550
G1 X0.975S0
G1 X0.45S550
G1 X0.225S0
G1 X1.125S550
G1 X0.225S0
G1 X2.325S550
G1 X1.125S0
G1 X0.675S550
G1 X0.525S0
G1 X1.5S550
G1 X1.2S0
G1 X1.275S550
G1 X1.575S0
G1 X2.1S550
G1 X0.975S0
G1 X0.825S550
G1 X0.45S0
G1 X0.975S550
G1 X0.375S0
G1 X0.825S550
G1 X0.45S0
G1 X0.675S550
G1 X0.3S0
G1 X0.3S550
G1 X2.1S0
G1 X0.525S550
G1 X0.525S0
G1 X0.6S550
G1 X1.125S0
G1 X0.975S550
G1 X7.125S0
G1 X0.75S550
G1 X2.775S0
G1 X0.6S550
G1 X6.6S0
G1 X1.05S550
G1 X2.925S0
G1 X1.425S550
G1 X3.975S0
G1 X0.6S550
G1 X1.2S0
G1 X0.6S550
G1 X0.525S0
G1 X0.225S550
G1 X0.375S0
G1 X77.25S550
G0 X3.125
G0 Y0.075
G0 X-3.125
G1 X-77.25
G1 X-0.3S0
G1 X-0.375S550
G1 X-0.45S0
G1 X-0.6S550
G1 X-1.2S0
G1 X-0.6S550
G1 X-4.125S0
G1 X-1.275S550
G1 X-3.075S0
G1 X-0.825S550
G1 X-6.675S0
G1 X-0.525S550
G1 X-2.775S0
G1 X-0.825S550
G1 X-7.05S0
G1 X-0.975S550
G1 X-1.2S0
G1 X-0.675S550
G1 X-0.3S0
G1 X-0.6S550
G1 X-2.25S0
G1 X-0.3S550
G1 X-0.075S0
G1 X-0.825S550
G1 X-0.375S0
G1 X-0.825S550
G1 X-0.6S0
G1 X-0.825S550
G1 X-0.375S0
G1 X-0.75S550
G1 X-1.35S0
G1 X-1.875S550
G1 X-1.65S0
G1 X-1.2S550
G1 X-1.125S0
G1 X-1.575S550
G1 X-0.525S0
G1 X-0.6S550
G1 X-1.2S0
G1 X-3.75S550
G1 X-0.15S0
G1 X-0.45S550
G1 X-0.975S0
G1 X-0.75S550
G1 X-0.675S0
G1 X-119.55S550
G1 X-9.225S0
G1 X-31.425S550
G0 X-3.125
G0 Y0.075
G0 X3.125
G1 X31.425
G1 X9.225S0
G1 X119.4S550
G1 X0.9S0
G1 X0.6S550
G1 X0.975S0
G1 X4.35S550
G1 X1.35S0
G1 X0.525S550
G1 X0.75S0
G1 X1.425S550
G1 X0.9S0
G1 X1.275S550
G1 X1.65S0
G1 X1.875S550
G1 X1.575S0
G1 X0.675S550
G1 X0.225S0
G1 X0.825S550
G1 X0.825S0
G1 X0.75S550
G1 X0.225S0
G1 X1.2S550
G1 X2.4S0
G1 X1.425S550
G1 X1.2S0
G1 X1.125S550
G1 X6.975S0
G1 X0.9S550
G1 X2.625S0
G1 X0.525S550
G1 X6.825S0
G1 X0.75S550
G1 X3.15S0
G1 X1.125S550
G1 X4.2S0
G1 X0.525S550
G1 X1.275S0
G1 X0.6S550
G1 X0.375S0
G1 X0.6S550
G1 X0.15S0
G1 X0.975S550
G1 X0.225S0
G1 X76.05S550
G0 X3.125
G0 Y0.075
G0 X-3.125
G1 X-75.975
G1 X-0.375S0
G1 X-0.825S550
G1 X-0.15S0
G1 X-0.75S550
G1 X-0.3S0
G1 X-0.525S550
G1 X-0.675S0
G1 X-0.075S550
G1 X-0.675S0
G1 X-0.45S550
G1 X-2.325S0
G1 X-0.15S550
G1 X-1.725S0
G1 X-1.125S550
G1 X-3.15S0
G1 X-0.675S550
G1 X-6.9S0
G1 X-0.45S550
G1 X-2.25S0
G1 X-1.35S550
G1 X-6.825S0
G1 X-1.275S550
G1 X-1.35S0
G1 X-1.125S550
G1 X-2.55S0
G1 X-2.175S550
G1 X-0.825S0
G1 X-1.65S550
G1 X-1.725S0
G1 X-1.875S550
G1 X-1.65S0
G1 X-3.375S550
G1 X-0.9S0
G1 X-0.525S550
G1 X-1.425S0
G1 X-1.2S550
G1 X-0.15S0
G1 X-2.925S550
G1 X-1.05S0
G1 X-0.45S550
G1 X-1.425S0
G1 X-118.875S550
G1 X-9.225S0
G1 X-31.5S550
G0 X-3.125
G0 Y0.075
G0 X3.125
G1 X31.5
G1 X9.375S0
G1 X116.25S550
G1 X0.15S0
G1 X2.175S550
G1 X1.65S0
G1 X0.225S550
G1 X1.275S0
G1 X2.7S550
G1 X0.45S0
G1 X1.05S550
G1 X0.75S0
G1 X0.225S550
G1 X0.525S0
G1 X0.45S550
G1 X1.05S0
G1 X3.225S550
G1 X1.575S0
G1 X0.825S550
G1 X0.45S0
G1 X0.6S550
G1 X1.95S0
G1 X1.425S550
G1 X0.9S0
G1 X2.175S550
G1 X2.625S0
G1 X0.825S550
G1 X1.575S0
G1 X1.275S550
G1 X6.825S0
G1 X1.425S550
G1 X2.25S0
G1 X0.3S550
G1 X6.975S0
G1 X0.675S550
G1 X3.225S0
G1 X0.975S550
G1 X1.725S0
G1 X0.3S550
G1 X2.25S0
G1 X0.375S550
G1 X0.6S0
G1 X0.3S550
G1 X0.675S0
G1 X0.375S550
G1 X0.375S0
G1 X0.75S550
G1 X0.225S0
G1 X0.825S550
G1 X0.45S0
G1 X1.725S550
G1 X0.075S0
G1 X74.025S550
G0 X3.125
G0 Y0.075
G0 X-3.125
G1 X-74.025
G1 X-0.075S0
G1 X-1.65S550
G1 X-0.525S0
G1 X-0.675S550
G1 X-0.375S0
G1 X-0.75S550
G1 X-0.45S0
G1 X-0.225S550
G1 X-0.675S0
G1 X-0.375S550
G1 X-0.75S0
G1 X-0.15S550
G1 X-2.25S0
G1 X-0.375S550
G1 X-1.8S0
G1 X-0.9S550
G1 X-3.15S0
G1 X-0.675S550
G1 X-9.525S0
G1 X-1.5S550
G1 X-6.825S0
G1 X-1.275S550
G1 X-1.65S0
G1 X-0.75S550
G1 X-2.625S0
G1 X-2.175S550
G1 X-0.9S0
G1 X-1.425S550
G1 X-2.025S0
G1 X-0.525S550
G1 X-0.45S0
G1 X-0.825S550
G1 X-1.5S0
G1 X-3.15S550
G1 X-1.2S0
G1 X-0.45S550
G1 X-0.45S0
G1 X-0.45S550
G1 X-0.675S0
G1 X-0.9S550
G1 X-0.6S0
G1 X-1.2S550
G1 X-0.3S0
G1 X-1.125S550
G1 X-3.225S0
G1 X-2.1S550
G1 X-0.075S0
G1 X-116.325S550
G1 X-9.3S0
G1 X-31.575S550
G0 X-3.125
G0 Y0.075
G0 X3.125
G1 X31.575
G1 X9.375S0
G1 X118.425S550
G1 X3.225S0
G1 X0.975S550
G1 X0.45S0
G1 X1.2S550
G1 X0.675S0
G1 X0.825S550
G1 X0.675S0
G1 X0.45S550
G1 X0.45S0
G1 X0.45S550
G1 X1.275S0
G1 X3.45S550
G1 X1.125S0
G1 X0.75S550
G1 X0.525S0
G1 X0.45S550
G1 X2.175S0
G1 X1.275S550
G1 X0.975S0
G1 X2.25S550
G1 X2.55S0
G1 X0.675S550
G1 X0.75S0
G1 X0.075S550
G1 X0.9S0
G1 X1.275S550
G1 X6.825S0
G1 X1.575S550
G1 X6S0
G1 X0.45S550
G1 X3.075S0
G1 X0.6S550
G1 X3.225S0
G1 X0.825S550
G1 X0.375S0
G1 X0.3S550
G1 X1.125S0
G1 X0.3S550
G1 X3.225S0
G1 X0.375S550
G1 X1.425S0
G1 X0.6S550
G1 X0.525S0
G1 X0.6S550
G1 X0.525S0
G1 X75.75S550
G0 X3.125
G0 Y0.075
G0 X-3.125
G1 X-75.675
G1 X-0.525S0
G1 X-0.6S550
G1 X-0.75S0
G1 X-0.375S550
G1 X-1.575S0
G1 X-0.225S550
G1 X-4.725S0
G1 X-0.375S550
G1 X-0.375S0
G1 X-0.75S550
G1 X-0.45S0
G1 X-0.15S550
G1 X-2.55S0
G1 X-0.525S550
G1 X-3.15S0
G1 X-0.6S550
G1 X-6S0
G1 X-1.5S550
G1 X-6.825S0
G1 X-1.2S550
G1 X-0.9S0
G1 X-0.375S550
G1 X-0.6S0
G1 X-0.6S550
G1 X-2.475S0
G1 X-2.325S550
G1 X-1.05S0
G1 X-1.125S550
G1 X-2.325S0
G1 X-0.375S550
G1 X-0.45S0
G1 X-0.825S550
G1 X-1.125S0
G1 X-2.775S550
G1 X-1.95S0
G1 X-0.525S550
G1 X-0.45S0
G1 X-0.45S550
G1 X-0.675S0
G1 X-0.675S550
G1 X-0.75S0
G1 X-1.2S550
G1 X-0.45S0
G1 X-0.9S550
G1 X-2.25S0
G1 X-0.15S550
G1 X-0.9S0
G1 X-118.35S550
G1 X-9.375S0
G1 X-31.65S550
G0 X-3.125
G0 Y0.075
G0 X3.125
G1 X31.725
G1 X9.375S0
G1 X117.15S550
G1 X0.45S0
G1 X0.675S550
G1 X0.9S0
G1 X0.225S550
G1 X2.25S0
G1 X0.75S550
G1 X0.525S0
G1 X1.2S550
G1 X0.825S0
G1 X0.6S550
G1 X0.675S0
G1 X0.45S550
G1 X0.45S0
G1 X0.6S550
G1 X2.1S0
G1 X1.2S550
G1 X0.225S0
G1 X1.125S550
G1 X1.125S0
G1 X0.75S550
G1 X0.525S0
G1 X0.3S550
G1 X2.4S0
G1 X1.05S550
G1 X1.2S0
G1 X1.275S550
G1 X0.15S0
G1 X0.825S550
G1 X2.4S0
G1 X0.45S550
G1 X0.75S0
G1 X0.525S550
G1 X0.9S0
G1 X1.2S550
G1 X6.825S0
G1 X0.375S550
G1 X0.375S0
G1 X0.675S550
G1 X6S0
G1 X0.675S550
G1 X3.225S0
G1 X0.375S550
G1 X2.4S0
G1 X0.375S550
G1 X0.375S0
G1 X0.675S550
G1 X0.45S0
G1 X0.375S550
G1 X7.65S0
G1 X0.75S550
G1 X0.45S0
G1 X75.6S550
G0 X3.125
G0 Y0.075
G0 X-3.125
G1 X-75.525
G1 X-0.45S0
G1 X-0.75S550
G1 X-7.8S0
G1 X-0.3S550
G1 X-0.45S0
G1 X-0.6S550
G1 X-0.375S0
G1 X-0.375S550
G1 X-6.075S0
G1 X-0.675S550
G1 X-0.45S0
G1 X-0.225S550
G1 X-5.4S0
G1 X-0.375S550
G1 X-7.875S0
G1 X-0.9S550
G1 X-1.05S0
G1 X-0.675S550
G1 X-0.75S0
G1 X-0.375S550
G1 X-2.325S0
G1 X-0.825S550
G1 X-0.375S0
G1 X-1.05S550
G1 X-1.35S0
G1 X-0.9S550
G1 X-2.55S0
G1 X-0.3S550
G1 X-0.45S0
G1 X-0.675S550
G1 X-1.275S0
G1 X-1.05S550
G1 X-0.3S0
G1 X-0.975S550
G1 X-2.175S0
G1 X-0.75S550
G1 X-0.375S0
G1 X-0.375S550
G1 X-0.9S0
G1 X-0.3S550
G1 X-0.975S0
G1 X-1.2S550
G1 X-0.525S0
G1 X-0.75S550
G1 X-2.325S0
G1 X-0.15S550
G1 X-0.9S0
G1 X-0.6S550
G1 X-0.6S0
G1 X-117S550
G1 X-9.45S0
G1 X-31.725S550
G0 X-3.125
G0 Y0.075
G0 X3.125
G1 X31.8
G1 X9.45S0
G1 X116.85S550
G1 X0.75S0
G1 X0.525S550
G1 X1.65S0
G1 X0.825S550
G1 X0.975S0
G1 X0.675S550
G1 X0.525S0
G1 X1.2S550
G1 X2.25S0
G1 X0.075S550
G1 X0.6S0
G1 X1.2S550
G1 X1.8S0
G1 X0.825S550
G1 X0.375S0
G1 X0.975S550
G1 X0.675S0
G1 X0.075S550
G1 X0.675S0
G1 X0.6S550
G1 X0.45S0
G1 X0.3S550
G1 X1.05S0
G1 X0.15S550
G1 X1.35S0
G1 X0.825S550
G1 X1.425S0
G1 X1.05S550
G1 X0.375S0
G1 X0.9S550
G1 X2.175S0
G1 X0.45S550
G1 X0.675S0
G1 X0.75S550
G1 X1.125S0
G1 X0.825S550
G1 X1.2S0
G1 X0.15S550
G1 X6.6S0
G1 X0.075S550
G1 X2.55S0
G1 X0.225S550
G1 X2.85S0
G1 X0.3S550
G1 X0.45S0
G1 X0.525S550
G1 X6.15S0
G1 X0.45S550
G1 X0.3S0
G1 X0.525S550
G1 X0.6S0
G1 X0.075S550
G1 X0.075S0
G1 X0.075S550
G1 X7.875S0
G1 X0.675S550
G1 X0.525S0
G1 X75.45S550
G0 X3.125
G0 Y0.075
G0 X-3.125
G1 X-75.45
G1 X-0.45S0
G1 X-0.75S550
G1 X-8.775S0
G1 X-0.375S550
G1 X-0.3S0
G1 X-0.525S550
G1 X-6.3S0
G1 X-0.225S550
G1 X-0.6S0
G1 X-0.375S550
G1 X-2.7S0
G1 X-0.375S550
G1 X-9S0
G1 X-0.375S550
G1 X-1.05S0
G1 X-0.75S550
G1 X-1.275S0
G1 X-0.825S550
G1 X-0.6S0
G1 X-0.525S550
G1 X-2.1S0
G1 X-0.825S550
G1 X-0.45S0
G1 X-1.05S550
G1 X-1.425S0
G1 X-0.75S550
G1 X-1.35S0
G1 X-0.3S550
G1 X-1.05S0
G1 X-0.225S550
G1 X-0.375S0
G1 X-0.675S550
G1 X-0.525S0
G1 X-0.3S550
G1 X-0.675S0
G1 X-0.975S550
G1 X-0.3S0
G1 X-0.75S550
G1 X-1.725S0
G1 X-1.425S550
G1 X-2.85S0
G1 X-1.275S550
G1 X-0.45S0
G1 X-0.675S550
G1 X-0.9S0
G1 X-0.975S550
G1 X-1.575S0
G1 X-0.45S550
G1 X-0.825S0
G1 X-53.475S550
G1 X-0.3S0
G1 X-63.075S550
G1 X-9.45S0
G1 X-31.8S550
G0 X-3.125
G0 Y0.075
G0 X3.125
G1 X31.725
G1 X9.6S0
G1 X62.85S550
G1 X0.6S0
G1 X53.25S550
G1 X0.975S0
G1 X0.375S550
G1 X1.575S0
G1 X1.05S550
G1 X0.825S0
G1 X0.75S550
G1 X0.375S0
G1 X1.95S550
G1 X2.175S0
G1 X1.5S550
G1 X1.725S0
G1 X0.675S550
G1 X0.225S0
G1 X0.975S550
G1 X0.675S0
G1 X0.375S550
G1 X0.525S0
G1 X0.75S550
G1 X0.375S0
G1 X0.15S550
G1 X1.05S0
G1 X0.375S550
G1 X1.35S0
G1 X0.675S550
G1 X1.425S0
G1 X1.125S550
G1 X0.3S0
G1 X0.975S550
G1 X2.025S0
G1 X0.525S550
G1 X0.6S0
G1 X0.75S550
G1 X1.5S0
G1 X0.525S550
G1 X1.125S0
G1 X0.375S550
G1 X8.85S0
G1 X0.6S550
G1 X2.55S0
G1 X0.45S550
G1 X7.125S0
G1 X0.525S550
G1 X0.375S0
G1 X0.225S550
G1 X7.05S0
G1 X0.225S550
G1 X1.65S0
G1 X0.675S550
G1 X0.525S0
G1 X75.375S550
G0 X3.125
G0 Y0.075
G0 X-3.125
G1 X-73.875
G1 X-0.225S0
G1 X-1.2S550
G1 X-0.675S0
G1 X-0.6S550
G1 X-1.65S0
G1 X-0.225S550
G1 X-2.55S0
G1 X-0.225S550
G1 X-4.8S0
G1 X-0.525S550
G1 X-7.275S0
G1 X-0.375S550
G1 X-2.475S0
G1 X-0.75S550
G1 X-8.85S0
G1 X-0.225S550
G1 X-1.275S0
G1 X-0.3S550
G1 X-1.65S0
G1 X-0.75S550
G1 X-0.6S0
G1 X-0.6S550
G1 X-1.95S0
G1 X-1.05S550
G1 X-0.225S0
G1 X-1.125S550
G1 X-1.35S0
G1 X-0.75S550
G1 X-1.5S0
G1 X-0.225S550
G1 X-1.575S0
G1 X-0.75S550
G1 X-0.6S0
G1 X-0.225S550
G1 X-0.9S0
G1 X-1.5S550
G1 X-1.95S0
G1 X-1.575S550
G1 X-2.025S0
G1 X-3.15S550
G1 X-0.825S0
G1 X-1.05S550
G1 X-1.575S0
G1 X-0.375S550
G1 X-0.9S0
G1 X-53.325S550
G1 X-0.6S0
G1 X-62.775S550
G1 X-9.675S0
G1 X-31.725S550
G0 X-3.125
G0 Y0.075
G0 X3.125
G1 X31.65
G1 X9.75S0
G1 X62.7S550
G1 X0.675S0
G1 X50.625S550
G1 X0.075S0
G1 X0.075S550
G1 X0.225S0
G1 X2.4S550
G1 X0.825S0
G1 X0.375S550
G1 X1.725S0
G1 X0.9S550
G1 X0.825S0
G1 X3.225S550
G1 X1.95S0
G1 X1.65S550
G1 X0.45S0
G1 X0.15S550
G1 X1.425S0
G1 X0.075S550
G1 X0.075S0
G1 X0.975S550
G1 X0.075S0
G1 X0.075S550
G1 X1.725S0
G1 X0.825S550
G1 X3.375S0
G1 X0.75S550
G1 X1.2S0
G1 X0.825S550
G1 X0.075S0
G1 X1.8S550
G1 X1.575S0
G1 X0.75S550
G1 X0.6S0
G1 X0.675S550
G1 X1.875S0
G1 X0.075S550
G1 X10.35S0
G1 X0.825S550
G1 X2.4S0
G1 X0.375S550
G1 X7.425S0
G1 X0.45S550
G1 X2.7S0
G1 X0.15S550
G1 X1.875S0
G1 X0.375S550
G1 X2.475S0
G1 X0.3S550
G1 X1.725S0
G1 X0.075S550
G1 X0.15S0
G1 X0.075S550
G1 X0.9S0
G1 X0.075S550
G1 X0.075S0
G1 X0.075S550
G1 X0.075S0
G1 X0.075S550
G1 X0.075S0
G1 X0.075S550
G1 X0.075S0
G1 X0.075S550
G1 X0.075S0
G1 X0.075S550
G1 X0.075S0
G1 X0.075S550
G1 X0.45S0
G1 X73.8S550
G0 X3.125
G0 Y0.075
G0 X-3.125
G1 X-73.8
G1 X-4.425S0
G1 X-0.225S550
G1 X-2.475S0
G1 X-0.375S550
G1 X-1.65S0
G1 X-0.45S550
G1 X-2.55S0
G1 X-0.45S550
G1 X-7.5S0
G1 X-0.45S550
G1 X-2.25S0
G1 X-0.9S550
G1 X-12.375S0
G1 X-0.525S550
G1 X-0.675S0
G1 X-0.825S550
G1 X-1.35S0
G1 X-1.875S550
G1 X-0.3S0
G1 X-0.75S550
G1 X-0.975S0
G1 X-0.9S550
G1 X-3.375S0
G1 X-0.825S550
G1 X-1.95S0
G1 X-0.825S550
G1 X-1.5S0
G1 X-0.375S550
G1 X-0.375S0
G1 X-1.725S550
G1 X-1.8S0
G1 X-3.3S550
G1 X-0.825S0
G1 X-0.825S550
G1 X-1.05S0
G1 X-0.075S550
G1 X-0.675S0
G1 X-0.45S550
G1 X-0.675S0
G1 X-2.325S550
G1 X-0.6S0
G1 X-50.475S550
G1 X-0.75S0
G1 X-62.625S550
G1 X-9.9S0
G1 X-31.575S550
G0 X-3.125
G0 Y0.075
G0 X3.125
G1 X31.575
G1 X5.925S0
G1 X0.075S550
G1 X3.975S0
G1 X62.55S550
G1 X0.75S0
G1 X50.475S550
G1 X0.675S0
G1 X2.325S550
G1 X0.525S0
G1 X0.525S550
G1 X0.6S0
G1 X0.225S550
G1 X1.05S0
G1 X0.75S550
G1 X0.9S0
G1 X3.3S550
G1 X1.575S0
G1 X1.875S550
G1 X0.3S0
G1 X0.6S550
G1 X1.425S0
G1 X0.675S550
G1 X1.95S0
G1 X0.9S550
G1 X3.45S0
G1 X0.9S550
G1 X0.825S0
G1 X0.825S550
G1 X0.375S0
G1 X1.95S550
G1 X1.125S0
G1 X0.975S550
G1 X0.675S0
G1 X0.375S550
G1 X12.45S0
G1 X0.975S550
G1 X2.25S0
G1 X0.225S550
G1 X7.2S0
G1 X0.225S550
G1 X0.3S0
G1 X0.375S550
G1 X0.825S0
G1 X0.75S550
G1 X0.9S0
G1 X0.525S550
G1 X1.65S0
G1 X0.45S550
G1 X6.975S0
G1 X73.875S550
G0 X3.125
G0 Y0.075
G0 X-3.125
G1 X-72.975
G1 X-0.075S0
G1 X-0.825S550
G1 X-7.05S0
G1 X-0.375S550
G1 X-1.65S0
G1 X-0.525S550
G1 X-0.825S0
G1 X-0.9S550
G1 X-0.6S0
G1 X-0.45S550
G1 X-0.375S0
G1 X-0.3S550
G1 X-9.15S0
G1 X-1.425S550
G1 X-6.225S0
G1 X-0.675S550
G1 X-0.75S0
G1 X-0.15S550
G1 X-5.7S0
G1 X-1.05S550
G1 X-0.525S0
G1 X-2.475S550
G1 X-0.375S0
G1 X-0.9S550
G1 X-0.675S0
G1 X-0.975S550
G1 X-1.05S0
G1 X-0.15S550
G1 X-2.325S0
G1 X-0.825S550
G1 X-2.025S0
G1 X-0.6S550
G1 X-1.35S0
G1 X-0.75S550
G1 X-0.15S0
G1 X-2.025S550
G1 X-0.75S0
G1 X-3.975S550
G1 X-0.975S0
G1 X-0.675S550
G1 X-1.125S0
G1 X-0.225S550
G1 X-0.675S0
G1 X-3.3S550
G1 X-0.675S0
G1 X-50.55S550
G1 X-0.675S0
G1 X-62.55S550
G1 X-10.05S0
G1 X-31.5S550
G0 X-3.125
G0 Y0.075
G0 X3.125
G1 X31.5
G1 X5.7S0
G1 X0.15S550
G1 X4.275S0
G1 X62.55S550
G1 X0.6S0
G1 X50.55S550
G1 X0.75S0
G1 X0.75S550
G1 X0.15S0
G1 X0.075S550
G1 X0.15S0
G1 X2.1S550
G1 X0.675S0
G1 X0.225S550
G1 X1.125S0
G1 X0.75S550
G1 X1.125S0
G1 X3.975S550
G1 X0.45S0
G1 X2.025S550
G1 X0.225S0
G1 X0.9S550
G1 X1.2S0
G1 X0.6S550
G1 X2.025S0
G1 X0.525S550
G1 X2.55S0
G1 X0.3S550
G1 X0.975S0
G1 X0.975S550
G1 X0.6S0
G1 X0.975S550
G1 X0.45S0
G1 X2.625S550
G1 X0.225S0
G1 X1.125S550
G1 X2.325S0
G1 X0.075S550
G1 X1.425S0
G1 X0.225S550
G1 X1.5S0
G1 X0.375S550
G1 X0.45S0
G1 X0.975S550
G1 X6.3S0
G1 X1.35S550
G1 X2.55S0
G1 X0.075S550
G1 X6.3S0
G1 X0.45S550
G1 X0.525S0
G1 X0.375S550
G1 X0.525S0
G1 X0.9S550
G1 X0.825S0
G1 X0.45S550
G1 X1.875S0
G1 X0.15S550
G1 X7.05S0
G1 X0.825S550
G1 X0.225S0
G1 X72.9S550
G0 X3.125
G0 Y0.075
G0 X-3.125
G1 X-72.825
G1 X-0.375S0
G1 X-0.825S550
G1 X-1.95S0
G1 X-0.15S550
G1 X-6.975S0
G1 X-0.375S550
G1 X-0.825S0
G1 X-0.9S550
G1 X-0.375S0
G1 X-0.45S550
G1 X-0.6S0
G1 X-0.45S550
G1 X-6.225S0
G1 X-0.3S550
G1 X-2.4S0
G1 X-1.275S550
G1 X-6.375S0
G1 X-1.05S550
G1 X-0.225S0
G1 X-0.6S550
G1 X-1.35S0
G1 X-0.3S550
G1 X-1.2S0
G1 X-0.45S550
G1 X-2.1S0
G1 X-4.05S550
G1 X-0.375S0
G1 X-1.05S550
G1 X-0.525S0
G1 X-1.05S550
G1 X-0.975S0
G1 X-0.3S550
G1 X-2.625S0
G1 X-0.45S550
G1 X-1.95S0
G1 X-0.6S550
G1 X-1.275S0
G1 X-0.825S550
G1 X-0.375S0
G1 X-0.525S550
G1 X-0.075S0
G1 X-0.075S550
G1 X-0.15S0
G1 X-1.2S550
G1 X-0.075S0
G1 X-0.075S550
G1 X-0.075S0
G1 X-3.975S550
G1 X-1.275S0
G1 X-0.75S550
G1 X-1.125S0
G1 X-0.225S550
G1 X-0.675S0
G1 X-1.95S550
G1 X-0.6S0
G1 X-0.675S550
G1 X-0.675S0
G1 X-50.7S550
G1 X-0.525S0
G1 X-62.475S550
G1 X-4.5S0
G1 X-0.075S550
G1 X-5.625S0
G1 X-31.5S550
G0 X-3.125
G0 Y0.075
G0 X3.125
G1 X31.425
G1 X5.55S0
G1 X0.15S550
G1 X4.575S0
G1 X62.7S550
G1 X0.15S0
G1 X50.925S550
G1 X0.675S0
G1 X0.525S550
G1 X0.675S0
G1 X1.8S550
G1 X2.175S0
G1 X0.825S550
G1 X1.35S0
G1 X5.175S550
G1 X0.45S0
G1 X0.375S550
G1 X0.6S0
G1 X0.75S550
G1 X1.2S0
G1 X0.675S550
G1 X2.025S0
G1 X0.15S550
G1 X1.95S0
G1 X0.15S550
G1 X0.75S0
G1 X0.15S550
G1 X0.975S0
G1 X1.2S550
G1 X0.375S0
G1 X1.125S550
G1 X0.45S0
G1 X0.6S550
G1 X0.075S0
G1 X3.225S550
G1 X2.175S0
G1 X0.6S550
G1 X1.125S0
G1 X0.225S550
G1 X1.275S0
G1 X1.95S550
G1 X6.45S0
G1 X1.125S550
G1 X2.4S0
G1 X0.45S550
G1 X6.075S0
G1 X0.525S550
G1 X0.675S0
G1 X0.375S550
G1 X0.375S0
G1 X0.9S550
G1 X0.9S0
G1 X0.225S550
G1 X6.975S0
G1 X0.3S550
G1 X1.8S0
G1 X0.825S550
G1 X0.525S0
G1 X0.375S550
G1 X0.225S0
G1 X72.15S550
G0 X3.125
G0 Y0.075
G0 X-3.125
G1 X-72.075
G1 X-1.275S0
G1 X-1.05S550
G1 X-1.5S0
G1 X-0.375S550
G1 X-8.025S0
G1 X-1.5S550
G1 X-0.825S0
G1 X-0.6S550
G1 X-6.075S0
G1 X-0.375S550
G1 X-2.775S0
G1 X-0.75S550
G1 X-6.825S0
G1 X-1.65S550
G1 X-2.325S0
G1 X-0.9S550
G1 X-2.55S0
G1 X-2.7S550
G1 X-0.15S0
G1 X-0.525S550
G1 X-0.45S0
G1 X-3S550
G1 X-1.5S0
G1 X-0.3S550
G1 X-4.05S0
G1 X-0.675S550
G1 X-0.675S0
G1 X-1.2S550
G1 X-1.65S0
G1 X-2.4S550
G1 X-0.9S0
G1 X-1.35S550
G1 X-1.8S0
G1 X-0.825S550
G1 X-0.525S0
G1 X-0.15S550
G1 X-1.65S0
G1 X-1.65S550
G1 X-0.75S0
G1 X-0.45S550
G1 X-0.6S0
G1 X-113.775S550
G1 X-4.8S0
G1 X-0.075S550
G1 X-5.475S0
G1 X-31.425S550
G0 X-3.125
G0 Y0.075
G0 X3.125
G1 X31.35
G1 X1.2S0
G1 X4.275S550
G1 X0.9S0
G1 X2.625S550
G1 X1.425S0
G1 X108.825S550
G1 X0.075S0
G1 X4.875S550
G1 X0.675S0
G1 X0.375S550
G1 X0.675S0
G1 X1.65S550
G1 X1.65S0
G1 X0.375S550
G1 X0.45S0
G1 X0.825S550
G1 X1.95S0
G1 X0.825S550
G1 X1.425S0
G1 X1.2S550
G1 X0.3S0
G1 X0.75S550
G1 X2.025S0
G1 X0.9S550
G1 X0.525S0
G1 X0.675S550
G1 X4.05S0
G1 X0.3S550
G1 X1.35S0
G1 X3.225S550
G1 X0.45S0
G1 X0.375S550
G1 X0.225S0
G1 X2.55S550
G1 X2.7S0
G1 X1.2S550
G1 X1.95S0
G1 X1.65S550
G1 X4.875S0
G1 X0.3S550
G1 X1.65S0
G1 X0.45S550
G1 X3.075S0
G1 X0.375S550
G1 X6.15S0
G1 X0.675S550
G1 X0.9S0
G1 X1.35S550
G1 X8.025S0
G1 X0.3S550
G1 X1.2S0
G1 X1.2S550
G1 X1.5S0
G1 X0.6S550
G1 X0.225S0
G1 X71.25S550
G0 X3.125
G0 Y0.075
G0 X-3.125
G1 X-71.25
G1 X-0.375S0
G1 X-0.525S550
G1 X-1.5S0
G1 X-1.125S550
G1 X-1.275S0
G1 X-0.225S550
G1 X-8.1S0
G1 X-0.6S550
G1 X-0.15S0
G1 X-0.45S550
G1 X-0.9S0
G1 X-0.75S550
G1 X-6.225S0
G1 X-0.3S550
G1 X-3.15S0
G1 X-0.525S550
G1 X-1.425S0
G1 X-0.45S550
G1 X-4.875S0
G1 X-1.575S550
G1 X-1.875S0
G1 X-1.2S550
G1 X-2.775S0
G1 X-2.55S550
G1 X-0.3S0
G1 X-0.225S550
G1 X-0.6S0
G1 X-0.975S550
G1 X-0.075S0
G1 X-2.175S550
G1 X-1.2S0
G1 X-0.375S550
G1 X-4.05S0
G1 X-0.6S550
G1 X-0.525S0
G1 X-0.9S550
G1 X-2.1S0
G1 X-0.675S550
G1 X-0.375S0
G1 X-1.125S550
G1 X-1.5S0
G1 X-0.75S550
G1 X-2.025S0
G1 X-0.825S550
G1 X-0.45S0
G1 X-0.45S550
G1 X-1.65S0
G1 X-1.575S550
G1 X-0.675S0
G1 X-0.375S550
G1 X-0.675S0
G1 X-4.8S550
G1 X-0.3S0
G1 X-86.4S550
G1 X-0.225S0
G1 X-21.975S550
G1 X-0.825S0
G1 X-3.45S550
G1 X-0.825S0
G1 X-4.725S550
G1 X-0.75S0
G1 X-31.275S550
G0 X-3.125
G0 Y0.075
G0 X3.125
G1 X31.275
G1 X0.6S0
G1 X4.725S550
G1 X0.9S0
G1 X3.675S550
G1 X0.675S0
G1 X21.9S550
G1 X0.45S0
G1 X86.175S550
G1 X0.45S0
G1 X4.8S550
G1 X0.6S0
G1 X0.375S550
G1 X0.6S0
G1 X0.75S550
G1 X0.15S0
G1 X0.75S550
G1 X1.65S0
G1 X0.45S550
G1 X0.525S0
G1 X0.75S550
G1 X2.175S0
G1 X0.45S550
G1 X1.65S0
G1 X1.125S550
G1 X0.375S0
G1 X0.75S550
G1 X2.1S0
G1 X0.9S550
G1 X0.525S0
G1 X0.45S550
G1 X4.05S0
G1 X0.45S550
G1 X1.125S0
G1 X2.175S550
G1 X0.225S0
G1 X0.975S550
G1 X1.05S0
G1 X2.55S550
G1 X2.775S0
G1 X1.275S550
G1 X1.8S0
G1 X1.575S550
G1 X4.95S0
G1 X0.375S550
G1 X1.275S0
G1 X0.6S550
G1 X3.375S0
G1 X0.075S550
G1 X6.375S0
G1 X0.75S550
G1 X0.9S0
G1 X0.3S550
G1 X0.3S0
G1 X0.525S550
G1 X8.1S0
G1 X0.15S550
G1 X1.35S0
G1 X1.125S550
G1 X1.5S0
G1 X0.525S550
G1 X0.45S0
G1 X71.175S550
G0 X3.125
G0 Y0.075
G0 X-3.125
G1 X-71.175
G1 X-0.45S0
G1 X-0.675S550
G1 X-1.425S0
G1 X-0.975S550
G1 X-9.825S0
G1 X-0.225S550
G1 X-0.45S0
G1 X-0.3S550
G1 X-0.75S0
G1 X-0.75S550
G1 X-10.125S0
G1 X-0.6S550
G1 X-1.275S0
G1 X-0.15S550
G1 X-5.025S0
G1 X-1.5S550
G1 X-1.875S0
G1 X-1.2S550
G1 X-2.775S0
G1 X-2.625S550
G1 X-1.125S0
G1 X-0.825S550
G1 X-0.375S0
G1 X-2.1S550
G1 X-1.05S0
G1 X-0.525S550
G1 X-1.425S0
G1 X-0.3S550
G1 X-3.225S0
G1 X-0.9S550
G1 X-2.175S0
G1 X-0.825S550
G1 X-0.3S0
G1 X-1.125S550
G1 X-4.35S0
G1 X-0.6S550
G1 X-0.6S0
G1 X-0.45S550
G1 X-1.65S0
G1 X-0.6S550
G1 X-0.3S0
G1 X-0.75S550
G1 X-0.525S0
G1 X-0.45S550
G1 X-0.6S0
G1 X-4.725S550
G1 X-0.525S0
G1 X-86.025S550
G1 X-0.6S0
G1 X-21.825S550
G1 X-0.525S0
G1 X-4.05S550
G1 X-0.825S0
G1 X-4.875S550
G1 X-0.45S0
G1 X-31.2S550
G0 X-3.125
G0 Y0.075
G0 X3.125
G1 X31.2
G1 X0.3S0
G1 X4.875S550
G1 X0.9S0
G1 X4.275S550
G1 X0.375S0
G1 X21.9S550
G1 X0.975S0
G1 X85.575S550
G1 X0.45S0
G1 X4.875S550
G1 X0.525S0
G1 X0.45S550
G1 X0.525S0
G1 X0.75S550
G1 X0.3S0
G1 X0.525S550
G1 X1.725S0
G1 X0.375S550
G1 X0.675S0
G1 X0.525S550
G1 X4.425S0
G1 X1.125S550
G1 X0.225S0
G1 X0.975S550
G1 X0.375S0
G1 X0.075S550
G1 X0.675S0
G1 X0.375S550
G1 X0.675S0
G1 X0.975S550
G1 X1.275S0
G1 X0.15S550
G1 X1.5S0
G1 X0.525S550
G1 X1.2S0
G1 X0.675S550
G1 X1.05S0
G1 X2.1S550
G1 X0.45S0
G1 X0.825S550
G1 X1.05S0
G1 X0.825S550
G1 X0.675S0
G1 X1.2S550
G1 X2.85S0
G1 X0.975S550
G1 X2.025S0
G1 X0.825S550
G1 X0.3S0
G1 X0.375S550
G1 X6.3S0
G1 X0.6S550
G1 X8.175S0
G1 X0.225S550
G1 X0.675S0
G1 X0.225S550
G1 X1.125S0
G1 X0.6S550
G1 X0.675S0
G1 X0.3S550
G1 X10.725S0
G1 X0.75S550
G1 X1.275S0
G1 X0.75S550
G1 X0.6S0
G1 X71.1S550
G0 X3.125
G0 Y0.075
G0 X-3.125
G1 X-71.1
G1 X-0.525S0
G1 X-0.9S550
G1 X-1.275S0
G1 X-0.6S550
G1 X-6.75S0
G1 X-0.15S550
G1 X-4.8S0
G1 X-0.525S550
G1 X-1.05S0
G1 X-0.525S550
G1 X-0.525S0
G1 X-0.375S550
G1 X-8.175S0
G1 X-0.525S550
G1 X-6.225S0
G1 X-0.375S550
G1 X-0.45S0
G1 X-0.75S550
G1 X-1.95S0
G1 X-0.975S550
G1 X-2.775S0
G1 X-1.35S550
G1 X-0.675S0
G1 X-0.825S550
G1 X-1.125S0
G1 X-0.75S550
G1 X-0.525S0
G1 X-2.1S550
G1 X-0.9S0
G1 X-0.825S550
G1 X-1.05S0
G1 X-0.675S550
G1 X-1.275S0
G1 X-0.45S550
G1 X-1.05S0
G1 X-0.975S550
G1 X-0.675S0
G1 X-0.675S550
G1 X-0.225S0
G1 X-3.075S550
G1 X-4.35S0
G1 X-0.45S550
G1 X-0.825S0
G1 X-0.225S550
G1 X-1.725S0
G1 X-1.65S550
G1 X-0.45S0
G1 X-0.525S550
G1 X-0.45S0
G1 X-0.45S550
G1 X-0.225S0
G1 X-0.45S550
G1 X-0.3S0
G1 X-0.6S550
G1 X-0.225S0
