; LightBurn Pro 2.0.05
; GRBL device profile, absolute coords
; Bounds: X3.08 Y4.6 to X296.36 Y207.6
G00 G17 G40 G21 G54
G90
M4
; Image @ 7000.02 мм/мин, 50% power
M8
G0 X8.23Y54.599
; Layer C00
G91
G0 X2.917
G1 X0.05F7000.02S500
G1 X0.05S0
G1 X0.05S500
G1 X0.05S0
G1 X0.05S500
G1 X0.05S0
G1 X0.05S500
G1 X0.05S0
G1 X0.05S500
G1 X0.05S0
G1 X0.05S500
G1 X0.05S0
G1 X0.05S500
G1 X0.05S0
G1 X0.05S500
G1 X0.05S0
G1 X0.05S500
G1 X0.05S0
G1 X0.05S500
G1 X0.05S0
G1 X0.05S500
G1 X0.05S0
G1 X0.05S500
G1 X0.05S0
G1 X0.05S500
G1 X0.05S0
G1 X0.05S500
G1 X0.05S0
G1 X0.05S500
G1 X0.05S0
G1 X0.05S500
G1 X0.05S0
G1 X0.05S500
G1 X0.05S0
G1 X0.05S500
G1 X0.05S0
G1 X0.05S500
G1 X0.05S0
G1 X0.05S500
G1 X0.05S0
G1 X0.05S500
G1 X0.05S0
G1 X0.05S500
G1 X0.05S0
G1 X0.05S500
G1 X0.05S0
G1 X0.05S500
G1 X0.05S0
G1 X0.05S500
G1 X0.05S0
G1 X0.05S500
G1 X0.05S0
G1 X0.05S500
G1 X0.05S0
G1 X0.05S500
G1 X0.05S0
G1 X0.05S500
G1 X0.05S0
G1 X0.05S500
G1 X0.05S0
G1 X0.05S500
G1 X0.05S0
G1 X0.05S500
G1 X0.05S0
G1 X0.05S500
G1 X0.05S0
G1 X0.05S500
G1 X0.05S0
G1 X0.05S500
G1 X0.05S0
G1 X0.05S500
G1 X0.05S0
G1 X0.05S500
G1 X0.05S0
G1 X0.05S500
G1 X0.05S0
G1 X0.05S500
G1 X0.05S0
G1 X0.05S500
G1 X0.05S0
G1 X0.05S500
G1 X0.05S0
G1 X0.05S500
G1 X0.05S0
G1 X0.05S500
G1 X0.05S0
G1 X0.05S500
G1 X0.05S0
G1 X0.05S500
G1 X0.05S0
G1 X0.05S500
G1 X0.05S0
G1 X0.05S500
G1 X0.05S0
G1 X0.05S500
G1 X0.05S0
G1 X0.05S500
G1 X0.05S0
G1 X0.05S500
G1 X0.05S0
G1 X0.05S500
G1 X0.05S0
G1 X0.05S500
G1 X0.05S0
G1 X0.05S500
G1 X0.05S0
G1 X0.05S500
G1 X0.05S0
G1 X0.05S500
G1 X0.05S0
G1 X0.05S500
G1 X0.05S0
G1 X0.05S500
G1 X0.05S0
G1 X0.05S500
G1 X0.05S0
G1 X0.05S500
G1 X0.05S0
G1 X0.05S500
G1 X0.05S0
G1 X0.05S500
G1 X0.05S0
G1 X0.05S500
G1 X0.05S0
G1 X0.05S500
G1 X0.05S0
G1 X0.05S500
G1 X0.05S0
G1 X0.05S500
G1 X0.05S0
G1 X0.05S500
G1 X0.05S0
G1 X0.05S500
G1 X0.05S0
G1 X0.05S500
G1 X0.05S0
G1 X0.05S500
G1 X0.05S0
G1 X0.05S500
G1 X0.05S0
G1 X0.05S500
G1 X0.05S0
G1 X0.05S500
G1 X0.05S0
G1 X0.05S500
G1 X0.05S0
G1 X0.05S500
G1 X0.05S0
G1 X0.05S500
G1 X0.05S0
G1 X0.05S500
G1 X0.05S0
G1 X0.05S500
G1 X0.05S0
G1 X0.05S500
G1 X0.05S0
G1 X0.05S500
G1 X0.05S0
G1 X0.05S500
G1 X0.05S0
G1 X0.05S500
G1 X0.05S0
G1 X0.05S500
G1 X0.05S0
G1 X0.05S500
G1 X0.05S0
G1 X0.05S500
G1 X0.05S0
G1 X0.05S500
G1 X0.05S0
G1 X0.05S500
G1 X0.05S0
G1 X0.05S500
G1 X0.05S0
G1 X0.05S500
G1 X0.05S0
G1 X0.05S500
G1 X0.05S0
G1 X0.05S500
G1 X0.05S0
G1 X0.05S500
G1 X0.05S0
G1 X0.05S500
G1 X0.05S0
G1 X0.05S500
G1 X0.05S0
G1 X0.05S500
G1 X0.05S0
G1 X0.05S500
G1 X0.05S0
G1 X0.05S500
G1 X0.05S0
G1 X0.05S500
G1 X0.05S0
G1 X0.05S500
G1 X0.05S0
G1 X0.05S500
G1 X0.05S0
G1 X0.05S500
G1 X0.05S0
G1 X0.05S500
G1 X0.05S0
G1 X0.05S500
G1 X0.05S0
G1 X0.05S500
G1 X0.05S0
G1 X0.05S500
G1 X0.05S0
G1 X0.05S500
G1 X0.05S0
G1 X0.05S500
G1 X0.05S0
G1 X0.05S500
G1 X0.05S0
G1 X0.05S500
G1 X0.05S0
G1 X0.05S500
G1 X0.05S0
G1 X0.05S500
G1 X0.05S0
G1 X0.05S500
G1 X0.05S0
G1 X0.05S500
G1 X0.05S0
G1 X0.05S500
G1 X0.05S0
G1 X0.05S500
G1 X0.05S0
G1 X0.05S500
G1 X0.05S0
G1 X0.05S500
G1 X0.05S0
G1 X0.05S500
G1 X0.05S0
G1 X0.05S500
G1 X0.05S0
G1 X0.05S500
G1 X0.05S0
G1 X0.05S500
G1 X0.05S0
G1 X0.05S500
G1 X0.05S0
G1 X0.05S500
G1 X0.05S0
G1 X0.05S500
G1 X0.05S0
G1 X0.05S500
G1 X0.05S0
G1 X0.05S500
G1 X0.05S0
G1 X0.05S500
G1 X0.05S0
G1 X0.05S500
G1 X0.05S0
G1 X0.05S500
G1 X0.05S0
G1 X0.05S500
G1 X0.05S0
G1 X0.05S500
G1 X0.05S0
G1 X0.05S500
G1 X0.05S0
G1 X0.05S500
G1 X0.05S0
G1 X0.05S500
G1 X0.05S0
G1 X0.05S500
G1 X0.05S0
G1 X0.05S500
G1 X0.05S0
G1 X0.05S500
G1 X0.05S0
G1 X0.05S500
G1 X0.05S0
G1 X0.05S500
G1 X0.05S0
G1 X0.05S500
G1 X0.05S0
G1 X0.05S500
G1 X0.05S0
G1 X0.05S500
G1 X0.05S0
G1 X0.05S500
G1 X0.05S0
G1 X0.05S500
G1 X0.05S0
G1 X0.05S500
G1 X0.05S0
G1 X0.05S500
G1 X0.05S0
G1 X0.05S500
G1 X0.05S0
G1 X0.05S500
G1 X0.05S0
G1 X0.05S500
G1 X0.05S0
G1 X0.05S500
G1 X0.05S0
G1 X0.05S500
G1 X0.05S0
G1 X0.05S500
G1 X0.05S0
G1 X0.05S500
G1 X0.05S0
G1 X0.05S500
G1 X0.05S0
G1 X0.05S500
G1 X0.05S0
G1 X0.05S500
G1 X0.05S0
G1 X0.05S500
G1 X0.05S0
G1 X0.05S500
G1 X0.05S0
G1 X0.05S500
G1 X0.05S0
G1 X0.05S500
G1 X0.05S0
G1 X0.05S500
G1 X0.05S0
G1 X0.05S500
G1 X0.05S0
G1 X0.05S500
G1 X0.05S0
G1 X0.05S500
G1 X0.05S0
G1 X0.05S500
G1 X0.05S0
G1 X0.05S500
G1 X0.05S0
G1 X0.05S500
G1 X0.05S0
G1 X0.05S500
G1 X0.05S0
G1 X0.05S500
G1 X0.05S0
G1 X0.05S500
G1 X0.05S0
G1 X0.05S500
G1 X0.05S0
G1 X0.05S500
G1 X0.05S0
G1 X0.05S500
G1 X0.05S0
G1 X0.05S500
G1 X0.05S0
G1 X0.05S500
G1 X0.05S0
G1 X0.05S500
G1 X0.05S0
G1 X0.05S500
G1 X0.05S0
G1 X0.05S500
G1 X0.05S0
G1 X0.05S500
G1 X0.05S0
G1 X0.05S500
G1 X0.05S0
G1 X0.05S500
G1 X0.05S0
G1 X0.05S500
G1 X0.05S0
G1 X0.05S500
G1 X0.05S0
G1 X0.05S500
G1 X0.05S0
G1 X0.05S500
G1 X0.05S0
G1 X0.05S500
G1 X0.05S0
G1 X0.05S500
G1 X0.05S0
G1 X0.05S500
G1 X0.05S0
G1 X0.05S500
G1 X0.05S0
G1 X0.05S500
G1 X0.1S0
G1 X0.05S500
G1 X0.05S0
G1 X0.05S500
G1 X0.1S0
G1 X0.05S500
G1 X0.05S0
G1 X0.05S500
G1 X0.05S0
G1 X0.05S500
G1 X0.05S0
G1 X0.05S500
G1 X0.05S0
G1 X0.05S500
G1 X0.05S0
G1 X0.05S500
G1 X0.05S0
G1 X0.05S500
G1 X0.05S0
G1 X0.05S500
G1 X0.05S0
G1 X0.05S500
G1 X0.05S0
G1 X0.05S500
G1 X0.05S0
G1 X0.05S500
G1 X0.05S0
G1 X0.05S500
G1 X0.05S0
G1 X0.05S500
G1 X0.05S0
G1 X0.05S500
G1 X0.05S0
G1 X0.05S500
G1 X0.05S0
G1 X0.05S500
G1 X0.05S0
G1 X0.05S500
G1 X0.05S0
G1 X0.05S500
G1 X0.05S0
G1 X0.05S500
G1 X0.05S0
G1 X0.05S500
G1 X0.05S0
G1 X0.05S500
G1 X0.05S0
G1 X0.05S500
G1 X0.05S0
G1 X0.05S500
G1 X0.05S0
G1 X0.05S500
G1 X0.05S0
G1 X0.05S500
G1 X0.05S0
G1 X0.05S500
G1 X0.05S0
G1 X0.05S500
G1 X0.05S0
G1 X0.05S500
G1 X0.05S0
G1 X0.05S500
G1 X0.05S0
G1 X0.05S500
G1 X0.05S0
G1 X0.05S500
G1 X0.05S0
G1 X0.05S500
G1 X0.05S0
G1 X0.05S500
G1 X0.05S0
G1 X0.05S500
G1 X0.05S0
G1 X0.05S500
G1 X0.05S0
G1 X0.05S500
G1 X0.05S0
G1 X0.05S500
G1 X0.05S0
G1 X0.05S500
G1 X0.05S0
G1 X0.05S500
G1 X0.05S0
G1 X0.05S500
G1 X0.05S0
G1 X0.05S500
G1 X0.05S0
G1 X0.05S500
G1 X0.05S0
G1 X0.05S500
G1 X0.05S0
G1 X0.05S500
G1 X0.05S0
G1 X0.05S500
G1 X0.05S0
G1 X0.05S500
G1 X0.05S0
G1 X0.05S500
G1 X0.05S0
G1 X0.05S500
G1 X0.05S0
G1 X0.05S500
G1 X0.05S0
G1 X0.05S500
G1 X0.05S0
G1 X0.05S500
G1 X0.05S0
G1 X0.05S500
G1 X0.05S0
G1 X0.05S500
G1 X0.05S0
G1 X0.05S500
G1 X0.05S0
G1 X0.05S500
G1 X0.05S0
G1 X0.05S500
G1 X0.05S0
G1 X0.05S500
G1 X0.05S0
G1 X0.05S500
G1 X0.05S0
G1 X0.05S500
G1 X0.05S0
G1 X0.05S500
G1 X0.05S0
G1 X0.05S500
G1 X0.05S0
G1 X0.05S500
G1 X0.05S0
G1 X0.05S500
G1 X0.05S0
G1 X0.05S500
G1 X0.05S0
G1 X0.05S500
G1 X0.05S0
G1 X0.05S500
G1 X0.05S0
G1 X0.05S500
G1 X0.05S0
G1 X0.05S500
G1 X0.05S0
G1 X0.05S500
G1 X0.1S0
G1 X0.05S500
G1 X0.05S0
G1 X0.05S500
G1 X0.1S0
G1 X0.05S500
G1 X0.05S0
G1 X0.05S500
G1 X0.1S0
G1 X0.05S500
G1 X0.05S0
G1 X0.05S500
G1 X0.1S0
G1 X0.05S500
G1 X0.05S0
G1 X0.05S500
G1 X0.05S0
G1 X0.05S500
G1 X0.05S0
G1 X0.05S500
G1 X0.05S0
G1 X0.05S500
G1 X0.05S0
G1 X0.05S500
G1 X0.05S0
G1 X0.05S500
G1 X0.05S0
G1 X0.05S500
G1 X0.05S0
G1 X0.05S500
G1 X0.05S0
G1 X0.05S500
G1 X0.05S0
G1 X0.05S500
G1 X0.05S0
G1 X0.05S500
G1 X0.05S0
G1 X0.05S500
G1 X0.05S0
G1 X0.05S500
G1 X0.05S0
G1 X0.05S500
G1 X0.05S0
G1 X0.05S500
G1 X0.05S0
G1 X0.05S500
G1 X0.05S0
G1 X0.05S500
G1 X0.05S0
G1 X0.05S500
G1 X0.05S0
G1 X0.05S500
G1 X0.05S0
G1 X0.05S500
G1 X0.05S0
G1 X0.05S500
G1 X0.05S0
G1 X0.05S500
G1 X0.05S0
G1 X0.05S500
G1 X0.05S0
G1 X0.05S500
G1 X0.1S0
G1 X0.05S500
G1 X0.05S0
G1 X0.05S500
G1 X0.1S0
G1 X0.05S500
G1 X0.05S0
G1 X0.05S500
G1 X0.1S0
G1 X0.05S500
G1 X0.05S0
G1 X0.05S500
G1 X0.1S0
G1 X0.05S500
G1 X0.05S0
G1 X0.05S500
G1 X0.1S0
G1 X0.05S500
G1 X0.05S0
G1 X0.05S500
G1 X0.1S0
G1 X0.05S500
G1 X0.1S0
G1 X0.05S500
G1 X0.05S0
G1 X0.05S500
G1 X0.1S0
G1 X0.05S500
G1 X0.05S0
G1 X0.05S500
G1 X0.05S0
G1 X0.05S500
G1 X0.05S0
G1 X0.05S500
G1 X0.05S0
G1 X0.05S500
G1 X0.05S0
G1 X0.05S500
G1 X0.05S0
G1 X0.05S500
G1 X0.05S0
G1 X0.05S500
G1 X0.05S0
G1 X0.05S500
G1 X0.05S0
G1 X0.05S500
G1 X0.05S0
G1 X0.05S500
G1 X0.05S0
G1 X0.05S500
G1 X0.05S0
G1 X0.05S500
G1 X0.05S0
G1 X0.05S500
G1 X0.05S0
G1 X0.05S500
G1 X0.05S0
G1 X0.05S500
G1 X0.05S0
G1 X0.05S500
G1 X0.05S0
G1 X0.05S500
G1 X0.05S0
G1 X0.05S500
G1 X0.05S0
G1 X0.05S500
G1 X0.05S0
G1 X0.05S500
G1 X0.05S0
G1 X0.05S500
G1 X0.05S0
G1 X0.05S500
G1 X0.05S0
G1 X0.05S500
G1 X0.05S0
G1 X0.05S500
G1 X0.05S0
G1 X0.05S500
G1 X0.05S0
G1 X0.05S500
G1 X0.05S0
G1 X0.05S500
G1 X0.05S0
G1 X0.05S500
G1 X0.05S0
G1 X0.05S500
G1 X0.05S0
G1 X0.05S500
G1 X0.05S0
G1 X0.05S500
G1 X0.05S0
G1 X0.05S500
G1 X0.05S0
G1 X0.05S500
G1 X0.05S0
G1 X0.05S500
G1 X0.05S0
G1 X0.05S500
G1 X0.05S0
G1 X0.05S500
G1 X0.05S0
G1 X0.05S500
G1 X0.05S0
G1 X0.05S500
G1 X0.05S0
G1 X0.05S500
G1 X0.05S0
G1 X0.05S500
G1 X0.05S0
G1 X0.05S500
G1 X0.05S0
G1 X0.05S500
G1 X0.05S0
G1 X0.05S500
G1 X0.05S0
G1 X0.05S500
G1 X0.05S0
G1 X0.05S500
G1 X0.05S0
G1 X0.05S500
G1 X0.05S0
G1 X0.05S500
G1 X0.05S0
G1 X0.05S500
G1 X0.05S0
G1 X0.05S500
G1 X0.05S0
G1 X0.05S500
G1 X0.05S0
G1 X0.05S500
G1 X0.05S0
G1 X0.05S500
G1 X0.05S0
G1 X0.05S500
G1 X0.05S0
G1 X0.05S500
G1 X0.05S0
G1 X0.05S500
G1 X0.05S0
G1 X0.05S500
G1 X0.05S0
G1 X0.05S500
G1 X0.05S0
G1 X0.05S500
G1 X0.05S0
G1 X0.05S500
G1 X0.05S0
G1 X0.05S500
G1 X0.05S0
G1 X0.05S500
G1 X0.05S0
G1 X0.05S500
G1 X0.05S0
G1 X0.05S500
G1 X0.05S0
G1 X0.05S500
G1 X0.05S0
G1 X0.05S500
G1 X0.05S0
G1 X0.05S500
G1 X0.05S0
G1 X0.05S500
G1 X0.05S0
G1 X0.05S500
G1 X0.05S0
G1 X0.05S500
G1 X0.05S0
G1 X0.05S500
G1 X0.05S0
G1 X0.05S500
G1 X0.05S0
G1 X0.05S500
G1 X0.05S0
G1 X0.05S500
G1 X0.05S0
G1 X0.05S500
G1 X0.05S0
G1 X0.05S500
G1 X0.05S0
G1 X0.05S500
G1 X0.05S0
G1 X0.05S500
G1 X0.05S0
G1 X0.05S500
G1 X0.05S0
G1 X0.05S500
G1 X0.05S0
G1 X0.05S500
G1 X0.05S0
G1 X0.05S500
G1 X0.05S0
G1 X0.05S500
G1 X0.05S0
G1 X0.05S500
G1 X0.05S0
G1 X0.05S500
G1 X0.05S0
G1 X0.05S500
G1 X0.05S0
G1 X0.05S500
G1 X0.05S0
G1 X0.05S500
G1 X0.05S0
G1 X0.05S500
G1 X0.05S0
G1 X0.05S500
G1 X0.05S0
G1 X0.05S500
G1 X0.05S0
G1 X0.05S500
G1 X0.1S0
G1 X0.05S500
G1 X0.05S0
G1 X0.05S500
G1 X0.1S0
G1 X0.05S500
G1 X0.05S0
G1 X0.05S500
G1 X0.1S0
G1 X0.05S500
G1 X0.05S0
G1 X0.05S500
G1 X0.1S0
G1 X0.05S500
G1 X0.05S0
G1 X0.05S500
G1 X0.1S0
G1 X0.05S500
G1 X0.05S0
G1 X0.05S500
G1 X0.1S0
G1 X0.05S500
G1 X0.05S0
G1 X0.05S500
G1 X0.1S0
G1 X0.05S500
G1 X0.05S0
G1 X0.05S500
G1 X0.1S0
G1 X0.05S500
G1 X0.05S0
G1 X0.05S500
G1 X0.1S0
G1 X0.05S500
G1 X0.05S0
G1 X0.05S500
G1 X0.1S0
G1 X0.05S500
G1 X0.05S0
G1 X0.05S500
G1 X0.05S0
G1 X0.05S500
G1 X0.05S0
G1 X0.05S500
G1 X0.05S0
G1 X0.05S500
G1 X0.05S0
G1 X0.05S500
G1 X0.05S0
G1 X0.05S500
G1 X0.05S0
G1 X0.05S500
G1 X0.05S0
G1 X0.05S500
G1 X0.05S0
G1 X0.05S500
G1 X0.05S0
G1 X0.05S500
G1 X0.05S0
G1 X0.05S500
G1 X0.05S0
G1 X0.05S500
G1 X0.05S0
G1 X0.05S500
G1 X0.05S0
G1 X0.05S500
G1 X0.05S0
G1 X0.05S500
G1 X0.05S0
G1 X0.05S500
G1 X0.05S0
G1 X0.05S500
G1 X0.05S0
G1 X0.05S500
G1 X0.05S0
G1 X0.05S500
G1 X0.05S0
G1 X0.05S500
G1 X0.05S0
G1 X0.05S500
G1 X0.05S0
G1 X0.05S500
G1 X0.05S0
G1 X0.05S500
G1 X0.05S0
G1 X0.05S500
G1 X0.05S0
G1 X0.05S500
G1 X0.05S0
G1 X0.05S500
G1 X0.05S0
G1 X0.05S500
G1 X0.05S0
G1 X0.05S500
G1 X0.05S0
G1 X0.05S500
G1 X0.05S0
G1 X0.05S500
G1 X0.05S0
G1 X0.05S500
G1 X0.05S0
G1 X0.05S500
G1 X0.05S0
G1 X0.05S500
G1 X0.05S0
G1 X0.05S500
G1 X0.05S0
G1 X0.05S500
G1 X0.05S0
G1 X0.05S500
G1 X0.05S0
G1 X0.05S500
G1 X0.05S0
G1 X0.05S500
G1 X0.1S0
G1 X0.05S500
G1 X0.05S0
G1 X0.05S500
G1 X0.1S0
G1 X0.05S500
G1 X0.05S0
G1 X0.05S500
G1 X0.05S0
G1 X0.05S500
G1 X0.05S0
G1 X0.05S500
G1 X0.05S0
G1 X0.05S500
G1 X0.05S0
G1 X0.05S500
G1 X0.05S0
G1 X0.05S500
G1 X0.05S0
G1 X0.05S500
G1 X0.05S0
G1 X0.05S500
G1 X0.05S0
G1 X0.05S500
G1 X0.05S0
G1 X0.05S500
G1 X0.05S0
G1 X0.05S500
G1 X0.05S0
G1 X0.05S500
G1 X0.05S0
G1 X0.05S500
G1 X0.05S0
G1 X0.05S500
G1 X0.05S0
G1 X0.05S500
G1 X0.05S0
G1 X0.05S500
G1 X0.05S0
G1 X0.05S500
G1 X0.05S0
G1 X0.05S500
G1 X0.05S0
G1 X0.05S500
G1 X0.05S0
G1 X0.05S500
G1 X0.05S0
G1 X0.05S500
G1 X0.05S0
G1 X0.05S500
G1 X0.05S0
G1 X0.05S500
G1 X0.05S0
G1 X0.05S500
G1 X0.05S0
G1 X0.05S500
G1 X0.05S0
G1 X0.05S500
G1 X0.05S0
G1 X0.05S500
G1 X0.05S0
G1 X0.05S500
G1 X0.05S0
G1 X0.05S500
G1 X0.05S0
G1 X0.05S500
G1 X0.05S0
G1 X0.05S500
G1 X0.05S0
G1 X0.05S500
G1 X0.05S0
G1 X0.05S500
G1 X0.05S0
G1 X0.05S500
G1 X0.05S0
G1 X0.05S500
G1 X0.05S0
G1 X0.05S500
G1 X0.05S0
G1 X0.05S500
G1 X0.05S0
G1 X0.05S500
G1 X0.05S0
G1 X0.05S500
G1 X0.05S0
G1 X0.05S500
G1 X0.05S0
G1 X0.05S500
G1 X0.05S0
G1 X0.05S500
G1 X0.05S0
G1 X0.05S500
G1 X0.05S0
G1 X0.05S500
G1 X0.05S0
G1 X0.05S500
G1 X0.05S0
G1 X0.05S500
G1 X0.05S0
G1 X0.05S500
G1 X0.05S0
G1 X0.05S500
G1 X0.05S0
G1 X0.05S500
G1 X0.05S0
G1 X0.05S500
G1 X0.05S0
G1 X0.05S500
G1 X0.05S0
G1 X0.05S500
G1 X0.05S0
G1 X0.05S500
G1 X0.05S0
G1 X0.05S500
G1 X0.05S0
G1 X0.05S500
G1 X0.05S0
G1 X0.05S500
G1 X0.05S0
G1 X0.05S500
G1 X0.05S0
G1 X0.05S500
G1 X0.05S0
G1 X0.05S500
G1 X0.05S0
G1 X0.05S500
G1 X0.05S0
G1 X0.05S500
G1 X0.1S0
G1 X0.05S500
G1 X0.05S0
G1 X0.05S500
G1 X0.1S0
G1 X0.05S500
G1 X0.1S0
G1 X0.05S500
G1 X0.1S0
G1 X0.05S500
G1 X0.1S0
G1 X0.05S500
G1 X0.1S0
G1 X0.05S500
G1 X0.1S0
G1 X0.05S500
G1 X0.1S0
G1 X0.05S500
G1 X0.1S0
G1 X0.05S500
G1 X0.1S0
G1 X0.05S500
G1 X0.1S0
G1 X0.05S500
G1 X0.1S0
G1 X0.05S500
G1 X0.1S0
G1 X0.05S500
G1 X0.1S0
G1 X0.05S500
G1 X0.05S0
G1 X0.05S500
G1 X0.1S0
G1 X0.05S500
G1 X0.05S0
G1 X0.05S500
G1 X0.05S0
G1 X0.05S500
G1 X0.05S0
G1 X0.05S500
G1 X0.05S0
G1 X0.05S500
G1 X0.05S0
G1 X0.05S500
G1 X0.05S0
G1 X0.05S500
G1 X0.05S0
G1 X0.05S500
G1 X0.05S0
G1 X0.05S500
G1 X0.05S0
G1 X0.05S500
G1 X0.05S0
G1 X0.05S500
G1 X0.05S0
G1 X0.05S500
G1 X0.05S0
G1 X0.05S500
G1 X0.05S0
G1 X0.05S500
G1 X0.05S0
G1 X0.05S500
G1 X0.05S0
G1 X0.05S500
G1 X0.05S0
G1 X0.05S500
G1 X0.05S0
G1 X0.05S500
G1 X0.05S0
G1 X0.05S500
G1 X0.05S0
G1 X0.05S500
G1 X0.05S0
G1 X0.05S500
G1 X0.05S0
G1 X0.05S500
G1 X0.05S0
G1 X0.05S500
G1 X0.05S0
G1 X0.05S500
G1 X0.05S0
G1 X0.05S500
G1 X0.05S0
G1 X0.05S500
G1 X0.1S0
G1 X0.05S500
G1 X0.05S0
G1 X0.05S500
G1 X0.1S0
G1 X0.05S500
G1 X0.1S0
G1 X0.05S500
G1 X0.05S0
G1 X0.05S500
G1 X0.1S0
G1 X0.05S500
G1 X0.05S0
G1 X0.05S500
G1 X0.05S0
G1 X0.05S500
G1 X0.05S0
G1 X0.05S500
G1 X0.05S0
G1 X0.05S500
G1 X0.05S0
G1 X0.05S500
G1 X0.05S0
G1 X0.05S500
G1 X0.05S0
G1 X0.05S500
G1 X0.05S0
G1 X0.05S500
G1 X0.05S0
G1 X0.05S500
G1 X0.05S0
G1 X0.05S500
G1 X0.05S0
G1 X0.05S500
G1 X0.05S0
G1 X0.05S500
G1 X0.05S0
G1 X0.05S500
G1 X0.05S0
G1 X0.05S500
G1 X0.05S0
G1 X0.05S500
G1 X0.05S0
G1 X0.05S500
G1 X0.05S0
G1 X0.05S500
G1 X0.05S0
G1 X0.05S500
G1 X0.05S0
G1 X0.05S500
G1 X0.05S0
G1 X0.05S500
G1 X0.05S0
G1 X0.05S500
G1 X0.05S0
G1 X0.05S500
G1 X0.05S0
G1 X0.05S500
G1 X0.05S0
G1 X0.05S500
G1 X0.05S0
G1 X0.05S500
G1 X0.05S0
G1 X0.05S500
G1 X0.05S0
G1 X0.05S500
G1 X0.05S0
G1 X0.05S500
G1 X0.05S0
G1 X0.05S500
G1 X0.05S0
G1 X0.05S500
G1 X0.05S0
G1 X0.05S500
G1 X0.05S0
G1 X0.05S500
G1 X0.05S0
G1 X0.05S500
G1 X0.05S0
G1 X0.05S500
G1 X0.05S0
G1 X0.05S500
G1 X0.05S0
G1 X0.05S500
G1 X0.05S0
G1 X0.05S500
G1 X0.05S0
G1 X0.05S500
G1 X0.05S0
G1 X0.05S500
G1 X0.05S0
G1 X0.05S500
G1 X0.05S0
G1 X0.05S500
G1 X0.05S0
G1 X0.05S500
G1 X0.05S0
G1 X0.05S500
G1 X0.05S0
G1 X0.05S500
G1 X0.05S0
G1 X0.05S500
G1 X0.05S0
G1 X0.05S500
G1 X0.05S0
G1 X0.05S500
G1 X0.05S0
G1 X0.05S500
G1 X0.05S0
G1 X0.05S500
G1 X0.05S0
G1 X0.05S500
G1 X0.05S0
G1 X0.05S500
G1 X0.05S0
G1 X0.05S500
G1 X0.05S0
G1 X0.05S500
G1 X0.05S0
G1 X0.05S500
G1 X0.05S0
G1 X0.05S500
G1 X0.05S0
G1 X0.05S500
G1 X0.05S0
G1 X0.05S500
G1 X0.05S0
G1 X0.05S500
G1 X0.05S0
G1 X0.05S500
G1 X0.05S0
G1 X0.05S500
G1 X0.05S0
G1 X0.05S500
G1 X0.05S0
G1 X0.05S500
G1 X0.05S0
G1 X0.05S500
G1 X0.05S0
G1 X0.05S500
G1 X0.05S0
G1 X0.05S500
G1 X0.05S0
G1 X0.05S500
G1 X0.05S0
G1 X0.05S500
G1 X0.05S0
G1 X0.05S500
G1 X0.05S0
G1 X0.05S500
G1 X0.05S0
G1 X0.05S500
G1 X0.05S0
G1 X0.05S500
G1 X0.05S0
G1 X0.05S500
G1 X0.05S0
G1 X0.05S500
G1 X0.05S0
G1 X0.05S500
G1 X0.05S0
G1 X0.05S500
G1 X0.05S0
G1 X0.05S500
G1 X0.05S0
G1 X0.05S500
G1 X0.05S0
G1 X0.05S500
G1 X0.05S0
G1 X0.05S500
G1 X0.05S0
G1 X0.05S500
G1 X0.05S0
G1 X0.05S500
G1 X0.05S0
G1 X0.05S500
G1 X0.05S0
G1 X0.05S500
G1 X0.05S0
G1 X0.05S500
G1 X0.05S0
G1 X0.05S500
G1 X0.05S0
G1 X0.05S500
G1 X0.05S0
G1 X0.05S500
G1 X0.05S0
G1 X0.05S500
G1 X0.05S0
G1 X0.05S500
G1 X0.05S0
G1 X0.05S500
G1 X0.05S0
G1 X0.05S500
G1 X0.05S0
G1 X0.05S500
G1 X0.05S0
G1 X0.05S500
G1 X0.05S0
G1 X0.05S500
G1 X0.05S0
G1 X0.05S500
G1 X0.05S0
G1 X0.05S500
G1 X0.05S0
G1 X0.05S500
G1 X0.05S0
G1 X0.05S500
G1 X0.05S0
G1 X0.05S500
G1 X0.05S0
G1 X0.05S500
G1 X0.05S0
G1 X0.05S500
G1 X0.05S0
G1 X0.05S500
G1 X0.05S0
G1 X0.05S500
G1 X0.05S0
G1 X0.05S500
G1 X0.05S0
G1 X0.05S500
G1 X0.05S0
G1 X0.05S500
G1 X0.05S0
G1 X0.05S500
G1 X0.05S0
G1 X0.05S500
G1 X0.05S0
G1 X0.05S500
G1 X0.05S0
G1 X0.05S500
G1 X0.05S0
G1 X0.05S500
G1 X0.05S0
G1 X0.05S500
G1 X0.05S0
G1 X0.05S500
G1 X0.05S0
G1 X0.05S500
G1 X0.05S0
G1 X0.05S500
G1 X0.05S0
G1 X0.05S500
G1 X0.05S0
G1 X0.05S500
G1 X0.05S0
G1 X0.05S500
G1 X0.05S0
G1 X0.05S500
G1 X0.05S0
G1 X0.05S500
G1 X0.05S0
G1 X0.05S500
G1 X0.05S0
G1 X0.05S500
G1 X0.05S0
G1 X0.05S500
G1 X0.05S0
G1 X0.05S500
G1 X0.05S0
G1 X0.05S500
G1 X0.05S0
G1 X0.05S500
G1 X0.05S0
G1 X0.05S500
G1 X0.05S0
G1 X0.05S500
G1 X0.05S0
G1 X0.05S500
G1 X0.05S0
G1 X0.05S500
G1 X0.05S0
G1 X0.05S500
G1 X0.05S0
G1 X0.05S500
G1 X0.05S0
G1 X0.05S500
G1 X0.05S0
G1 X0.05S500
G1 X0.05S0
G1 X0.05S500
G1 X0.05S0
G1 X0.05S500
G1 X0.05S0
G1 X0.05S500
G1 X0.05S0
G1 X0.05S500
G1 X0.05S0
G1 X0.05S500
G1 X0.05S0
G1 X0.05S500
G1 X0.05S0
G1 X0.05S500
G1 X0.05S0
G1 X0.05S500
G1 X0.05S0
G1 X0.05S500
G1 X0.05S0
G1 X0.05S500
G1 X0.05S0
G1 X0.05S500
G1 X0.05S0
G1 X0.05S500
G1 X0.05S0
G1 X0.05S500
G1 X0.05S0
G1 X0.05S500
G1 X0.05S0
G1 X0.05S500
G1 X0.05S0
G1 X0.05S500
G1 X0.05S0
G1 X0.05S500
G1 X0.05S0
G1 X0.05S500
G1 X0.05S0
G1 X0.05S500
G1 X0.05S0
G1 X0.05S500
G1 X0.05S0
G1 X0.05S500
G1 X0.05S0
G1 X0.05S500
G1 X0.1S0
G1 X0.05S500
G1 X0.05S0
G1 X0.05S500
G1 X0.1S0
G1 X0.05S500
G1 X0.05S0
G1 X0.05S500
G1 X0.05S0
G1 X0.05S500
G1 X0.05S0
G1 X0.05S500
G1 X0.05S0
G1 X0.05S500
G1 X0.05S0
G1 X0.05S500
G1 X0.05S0
G1 X0.05S500
G1 X0.05S0
G1 X0.05S500
G1 X0.05S0
G1 X0.05S500
G1 X0.05S0
G1 X0.05S500
G1 X0.05S0
G1 X0.05S500
G1 X0.05S0
G1 X0.05S500
G1 X0.05S0
G1 X0.05S500
G1 X0.05S0
G1 X0.05S500
G1 X0.05S0
G1 X0.05S500
G1 X0.05S0
G1 X0.05S500
G1 X0.05S0
G1 X0.05S500
G1 X0.05S0
G1 X0.05S500
G1 X0.05S0
G1 X0.05S500
G1 X0.05S0
G1 X0.05S500
G1 X0.05S0
G1 X0.05S500
G1 X0.05S0
G1 X0.05S500
G1 X0.05S0
G1 X0.05S500
G1 X0.05S0
G1 X0.05S500
G1 X0.05S0
G1 X0.05S500
G1 X0.05S0
G1 X0.05S500
G1 X0.05S0
G1 X0.05S500
G1 X0.05S0
G1 X0.05S500
G1 X0.05S0
G1 X0.05S500
G1 X0.05S0
G1 X0.05S500
G1 X0.05S0
G1 X0.05S500
G1 X0.05S0
G1 X0.05S500
G1 X0.05S0
G1 X0.05S500
G1 X0.05S0
G1 X0.05S500
G1 X0.05S0
G1 X0.05S500
G1 X0.05S0
G1 X0.05S500
G1 X0.05S0
G1 X0.05S500
G1 X0.05S0
G1 X0.05S500
G1 X0.1S0
G1 X0.05S500
G1 X0.05S0
G1 X0.05S500
G1 X0.1S0
G1 X0.05S500
G1 X0.05S0
G1 X0.05S500
G1 X0.1S0
G1 X0.05S500
G1 X0.05S0
G1 X0.05S500
G1 X0.05S0
G1 X0.05S500
G1 X0.05S0
G1 X0.05S500
G1 X0.05S0
G1 X0.05S500
G1 X0.05S0
G1 X0.05S500
G1 X0.05S0
G1 X0.05S500
G1 X0.05S0
G1 X0.05S500
G1 X0.05S0
G1 X0.05S500
G1 X0.05S0
G1 X0.05S500
G1 X0.05S0
G1 X0.05S500
G1 X0.05S0
G1 X0.05S500
G1 X0.05S0
G1 X0.05S500
G1 X0.05S0
G1 X0.05S500
G1 X0.05S0
G1 X0.05S500
G1 X0.05S0
G1 X0.05S500
G1 X0.05S0
G1 X0.05S500
G1 X0.05S0
G1 X0.05S500
G1 X0.05S0
G1 X0.05S500
G1 X0.05S0
G1 X0.05S500
G1 X0.05S0
G1 X0.05S500
G1 X0.05S0
G1 X0.05S500
G1 X0.05S0
G1 X0.05S500
G1 X0.05S0
G1 X0.05S500
G1 X0.05S0
G1 X0.05S500
G1 X0.05S0
G1 X0.05S500
G1 X0.05S0
G1 X0.05S500
G1 X0.05S0
G1 X0.05S500
G1 X0.05S0
G1 X0.05S500
G1 X0.05S0
G1 X0.05S500
G1 X0.05S0
G1 X0.05S500
G1 X0.05S0
G1 X0.05S500
G1 X0.05S0
G1 X0.05S500
G1 X0.05S0
G1 X0.05S500
G1 X0.1S0
G1 X0.05S500
G1 X0.05S0
G1 X0.05S500
G1 X0.1S0
G1 X0.05S500
G1 X0.05S0
G1 X0.05S500
G1 X0.1S0
G1 X0.05S500
G1 X0.05S0
G1 X0.05S500
G1 X0.05S0
G1 X0.05S500
G1 X0.05S0
G1 X0.05S500
G1 X0.05S0
G1 X0.05S500
G1 X0.05S0
G1 X0.05S500
G1 X0.05S0
G1 X0.05S500
G1 X0.05S0
G1 X0.05S500
G1 X0.05S0
G1 X0.05S500
G1 X0.05S0
G1 X0.05S500
G1 X0.05S0
G1 X0.05S500
G1 X0.05S0
G1 X0.05S500
G1 X0.05S0
G1 X0.05S500
G1 X0.05S0
G1 X0.05S500
G1 X0.05S0
G1 X0.05S500
G1 X0.05S0
G1 X0.05S500
G1 X0.05S0
G1 X0.05S500
G1 X0.05S0
G1 X0.05S500
G1 X0.05S0
G1 X0.05S500
G1 X0.05S0
G1 X0.05S500
G1 X0.05S0
G1 X0.05S500
G1 X0.05S0
G1 X0.05S500
G1 X0.05S0
G1 X0.05S500
G1 X0.05S0
G1 X0.05S500
G1 X0.05S0
G1 X0.05S500
G1 X0.05S0
G1 X0.05S500
G1 X0.05S0
G1 X0.05S500
G1 X0.05S0
G1 X0.05S500
G1 X0.05S0
G1 X0.05S500
G1 X0.05S0
G1 X0.05S500
G1 X0.05S0
G1 X0.05S500
G1 X0.05S0
G1 X0.05S500
G1 X0.05S0
G1 X0.05S500
G1 X0.05S0
G1 X0.05S500
G1 X0.05S0
G1 X0.05S500
G1 X0.05S0
G1 X0.05S500
G1 X0.05S0
G1 X0.05S500
G1 X0.05S0
G1 X0.05S500
G1 X0.05S0
G1 X0.05S500
G1 X0.05S0
G1 X0.05S500
G1 X0.05S0
G1 X0.05S500
G1 X0.05S0
G1 X0.05S500
G1 X0.05S0
G1 X0.05S500
G1 X0.05S0
G1 X0.05S500
G1 X0.05S0
G1 X0.05S500
G1 X0.05S0
G1 X0.05S500
G1 X0.05S0
G1 X0.05S500
G1 X0.05S0
G1 X0.05S500
G1 X0.05S0
G1 X0.05S500
G1 X0.05S0
G1 X0.05S500
G1 X0.05S0
G1 X0.05S500
G1 X0.05S0
G1 X0.05S500
G1 X0.05S0
G1 X0.05S500
G1 X0.05S0
G1 X0.05S500
G1 X0.05S0
G1 X0.05S500
G1 X0.05S0
G1 X0.05S500
G1 X0.05S0
G1 X0.05S500
G1 X0.05S0
G1 X0.05S500
G1 X0.05S0
G1 X0.05S500
G1 X0.05S0
G1 X0.05S500
G1 X0.05S0
G1 X0.05S500
G1 X0.05S0
G1 X0.05S500
G1 X0.05S0
G1 X0.05S500
G1 X0.05S0
G1 X0.05S500
G1 X0.1S0
G1 X0.05S500
G1 X0.05S0
G1 X0.05S500
G1 X0.1S0
G1 X0.05S500
G1 X0.05S0
G1 X0.05S500
G1 X0.1S0
G1 X0.05S500
G1 X0.05S0
G1 X0.05S500
G1 X0.1S0
G1 X0.05S500
G1 X0.05S0
G1 X0.05S500
G1 X0.1S0
G1 X0.05S500
G1 X0.05S0
G1 X0.05S500
G1 X0.1S0
G1 X0.05S500
G1 X0.05S0
G1 X0.05S500
G1 X0.05S0
G1 X0.05S500
G1 X0.05S0
G1 X0.05S500
G1 X0.05S0
G1 X0.05S500
G1 X0.05S0
G1 X0.05S500
G1 X0.05S0
G1 X0.05S500
G1 X0.05S0
G1 X0.05S500
G1 X0.05S0
G1 X0.05S500
G1 X0.05S0
G1 X0.05S500
G1 X0.05S0
G1 X0.05S500
G1 X0.05S0
G1 X0.05S500
G1 X0.05S0
G1 X0.05S500
G1 X0.05S0
G1 X0.05S500
G1 X0.05S0
G1 X0.05S500
G1 X0.05S0
G1 X0.05S500
G1 X0.05S0
G1 X0.05S500
G1 X0.05S0
G1 X0.05S500
G1 X0.05S0
G1 X0.05S500
G1 X0.05S0
G1 X0.05S500
G1 X0.05S0
G1 X0.05S500
G1 X0.05S0
G1 X0.05S500
G1 X0.05S0
G1 X0.05S500
G1 X0.05S0
G1 X0.05S500
G1 X0.05S0
G1 X0.05S500
G1 X0.05S0
G1 X0.05S500
G1 X0.05S0
G1 X0.05S500
G1 X0.05S0
G1 X0.05S500
G1 X0.05S0
G1 X0.05S500
G1 X0.05S0
G1 X0.05S500
G1 X0.05S0
G1 X0.05S500
G1 X0.05S0
G1 X0.05S500
G1 X0.05S0
G1 X0.05S500
G1 X0.05S0
G1 X0.05S500
G1 X0.1S0
G1 X0.05S500
G1 X0.05S0
G1 X0.05S500
G1 X0.1S0
G1 X0.05S500
G1 X0.05S0
G1 X0.05S500
G1 X0.1S0
G1 X0.05S500
G1 X0.05S0
G1 X0.05S500
G1 X0.1S0
G1 X0.05S500
G1 X0.05S0
G1 X0.05S500
G1 X0.1S0
G1 X0.05S500
G1 X0.05S0
G1 X0.05S500
G1 X0.05S0
G1 X0.05S500
G1 X0.05S0
G1 X0.05S500
G1 X0.05S0
G1 X0.05S500
G1 X0.05S0
G1 X0.05S500
G1 X0.05S0
G1 X0.05S500
G1 X0.05S0
G1 X0.05S500
G1 X0.05S0
G1 X0.05S500
G1 X0.05S0
G1 X0.05S500
G1 X0.05S0
G1 X0.05S500
G1 X0.05S0
G1 X0.05S500
G1 X0.05S0
G1 X0.05S500
G1 X0.05S0
G1 X0.05S500
G1 X0.05S0
G1 X0.05S500
G1 X0.05S0
G1 X0.05S500
G1 X0.05S0
G1 X0.05S500
G1 X0.05S0
G1 X0.05S500
G1 X0.05S0
G1 X0.05S500
G1 X0.05S0
G1 X0.05S500
G1 X0.05S0
G1 X0.05S500
G1 X0.05S0
G1 X0.05S500
G1 X0.05S0
G1 X0.05S500
G1 X0.05S0
G1 X0.05S500
G1 X0.1S0
G1 X0.05S500
G1 X0.05S0
G1 X0.05S500
G1 X0.05S0
G1 X0.05S500
G1 X0.05S0
G1 X0.05S500
G1 X0.05S0
G1 X0.05S500
G1 X0.05S0
G1 X0.05S500
G1 X0.05S0
G1 X0.05S500
G1 X0.05S0
G1 X0.05S500
G1 X0.05S0
G1 X0.05S500
G1 X0.05S0
G1 X0.05S500
G1 X0.05S0
G1 X0.05S500
G1 X0.05S0
G1 X0.05S500
G1 X0.05S0
G1 X0.05S500
G1 X0.05S0
G1 X0.05S500
G1 X0.05S0
G1 X0.05S500
G1 X0.05S0
G1 X0.05S500
G1 X0.05S0
G1 X0.05S500
G1 X0.05S0
G1 X0.05S500
G1 X0.05S0
G1 X0.05S500
G1 X0.05S0
G1 X0.05S500
G1 X0.05S0
G1 X0.05S500
G1 X0.05S0
G1 X0.05S500
G1 X0.05S0
G1 X0.05S500
G1 X0.05S0
G1 X0.05S500
G1 X0.05S0
G1 X0.05S500
G1 X0.05S0
G1 X0.05S500
G1 X0.05S0
G1 X0.05S500
G1 X0.05S0
G1 X0.05S500
G1 X0.05S0
G1 X0.05S500
G1 X0.05S0
G1 X0.05S500
G1 X0.05S0
G1 X0.05S500
G1 X0.05S0
G1 X0.05S500
G1 X0.05S0
G1 X0.05S500
G1 X0.05S0
G1 X0.05S500
G1 X0.05S0
G1 X0.05S500
G1 X0.05S0
G1 X0.05S500
G1 X0.05S0
G1 X0.05S500
G1 X0.05S0
G1 X0.05S500
G1 X0.05S0
G1 X0.05S500
G1 X0.05S0
G1 X0.05S500
G1 X0.05S0
G1 X0.05S500
G1 X0.05S0
G1 X0.05S500
G1 X0.05S0
G1 X0.05S500
G1 X0.05S0
G1 X0.05S500
G1 X0.05S0
G1 X0.05S500
G1 X0.05S0
G1 X0.05S500
G1 X0.05S0
G1 X0.05S500
G1 X0.05S0
G1 X0.05S500
G1 X0.05S0
G1 X0.05S500
G1 X0.05S0
G1 X0.05S500
G1 X0.05S0
G1 X0.05S500
G1 X0.05S0
G1 X0.05S500
G1 X0.05S0
G1 X0.05S500
G1 X0.05S0
G1 X0.05S500
G1 X0.05S0
G1 X0.05S500
G1 X0.05S0
G1 X0.05S500
G1 X0.05S0
G1 X0.05S500
G1 X0.05S0
G1 X0.05S500
G1 X0.05S0
G1 X0.05S500
G1 X0.05S0
G1 X0.05S500
G1 X0.05S0
G1 X0.05S500
G1 X0.05S0
G1 X0.05S500
G1 X0.05S0
G1 X0.05S500
G1 X0.05S0
G1 X0.05S500
G1 X0.1S0
G1 X0.05S500
G1 X0.05S0
G1 X0.05S500
G1 X0.1S0
G1 X0.05S500
G1 X0.05S0
G1 X0.05S500
G1 X0.05S0
G1 X0.05S500
G1 X0.05S0
G1 X0.05S500
G1 X0.05S0
G1 X0.05S500
G1 X0.05S0
G1 X0.05S500
G1 X0.05S0
G1 X0.05S500
G1 X0.05S0
G1 X0.05S500
G1 X0.05S0
G1 X0.05S500
G1 X0.05S0
G1 X0.05S500
G1 X0.05S0
G1 X0.05S500
G1 X0.05S0
G1 X0.05S500
G1 X0.05S0
G1 X0.05S500
G1 X0.05S0
G1 X0.05S500
G1 X0.05S0
G1 X0.05S500
G1 X0.05S0
G1 X0.05S500
G1 X0.05S0
G1 X0.05S500
G1 X0.05S0
G1 X0.05S500
G1 X0.05S0
G1 X0.05S500
G1 X0.05S0
G1 X0.05S500
G1 X0.05S0
G1 X0.05S500
G1 X0.05S0
G1 X0.05S500
G1 X0.05S0
G1 X0.05S500
G1 X0.05S0
G1 X0.05S500
G1 X0.05S0
G1 X0.05S500
G1 X0.05S0
G1 X0.05S500
G1 X0.05S0
G1 X0.05S500
G1 X0.05S0
G1 X0.05S500
G1 X0.05S0
G1 X0.05S500
G1 X0.05S0
G1 X0.05S500
G1 X0.05S0
G1 X0.05S500
G1 X0.05S0
G1 X0.05S500
G1 X0.05S0
G1 X0.05S500
G1 X0.05S0
G1 X0.05S500
G1 X0.05S0
G1 X0.05S500
G1 X0.05S0
G1 X0.05S500
G1 X0.05S0
G1 X0.05S500
G1 X0.05S0
G1 X0.05S500
G1 X0.05S0
G1 X0.05S500
G1 X0.05S0
G1 X0.05S500
G1 X0.05S0
G1 X0.05S500
G1 X0.05S0
G1 X0.05S500
G1 X0.05S0
G1 X0.05S500
G1 X0.05S0
G1 X0.05S500
G1 X0.05S0
G1 X0.05S500
G1 X0.05S0
G1 X0.05S500
G1 X0.05S0
G1 X0.05S500
G1 X0.05S0
G1 X0.05S500
G1 X0.05S0
G1 X0.05S500
G1 X0.05S0
G1 X0.05S500
G1 X0.05S0
G1 X0.05S500
G1 X0.05S0
G1 X0.05S500
G1 X0.05S0
G1 X0.05S500
G1 X0.05S0
G1 X0.05S500
G1 X0.05S0
G1 X0.05S500
G1 X0.05S0
G1 X0.05S500
G1 X0.05S0
G1 X0.05S500
G1 X0.05S0
G1 X0.05S500
G1 X0.05S0
G1 X0.05S500
G1 X0.05S0
G1 X0.05S500
G1 X0.05S0
G1 X0.05S500
G1 X0.05S0
G1 X0.05S500
G1 X0.05S0
G1 X0.05S500
G1 X0.05S0
G1 X0.05S500
G1 X0.05S0
G1 X0.05S500
G1 X0.05S0
G1 X0.05S500
G1 X0.05S0
G1 X0.05S500
G1 X0.05S0
G1 X0.05S500
G1 X0.05S0
G1 X0.05S500
G1 X0.05S0
G1 X0.05S500
G1 X0.05S0
G1 X0.05S500
G1 X0.05S0
G1 X0.05S500
G1 X0.05S0
G1 X0.05S500
G1 X0.05S0
G1 X0.05S500
G1 X0.05S0
G1 X0.05S500
G1 X0.05S0
G1 X0.05S500
G1 X0.05S0
G1 X0.05S500
G1 X0.05S0
G1 X0.05S500
G1 X0.05S0
G1 X0.05S500
G1 X0.05S0
G1 X0.05S500
G1 X0.05S0
G1 X0.05S500
G1 X0.05S0
G1 X0.05S500
G1 X0.05S0
G1 X0.05S500
G1 X0.05S0
G1 X0.05S500
G1 X0.05S0
G1 X0.05S500
G1 X0.05S0
G1 X0.05S500
G1 X0.05S0
G1 X0.05S500
G1 X0.05S0
G1 X0.05S500
G1 X0.05S0
G1 X0.05S500
G1 X0.05S0
G1 X0.05S500
G1 X0.05S0
G1 X0.05S500
G1 X0.05S0
G1 X0.05S500
G1 X0.05S0
G1 X0.05S500
G1 X0.05S0
G1 X0.05S500
G1 X0.05S0
G1 X0.05S500
G1 X0.05S0
G1 X0.05S500
G1 X0.05S0
G1 X0.05S500
G1 X0.05S0
G1 X0.05S500
G1 X0.05S0
G1 X0.05S500
G1 X0.05S0
G1 X0.05S500
G1 X0.05S0
G1 X0.05S500
G1 X0.05S0
G1 X0.05S500
G1 X0.05S0
G1 X0.05S500
G1 X0.05S0
G1 X0.05S500
G1 X0.05S0
G1 X0.05S500
G1 X0.05S0
G1 X0.05S500
G1 X0.05S0
G1 X0.05S500
G1 X0.05S0
G1 X0.05S500
G1 X0.05S0
G1 X0.05S500
G1 X0.05S0
G1 X0.05S500
G1 X0.05S0
G1 X0.05S500
G1 X0.05S0
G1 X0.05S500
G1 X0.05S0
G1 X0.05S500
G1 X0.05S0
G1 X0.05S500
G1 X0.05S0
G1 X0.05S500
G1 X0.05S0
G1 X0.05S500
G1 X0.05S0
G1 X0.05S500
G1 X0.05S0
G1 X0.05S500
G1 X0.05S0
G1 X0.05S500
G1 X0.1S0
G1 X0.05S500
G1 X0.05S0
G1 X0.05S500
G1 X0.1S0
G1 X0.05S500
G1 X0.05S0
G1 X0.05S500
G1 X0.1S0
G1 X0.05S500
G1 X0.05S0
G1 X0.05S500
G1 X0.1S0
G1 X0.05S500
G1 X0.05S0
G1 X0.05S500
G1 X0.1S0
G1 X0.05S500
G1 X0.05S0
G1 X0.05S500
G1 X0.1S0
G1 X0.05S500
G1 X0.05S0
G1 X0.05S500
G1 X0.05S0
G1 X0.05S500
G1 X0.05S0
G1 X0.05S500
G1 X0.05S0
G1 X0.05S500
G1 X0.05S0
G1 X0.05S500
G1 X0.05S0
G1 X0.05S500
G1 X0.05S0
G1 X0.05S500
G1 X0.05S0
G1 X0.05S500
G1 X0.05S0
G1 X0.05S500
G1 X0.05S0
G1 X0.05S500
G1 X0.05S0
G1 X0.05S500
G1 X0.05S0
G1 X0.05S500
G1 X0.05S0
G1 X0.05S500
G1 X0.05S0
G1 X0.05S500
G1 X0.05S0
G1 X0.05S500
G1 X0.05S0
G1 X0.05S500
G1 X0.05S0
G1 X0.05S500
G1 X0.05S0
G1 X0.05S500
G1 X0.05S0
G1 X0.05S500
G1 X0.05S0
G1 X0.05S500
G1 X0.05S0
G1 X0.05S500
G1 X0.05S0
G1 X0.05S500
G1 X0.05S0
G1 X0.05S500
G1 X0.05S0
G1 X0.05S500
G1 X0.05S0
G1 X0.05S500
G1 X0.05S0
G1 X0.05S500
G1 X0.05S0
G1 X0.05S500
G1 X0.05S0
G1 X0.05S500
G1 X0.05S0
G1 X0.05S500
G1 X0.05S0
G1 X0.05S500
G1 X0.05S0
G1 X0.05S500
G1 X0.05S0
G1 X0.05S500
G1 X0.05S0
G1 X0.05S500
G1 X0.05S0
G1 X0.05S500
G1 X0.05S0
G1 X0.05S500
G1 X0.05S0
G1 X0.05S500
G1 X0.05S0
G1 X0.05S500
G1 X0.05S0
G1 X0.05S500
G1 X0.05S0
G1 X0.05S500
G1 X0.05S0
G1 X0.05S500
G1 X0.05S0
G1 X0.05S500
G1 X0.05S0
G1 X0.05S500
G1 X0.05S0
G1 X0.05S500
G1 X0.05S0
G1 X0.05S500
G1 X0.05S0
G1 X0.05S500
G1 X0.05S0
G1 X0.05S500
G1 X0.05S0
G1 X0.05S500
G1 X0.05S0
G1 X0.05S500
G1 X0.05S0
G1 X0.05S500
G1 X0.05S0
G1 X0.05S500
G1 X0.05S0
G1 X0.05S500
G1 X0.05S0
G1 X0.05S500
G1 X0.05S0
G1 X0.05S500
G1 X0.05S0
G1 X0.05S500
G1 X0.05S0
G1 X0.05S500
G1 X0.05S0
G1 X0.05S500
G1 X0.05S0
G1 X0.05S500
G1 X0.05S0
G1 X0.05S500
G1 X0.05S0
G1 X0.05S500
G1 X0.05S0
G1 X0.05S500
G1 X0.05S0
G1 X0.05S500
G1 X0.05S0
G1 X0.05S500
G1 X0.05S0
G1 X0.05S500
G1 X0.05S0
G1 X0.05S500
G1 X0.05S0
G1 X0.05S500
G1 X0.05S0
G1 X0.05S500
G1 X0.05S0
G1 X0.05S500
G1 X0.05S0
G1 X0.05S500
G1 X0.05S0
G1 X0.05S500
G1 X0.05S0
G1 X0.05S500
G1 X0.1S0
G1 X0.05S500
G1 X0.05S0
G1 X0.05S500
G1 X0.05S0
G1 X0.05S500
G1 X0.05S0
G1 X0.05S500
G1 X0.05S0
G1 X0.05S500
G1 X0.05S0
G1 X0.05S500
G1 X0.05S0
G1 X0.05S500
G1 X0.05S0
G1 X0.05S500
G1 X0.05S0
G1 X0.05S500
G1 X0.05S0
G1 X0.05S500
G1 X0.05S0
G1 X0.05S500
G1 X0.05S0
G1 X0.05S500
G1 X0.05S0
G1 X0.05S500
G1 X0.05S0
G1 X0.05S500
G1 X0.05S0
G1 X0.05S500
G1 X0.05S0
G1 X0.05S500
G1 X0.05S0
G1 X0.05S500
G1 X0.05S0
G1 X0.05S500
G1 X0.05S0
G1 X0.05S500
G1 X0.05S0
G1 X0.05S500
G1 X0.05S0
G1 X0.05S500
G1 X0.05S0
G1 X0.05S500
G1 X0.05S0
G1 X0.05S500
G1 X0.05S0
G1 X0.05S500
G1 X0.05S0
G1 X0.05S500
G1 X0.05S0
G1 X0.05S500
G1 X0.05S0
G1 X0.05S500
G1 X0.05S0
G1 X0.05S500
G1 X0.05S0
G1 X0.05S500
G1 X0.05S0
G1 X0.05S500
G1 X0.05S0
G1 X0.05S500
G1 X0.05S0
G1 X0.05S500
G1 X0.05S0
G1 X0.05S500
G1 X0.05S0
G1 X0.05S500
G1 X0.05S0
G1 X0.05S500
G1 X0.05S0
G1 X0.05S500
G1 X0.05S0
G1 X0.05S500
G1 X0.05S0
G1 X0.05S500
G1 X0.05S0
G1 X0.05S500
G1 X0.05S0
G1 X0.05S500
G1 X0.05S0
G1 X0.05S500
G1 X0.05S0
G1 X0.05S500
G1 X0.05S0
G1 X0.05S500
G1 X0.05S0
G1 X0.05S500
G1 X0.05S0
G1 X0.05S500
G1 X0.05S0
G1 X0.05S500
G1 X0.05S0
G1 X0.05S500
G1 X0.05S0
G1 X0.05S500
G1 X0.05S0
G1 X0.05S500
G1 X0.05S0
G1 X0.05S500
G1 X0.05S0
G1 X0.05S500
G1 X0.05S0
G1 X0.05S500
G1 X0.05S0
G1 X0.05S500
G1 X0.05S0
G1 X0.05S500
G1 X0.05S0
G1 X0.05S500
G1 X0.05S0
G1 X0.05S500
G1 X0.05S0
G1 X0.05S500
G1 X0.05S0
G1 X0.05S500
G1 X0.05S0
G1 X0.05S500
G1 X0.05S0
G1 X0.05S500
G1 X0.05S0
G1 X0.05S500
G1 X0.1S0
G1 X0.05S500
G1 X0.05S0
G1 X0.05S500
G1 X0.1S0
G1 X0.05S500
G1 X0.1S0
G1 X0.05S500
G1 X0.1S0
G1 X0.05S500
G1 X0.1S0
G1 X0.05S500
G1 X0.1S0
G1 X0.05S500
G1 X0.1S0
G1 X0.05S500
G1 X0.05S0
G1 X0.05S500
G1 X0.1S0
G1 X0.05S500
G1 X0.05S0
G1 X0.05S500
G1 X0.05S0
G1 X0.05S500
G1 X0.05S0
G1 X0.05S500
G1 X0.05S0
G1 X0.05S500
G1 X0.05S0
G1 X0.05S500
G1 X0.05S0
G1 X0.05S500
G1 X0.05S0
G1 X0.05S500
G1 X0.05S0
G1 X0.05S500
G1 X0.05S0
G1 X0.05S500
G1 X0.05S0
G1 X0.05S500
G1 X0.05S0
G1 X0.05S500
G1 X0.05S0
G1 X0.05S500
G1 X0.05S0
G1 X0.05S500
G1 X0.05S0
G1 X0.05S500
G1 X0.05S0
G1 X0.05S500
G1 X0.05S0
G1 X0.05S500
G1 X0.05S0
G1 X0.05S500
G1 X0.05S0
G1 X0.05S500
G1 X0.05S0
G1 X0.05S500
G1 X0.05S0
G1 X0.05S500
G1 X0.05S0
G1 X0.05S500
G1 X0.05S0
G1 X0.05S500
G1 X0.05S0
G1 X0.05S500
G1 X0.05S0
G1 X0.05S500
G1 X0.05S0
G1 X0.05S500
G1 X0.05S0
G1 X0.05S500
G1 X0.05S0
G1 X0.05S500
G1 X0.05S0
G1 X0.05S500
G1 X0.05S0
G1 X0.05S500
G1 X0.05S0
G1 X0.05S500
G1 X0.05S0
G1 X0.05S500
G1 X0.05S0
G1 X0.05S500
G1 X0.05S0
G1 X0.05S500
G1 X0.05S0
G1 X0.05S500
G1 X0.05S0
G1 X0.05S500
G1 X0.05S0
G1 X0.05S500
G1 X0.05S0
G1 X0.05S500
G1 X0.05S0
G1 X0.05S500
G1 X0.05S0
G1 X0.05S500
G1 X0.05S0
G1 X0.05S500
G1 X0.05S0
G1 X0.05S500
G1 X0.05S0
G1 X0.05S500
G1 X0.05S0
G1 X0.05S500
G1 X0.05S0
G1 X0.05S500
G1 X0.05S0
G1 X0.05S500
G1 X0.05S0
G1 X0.05S500
G1 X0.05S0
G1 X0.05S500
G1 X0.05S0
G1 X0.05S500
G1 X0.05S0
G1 X0.05S500
G1 X0.05S0
G1 X0.05S500
G1 X0.05S0
G1 X0.05S500
G1 X0.05S0
G1 X0.05S500
G1 X0.05S0
G1 X0.05S500
G1 X0.05S0
G1 X0.05S500
G1 X0.05S0
G1 X0.05S500
G1 X0.05S0
G1 X0.05S500
G1 X0.05S0
G1 X0.05S500
G1 X0.05S0
G1 X0.05S500
G1 X0.05S0
G1 X0.05S500
G1 X0.05S0
G1 X0.05S500
G1 X0.05S0
G1 X0.05S500
G1 X0.05S0
G1 X0.05S500
G1 X0.05S0
G1 X0.05S500
G1 X0.05S0
G1 X0.05S500
G1 X0.05S0
G1 X0.05S500
G1 X0.05S0
G1 X0.05S500
G1 X0.05S0
G1 X0.05S500
G1 X0.05S0
G1 X0.05S500
G1 X0.1S0
G1 X0.05S500
G1 X0.05S0
G1 X0.05S500
G1 X0.1S0
G1 X0.05S500
G1 X0.05S0
G1 X0.05S500
G1 X0.1S0
G1 X0.05S500
G1 X0.05S0
G1 X0.05S500
G1 X0.1S0
G1 X0.05S500
G1 X0.05S0
G1 X0.05S500
G1 X0.1S0
G1 X0.05S500
G1 X0.05S0
G1 X0.05S500
G1 X0.1S0
G1 X0.05S500
G1 X0.1S0
G1 X0.05S500
G1 X0.1S0
G1 X0.05S500
G1 X0.05S0
G1 X0.05S500
G1 X0.1S0
G1 X0.05S500
G1 X0.05S0
G1 X0.05S500
G1 X0.05S0
G1 X0.05S500
G1 X0.05S0
G1 X0.05S500
G1 X0.05S0
G1 X0.05S500
G1 X0.05S0
G1 X0.05S500
G1 X0.05S0
G1 X0.05S500
G1 X0.05S0
G1 X0.05S500
G1 X0.05S0
G1 X0.05S500
G1 X0.05S0
G1 X0.05S500
G1 X0.05S0
G1 X0.05S500
G1 X0.05S0
G1 X0.05S500
G1 X0.05S0
G1 X0.05S500
G1 X0.05S0
G1 X0.05S500
G1 X0.05S0
G1 X0.05S500
G1 X0.05S0
G1 X0.05S500
G1 X0.05S0
G1 X0.05S500
G1 X0.05S0
G1 X0.05S500
G1 X0.05S0
G1 X0.05S500
G1 X0.05S0
G1 X0.05S500
G1 X0.05S0
G1 X0.05S500
G1 X0.05S0
G1 X0.05S500
G1 X0.05S0
G1 X0.05S500
G1 X0.05S0
G1 X0.05S500
G1 X0.05S0
G1 X0.05S500
G1 X0.05S0
G1 X0.05S500
G1 X0.05S0
G1 X0.05S500
G1 X0.05S0
G1 X0.05S500
G1 X0.05S0
G1 X0.05S500
G1 X0.05S0
G1 X0.05S500
G1 X0.05S0
G1 X0.05S500
G1 X0.05S0
G1 X0.05S500
G1 X0.05S0
G1 X0.05S500
G1 X0.05S0
G1 X0.05S500
G1 X0.05S0
G1 X0.05S500
G1 X0.05S0
G1 X0.05S500
G1 X0.05S0
G1 X0.05S500
G1 X0.05S0
G1 X0.05S500
G1 X0.05S0
G1 X0.05S500
G1 X0.05S0
G1 X0.05S500
G1 X0.05S0
G1 X0.05S500
G1 X0.05S0
G1 X0.05S500
G1 X0.05S0
G1 X0.05S500
G1 X0.05S0
G1 X0.05S500
G1 X0.05S0
G1 X0.05S500
G1 X0.05S0
G1 X0.05S500
G1 X0.05S0
G1 X0.05S500
G1 X0.05S0
G1 X0.05S500
G1 X0.05S0
G1 X0.05S500
G1 X0.05S0
G1 X0.05S500
G1 X0.05S0
G1 X0.05S500
G1 X0.05S0
G1 X0.05S500
G1 X0.05S0
G1 X0.05S500
G1 X0.05S0
G1 X0.05S500
G1 X0.05S0
G1 X0.05S500
G1 X0.05S0
G1 X0.05S500
G1 X0.05S0
G1 X0.05S500
G1 X0.05S0
G1 X0.05S500
G1 X0.05S0
G1 X0.05S500
G1 X0.05S0
G1 X0.05S500
G1 X0.05S0
G1 X0.05S500
G1 X0.05S0
G1 X0.05S500
G1 X0.05S0
G1 X0.05S500
G1 X0.05S0
G1 X0.05S500
G1 X0.05S0
G1 X0.05S500
G1 X0.05S0
G1 X0.05S500
G1 X0.1S0
G1 X0.05S500
G1 X0.05S0
G1 X0.05S500
G1 X0.1S0
G1 X0.05S500
G1 X0.05S0
G1 X0.05S500
G1 X0.1S0
G1 X0.05S500
G1 X0.05S0
G1 X0.05S500
G1 X0.05S0
G1 X0.05S500
G1 X0.05S0
G1 X0.05S500
G1 X0.05S0
G1 X0.05S500
G1 X0.05S0
G1 X0.05S500
G1 X0.05S0
G1 X0.05S500
G1 X0.05S0
G1 X0.05S500
G1 X0.05S0
G1 X0.05S500
G1 X0.05S0
G1 X0.05S500
G1 X0.05S0
G1 X0.05S500
G1 X0.05S0
G1 X0.05S500
G1 X0.05S0
G1 X0.05S500
G1 X0.05S0
G1 X0.05S500
G1 X0.05S0
G1 X0.05S500
G1 X0.05S0
G1 X0.05S500
G1 X0.05S0
G1 X0.05S500
G1 X0.05S0
G1 X0.05S500
G1 X0.05S0
G1 X0.05S500
G1 X0.05S0
G1 X0.05S500
G1 X0.05S0
G1 X0.05S500
G1 X0.05S0
G1 X0.05S500
G1 X0.05S0
G1 X0.05S500
G1 X0.05S0
G1 X0.05S500
G1 X0.05S0
G1 X0.05S500
G1 X0.05S0
G1 X0.05S500
G1 X0.05S0
G1 X0.05S500
G1 X0.05S0
G1 X0.05S500
G1 X0.05S0
G1 X0.05S500
G1 X0.05S0
G1 X0.05S500
G1 X0.05S0
G1 X0.05S500
G1 X0.05S0
G1 X0.05S500
G1 X0.05S0
G1 X0.05S500
G1 X0.05S0
G1 X0.05S500
G1 X0.05S0
G1 X0.05S500
G1 X0.05S0
G1 X0.05S500
G1 X0.05S0
G1 X0.05S500
G1 X0.05S0
G1 X0.05S500
G1 X0.05S0
G1 X0.05S500
G1 X0.05S0
G1 X0.05S500
G1 X0.05S0
G1 X0.05S500
G1 X0.05S0
G1 X0.05S500
G1 X0.05S0
G1 X0.05S500
G1 X0.05S0
G1 X0.05S500
G1 X0.05S0
G1 X0.05S500
G1 X0.05S0
G1 X0.05S500
G1 X0.05S0
G1 X0.05S500
G1 X0.05S0
G1 X0.05S500
G1 X0.05S0
G1 X0.05S500
G1 X0.05S0
G1 X0.05S500
G1 X0.05S0
G1 X0.05S500
G1 X0.05S0
G1 X0.05S500
G1 X0.05S0
G1 X0.05S500
G1 X0.05S0
G1 X0.05S500
G1 X0.05S0
G1 X0.05S500
G1 X0.05S0
G1 X0.05S500
G1 X0.05S0
G1 X0.05S500
G1 X0.05S0
G1 X0.05S500
G1 X0.05S0
G1 X0.05S500
G1 X0.05S0
G1 X0.05S500
G1 X0.05S0
G1 X0.05S500
G1 X0.05S0
G1 X0.05S500
G1 X0.05S0
G1 X0.05S500
G1 X0.05S0
G1 X0.05S500
G1 X0.05S0
G1 X0.05S500
G1 X0.05S0
G1 X0.05S500
G1 X0.05S0
G1 X0.05S500
G1 X0.05S0
G1 X0.05S500
G1 X0.05S0
G1 X0.05S500
G1 X0.05S0
G1 X0.05S500
G1 X0.05S0
G1 X0.05S500
G1 X0.05S0
G1 X0.05S500
G1 X0.05S0
G1 X0.05S500
G1 X0.05S0
G1 X0.05S500
G1 X0.05S0
G1 X0.05S500
G1 X0.05S0
G1 X0.05S500
G1 X0.05S0
G1 X0.05S500
G1 X0.05S0
G1 X0.05S500
G1 X0.05S0
G1 X0.05S500
G1 X0.05S0
G1 X0.05S500
G1 X0.05S0
G1 X0.05S500
G1 X0.05S0
G1 X0.05S500
G1 X0.05S0
G1 X0.05S500
G1 X0.05S0
G1 X0.05S500
G1 X0.1S0
G1 X0.05S500
G1 X0.05S0
G1 X0.05S500
G1 X0.05S0
G1 X0.05S500
G1 X0.05S0
G1 X0.05S500
G1 X0.05S0
G1 X0.05S500
G1 X0.05S0
G1 X0.05S500
G1 X0.05S0
G1 X0.05S500
G1 X0.05S0
G1 X0.05S500
G1 X0.05S0
G1 X0.05S500
G1 X0.05S0
G1 X0.05S500
G1 X0.05S0
G1 X0.05S500
G1 X0.05S0
G1 X0.05S500
G1 X0.05S0
G1 X0.05S500
G1 X0.05S0
G1 X0.05S500
G1 X0.05S0
G1 X0.05S500
G1 X0.05S0
G1 X0.05S500
G1 X0.05S0
G1 X0.05S500
G1 X0.05S0
G1 X0.05S500
G1 X0.05S0
G1 X0.05S500
G1 X0.05S0
G1 X0.05S500
G1 X0.05S0
G1 X0.05S500
G1 X0.05S0
G1 X0.05S500
G1 X0.05S0
G1 X0.05S500
G1 X0.05S0
G1 X0.05S500
G1 X0.05S0
G1 X0.05S500
G1 X0.05S0
G1 X0.05S500
G1 X0.05S0
G1 X0.05S500
G1 X0.05S0
G1 X0.05S500
G1 X0.05S0
G1 X0.05S500
G1 X0.05S0
G1 X0.05S500
G1 X0.05S0
G1 X0.05S500
G1 X0.05S0
G1 X0.05S500
G1 X0.05S0
G1 X0.05S500
G1 X0.05S0
G1 X0.05S500
G1 X0.05S0
G1 X0.05S500
G1 X0.05S0
G1 X0.05S500
G1 X0.05S0
G1 X0.05S500
G1 X0.05S0
G1 X0.05S500
G1 X0.05S0
G1 X0.05S500
G1 X0.05S0
G1 X0.05S500
G1 X0.05S0
G1 X0.05S500
G1 X0.05S0
G1 X0.05S500
G1 X0.05S0
G1 X0.05S500
G1 X0.05S0
G1 X0.05S500
G1 X0.05S0
G1 X0.05S500
G1 X0.05S0
G1 X0.05S500
G1 X0.05S0
G1 X0.05S500
G1 X0.05S0
G1 X0.05S500
G1 X0.05S0
G1 X0.05S500
G1 X0.05S0
G1 X0.05S500
G1 X0.05S0
G1 X0.05S500
G1 X0.05S0
G1 X0.05S500
G1 X0.05S0
G1 X0.05S500
G1 X0.1S0
G1 X0.05S500
G1 X0.05S0
G1 X0.05S500
G1 X0.1S0
G1 X0.05S500
G1 X0.1S0
G1 X0.05S500
G1 X0.1S0
G1 X0.05S500
G1 X0.1S0
G1 X0.05S500
G1 X0.05S0
G1 X0.05S500
G1 X0.1S0
G1 X0.05S500
G1 X0.05S0
G1 X0.05S500
G1 X0.05S0
G1 X0.05S500
G1 X0.05S0
G1 X0.05S500
G1 X0.05S0
G1 X0.05S500
G1 X0.05S0
G1 X0.05S500
G1 X0.05S0
G1 X0.05S500
G1 X0.05S0
G1 X0.05S500
G1 X0.05S0
G1 X0.05S500
G1 X0.05S0
G1 X0.05S500
G1 X0.05S0
G1 X0.05S500
G1 X0.05S0
G1 X0.05S500
G1 X0.05S0
G1 X0.05S500
G1 X0.05S0
G1 X0.05S500
G1 X0.05S0
G1 X0.05S500
G1 X0.05S0
G1 X0.05S500
G1 X0.05S0
G1 X0.05S500
G1 X0.05S0
G1 X0.05S500
G1 X0.05S0
G1 X0.05S500
G1 X0.05S0
G1 X0.05S500
G1 X0.05S0
G1 X0.05S500
G1 X0.05S0
G1 X0.05S500
G1 X0.05S0
G1 X0.05S500
G1 X0.05S0
G1 X0.05S500
G1 X0.05S0
G1 X0.05S500
G1 X0.05S0
G1 X0.05S500
G1 X0.05S0
G1 X0.05S500
G1 X0.05S0
G1 X0.05S500
G1 X0.05S0
G1 X0.05S500
G1 X0.05S0
G1 X0.05S500
G1 X0.05S0
G1 X0.05S500
G1 X0.05S0
G1 X0.05S500
G1 X0.05S0
G1 X0.05S500
G1 X0.05S0
G1 X0.05S500
G1 X0.05S0
G1 X0.05S500
G1 X0.05S0
G1 X0.05S500
G1 X0.05S0
G1 X0.05S500
G1 X0.05S0
G1 X0.05S500
G1 X0.05S0
G1 X0.05S500
G1 X0.05S0
G1 X0.05S500
G1 X0.05S0
G1 X0.05S500
G1 X0.05S0
G1 X0.05S500
G1 X0.05S0
G1 X0.05S500
G1 X0.05S0
G1 X0.05S500
G1 X0.05S0
G1 X0.05S500
G1 X0.05S0
G1 X0.05S500
G1 X0.05S0
G1 X0.05S500
G1 X0.05S0
G1 X0.05S500
G1 X0.05S0
G1 X0.05S500
G1 X0.05S0
G1 X0.05S500
G1 X0.05S0
G1 X0.05S500
G1 X0.05S0
G1 X0.05S500
G1 X0.05S0
G1 X0.05S500
G1 X0.05S0
G1 X0.05S500
G1 X0.05S0
G1 X0.05S500
G1 X0.05S0
G1 X0.05S500
G1 X0.05S0
G1 X0.05S500
G1 X0.05S0
G1 X0.05S500
G1 X0.05S0
G1 X0.05S500
G1 X0.1S0
G1 X0.05S500
G1 X0.05S0
G1 X0.05S500
G1 X0.05S0
G1 X0.05S500
G1 X0.05S0
G1 X0.05S500
G1 X0.05S0
G1 X0.05S500
G1 X0.05S0
G1 X0.05S500
G1 X0.05S0
G1 X0.05S500
G1 X0.05S0
G1 X0.05S500
G1 X0.05S0
G1 X0.05S500
G1 X0.05S0
G1 X0.05S500
G1 X0.05S0
G1 X0.05S500
G1 X0.05S0
G1 X0.05S500
G1 X0.05S0
G1 X0.05S500
G1 X0.05S0
G1 X0.05S500
G1 X0.05S0
G1 X0.05S500
G1 X0.05S0
G1 X0.05S500
G1 X0.05S0
G1 X0.05S500
G1 X0.05S0
G1 X0.05S500
G1 X0.05S0
G1 X0.05S500
G1 X0.05S0
G1 X0.05S500
G1 X0.05S0
G1 X0.05S500
G1 X0.05S0
G1 X0.05S500
G1 X0.05S0
G1 X0.05S500
G1 X0.05S0
G1 X0.05S500
G1 X0.05S0
G1 X0.05S500
G1 X0.05S0
G1 X0.05S500
G1 X0.05S0
G1 X0.05S500
G1 X0.05S0
G1 X0.05S500
G1 X0.05S0
G1 X0.05S500
G1 X0.05S0
G1 X0.05S500
G1 X0.05S0
G1 X0.05S500
G1 X0.05S0
G1 X0.05S500
G1 X0.05S0
G1 X0.05S500
G1 X0.05S0
G1 X0.05S500
G1 X0.05S0
G1 X0.05S500
G1 X0.05S0
G1 X0.05S500
G1 X0.05S0
G1 X0.05S500
G1 X0.05S0
G1 X0.05S500
G1 X0.05S0
G1 X0.05S500
G1 X0.05S0
G1 X0.05S500
G1 X0.05S0
G1 X0.05S500
G1 X0.05S0
G1 X0.05S500
G1 X0.05S0
G1 X0.05S500
G1 X0.05S0
G1 X0.05S500
G1 X0.05S0
G1 X0.05S500
G1 X0.05S0
G1 X0.05S500
G1 X0.05S0
G1 X0.05S500
G1 X0.05S0
G1 X0.05S500
G1 X0.05S0
G1 X0.05S500
G1 X0.05S0
G1 X0.05S500
G1 X0.05S0
G1 X0.05S500
G1 X0.05S0
G1 X0.05S500
G1 X0.05S0
G1 X0.05S500
G1 X0.05S0
G1 X0.05S500
G1 X0.05S0
G1 X0.05S500
G1 X0.05S0
G1 X0.05S500
G1 X0.05S0
G1 X0.05S500
G1 X0.05S0
G1 X0.05S500
G1 X0.05S0
G1 X0.05S500
G1 X0.05S0
G1 X0.05S500
G1 X0.05S0
G1 X0.05S500
G1 X0.05S0
G1 X0.05S500
G1 X0.05S0
G1 X0.05S500
G1 X0.05S0
G1 X0.05S500
G1 X0.05S0
G1 X0.05S500
G1 X0.05S0
G1 X0.05S500
G1 X0.05S0
G1 X0.05S500
G1 X0.05S0
G1 X0.05S500
G1 X0.05S0
G1 X0.05S500
G1 X0.05S0
G1 X0.05S500
G1 X0.05S0
G1 X0.05S500
G1 X0.05S0
G1 X0.05S500
G1 X0.05S0
G1 X0.05S500
G1 X0.05S0
G1 X0.05S500
G1 X0.05S0
G1 X0.05S500
G1 X0.05S0
G1 X0.05S500
G1 X0.05S0
G1 X0.05S500
G1 X0.05S0
G1 X0.05S500
G1 X0.05S0
G1 X0.05S500
G1 X0.05S0
G1 X0.05S500
G1 X0.05S0
G1 X0.05S500
G1 X0.05S0
G1 X0.05S500
G1 X0.05S0
G1 X0.05S500
G1 X0.05S0
G1 X0.05S500
G1 X0.05S0
G1 X0.05S500
G1 X0.05S0
G1 X0.05S500
G1 X0.05S0
G1 X0.05S500
G1 X0.05S0
G1 X0.05S500
G1 X0.05S0
G1 X0.05S500
G1 X0.05S0
G1 X0.05S500
G1 X0.1S0
G1 X0.05S500
G1 X0.05S0
G1 X0.05S500
G1 X0.1S0
G1 X0.05S500
G1 X0.05S0
G1 X0.05S500
G1 X0.1S0
G1 X0.05S500
G1 X0.05S0
G1 X0.05S500
G1 X0.1S0
G1 X0.05S500
G1 X0.05S0
G1 X0.05S500
G1 X0.1S0
G1 X0.05S500
G1 X0.05S0
G1 X0.05S500
G1 X0.1S0
G1 X0.05S500
G1 X0.05S0
G1 X0.05S500
G1 X0.1S0
G1 X0.05S500
G1 X0.05S0
G1 X0.05S500
G1 X0.1S0
G1 X0.05S500
G1 X0.05S0
G1 X0.05S500
G1 X0.1S0
G1 X0.05S500
G1 X0.05S0
G1 X0.05S500
G1 X0.05S0
G1 X0.05S500
G1 X0.05S0
G1 X0.05S500
G1 X0.05S0
G1 X0.05S500
G1 X0.05S0
G1 X0.05S500
G1 X0.05S0
G1 X0.05S500
G1 X0.05S0
G1 X0.05S500
G1 X0.05S0
G1 X0.05S500
G1 X0.05S0
G1 X0.05S500
G1 X0.05S0
G1 X0.05S500
G1 X0.05S0
G1 X0.05S500
G1 X0.05S0
G1 X0.05S500
G1 X0.05S0
G1 X0.05S500
G1 X0.05S0
G1 X0.05S500
G1 X0.05S0
G1 X0.05S500
G1 X0.05S0
G1 X0.05S500
G1 X0.05S0
G1 X0.05S500
G1 X0.05S0
G1 X0.05S500
G1 X0.05S0
G1 X0.05S500
G1 X0.05S0
G1 X0.05S500
G1 X0.05S0
G1 X0.05S500
G1 X0.05S0
G1 X0.05S500
G1 X0.05S0
G1 X0.05S500
G1 X0.05S0
G1 X0.05S500
G1 X0.05S0
G1 X0.05S500
G1 X0.05S0
G1 X0.05S500
G1 X0.05S0
G1 X0.05S500
G1 X0.05S0
G1 X0.05S500
G1 X0.05S0
G1 X0.05S500
G1 X0.05S0
G1 X0.05S500
G1 X0.05S0
G1 X0.05S500
G1 X0.05S0
G1 X0.05S500
G1 X0.05S0
G1 X0.05S500
G1 X0.05S0
G1 X0.05S500
G1 X0.05S0
G1 X0.05S500
G1 X0.05S0
G1 X0.05S500
G1 X0.05S0
G1 X0.05S500
G1 X0.05S0
G1 X0.05S500
G1 X0.05S0
G1 X0.05S500
G1 X0.05S0
G1 X0.05S500
G1 X0.05S0
G1 X0.05S500
G1 X0.05S0
G1 X0.05S500
G1 X0.05S0
G1 X0.05S500
G1 X0.05S0
G1 X0.05S500
G1 X0.05S0
G1 X0.05S500
G1 X0.05S0
G1 X0.05S500
G1 X0.05S0
G1 X0.05S500
G1 X0.05S0
G1 X0.05S500
G1 X0.05S0
G1 X0.05S500
G1 X0.05S0
G1 X0.05S500
G1 X0.05S0
G1 X0.05S500
G1 X0.05S0
G1 X0.05S500
G1 X0.05S0
G1 X0.05S500
G1 X0.05S0
G1 X0.05S500
G1 X0.05S0
G1 X0.05S500
G1 X0.05S0
G1 X0.05S500
G1 X0.05S0
G1 X0.05S500
G1 X0.05S0
G1 X0.05S500
G1 X0.05S0
G1 X0.05S500
G1 X0.05S0
G1 X0.05S500
G1 X0.05S0
G1 X0.05S500
G1 X0.05S0
G1 X0.05S500
G1 X0.05S0
G1 X0.05S500
G1 X0.05S0
G1 X0.05S500
G1 X0.05S0
G1 X0.05S500
G1 X0.05S0
G1 X0.05S500
G1 X0.05S0
G1 X0.05S500
G1 X0.05S0
G1 X0.05S500
G1 X0.05S0
G1 X0.05S500
G1 X0.05S0
G1 X0.05S500
G1 X0.05S0
G1 X0.05S500
G1 X0.05S0
G1 X0.05S500
G1 X0.05S0
G1 X0.05S500
G1 X0.05S0
G1 X0.05S500
G1 X0.05S0
G1 X0.05S500
G1 X0.1S0
G1 X0.05S500
G1 X0.05S0
G1 X0.05S500
G1 X0.1S0
G1 X0.05S500
G1 X0.05S0
G1 X0.05S500
G1 X0.1S0
G1 X0.05S500
G1 X0.05S0
G1 X0.05S500
G1 X0.05S0
G1 X0.05S500
G1 X0.05S0
G1 X0.05S500
G1 X0.05S0
G1 X0.05S500
G1 X0.05S0
G1 X0.05S500
G1 X0.05S0
G1 X0.05S500
G1 X0.05S0
G1 X0.05S500
G1 X0.05S0
G1 X0.05S500
G1 X0.05S0
G1 X0.05S500
G1 X0.05S0
G1 X0.05S500
G1 X0.05S0
G1 X0.05S500
G1 X0.05S0
G1 X0.05S500
G1 X0.05S0
G1 X0.05S500
G1 X0.05S0
G1 X0.05S500
G1 X0.05S0
G1 X0.05S500
G1 X0.05S0
G1 X0.05S500
G1 X0.05S0
G1 X0.05S500
G1 X0.1S0
G1 X0.05S500
G1 X0.05S0
G1 X0.05S500
G1 X0.1S0
G1 X0.05S500
G1 X0.05S0
G1 X0.05S500
G1 X0.1S0
G1 X0.05S500
G1 X0.05S0
G1 X0.05S500
G1 X0.1S0
G1 X0.05S500
G1 X0.05S0
G1 X0.05S500
G1 X0.05S0
G1 X0.05S500
G1 X0.05S0
G1 X0.05S500
G1 X0.05S0
G1 X0.05S500
G1 X0.05S0
G1 X0.05S500
G1 X0.05S0
G1 X0.05S500
G1 X0.05S0
G1 X0.05S500
G1 X0.05S0
G1 X0.05S500
G1 X0.05S0
G1 X0.05S500
G1 X0.05S0
G1 X0.05S500
G1 X0.05S0
G1 X0.05S500
G1 X0.05S0
G1 X0.05S500
G1 X0.05S0
G1 X0.05S500
G1 X0.05S0
G1 X0.05S500
G1 X0.05S0
G1 X0.05S500
G1 X0.05S0
G1 X0.05S500
G1 X0.05S0
G1 X0.05S500
G1 X0.05S0
G1 X0.05S500
G1 X0.05S0
G1 X0.05S500
G1 X0.05S0
G1 X0.05S500
G1 X0.05S0
G1 X0.05S500
G1 X0.05S0
G1 X0.05S500
G1 X0.05S0
G1 X0.05S500
G1 X0.05S0
G1 X0.05S500
G1 X0.05S0
G1 X0.05S500
G1 X0.05S0
G1 X0.05S500
G1 X0.05S0
G1 X0.05S500
G1 X0.05S0
G1 X0.05S500
G1 X0.05S0
G1 X0.05S500
G1 X0.05S0
G1 X0.05S500
G1 X0.05S0
G1 X0.05S500
G1 X0.05S0
G1 X0.05S500
G1 X0.05S0
G1 X0.05S500
G1 X0.05S0
G1 X0.05S500
G1 X0.05S0
G1 X0.05S500
G1 X0.05S0
G1 X0.05S500
G1 X0.05S0
G1 X0.05S500
G1 X0.05S0
G1 X0.05S500
G1 X0.05S0
G1 X0.05S500
G1 X0.05S0
G1 X0.05S500
G1 X0.05S0
G1 X0.05S500
G1 X0.05S0
G1 X0.05S500
G1 X0.05S0
G1 X0.05S500
G1 X0.05S0
G1 X0.05S500
G1 X0.05S0
G1 X0.05S500
G1 X0.05S0
G1 X0.05S500
G1 X0.05S0
G1 X0.05S500
G1 X0.05S0
G1 X0.05S500
G1 X0.05S0
G1 X0.05S500
G1 X0.05S0
G1 X0.05S500
G1 X0.05S0
G1 X0.05S500
G1 X0.05S0
G1 X0.05S500
G1 X0.05S0
G1 X0.05S500
G1 X0.05S0
G1 X0.05S500
G1 X0.05S0
G1 X0.05S500
G1 X0.05S0
G1 X0.05S500
G1 X0.05S0
G1 X0.05S500
G1 X0.05S0
G1 X0.05S500
G1 X0.05S0
G1 X0.05S500
G1 X0.05S0
G1 X0.05S500
G1 X0.05S0
G1 X0.05S500
G1 X0.05S0
G1 X0.05S500
G1 X0.05S0
G1 X0.05S500
G1 X0.05S0
G1 X0.05S500
G1 X0.05S0
G1 X0.05S500
G1 X0.05S0
G1 X0.05S500
G1 X0.05S0
G1 X0.05S500
G1 X0.05S0
G1 X0.05S500
G1 X0.05S0
G1 X0.05S500
G1 X0.05S0
G1 X0.05S500
G1 X0.05S0
G1 X0.05S500
G1 X0.05S0
G1 X0.05S500
G1 X0.05S0
G1 X0.05S500
G1 X0.05S0
G1 X0.05S500
G1 X0.05S0
G1 X0.05S500
G1 X0.05S0
G1 X0.05S500
G1 X0.05S0
G1 X0.05S500
G1 X0.05S0
G1 X0.05S500
G1 X0.05S0
G1 X0.05S500
G1 X0.05S0
G1 X0.05S500
G1 X0.05S0
G1 X0.05S500
G1 X0.05S0
G1 X0.05S500
G1 X0.05S0
G1 X0.05S500
G1 X0.05S0
G1 X0.05S500
G1 X0.05S0
G1 X0.05S500
G1 X0.05S0
G1 X0.05S500
G1 X0.05S0
G1 X0.05S500
G1 X0.05S0
G1 X0.05S500
G1 X0.05S0
G1 X0.05S500
G1 X0.05S0
G1 X0.05S500
G1 X0.05S0
G1 X0.05S500
G1 X0.05S0
G1 X0.05S500
G1 X0.05S0
G1 X0.05S500
G1 X0.05S0
G1 X0.05S500
G1 X0.05S0
G1 X0.05S500
G1 X0.05S0
G1 X0.05S500
G1 X0.05S0
G1 X0.05S500
G1 X0.05S0
G1 X0.05S500
G1 X0.05S0
G1 X0.05S500
G1 X0.05S0
G1 X0.05S500
G1 X0.05S0
G1 X0.05S500
G1 X0.05S0
G1 X0.05S500
G1 X0.05S0
G1 X0.05S500
G1 X0.05S0
G1 X0.05S500
G1 X0.05S0
G1 X0.05S500
G1 X0.05S0
G1 X0.05S500
G1 X0.05S0
G1 X0.05S500
G1 X0.05S0
G1 X0.05S500
G1 X0.05S0
G1 X0.05S500
G1 X0.05S0
G1 X0.05S500
G1 X0.05S0
G1 X0.05S500
G1 X0.05S0
G1 X0.05S500
G1 X0.05S0
G1 X0.05S500
G1 X0.05S0
G1 X0.05S500
G1 X0.05S0
G1 X0.05S500
G1 X0.05S0
G1 X0.05S500
G1 X0.05S0
G1 X0.05S500
G1 X0.05S0
G1 X0.05S500
G1 X0.05S0
G1 X0.05S500
G1 X0.05S0
G1 X0.05S500
G1 X0.05S0
G1 X0.05S500
G1 X0.05S0
G1 X0.05S500
G1 X0.05S0
G1 X0.05S500
G1 X0.05S0
G1 X0.05S500
G1 X0.05S0
G1 X0.05S500
G1 X0.05S0
G1 X0.05S500
G1 X0.05S0
G1 X0.05S500
G1 X0.05S0
G1 X0.05S500
G1 X0.05S0
G1 X0.05S500
G1 X0.05S0
G1 X0.05S500
G1 X0.05S0
G1 X0.05S500
G1 X0.05S0
G1 X0.05S500
G1 X0.05S0
G1 X0.05S500
G1 X0.05S0
G1 X0.05S500
G1 X0.05S0
G1 X0.05S500
G1 X0.05S0
G1 X0.05S500
G1 X0.05S0
G1 X0.05S500
G1 X0.05S0
G1 X0.05S500
G1 X0.05S0
G1 X0.05S500
G1 X0.05S0
G1 X0.05S500
G1 X0.05S0
G1 X0.05S500
G1 X0.05S0
G1 X0.05S500
G1 X0.05S0
G1 X0.05S500
G1 X0.05S0
G1 X0.05S500
G1 X0.05S0
G1 X0.05S500
G1 X0.05S0
G1 X0.05S500
G1 X0.05S0
G1 X0.05S500
G1 X0.05S0
G1 X0.05S500
G1 X0.05S0
G1 X0.05S500
G1 X0.05S0
G1 X0.05S500
G1 X0.05S0
G1 X0.05S500
G1 X0.05S0
G1 X0.05S500
G1 X0.05S0
G1 X0.05S500
G1 X0.05S0
G1 X0.05S500
G1 X0.05S0
G1 X0.05S500
G1 X0.05S0
G1 X0.05S500
G1 X0.05S0
G1 X0.05S500
G1 X0.05S0
G1 X0.05S500
G1 X0.05S0
G1 X0.05S500
G1 X0.05S0
G1 X0.05S500
G1 X0.05S0
G1 X0.05S500
G1 X0.05S0
G1 X0.05S500
G1 X0.05S0
G1 X0.05S500
G1 X0.05S0
G1 X0.05S500
G1 X0.05S0
G1 X0.05S500
G1 X0.05S0
G1 X0.05S500
G1 X0.05S0
G1 X0.05S500
G1 X0.05S0
G1 X0.05S500
G1 X0.05S0
G1 X0.05S500
G1 X0.05S0
G1 X0.05S500
G1 X0.05S0
G1 X0.05S500
G1 X0.05S0
G1 X0.05S500
G1 X0.05S0
G1 X0.05S500
G1 X0.05S0
G1 X0.05S500
G1 X0.05S0
G1 X0.05S500
G1 X0.05S0
G1 X0.05S500
G1 X0.05S0
G1 X0.05S500
G1 X0.05S0
G1 X0.05S500
G1 X0.05S0
G1 X0.05S500
G1 X0.05S0
G1 X0.05S500
G1 X0.05S0
G1 X0.05S500
G1 X0.05S0
G1 X0.05S500
G1 X0.05S0
G1 X0.05S500
G1 X0.05S0
G1 X0.05S500
G1 X0.05S0
G1 X0.05S500
G1 X0.05S0
G1 X0.05S500
G1 X0.05S0
G1 X0.05S500
G1 X0.05S0
G1 X0.05S500
G1 X0.05S0
G1 X0.05S500
G1 X0.05S0
G1 X0.05S500
G1 X0.05S0
G1 X0.05S500
G1 X0.05S0
G1 X0.05S500
G1 X0.05S0
G1 X0.05S500
G1 X0.05S0
G1 X0.05S500
G1 X0.05S0
G1 X0.05S500
G1 X0.05S0
G1 X0.05S500
G1 X0.05S0
G1 X0.05S500
G1 X0.05S0
G1 X0.05S500
G1 X0.05S0
G1 X0.05S500
G1 X0.05S0
G1 X0.05S500
G1 X0.05S0
G1 X0.05S500
G1 X0.05S0
G1 X0.05S500
G1 X0.05S0
G1 X0.05S500
G1 X0.05S0
G1 X0.05S500
G1 X0.05S0
G1 X0.05S500
G1 X0.05S0
G1 X0.05S500
G1 X0.05S0
G1 X0.05S500
G1 X0.05S0
G1 X0.05S500
G1 X0.05S0
G1 X0.05S500
G1 X0.05S0
G1 X0.05S500
G1 X0.05S0
G1 X0.05S500
G1 X0.05S0
G1 X0.05S500
G1 X0.05S0
G1 X0.05S500
G1 X0.05S0
G1 X0.05S500
G1 X0.05S0
G1 X0.05S500
G1 X0.05S0
G1 X0.05S500
G1 X0.05S0
G1 X0.05S500
G1 X0.05S0
G1 X0.05S500
G1 X0.05S0
G1 X0.05S500
G1 X0.1S0
G1 X0.05S500
G1 X0.05S0
G1 X0.05S500
G1 X0.05S0
G1 X0.05S500
G1 X0.05S0
G1 X0.05S500
G1 X0.05S0
G1 X0.05S500
G1 X0.05S0
G1 X0.05S500
G1 X0.05S0
G1 X0.05S500
G1 X0.05S0
G1 X0.05S500
G1 X0.05S0
G1 X0.05S500
G1 X0.05S0
G1 X0.05S500
G1 X0.05S0
G1 X0.05S500
G1 X0.05S0
G1 X0.05S500
G1 X0.05S0
G1 X0.05S500
G1 X0.05S0
G1 X0.05S500
G1 X0.05S0
G1 X0.05S500
G1 X0.05S0
G1 X0.05S500
G1 X0.05S0
G1 X0.05S500
G1 X0.05S0
G1 X0.05S500
G1 X0.05S0
G1 X0.05S500
G1 X0.05S0
G1 X0.05S500
G1 X0.05S0
G1 X0.05S500
G1 X0.05S0
G1 X0.05S500
G1 X0.05S0
G1 X0.05S500
G1 X0.05S0
G1 X0.05S500
G1 X0.05S0
G1 X0.05S500
G1 X0.05S0
G1 X0.05S500
G1 X0.05S0
G1 X0.05S500
G1 X0.05S0
G1 X0.05S500
G1 X0.05S0
G1 X0.05S500
G1 X0.05S0
G1 X0.05S500
G1 X0.05S0
G1 X0.05S500
G1 X0.05S0
G1 X0.05S500
G1 X0.05S0
G1 X0.05S500
G1 X0.05S0
G1 X0.05S500
G1 X0.05S0
G1 X0.05S500
G1 X0.05S0
G1 X0.05S500
G1 X0.05S0
G1 X0.05S500
G1 X0.05S0
G1 X0.05S500
G1 X0.05S0
G1 X0.05S500
G1 X0.05S0
G1 X0.05S500
G1 X0.05S0
G1 X0.05S500
G1 X0.05S0
G1 X0.05S500
G1 X0.05S0
G1 X0.05S500
G1 X0.05S0
G1 X0.05S500
G1 X0.05S0
G1 X0.05S500
G1 X0.05S0
G1 X0.05S500
G1 X0.05S0
G1 X0.05S500
G1 X0.05S0
G1 X0.05S500
G1 X0.05S0
G1 X0.05S500
G1 X0.05S0
G1 X0.05S500
G1 X0.05S0
G1 X0.05S500
G1 X0.05S0
G1 X0.05S500
G1 X0.05S0
G1 X0.05S500
G1 X0.05S0
G1 X0.05S500
G1 X0.05S0
G1 X0.05S500
G1 X0.05S0
G1 X0.05S500
G1 X0.05S0
G1 X0.05S500
G1 X0.05S0
G1 X0.05S500
G1 X0.05S0
G1 X0.05S500
G1 X0.05S0
G1 X0.05S500
G1 X0.05S0
G1 X0.05S500
G1 X0.05S0
G1 X0.05S500
G1 X0.05S0
G1 X0.05S500
G1 X0.05S0
G1 X0.05S500
G1 X0.05S0
G1 X0.05S500
G1 X0.05S0
G1 X0.05S500
G1 X0.05S0
G1 X0.05S500
G1 X0.05S0
G1 X0.05S500
G1 X0.05S0
G1 X0.05S500
G1 X0.05S0
G1 X0.05S500
G1 X0.05S0
G1 X0.05S500
G1 X0.05S0
G1 X0.05S500
G1 X0.05S0
G1 X0.05S500
G1 X0.05S0
G1 X0.05S500
G1 X0.05S0
G1 X0.05S500
G1 X0.05S0
G1 X0.05S500
G1 X0.05S0
G1 X0.05S500
G1 X0.05S0
G1 X0.05S500
G1 X0.05S0
G1 X0.05S500
G1 X0.05S0
G1 X0.05S500
G1 X0.05S0
G1 X0.05S500
G1 X0.05S0
G1 X0.05S500
G1 X0.05S0
G1 X0.05S500
G1 X0.05S0
G1 X0.05S500
G1 X0.05S0
G1 X0.05S500
G1 X0.05S0
G1 X0.05S500
G1 X0.05S0
G1 X0.05S500
G1 X0.05S0
G1 X0.05S500
G1 X0.05S0
G1 X0.05S500
G1 X0.05S0
G1 X0.05S500
G1 X0.05S0
G1 X0.05S500
G1 X0.05S0
G1 X0.05S500
G1 X0.05S0
G1 X0.05S500
G1 X0.05S0
G1 X0.05S500
G1 X0.05S0
G1 X0.05S500
G1 X0.05S0
G1 X0.05S500
G1 X0.05S0
G1 X0.05S500
G1 X0.1S0
G1 X0.05S500
G1 X0.05S0
G1 X0.05S500
G1 X0.1S0
G1 X0.05S500
G1 X0.05S0
G1 X0.05S500
G1 X0.1S0
G1 X0.05S500
G1 X0.05S0
G1 X0.05S500
G1 X0.05S0
G1 X0.05S500
G1 X0.05S0
G1 X0.05S500
G1 X0.05S0
G1 X0.05S500
G1 X0.05S0
G1 X0.05S500
G1 X0.05S0
G1 X0.05S500
G1 X0.05S0
G1 X0.05S500
G1 X0.05S0
G1 X0.05S500
G1 X0.05S0
G1 X0.05S500
G1 X0.05S0
G1 X0.05S500
G1 X0.05S0
G1 X0.05S500
G1 X0.05S0
G1 X0.05S500
G1 X0.05S0
G1 X0.05S500
G1 X0.05S0
G1 X0.05S500
G1 X0.05S0
G1 X0.05S500
G1 X0.05S0
G1 X0.05S500
G1 X0.05S0
G1 X0.05S500
G1 X0.05S0
G1 X0.05S500
G1 X0.05S0
G1 X0.05S500
G1 X0.05S0
G1 X0.05S500
G1 X0.05S0
G1 X0.05S500
G1 X0.05S0
G1 X0.05S500
G1 X0.05S0
G1 X0.05S500
G1 X0.05S0
G1 X0.05S500
G1 X0.05S0
G1 X0.05S500
G1 X0.1S0
G1 X0.05S500
G1 X0.05S0
G1 X0.05S500
G1 X0.1S0
G1 X0.05S500
G1 X0.1S0
G1 X0.05S500
G1 X0.1S0
G1 X0.05S500
G1 X0.1S0
G1 X0.05S500
G1 X0.1S0
G1 X0.05S500
G1 X0.1S0
G1 X0.05S500
G1 X0.1S0
G1 X0.05S500
G1 X0.1S0
G1 X0.05S500
G1 X0.05S0
G1 X0.05S500
G1 X0.1S0
G1 X0.05S500
G1 X0.05S0
G1 X0.05S500
G1 X0.05S0
G1 X0.05S500
G1 X0.05S0
G1 X0.05S500
G1 X0.05S0
G1 X0.05S500
G1 X0.05S0
G1 X0.05S500
G1 X0.05S0
G1 X0.05S500
G1 X0.05S0
G1 X0.05S500
G1 X0.05S0
G1 X0.05S500
G1 X0.05S0
G1 X0.05S500
G1 X0.05S0
G1 X0.05S500
G1 X0.05S0
G1 X0.05S500
G1 X0.05S0
G1 X0.05S500
G1 X0.05S0
G1 X0.05S500
G1 X0.05S0
G1 X0.05S500
G1 X0.05S0
G1 X0.05S500
G1 X0.05S0
G1 X0.05S500
G1 X0.05S0
G1 X0.05S500
G1 X0.05S0
G1 X0.05S500
G1 X0.05S0
G1 X0.05S500
G1 X0.05S0
G1 X0.05S500
G1 X0.05S0
G1 X0.05S500
G1 X0.05S0
G1 X0.05S500
G1 X0.05S0
G1 X0.05S500
G1 X0.05S0
G1 X0.05S500
G1 X0.05S0
G1 X0.05S500
G1 X0.05S0
G1 X0.05S500
G1 X0.05S0
G1 X0.05S500
G1 X0.05S0
G1 X0.05S500
G1 X0.05S0
G1 X0.05S500
G1 X0.05S0
G1 X0.05S500
G1 X0.05S0
G1 X0.05S500
G1 X0.05S0
G1 X0.05S500
G1 X0.05S0
G1 X0.05S500
G1 X0.05S0
G1 X0.05S500
G1 X0.05S0
G1 X0.05S500
G1 X0.05S0
G1 X0.05S500
G1 X0.05S0
G1 X0.05S500
G1 X0.05S0
G1 X0.05S500
G1 X0.05S0
G1 X0.05S500
G1 X0.05S0
G1 X0.05S500
G1 X0.05S0
G1 X0.05S500
G1 X0.05S0
G1 X0.05S500
G1 X0.05S0
G1 X0.05S500
G1 X0.05S0
G1 X0.05S500
G1 X0.05S0
G1 X0.05S500
G1 X0.05S0
G1 X0.05S500
G1 X0.05S0
G1 X0.05S500
G1 X0.05S0
G1 X0.05S500
G1 X0.05S0
G1 X0.05S500
G1 X0.05S0
G1 X0.05S500
G1 X0.05S0
G1 X0.05S500
G1 X0.05S0
G1 X0.05S500
G1 X0.05S0
G1 X0.05S500
G1 X0.05S0
G1 X0.05S500
G1 X0.05S0
G1 X0.05S500
G1 X0.05S0
G1 X0.05S500
G1 X0.05S0
G1 X0.05S500
G1 X0.05S0
G1 X0.05S500
G1 X0.05S0
G1 X0.05S500
G1 X0.05S0
G1 X0.05S500
G1 X0.05S0
G1 X0.05S500
G1 X0.05S0
G1 X0.05S500
G1 X0.05S0
G1 X0.05S500
G1 X0.05S0
G1 X0.05S500
G1 X0.05S0
G1 X0.05S500
G1 X0.05S0
G1 X0.05S500
G1 X0.05S0
G1 X0.05S500
G1 X0.05S0
G1 X0.05S500
G1 X0.05S0
G1 X0.05S500
G1 X0.05S0
G1 X0.05S500
G1 X0.05S0
G1 X0.05S500
G1 X0.05S0
G1 X0.05S500
G1 X0.05S0
G1 X0.05S500
G1 X0.05S0
G1 X0.05S500
G1 X0.05S0
G1 X0.05S500
G1 X0.05S0
G1 X0.05S500
G1 X0.05S0
G1 X0.05S500
G1 X0.05S0
G1 X0.05S500
G1 X0.05S0
G1 X0.05S500
G1 X0.05S0
G1 X0.05S500
G1 X0.05S0
G1 X0.05S500
G1 X0.05S0
G1 X0.05S500
G1 X0.05S0
G1 X0.05S500
G1 X0.05S0
G1 X0.05S500
G1 X0.05S0
G1 X0.05S500
G1 X0.05S0
G1 X0.05S500
G1 X0.05S0
G1 X0.05S500
G1 X0.05S0
G1 X0.05S500
G1 X0.05S0
G1 X0.05S500
G1 X0.05S0
G1 X0.05S500
G1 X0.05S0
G1 X0.05S500
G1 X0.05S0
G1 X0.05S500
G1 X0.05S0
G1 X0.05S500
G1 X0.05S0
G1 X0.05S500
G1 X0.05S0
G1 X0.05S500
G1 X0.05S0
G1 X0.05S500
G1 X0.05S0
G1 X0.05S500
G1 X0.05S0
G1 X0.05S500
G1 X0.05S0
G1 X0.05S500
G1 X0.05S0
G1 X0.05S500
G1 X0.05S0
G1 X0.05S500
G1 X0.05S0
G1 X0.05S500
G1 X0.05S0
G1 X0.05S500
G1 X0.05S0
G1 X0.05S500
G1 X0.05S0
G1 X0.05S500
G1 X0.05S0
G1 X0.05S500
G1 X0.05S0
G1 X0.05S500
G1 X0.05S0
G1 X0.05S500
G1 X0.05S0
G1 X0.05S500
G1 X0.05S0
G1 X0.05S500
G1 X0.05S0
G1 X0.05S500
G1 X0.05S0
G1 X0.05S500
G1 X0.05S0
G1 X0.05S500
G1 X0.05S0
G1 X0.05S500
G1 X0.05S0
G1 X0.05S500
G1 X0.05S0
G1 X0.05S500
G1 X0.05S0
G1 X0.05S500
G1 X0.05S0
G1 X0.05S500
G1 X0.05S0
G1 X0.05S500
G1 X0.05S0
G1 X0.05S500
G1 X0.05S0
G1 X0.05S500
G1 X0.05S0
G1 X0.05S500
G1 X0.1S0
G1 X0.05S500
G1 X0.05S0
G1 X0.05S500
G1 X0.1S0
G1 X0.05S500
G1 X0.05S0
G1 X0.05S500
G1 X0.1S0
G1 X0.05S500
G1 X0.05S0
G1 X0.05S500
G1 X0.1S0
G1 X0.05S500
G1 X0.05S0
G1 X0.05S500
G1 X0.1S0
G1 X0.05S500
G1 X0.1S0
G1 X0.05S500
G1 X0.1S0
G1 X0.05S500
G1 X0.1S0
G1 X0.05S500
G1 X0.1S0
G1 X0.05S500
G1 X0.05S0
G1 X0.05S500
G1 X0.1S0
G1 X0.05S500
G1 X0.05S0
G1 X0.05S500
G1 X0.05S0
G1 X0.05S500
G1 X0.05S0
G1 X0.05S500
G1 X0.05S0
G1 X0.05S500
G1 X0.05S0
G1 X0.05S500
G1 X0.05S0
G1 X0.05S500
G1 X0.05S0
G1 X0.05S500
G1 X0.05S0
G1 X0.05S500
G1 X0.05S0
G1 X0.05S500
G1 X0.05S0
G1 X0.05S500
G1 X0.05S0
G1 X0.05S500
G1 X0.05S0
G1 X0.05S500
G1 X0.05S0
G1 X0.05S500
G1 X0.05S0
G1 X0.05S500
G1 X0.1S0
G1 X0.05S500
G1 X0.05S0
G1 X0.05S500
G1 X0.1S0
G1 X0.05S500
G1 X0.1S0
G1 X0.05S500
G1 X0.05S0
G1 X0.05S500
G1 X0.1S0
G1 X0.05S500
G1 X0.05S0
G1 X0.05S500
G1 X0.05S0
G1 X0.05S500
G1 X0.05S0
G1 X0.05S500
G1 X0.05S0
G1 X0.05S500
G1 X0.05S0
G1 X0.05S500
G1 X0.05S0
G1 X0.05S500
G1 X0.05S0
G1 X0.05S500
G1 X0.05S0
G1 X0.05S500
G1 X0.05S0
G1 X0.05S500
G1 X0.05S0
G1 X0.05S500
G1 X0.05S0
G1 X0.05S500
G1 X0.05S0
G1 X0.05S500
G1 X0.05S0
G1 X0.05S500
G1 X0.05S0
G1 X0.05S500
G1 X0.05S0
G1 X0.05S500
G1 X0.05S0
G1 X0.05S500
G1 X0.05S0
G1 X0.05S500
G1 X0.05S0
G1 X0.05S500
G1 X0.05S0
G1 X0.05S500
G1 X0.05S0
G1 X0.05S500
G1 X0.05S0
G1 X0.05S500
G1 X0.05S0
G1 X0.05S500
G1 X0.05S0
G1 X0.05S500
G1 X0.05S0
G1 X0.05S500
G1 X0.05S0
G1 X0.05S500
G1 X0.05S0
G1 X0.05S500
G1 X0.05S0
G1 X0.05S500
G1 X0.05S0
G1 X0.05S500
G1 X0.05S0
G1 X0.05S500
G1 X0.05S0
G1 X0.05S500
G1 X0.05S0
G1 X0.05S500
G1 X0.05S0
G1 X0.05S500
G1 X0.05S0
G1 X0.05S500
G1 X0.05S0
G1 X0.05S500
G1 X0.05S0
G1 X0.05S500
G1 X0.05S0
G1 X0.05S500
G1 X0.05S0
G1 X0.05S500
G1 X0.05S0
G1 X0.05S500
G1 X0.05S0
G1 X0.05S500
G1 X0.1S0
G1 X0.05S500
G1 X0.05S0
G1 X0.05S500
G1 X0.1S0
G1 X0.05S500
G1 X0.05S0
G1 X0.05S500
G1 X0.05S0
G1 X0.05S500
G1 X0.05S0
G1 X0.05S500
G1 X0.05S0
G1 X0.05S500
G1 X0.05S0
G1 X0.05S500
G1 X0.05S0
G1 X0.05S500
G1 X0.05S0
G1 X0.05S500
G1 X0.05S0
G1 X0.05S500
G1 X0.05S0
G1 X0.05S500
G1 X0.05S0
G1 X0.05S500
G1 X0.05S0
G1 X0.05S500
G1 X0.05S0
G1 X0.05S500
G1 X0.05S0
G1 X0.05S500
G1 X0.05S0
G1 X0.05S500
G1 X0.05S0
G1 X0.05S500
G1 X0.05S0
G1 X0.05S500
G1 X0.05S0
G1 X0.05S500
G1 X0.05S0
G1 X0.05S500
G1 X0.05S0
G1 X0.05S500
G1 X0.05S0
G1 X0.05S500
G1 X0.05S0
G1 X0.05S500
G1 X0.05S0
G1 X0.05S500
G1 X0.05S0
G1 X0.05S500
G1 X0.05S0
G1 X0.05S500
G1 X0.05S0
G1 X0.05S500
G1 X0.05S0
G1 X0.05S500
G1 X0.05S0
G1 X0.05S500
G1 X0.05S0
G1 X0.05S500
G1 X0.05S0
G1 X0.05S500
G1 X0.05S0
G1 X0.05S500
G1 X0.05S0
G1 X0.05S500
G1 X0.05S0
G1 X0.05S500
G1 X0.05S0
G1 X0.05S500
G1 X0.05S0
G1 X0.05S500
G1 X0.05S0
G1 X0.05S500
G1 X0.05S0
G1 X0.05S500
G1 X0.05S0
G1 X0.05S500
G1 X0.05S0
G1 X0.05S500
G1 X0.05S0
G1 X0.05S500
G1 X0.1S0
G1 X0.05S500
G1 X0.05S0
G1 X0.05S500
G1 X0.1S0
G1 X0.05S500
G1 X0.05S0
G1 X0.05S500
G1 X0.05S0
G1 X0.05S500
G1 X0.05S0
G1 X0.05S500
G1 X0.05S0
G1 X0.05S500
G1 X0.05S0
G1 X0.05S500
G1 X0.05S0
G1 X0.05S500
G1 X0.05S0
G1 X0.05S500
G1 X0.05S0
G1 X0.05S500
G1 X0.05S0
G1 X0.05S500
G1 X0.05S0
G1 X0.05S500
G1 X0.05S0
G1 X0.05S500
G1 X0.05S0
G1 X0.05S500
G1 X0.05S0
G1 X0.05S500
G1 X0.05S0
G1 X0.05S500
G1 X0.05S0
G1 X0.05S500
G1 X0.05S0
G1 X0.05S500
G1 X0.05S0
G1 X0.05S500
G1 X0.05S0
G1 X0.05S500
G1 X0.05S0
G1 X0.05S500
G1 X0.05S0
G1 X0.05S500
G1 X0.05S0
G1 X0.05S500
G1 X0.05S0
G1 X0.05S500
G1 X0.05S0
G1 X0.05S500
G1 X0.05S0
G1 X0.05S500
G1 X0.05S0
G1 X0.05S500
G1 X0.05S0
G1 X0.05S500
G1 X0.05S0
G1 X0.05S500
G1 X0.05S0
G1 X0.05S500
G1 X0.05S0
G1 X0.05S500
G1 X0.05S0
G1 X0.05S500
G1 X0.05S0
G1 X0.05S500
G1 X0.05S0
G1 X0.05S500
G1 X0.05S0
G1 X0.05S500
G1 X0.05S0
G1 X0.05S500
G1 X0.05S0
G1 X0.05S500
G1 X0.05S0
G1 X0.05S500
G1 X0.05S0
G1 X0.05S500
G1 X0.05S0
G1 X0.05S500
G1 X0.05S0
G1 X0.05S500
G1 X0.05S0
G1 X0.05S500
G1 X0.05S0
G1 X0.05S500
G1 X0.05S0
G1 X0.05S500
G1 X0.05S0
G1 X0.05S500
G1 X0.05S0
G1 X0.05S500
G1 X0.05S0
G1 X0.05S500
G1 X0.05S0
G1 X0.05S500
G1 X0.05S0
G1 X0.05S500
G1 X0.05S0
G1 X0.05S500
G1 X0.05S0
G1 X0.05S500
G1 X0.05S0
G1 X0.05S500
G1 X0.05S0
G1 X0.05S500
G1 X0.05S0
G1 X0.05S500
G1 X0.05S0
G1 X0.05S500
G1 X0.05S0
G1 X0.05S500
G1 X0.05S0
G1 X0.05S500
G1 X0.05S0
G1 X0.05S500
G1 X0.05S0
G1 X0.05S500
G1 X0.05S0
G1 X0.05S500
G1 X0.05S0
G1 X0.05S500
G1 X0.05S0
G1 X0.05S500
G1 X0.05S0
G1 X0.05S500
G1 X0.05S0
G1 X0.05S500
G1 X0.05S0
G1 X0.05S500
G1 X0.05S0
G1 X0.05S500
G1 X0.05S0
G1 X0.05S500
G1 X0.05S0
G1 X0.05S500
G1 X0.05S0
G1 X0.05S500
G1 X0.05S0
G1 X0.05S500
G1 X0.05S0
G1 X0.05S500
G1 X0.05S0
G1 X0.05S500
G1 X0.05S0
G1 X0.05S500
G1 X0.05S0
G1 X0.05S500
G1 X0.05S0
G1 X0.05S500
G1 X0.05S0
G1 X0.05S500
G1 X0.05S0
G1 X0.05S500
G1 X0.05S0
G1 X0.05S500
G1 X0.05S0
G1 X0.05S500
G1 X0.05S0
G1 X0.05S500
G1 X0.05S0
G1 X0.05S500
G1 X0.05S0
G1 X0.05S500
G1 X0.05S0
G1 X0.05S500
G1 X0.05S0
G1 X0.05S500
G1 X0.05S0
G1 X0.05S500
G1 X0.05S0
G1 X0.05S500
G1 X0.05S0
G1 X0.05S500
G1 X0.05S0
G1 X0.05S500
G1 X0.05S0
G1 X0.05S500
G1 X0.05S0
G1 X0.05S500
G1 X0.05S0
G1 X0.05S500
G1 X0.05S0
G1 X0.05S500
G1 X0.05S0
G1 X0.05S500
G1 X0.05S0
G1 X0.05S500
G1 X0.05S0
G1 X0.05S500
G1 X0.05S0
G1 X0.05S500
G1 X0.05S0
G1 X0.05S500
G1 X0.05S0
G1 X0.05S500
G1 X0.05S0
G1 X0.05S500
G1 X0.05S0
G1 X0.05S500
G1 X0.05S0
G1 X0.05S500
G1 X0.05S0
G1 X0.05S500
G1 X0.05S0
G1 X0.05S500
G1 X0.05S0
G1 X0.05S500
G1 X0.05S0
G1 X0.05S500
G1 X0.05S0
G1 X0.05S500
G1 X0.05S0
G1 X0.05S500
G1 X0.05S0
G1 X0.05S500
G1 X0.05S0
G1 X0.05S500
G1 X0.05S0
G1 X0.05S500
G1 X0.05S0
G1 X0.05S500
G1 X0.05S0
G1 X0.05S500
G1 X0.05S0
G1 X0.05S500
G1 X0.05S0
G1 X0.05S500
G1 X0.05S0
G1 X0.05S500
G1 X0.05S0
G1 X0.05S500
G1 X0.05S0
G1 X0.05S500
G1 X0.05S0
G1 X0.05S500
G1 X0.05S0
G1 X0.05S500
G1 X0.05S0
G1 X0.05S500
G1 X0.05S0
G1 X0.05S500
G1 X0.05S0
G1 X0.05S500
G1 X0.05S0
G1 X0.05S500
G1 X0.05S0
G1 X0.05S500
G1 X0.05S0
G1 X0.05S500
G1 X0.05S0
G1 X0.05S500
G1 X0.05S0
G1 X0.05S500
G1 X0.05S0
G1 X0.05S500
G1 X0.05S0
G1 X0.05S500
G1 X0.05S0
G1 X0.05S500
G1 X0.05S0
G1 X0.05S500
G1 X0.05S0
G1 X0.05S500
G1 X0.05S0
G1 X0.05S500
G1 X0.05S0
G1 X0.05S500
G1 X0.05S0
G1 X0.05S500
G1 X0.05S0
G1 X0.05S500
G1 X0.05S0
G1 X0.05S500
G1 X0.05S0
G1 X0.05S500
G1 X0.05S0
G1 X0.05S500
G1 X0.05S0
G1 X0.05S500
G1 X0.05S0
G1 X0.05S500
G1 X0.05S0
G1 X0.05S500
G1 X0.05S0
G1 X0.05S500
G1 X0.05S0
G1 X0.05S500
G1 X0.05S0
G1 X0.05S500
G1 X0.05S0
G1 X0.05S500
G1 X0.05S0
G1 X0.05S500
G1 X0.05S0
G1 X0.05S500
G1 X0.05S0
G1 X0.05S500
G1 X0.05S0
G1 X0.05S500
G1 X0.05S0
G1 X0.05S500
G1 X0.05S0
G1 X0.05S500
G1 X0.05S0
G1 X0.05S500
G1 X0.05S0
G1 X0.05S500
G1 X0.05S0
G1 X0.05S500
G1 X0.05S0
G1 X0.05S500
G1 X0.05S0
G1 X0.05S500
G1 X0.05S0
G1 X0.05S500
G1 X0.05S0
G1 X0.05S500
G1 X0.05S0
G1 X0.05S500
G1 X0.05S0
G1 X0.05S500
G1 X0.05S0
G1 X0.05S500
G1 X0.05S0
G1 X0.05S500
G1 X0.05S0
G1 X0.05S500
G1 X0.05S0
G1 X0.05S500
G1 X0.05S0
G1 X0.05S500
G1 X0.05S0
G1 X0.05S500
G1 X0.05S0
G1 X0.05S500
G1 X0.05S0
G1 X0.05S500
G1 X0.05S0
G1 X0.05S500
G1 X0.05S0
G1 X0.05S500
G1 X0.05S0
G1 X0.05S500
G1 X0.05S0
G1 X0.05S500
G1 X0.05S0
G1 X0.05S500
G1 X0.05S0
G1 X0.05S500
G1 X0.05S0
G1 X0.05S500
G1 X0.05S0
G1 X0.05S500
G1 X0.05S0
G1 X0.05S500
G1 X0.05S0
G1 X0.05S500
G1 X0.05S0
G1 X0.05S500
G1 X0.05S0
G1 X0.05S500
G1 X0.05S0
G1 X0.05S500
G1 X0.05S0
G1 X0.05S500
G1 X0.05S0
G1 X0.05S500
G1 X0.05S0
G1 X0.05S500
G1 X0.05S0
G1 X0.05S500
G1 X0.05S0
G1 X0.05S500
G1 X0.05S0
G1 X0.05S500
G1 X0.05S0
G1 X0.05S500
G1 X0.05S0
G1 X0.05S500
G1 X0.05S0
G1 X0.05S500
G1 X0.1S0
G1 X0.05S500
G1 X0.05S0
G1 X0.05S500
G1 X0.1S0
G1 X0.05S500
G1 X0.05S0
G1 X0.05S500
G1 X0.1S0
G1 X0.05S500
G1 X0.05S0
G1 X0.05S500
G1 X0.1S0
G1 X0.05S500
G1 X0.05S0
G1 X0.05S500
G1 X0.1S0
G1 X0.05S500
G1 X0.05S0
G1 X0.05S500
G1 X0.1S0
G1 X0.05S500
G1 X0.05S0
G1 X0.05S500
G1 X0.05S0
G1 X0.05S500
G1 X0.05S0
G1 X0.05S500
G1 X0.05S0
G1 X0.05S500
G1 X0.05S0
G1 X0.05S500
G1 X0.05S0
G1 X0.05S500
G1 X0.05S0
G1 X0.05S500
G1 X0.05S0
G1 X0.05S500
G1 X0.05S0
G1 X0.05S500
G1 X0.05S0
G1 X0.05S500
G1 X0.05S0
G1 X0.05S500
G1 X0.05S0
G1 X0.05S500
G1 X0.05S0
G1 X0.05S500
G1 X0.05S0
G1 X0.05S500
G1 X0.05S0
G1 X0.05S500
G1 X0.05S0
G1 X0.05S500
G1 X0.05S0
G1 X0.05S500
G1 X0.05S0
G1 X0.05S500
G1 X0.05S0
G1 X0.05S500
G1 X0.05S0
G1 X0.05S500
G1 X0.05S0
G1 X0.05S500
G1 X0.05S0
G1 X0.05S500
G1 X0.05S0
G1 X0.05S500
G1 X0.05S0
G1 X0.05S500
G1 X0.05S0
G1 X0.05S500
G1 X0.05S0
G1 X0.05S500
G1 X0.05S0
G1 X0.05S500
G1 X0.05S0
G1 X0.05S500
G1 X0.05S0
G1 X0.05S500
G1 X0.05S0
G1 X0.05S500
G1 X0.05S0
G1 X0.05S500
G1 X0.05S0
G1 X0.05S500
G1 X0.05S0
G1 X0.05S500
G1 X0.05S0
G1 X0.05S500
G1 X0.05S0
G1 X0.05S500
G1 X0.05S0
G1 X0.05S500
G1 X0.05S0
G1 X0.05S500
G1 X0.05S0
G1 X0.05S500
G1 X0.05S0
G1 X0.05S500
G1 X0.05S0
G1 X0.05S500
G1 X0.05S0
G1 X0.05S500
G1 X0.05S0
G1 X0.05S500
G1 X0.05S0
G1 X0.05S500
G1 X0.05S0
G1 X0.05S500
G1 X0.05S0
G1 X0.05S500
G1 X0.05S0
G1 X0.05S500
G1 X0.05S0
G1 X0.05S500
G1 X0.05S0
G1 X0.05S500
G1 X0.05S0
G1 X0.05S500
G1 X0.05S0
G1 X0.05S500
G1 X0.05S0
G1 X0.05S500
G1 X0.1S0
G1 X0.05S500
G1 X0.05S0
G1 X0.05S500
G1 X0.1S0
G1 X0.05S500
G1 X0.05S0
G1 X0.05S500
G1 X0.05S0
G1 X0.05S500
G1 X0.05S0
G1 X0.05S500
G1 X0.05S0
G1 X0.05S500
G1 X0.05S0
G1 X0.05S500
G1 X0.05S0
G1 X0.05S500
G1 X0.05S0
G1 X0.05S500
G1 X0.05S0
G1 X0.05S500
G1 X0.05S0
G1 X0.05S500
G1 X0.05S0
G1 X0.05S500
G1 X0.05S0
G1 X0.05S500
G1 X0.05S0
G1 X0.05S500
G1 X0.05S0
G1 X0.05S500
G1 X0.05S0
G1 X0.05S500
G1 X0.05S0
G1 X0.05S500
G1 X0.05S0
G1 X0.05S500
G1 X0.05S0
G1 X0.05S500
G1 X0.05S0
G1 X0.05S500
G1 X0.05S0
G1 X0.05S500
G1 X0.05S0
G1 X0.05S500
G1 X0.05S0
G1 X0.05S500
G1 X0.05S0
G1 X0.05S500
G1 X0.05S0
G1 X0.05S500
G1 X0.05S0
G1 X0.05S500
G1 X0.05S0
G1 X0.05S500
G1 X0.05S0
G1 X0.05S500
G1 X0.05S0
G1 X0.05S500
G1 X0.05S0
G1 X0.05S500
G1 X0.05S0
G1 X0.05S500
G1 X0.05S0
G1 X0.05S500
G1 X0.05S0
G1 X0.05S500
G1 X0.05S0
G1 X0.05S500
G1 X0.05S0
G1 X0.05S500
G1 X0.05S0
G1 X0.05S500
G1 X0.05S0
G1 X0.05S500
G1 X0.05S0
G1 X0.05S500
G1 X0.05S0
G1 X0.05S500
G1 X0.05S0
G1 X0.05S500
G1 X0.05S0
G1 X0.05S500
G1 X0.05S0
G1 X0.05S500
G1 X0.05S0
G1 X0.05S500
G1 X0.05S0
G1 X0.05S500
G1 X0.05S0
G1 X0.05S500
G1 X0.05S0
G1 X0.05S500
G1 X0.05S0
G1 X0.05S500
G1 X0.05S0
G1 X0.05S500
G1 X0.05S0
G1 X0.05S500
G1 X0.05S0
G1 X0.05S500
G1 X0.05S0
G1 X0.05S500
G1 X0.05S0
G1 X0.05S500
G1 X0.05S0
G1 X0.05S500
G1 X0.05S0
G1 X0.05S500
G1 X0.05S0
G1 X0.05S500
G1 X0.05S0
G1 X0.05S500
G1 X0.05S0
G1 X0.05S500
G1 X0.05S0
G1 X0.05S500
G1 X0.05S0
G1 X0.05S500
G1 X0.05S0
G1 X0.05S500
G1 X0.05S0
G1 X0.05S500
G1 X0.05S0
G1 X0.05S500
G1 X0.05S0
G1 X0.05S500
G1 X0.05S0
G1 X0.05S500
G1 X0.05S0
G1 X0.05S500
G1 X0.05S0
G1 X0.05S500
G1 X0.05S0
G1 X0.05S500
G1 X0.05S0
G1 X0.05S500
G1 X0.05S0
G1 X0.05S500
G1 X0.05S0
G1 X0.05S500
G1 X0.05S0
G1 X0.05S500
G1 X0.05S0
G1 X0.05S500
G1 X0.05S0
G1 X0.05S500
G1 X0.05S0
G1 X0.05S500
G1 X0.05S0
G1 X0.05S500
G1 X0.05S0
G1 X0.05S500
G1 X0.05S0
G1 X0.05S500
G1 X0.05S0
G1 X0.05S500
G1 X0.05S0
G1 X0.05S500
G1 X0.05S0
G1 X0.05S500
G1 X0.05S0
G1 X0.05S500
G1 X0.05S0
G1 X0.05S500
G1 X0.05S0
G1 X0.05S500
G1 X0.05S0
G1 X0.05S500
G1 X0.05S0
G1 X0.05S500
G1 X0.05S0
G1 X0.05S500
G1 X0.05S0
G1 X0.05S500
G1 X0.05S0
G1 X0.05S500
G1 X0.05S0
G1 X0.05S500
G1 X0.05S0
G1 X0.05S500
G1 X0.05S0
G1 X0.05S500
G1 X0.05S0
G1 X0.05S500
G1 X0.05S0
G1 X0.05S500
G1 X0.05S0
G1 X0.05S500
G1 X0.05S0
G1 X0.05S500
G1 X0.05S0
G1 X0.05S500
G0 X2.917
G0 X0.1Y0.05
G0 X-2.917
G1 X-287.3
G0 X-2.917
G0 X-0.05Y0.05
G0 X2.917
G1 X287.4
G0 X2.917
G0 Y0.05
G0 X-2.917
G1 X-287.4
G0 X-2.917
G0 X-0.05Y0.05
G0 X2.917
G1 X287.4
G0 X2.917
G0 X0.05Y0.05
G0 X-2.917
G1 X-287.4
G0 X-2.917
G0 Y0.05
G0 X2.917
G1 X287.4
G0 X2.917
G0 X-0.05Y0.05
G0 X-2.917
G1 X-287.4
G0 X-2.917
G0 X0.05Y0.05
G0 X2.917
G1 X287.4
G0 X2.917
G0 Y0.05
G0 X-2.917
G1 X-287.4
G0 X-2.917
G0 X-0.05Y0.05
G0 X2.917
G1 X287.4
G0 X2.917
G0 X0.05Y0.05
G0 X-2.917
G1 X-287.4
G0 X-2.917
G0 Y0.05
G0 X2.917
G1 X287.4
G0 X2.917
G0 X-0.05Y0.05
G0 X-2.917
G1 X-287.4
G0 X-2.917
G0 X0.05Y0.05
G0 X2.917
G1 X287.4
G0 X2.917
G0 X-0.05Y0.05
G0 X-2.917
G1 X-287.35
G0 X-2.917
G0 X-0.05Y0.05
G0 X2.917
G1 X287.45
G0 X2.917
G0 Y0.05
G0 X-2.917
G1 X-287.4
G0 X-2.917
G0 Y0.05
G0 X2.917
G1 X287.35
G0 X2.917
G0 X0.05Y0.05
G0 X-2.917
G1 X-287.45
G0 X-2.917
G0 X0.05Y0.05
G0 X2.917
G1 X287.4
G0 X2.917
G0 X-0.05Y0.05
G0 X-2.917
G1 X-287.35
G0 X-2.917
G0 X-0.05Y0.05
G0 X2.917
G1 X287.45
G0 X2.917
G0 Y0.05
G0 X-2.917
G1 X-287.4
G0 X-2.917
G0 Y0.05
G0 X2.917
G1 X287.35
G0 X2.917
G0 X0.05Y0.05
G0 X-2.917
G1 X-287.45
G0 X-2.917
G0 X0.05Y0.05
G0 X2.917
G1 X287.35
G0 X2.917
G0 X0.05Y0.05
G0 X-2.917
G1 X-287.4
G0 X-2.917
G0 X-0.05Y0.05
G0 X2.917
G1 X287.45
G0 X2.917
G0 X-0.05Y0.05
G0 X-2.917
G1 X-287.35
G0 X-2.917
G0 Y0.05
G0 X2.917
G1 X287.4
G0 X2.917
G0 Y0.05
G0 X-2.917
G1 X-287.45
G0 X-2.917
G0 X0.05Y0.05
G0 X2.917
G1 X287.35
G0 X2.917
G0 X0.05Y0.05
G0 X-2.917
G1 X-287.4
G0 X-2.917
G0 X-0.05Y0.05
G0 X2.917
G1 X287.45
G0 X2.917
G0 X-0.05Y0.05
G0 X-2.917
G1 X-287.35
G0 X-2.917
G0 Y0.05
G0 X2.917
G1 X287.4
G0 X2.917
G0 X-0.05Y0.05
G0 X-2.917
G1 X-287.4
G0 X-2.917
G0 X0.05Y0.05
G0 X2.917
G1 X287.4
G0 X2.917
G0 Y0.05
G0 X-2.917
G1 X-287.4
G0 X-2.917
G0 X-0.05Y0.05
G0 X2.917
G1 X287.4
G0 X2.917
G0 X0.05Y0.05
G0 X-2.917
G1 X-287.4
G0 X-2.917
G0 Y0.05
G0 X2.917
G1 X287.4
G0 X2.917
G0 X-0.05Y0.05
G0 X-2.917
G1 X-287.4
G0 X-2.917
G0 X0.05Y0.05
G0 X2.917
G1 X287.4
G0 X2.917
G0 Y0.05
G0 X-2.917
G1 X-287.4
G0 X-2.917
G0 X-0.05Y0.05
G0 X2.917
G1 X287.4
G0 X2.917
G0 X0.05Y0.05
G0 X-2.917
G1 X-287.4
G0 X-2.917
G0 Y0.05
G0 X2.917
G1 X287.35
G0 X2.917
G0 X0.05Y0.05
G0 X-2.917
G1 X-287.45
G0 X-2.917
G0 X0.05Y0.05
G0 X2.917
G1 X287.4
G0 X2.917
G0 X-0.05Y0.05
G0 X-2.917
G1 X-287.35
G0 X-2.917
G0 X-0.05Y0.05
G0 X2.917
G1 X287.45
G0 X2.917
G0 Y0.05
G0 X-2.917
G1 X-287.4
G0 X-2.917
G0 Y0.05
G0 X2.917
G1 X287.35
G0 X2.917
G0 X0.05Y0.05
G0 X-2.917
G1 X-239.75
G1 X-0.05S0
G1 X-0.05S500
G1 X-0.2S0
G1 X-0.05S500
G1 X-0.1S0
G1 X-47.25S500
G0 X-2.917
G0 X0.05Y0.05
G0 X2.917
G1 X47.1
G1 X0.7S0
G1 X239.6S500
G0 X2.917
G0 X-0.05Y0.05
G0 X-2.917
G1 X-239.4
G1 X-1S0
G1 X-46.95S500
G0 X-2.917
G0 X-0.05Y0.05
G0 X2.917
G1 X46.9
G1 X1.2S0
G1 X239.35S500
G0 X2.917
G0 Y0.05
G0 X-2.917
G1 X-239.2
G1 X-1.45S0
G1 X-46.75S500
G0 X-2.917
G0 Y0.05
G0 X2.917
G1 X46.7
G1 X1.55S0
G1 X239.1S500
G0 X2.917
G0 X0.05Y0.05
G0 X-2.917
G1 X-239.1
G1 X-1.65S0
G1 X-46.7S500
G0 X-2.917
G0 X0.05Y0.05
G0 X2.917
G1 X46.6
G1 X1.75S0
G1 X239.05S500
G0 X2.917
G0 X-0.05Y0.05
G0 X-2.917
G1 X-238.95
G1 X-1.85S0
G1 X-46.55S500
G0 X-2.917
G0 X-0.05Y0.05
G0 X2.917
G1 X46.5
G1 X2S0
G1 X238.95S500
G0 X2.917
G0 X-0.05Y0.05
G0 X-2.917
G1 X-238.85
G1 X-2.05S0
G1 X-46.45S500
G0 X-2.917
G0 Y0.05
G0 X2.917
G1 X46.4
G1 X2.1S0
G1 X238.9S500
G0 X2.917
G0 Y0.05
G0 X-2.917
G1 X-238.85
G1 X-2.15S0
G1 X-46.45S500
G0 X-2.917
G0 X0.05Y0.05
G0 X2.917
G1 X46.35
G1 X2.25S0
G1 X238.75S500
G0 X2.917
G0 X0.05Y0.05
G0 X-2.917
G1 X-238.8
G1 X-2.25S0
G1 X-46.35S500
G0 X-2.917
G0 X-0.05Y0.05
G0 X2.917
G1 X46.35
G1 X2.35S0
G1 X238.75S500
G0 X2.917
G0 X-0.05Y0.05
G0 X-2.917
G1 X-238.7
G1 X-2.35S0
G1 X-46.3S500
G0 X-2.917
G0 Y0.05
G0 X2.917
G1 X46.3
G1 X2.35S0
G1 X238.75S500
G0 X2.917
G0 Y0.05
G0 X-2.917
G1 X-238.7
G1 X-2.45S0
G1 X-46.3S500
G0 X-2.917
G0 X0.05Y0.05
G0 X2.917
G1 X46.25
G1 X2.4S0
G1 X238.7S500
G0 X2.917
G0 X0.05Y0.05
G0 X-2.917
G1 X-238.7
G1 X-2.45S0
G1 X-46.25S500
G0 X-2.917
G0 X-0.05Y0.05
G0 X2.917
G1 X46.3
G1 X2.4S0
G1 X187.65S500
G1 X0.15S0
G1 X50.95S500
G0 X2.917
G0 X-0.05Y0.05
G0 X-2.917
G1 X-50.55
G1 X-0.9S0
G1 X-187.2S500
G1 X-2.45S0
G1 X-46.25S500
G0 X-2.917
G0 Y0.05
G0 X2.917
G1 X46.25
G1 X2.4S0
G1 X187.15S500
G1 X1.15S0
G1 X50.45S500
G0 X2.917
G0 Y0.05
G0 X-2.917
G1 X-50.4
G1 X-1.3S0
G1 X-187S500
G1 X-2.45S0
G1 X-46.3S500
G0 X-2.917
G0 X0.05Y0.05
G0 X2.917
G1 X46.25
G1 X2.4S0
G1 X187S500
G1 X1.4S0
G1 X50.3S500
G0 X2.917
G0 X0.05Y0.05
G0 X-2.917
G1 X-50.25
G1 X-1.6S0
G1 X-155.95S500
G1 X-0.3S0
G1 X-30.6S500
G1 X-2.45S0
G1 X-46.25S500
G0 X-2.917
G0 X-0.05Y0.05
G0 X2.917
G1 X46.35
G1 X2.35S0
G1 X30.5S500
G1 X0.55S0
G1 X155.8S500
G1 X1.7S0
G1 X50.2S500
G0 X2.917
G0 X-0.05Y0.05
G0 X-2.917
G1 X-50.05
G1 X-1.8S0
G1 X-155.75S500
G1 X-0.65S0
G1 X-30.4S500
G1 X-2.45S0
G1 X-46.25S500
G0 X-2.917
G0 Y0.05
G0 X2.917
G1 X46.3
G1 X2.35S0
G1 X30.4S500
G1 X0.75S0
G1 X155.6S500
G1 X1.9S0
G1 X50.1S500
G0 X2.917
G0 Y0.05
G0 X-2.917
G1 X-50.05
G1 X-2S0
G1 X-155.5S500
G1 X-0.85S0
G1 X-30.35S500
G1 X-2.35S0
G1 X-46.35S500
G0 X-2.917
G0 X0.05Y0.05
G0 X2.917
G1 X46.35
G1 X2.25S0
G1 X30.4S500
G1 X0.85S0
G1 X155.45S500
G1 X2.1S0
G1 X49.95S500
G0 X2.917
G0 X0.05Y0.05
G0 X-2.917
G1 X-49.95
G1 X-2.15S0
G1 X-19.9S500
G1 X-0.2S0
G1 X-135.3S500
G1 X-0.95S0
G1 X-30.35S500
G1 X-2.25S0
G1 X-46.35S500
G0 X-2.917
G0 X-0.05Y0.05
G0 X2.917
G1 X46.45
G1 X2.2S0
G1 X30.3S500
G1 X1S0
G1 X135.2S500
G1 X0.45S0
G1 X19.7S500
G1 X2.25S0
G1 X49.85S500
G0 X2.917
G0 X0.05Y0.05
G0 X-2.917
G1 X-49.9
G1 X-2.3S0
G1 X-19.6S500
G1 X-0.6S0
G1 X-135.1S500
G1 X-0.95S0
G1 X-30.4S500
G1 X-2.15S0
G1 X-46.4S500
G0 X-2.917
G0 Y0.05
G0 X2.917
G1 X46.45
G1 X2.1S0
G1 X30.35S500
G1 X1S0
G1 X135.1S500
G1 X0.65S0
G1 X19.55S500
G1 X2.3S0
G1 X49.9S500
G0 X2.917
G0 X-0.05Y0.05
G0 X-2.917
G1 X-49.8
G1 X-2.35S0
G1 X-19.5S500
G1 X-0.75S0
G1 X-135.05S500
G1 X-0.95S0
G1 X-30.45S500
G1 X-2.05S0
G1 X-46.5S500
G0 X-2.917
G0 X0.05Y0.05
G0 X2.917
G1 X46.5
G1 X1.95S0
G1 X30.45S500
G1 X1S0
G1 X135S500
G1 X0.85S0
G1 X19.4S500
G1 X2.4S0
G1 X49.85S500
G0 X2.917
G0 Y0.05
G0 X-2.917
G1 X-49.8
G1 X-2.45S0
G1 X-19.4S500
G1 X-0.85S0
G1 X-135.05S500
G1 X-0.9S0
G1 X-30.55S500
G1 X-1.85S0
G1 X-5.55S500
G1 X-0.25S0
G1 X-40.75S500
G0 X-2.917
G0 X-0.05Y0.05
G0 X2.917
G1 X40.7
G1 X0.45S0
G1 X5.5S500
G1 X1.8S0
G1 X30.6S500
G1 X0.85S0
G1 X135S500
G1 X0.95S0
G1 X19.3S500
G1 X2.5S0
G1 X49.75S500
G0 X2.917
G0 X0.05Y0.05
G0 X-2.917
G1 X-49.8
G1 X-2.5S0
G1 X-19.3S500
G1 X-0.95S0
G1 X-135.05S500
G1 X-0.8S0
G1 X-30.7S500
G1 X-1.7S0
G1 X-5.4S500
G1 X-0.6S0
G1 X-40.6S500
G0 X-2.917
G0 Y0.05
G0 X2.917
G1 X40.55
G1 X0.65S0
G1 X5.5S500
G1 X1.55S0
G1 X30.8S500
G1 X0.7S0
G1 X135.1S500
G1 X0.95S0
G1 X19.3S500
G1 X2.55S0
G1 X49.75S500
G0 X2.917
G0 X-0.05Y0.05
G0 X-2.917
G1 X-49.7
G1 X-2.55S0
G1 X-19.3S500
G1 X-0.95S0
G1 X-135.15S500
G1 X-0.55S0
G1 X-30.95S500
G1 X-1.45S0
G1 X-5.5S500
G1 X-0.75S0
G1 X-40.55S500
G0 X-2.917
G0 X0.05Y0.05
G0 X2.917
G1 X40.45
G1 X0.85S0
G1 X5.55S500
G1 X1.3S0
G1 X31.05S500
G1 X0.4S0
G1 X135.25S500
G1 X0.95S0
G1 X19.3S500
G1 X2.55S0
G1 X49.75S500
G0 X2.917
G0 Y0.05
G0 X-2.917
G1 X-49.8
G1 X-2.5S0
G1 X-19.35S500
G1 X-0.85S0
G1 X-45.85S500
G1 X-0.05S0
G1 X-89.6S500
G1 X-0.05S0
G1 X-31.35S500
G1 X-1S0
G1 X-5.65S500
G1 X-0.9S0
G1 X-40.45S500
G0 X-2.917
G0 X-0.05Y0.05
G0 X2.917
G1 X40.45
G1 X0.95S0
G1 X5.7S500
G1 X0.8S0
G1 X120.9S500
G1 X0.55S0
G1 X45.65S500
G1 X0.8S0
G1 X19.35S500
G1 X2.55S0
G1 X49.7S500
G0 X2.917
G0 X0.05Y0.05
G0 X-2.917
G1 X-49.75
G1 X-2.55S0
G1 X-19.4S500
G1 X-0.75S0
G1 X-45.4S500
G1 X-0.9S0
G1 X-121.25S500
G1 X-0.05S0
G1 X-5.95S500
G1 X-1S0
G1 X-40.4S500
G0 X-2.917
G0 Y0.05
G0 X2.917
G1 X40.4
G1 X1S0
G1 X127.15S500
G1 X1.1S0
G1 X45.35S500
G1 X0.65S0
G1 X19.45S500
G1 X2.55S0
G1 X49.75S500
G0 X2.917
G0 X-0.05Y0.05
G0 X-2.917
G1 X-49.75
G1 X-2.5S0
G1 X-19.5S500
G1 X-0.55S0
G1 X-45.3S500
G1 X-1.25S0
G1 X-127.1S500
G1 X-1S0
G1 X-33.5S500
G1 X-0.35S0
G1 X-6.6S500
G0 X-2.917
G0 X0.05Y0.05
G0 X2.917
G1 X6.35
G1 X0.8S0
G1 X33.3S500
G1 X0.9S0
G1 X127.05S500
G1 X1.5S0
G1 X45.2S500
G1 X0.45S0
G1 X19.55S500
G1 X2.5S0
G1 X49.8S500
G0 X2.917
G0 Y0.05
G0 X-2.917
G1 X-49.8
G1 X-2.5S0
G1 X-19.7S500
G1 X-0.25S0
G1 X-45.2S500
G1 X-1.55S0
G1 X-127.1S500
G1 X-0.85S0
G1 X-33.25S500
G1 X-0.95S0
G1 X-6.25S500
G0 X-2.917
G0 X-0.05Y0.05
G0 X2.917
G1 X6.2
G1 X1.15S0
G1 X33.2S500
G1 X0.8S0
G1 X127.05S500
G1 X1.7S0
G1 X65.1S500
G1 X2.45S0
G1 X49.75S500
G0 X2.917
G0 X0.05Y0.05
G0 X-2.917
G1 X-49.85
G1 X-2.4S0
G1 X-65.1S500
G1 X-1.75S0
G1 X-127.05S500
G1 X-0.75S0
G1 X-33.15S500
G1 X-1.3S0
G1 X-6.05S500
G0 X-2.917
G0 Y0.05
G0 X2.917
G1 X6.05
G1 X1.35S0
G1 X33.15S500
G1 X0.65S0
G1 X127.05S500
G1 X1.9S0
G1 X65.05S500
G1 X2.35S0
G1 X49.85S500
G0 X2.917
G0 X-0.05Y0.05
G0 X-2.917
G1 X-49.85
G1 X-2.3S0
G1 X-65.05S500
G1 X-1.95S0
G1 X-127.05S500
G1 X-0.55S0
G1 X-33.15S500
G1 X-1.5S0
G1 X-6S500
G0 X-2.917
G0 X0.05Y0.05
G0 X2.917
G1 X5.9
G1 X1.6S0
G1 X33.2S500
G1 X0.35S0
G1 X127.15S500
G1 X2S0
G1 X65S500
G1 X2.3S0
G1 X49.9S500
G0 X2.917
G0 X-0.05Y0.05
G0 X-2.917
G1 X-49.9
G1 X-2.15S0
G1 X-65.05S500
G1 X-2.1S0
G1 X-127.15S500
G1 X-0.2S0
G1 X-33.25S500
G1 X-1.65S0
G1 X-5.9S500
G0 X-2.917
G0 X-0.05Y0.05
G0 X2.917
G1 X5.9
G1 X1.75S0
G1 X160.5S500
G1 X2.15S0
G1 X65S500
G1 X2.2S0
G1 X49.95S500
G0 X2.917
G0 Y0.05
G0 X-2.917
G1 X-49.95
G1 X-2.15S0
G1 X-65S500
G1 X-2.2S0
G1 X-73.6S500
G1 X-0.05S0
G1 X-0.05S500
G1 X-0.1S0
G1 X-86.65S500
G1 X-1.8S0
G1 X-5.85S500
G0 X-2.917
G0 Y0.05
G0 X2.917
G1 X5.8
G1 X1.85S0
G1 X86.5S500
G1 X0.5S0
G1 X73.4S500
G1 X2.25S0
G1 X65.05S500
G1 X2.05S0
G1 X49.95S500
G0 X2.917
G0 X0.05Y0.05
G0 X-2.917
G1 X-50.05
G1 X-1.95S0
G1 X-65.05S500
G1 X-2.35S0
G1 X-73.3S500
G1 X-0.6S0
G1 X-86.4S500
G1 X-1.9S0
G1 X-5.85S500
G0 X-2.917
G0 X0.05Y0.05
G0 X2.917
G1 X5.75
G1 X1.95S0
G1 X86.35S500
G1 X0.7S0
G1 X73.25S500
G1 X2.35S0
G1 X65.1S500
G1 X1.85S0
G1 X50.1S500
G0 X2.917
G0 X-0.05Y0.05
G0 X-2.917
G1 X-50.15
G1 X-1.7S0
G1 X-65.1S500
G1 X-2.4S0
G1 X-73.2S500
G1 X-0.8S0
G1 X-86.3S500
G1 X-1.95S0
G1 X-5.75S500
G0 X-2.917
G0 X-0.05Y0.05
G0 X2.917
G1 X5.8
G1 X2S0
G1 X86.2S500
G1 X0.85S0
G1 X73.2S500
G1 X2.4S0
G1 X65.2S500
G1 X1.55S0
G1 X50.25S500
G0 X2.917
G0 Y0.05
G0 X-2.917
G1 X-50.3
G1 X-1.45S0
G1 X-65.2S500
G1 X-2.5S0
G1 X-73.1S500
G1 X-0.9S0
G1 X-27.05S500
G1 X-0.15S0
G1 X-59S500
G1 X-2.05S0
G1 X-5.7S500
G0 X-2.917
G0 Y0.05
G0 X2.917
G1 X5.7
G1 X2.05S0
G1 X59S500
G1 X0.25S0
G1 X26.9S500
G1 X0.95S0
G1 X73.1S500
G1 X2.5S0
G1 X65.25S500
G1 X1.3S0
G1 X50.35S500
G0 X2.917
G0 X0.05Y0.05
G0 X-2.917
G1 X-50.5
G1 X-1.1S0
G1 X-65.35S500
G1 X-2.5S0
G1 X-8.25S500
G1 X-0.3S0
G1 X-64.55S500
G1 X-1S0
G1 X-26.8S500
G1 X-0.4S0
G1 X-58.85S500
G1 X-2.1S0
G1 X-5.75S500
G0 X-2.917
G0 X0.05Y0.05
G0 X2.917
G1 X5.7
G1 X2.1S0
G1 X58.85S500
G1 X0.45S0
G1 X26.8S500
G1 X1S0
G1 X64.3S500
G1 X0.7S0
G1 X8S500
G1 X2.55S0
G1 X65.5S500
G1 X0.8S0
G1 X50.65S500
G0 X2.917
G0 X-0.05Y0.05
G0 X-2.917
G1 X-50.8
G1 X-0.4S0
G1 X-65.75S500
G1 X-2.5S0
G1 X-7.9S500
G1 X-0.9S0
G1 X-64.25S500
G1 X-1S0
G1 X-26.75S500
G1 X-0.45S0
G1 X-58.85S500
G1 X-2.1S0
G1 X-5.7S500
G0 X-2.917
G0 X-0.05Y0.05
G0 X2.917
G1 X5.75
G1 X2.1S0
G1 X58.85S500
G1 X0.45S0
G1 X26.8S500
G1 X0.95S0
G1 X64.2S500
G1 X1S0
G1 X7.85S500
G1 X2.6S0
G1 X116.9S500
G0 X2.917
G0 Y0.05
G0 X-2.917
G1 X-116.9
G1 X-2.6S0
G1 X-7.75S500
G1 X-1.2S0
G1 X-64.1S500
G1 X-1S0
G1 X-26.75S500
G1 X-0.45S0
G1 X-58.8S500
G1 X-2.15S0
G1 X-5.7S500
G0 X-2.917
G0 Y0.05
G0 X2.917
G1 X5.7
G1 X2.15S0
G1 X58.8S500
G1 X0.4S0
G1 X26.8S500
G1 X0.95S0
G1 X64.1S500
G1 X1.3S0
G1 X7.7S500
G1 X2.55S0
G1 X116.9S500
G0 X2.917
G0 X0.05Y0.05
G0 X-2.917
G1 X-116.9
G1 X-2.6S0
G1 X-7.65S500
G1 X-1.35S0
G1 X-64.1S500
G1 X-0.9S0
G1 X-26.9S500
G1 X-0.3S0
G1 X-58.85S500
G1 X-2.1S0
G1 X-5.8S500
G0 X-2.917
G0 X0.05Y0.05
G0 X2.917
G1 X5.75
G1 X2.1S0
G1 X58.9S500
G1 X0.2S0
G1 X27S500
G1 X0.8S0
G1 X60.85S500
G1 X0.2S0
G1 X3.05S500
G1 X1.5S0
G1 X7.55S500
G1 X2.6S0
G1 X116.9S500
G0 X2.917
G0 X-0.05Y0.05
G0 X-2.917
G1 X-116.9
G1 X-2.55S0
G1 X-7.6S500
G1 X-1.5S0
G1 X-2.9S500
G1 X-0.35S0
G1 X-60.8S500
G1 X-0.8S0
G1 X-86.1S500
G1 X-2.05S0
G1 X-5.8S500
G0 X-2.917
G0 X-0.05Y0.05
G0 X2.917
G1 X5.85
G1 X2.05S0
G1 X86.15S500
G1 X0.7S0
G1 X60.75S500
G1 X0.5S0
G1 X2.85S500
G1 X1.55S0
G1 X7.55S500
G1 X2.6S0
G1 X116.9S500
G0 X2.917
G0 Y0.05
G0 X-2.917
G1 X-7.4
G1 X-0.5S0
G1 X-99.2S500
G1 X-0.4S0
G1 X-9.45S500
G1 X-2.55S0
G1 X-7.5S500
G1 X-1.6S0
G1 X-2.8S500
G1 X-0.55S0
G1 X-60.8S500
G1 X-0.6S0
G1 X-86.2S500
G1 X-2S0
G1 X-5.85S500
G0 X-2.917
G0 Y0.05
G0 X2.917
G1 X5.85
G1 X2S0
G1 X86.3S500
G1 X0.45S0
G1 X60.8S500
G1 X0.65S0
G1 X2.7S500
G1 X1.65S0
G1 X7.5S500
G1 X2.6S0
G1 X9.35S500
G1 X0.5S0
G1 X99.1S500
G1 X0.6S0
G1 X7.3S500
G0 X2.917
G0 X0.05Y0.05
G0 X-2.917
G1 X-7.35
G1 X-0.65S0
G1 X-99S500
G1 X-0.6S0
G1 X-9.35S500
G1 X-2.55S0
G1 X-7.5S500
G1 X-1.65S0
G1 X-2.75S500
G1 X-0.6S0
G1 X-60.9S500
G1 X-0.3S0
G1 X-86.35S500
G1 X-1.95S0
G1 X-5.95S500
G0 X-2.917
G0 X0.05Y0.05
G0 X2.917
G1 X5.9
G1 X1.9S0
G1 X147.55S500
G1 X0.7S0
G1 X2.75S500
G1 X1.6S0
G1 X7.5S500
G1 X2.55S0
G1 X9.3S500
G1 X0.65S0
G1 X98.95S500
G1 X0.75S0
G1 X7.25S500
G0 X2.917
G0 X0.05Y0.05
G0 X-2.917
G1 X-7.3
G1 X-0.8S0
G1 X-98.85S500
G1 X-0.7S0
G1 X-9.35S500
G1 X-2.45S0
G1 X-7.55S500
G1 X-1.65S0
G1 X-2.75S500
G1 X-0.6S0
G1 X-147.6S500
G1 X-1.85S0
G1 X-5.95S500
G0 X-2.917
G0 X-0.05Y0.05
G0 X2.917
G1 X6.05
G1 X1.75S0
G1 X147.65S500
G1 X0.6S0
G1 X2.75S500
G1 X1.65S0
G1 X7.55S500
G1 X2.5S0
G1 X9.3S500
G1 X0.7S0
G1 X98.85S500
G1 X0.8S0
G1 X7.3S500
G0 X2.917
G0 X-0.05Y0.05
G0 X-2.917
G1 X-7.2
G1 X-0.9S0
G1 X-98.8S500
G1 X-0.7S0
G1 X-9.3S500
G1 X-2.5S0
G1 X-7.55S500
G1 X-1.6S0
G1 X-2.75S500
G1 X-0.65S0
G1 X-147.65S500
G1 X-1.7S0
G1 X-6.05S500
G0 X-2.917
G0 Y0.05
G0 X2.917
G1 X6.1
G1 X1.6S0
G1 X147.7S500
G1 X0.55S0
G1 X2.85S500
G1 X1.6S0
G1 X7.6S500
G1 X2.4S0
G1 X9.35S500
G1 X0.7S0
G1 X98.85S500
G1 X0.8S0
G1 X7.3S500
G0 X2.917
G0 Y0.05
G0 X-2.917
G1 X-7.3
G1 X-0.8S0
G1 X-98.9S500
G1 X-0.65S0
G1 X-9.35S500
G1 X-2.4S0
G1 X-7.65S500
G1 X-1.5S0
G1 X-2.95S500
G1 X-0.45S0
G1 X-147.75S500
G1 X-1.55S0
G1 X-6.2S500
G0 X-2.917
G0 X0.05Y0.05
G0 X2.917
G1 X6.15
G1 X1.5S0
G1 X147.9S500
G1 X0.3S0
G1 X3S500
G1 X1.5S0
G1 X7.65S500
G1 X2.35S0
G1 X9.4S500
G1 X0.65S0
G1 X98.9S500
G1 X0.75S0
G1 X7.3S500
G0 X2.917
G0 X0.05Y0.05
G0 X-2.917
G1 X-7.35
G1 X-0.75S0
G1 X-98.95S500
G1 X-0.55S0
G1 X-9.5S500
G1 X-2.3S0
G1 X-7.7S500
G1 X-1.4S0
G1 X-151.3S500
G1 X-1.35S0
G1 X-6.25S500
G0 X-2.917
G0 X-0.05Y0.05
G0 X2.917
G1 X6.35
G1 X1.2S0
G1 X151.4S500
G1 X1.35S0
G1 X7.8S500
G1 X2.2S0
G1 X9.6S500
G1 X0.45S0
G1 X99.05S500
G1 X0.65S0
G1 X7.4S500
G0 X2.917
G0 X-0.05Y0.05
G0 X-2.917
G1 X-7.4
G1 X-0.55S0
G1 X-99.1S500
G1 X-0.35S0
G1 X-9.7S500
G1 X-2.15S0
G1 X-7.8S500
G1 X-1.35S0
G1 X-151.5S500
G1 X-1.1S0
G1 X-6.35S500
G0 X-2.917
G0 Y0.05
G0 X2.917
G1 X6.45
G1 X0.9S0
G1 X151.6S500
G1 X1.25S0
G1 X7.95S500
G1 X2S0
G1 X9.8S500
G1 X0.1S0
G1 X0.05S500
G1 X0.05S0
G1 X99.4S500
G1 X0.25S0
G1 X7.6S500
G0 X2.917
G0 Y0.05
G0 X-2.917
G1 X-117.3
G1 X-1.95S0
G1 X-8S500
G1 X-1.15S0
G1 X-151.75S500
G1 X-0.7S0
G1 X-6.6S500
G0 X-2.917
G0 X0.05Y0.05
G0 X2.917
G1 X6.75
G1 X0.4S0
G1 X151.85S500
G1 X1.1S0
G1 X8.15S500
G1 X1.8S0
G1 X117.3S500
G0 X2.917
G0 X0.05Y0.05
G0 X-2.917
G1 X-117.45
G1 X-1.65S0
G1 X-8.25S500
G1 X-1S0
G1 X-159.05S500
G0 X-2.917
G0 X-0.05Y0.05
G0 X2.917
G1 X159.2
G1 X0.85S0
G1 X8.4S500
G1 X1.25S0
G1 X117.75S500
G0 X2.917
G0 X-0.05Y0.05
G0 X-2.917
G1 X-118
G1 X-0.85S0
G1 X-8.6S500
G1 X-0.65S0
G1 X-159.25S500
G0 X-2.917
G0 Y0.05
G0 X2.917
G1 X159.4
G1 X0.4S0
G1 X8.85S500
G1 X0.6S0
G1 X118.15S500
G0 X2.917
G0 Y0.05
G0 X-2.917
G1 X-118.35
G1 X-0.25S0
G1 X-168.85S500
G0 X-2.917
G0 X0.05Y0.05
G0 X2.917
G1 X287.35
G0 X2.917
G0 X0.05Y0.05
G0 X-2.917
G1 X-261.3
G1 X-0.05S0
G1 X-26.05S500
G0 X-2.917
G0 X-0.05Y0.05
G0 X2.917
G1 X25.95
G1 X0.35S0
G1 X261.15S500
G0 X2.917
G0 X-0.05Y0.05
G0 X-2.917
G1 X-261
G1 X-0.55S0
G1 X-21.3S500
G1 X-0.25S0
G1 X-4.25S500
G0 X-2.917
G0 Y0.05
G0 X2.917
G1 X4.15
G1 X0.5S0
G1 X11.8S500
G1 X0.05S0
G1 X9.25S500
G1 X0.7S0
G1 X260.95S500
G0 X2.917
G0 X-0.05Y0.05
G0 X-2.917
G1 X-260.85
G1 X-0.8S0
G1 X-9S500
G1 X-0.4S0
G1 X-11.6S500
G1 X-0.6S0
G1 X-4.15S500
G0 X-2.917
G0 X0.05Y0.05
G0 X2.917
G1 X4.05
G1 X0.7S0
G1 X11.45S500
G1 X0.6S0
G1 X8.85S500
G1 X0.9S0
G1 X260.85S500
G0 X2.917
G0 Y0.05
G0 X-2.917
G1 X-260.8
G1 X-0.95S0
G1 X-8.8S500
G1 X-0.7S0
G1 X-11.35S500
G1 X-0.8S0
G1 X-4S500
G0 X-2.917
G0 X-0.05Y0.05
G0 X2.917
G1 X4.05
G1 X0.8S0
G1 X11.3S500
G1 X0.75S0
G1 X8.75S500
G1 X1.05S0
G1 X260.7S500
G0 X2.917
G0 X0.05Y0.05
G0 X-2.917
G1 X-260.75
G1 X-1.05S0
G1 X-8.7S500
G1 X-0.85S0
G1 X-11.2S500
G1 X-0.9S0
G1 X-3.95S500
G0 X-2.917
G0 Y0.05
G0 X2.917
G1 X3.95
G1 X0.9S0
G1 X11.15S500
G1 X0.9S0
G1 X8.65S500
G1 X1.15S0
G1 X260.7S500
G0 X2.917
G0 X-0.05Y0.05
G0 X-2.917
G1 X-260.65
G1 X-1.15S0
G1 X-8.6S500
G1 X-0.95S0
G1 X-11.1S500
G1 X-1S0
G1 X-3.95S500
G0 X-2.917
G0 X0.05Y0.05
G0 X2.917
G1 X3.9
G1 X1S0
G1 X11.1S500
G1 X0.95S0
G1 X8.65S500
G1 X1.1S0
G1 X260.7S500
G0 X2.917
G0 Y0.05
G0 X-2.917
G1 X-260.7
G1 X-1.1S0
G1 X-8.65S500
G1 X-0.95S0
G1 X-11.1S500
G1 X-1S0
G1 X-3.9S500
G0 X-2.917
G0 X-0.05Y0.05
G0 X2.917
G1 X4
G1 X0.9S0
G1 X11.1S500
G1 X1S0
G1 X8.65S500
G1 X1.1S0
G1 X260.65S500
G0 X2.917
G0 X0.05Y0.05
G0 X-2.917
G1 X-80.2
G1 X-0.4S0
G1 X-180.1S500
G1 X-1.05S0
G1 X-8.7S500
G1 X-0.95S0
G1 X-11.15S500
G1 X-0.9S0
G1 X-3.95S500
G0 X-2.917
G0 Y0.05
G0 X2.917
G1 X4
G1 X0.8S0
G1 X11.2S500
G1 X0.95S0
G1 X8.7S500
G1 X1S0
G1 X180.05S500
G1 X0.55S0
G1 X80.15S500
G0 X2.917
G0 X-0.05Y0.05
G0 X-2.917
G1 X-80.05
G1 X-0.65S0
G1 X-180.05S500
G1 X-0.9S0
G1 X-8.8S500
G1 X-0.9S0
G1 X-11.25S500
G1 X-0.75S0
G1 X-4.05S500
G0 X-2.917
G0 X0.05Y0.05
G0 X2.917
G1 X4.05
G1 X0.65S0
G1 X11.35S500
G1 X0.8S0
G1 X8.9S500
G1 X0.8S0
G1 X180.05S500
G1 X0.8S0
G1 X80S500
G0 X2.917
G0 Y0.05
G0 X-2.917
G1 X-80
G1 X-0.85S0
G1 X-180S500
G1 X-0.8S0
G1 X-8.9S500
G1 X-0.7S0
G1 X-11.5S500
G1 X-0.55S0
G1 X-4.1S500
G0 X-2.917
G0 X-0.05Y0.05
G0 X2.917
G1 X4.3
G1 X0.3S0
G1 X11.65S500
G1 X0.55S0
G1 X9.1S500
G1 X0.55S0
G1 X180.15S500
G1 X0.9S0
G1 X79.9S500
G0 X2.917
G0 X0.05Y0.05
G0 X-2.917
G1 X-79.95
G1 X-0.9S0
G1 X-180.25S500
G1 X-0.4S0
G1 X-9.2S500
G1 X-0.45S0
G1 X-16.25S500
G0 X-2.917
G0 Y0.05
G0 X2.917
G1 X16.4
G1 X0.15S0
G1 X189.95S500
G1 X1S0
G1 X79.9S500
G0 X2.917
G0 X-0.05Y0.05
G0 X-2.917
G1 X-79.85
G1 X-1S0
G1 X-206.55S500
G0 X-2.917
G0 X0.05Y0.05
G0 X2.917
G1 X206.5
G1 X0.95S0
G1 X79.95S500
G0 X2.917
G0 Y0.05
G0 X-2.917
G1 X-79.9
G1 X-0.95S0
G1 X-206.55S500
G0 X-2.917
G0 X-0.05Y0.05
G0 X2.917
G1 X206.6
G1 X0.9S0
G1 X79.9S500
G0 X2.917
G0 X0.05Y0.05
G0 X-2.917
G1 X-80
G1 X-0.85S0
G1 X-206.55S500
G0 X-2.917
G0 Y0.05
G0 X2.917
G1 X54.5
G1 X0.2S0
G1 X151.9S500
G1 X0.8S0
G1 X79.95S500
G0 X2.917
G0 X0.05Y0.05
G0 X-2.917
G1 X-80.05
G1 X-0.7S0
G1 X-151.85S500
G1 X-0.4S0
G1 X-54.45S500
G0 X-2.917
G0 X0.05Y0.05
G0 X2.917
G1 X54.35
G1 X0.45S0
G1 X151.9S500
G1 X0.55S0
G1 X80.15S500
G0 X2.917
G0 X-0.05Y0.05
G0 X-2.917
G1 X-80.1
G1 X-0.5S0
G1 X-151.95S500
G1 X-0.4S0
G1 X-54.4S500
G0 X-2.917
G0 X-0.05Y0.05
G0 X2.917
G1 X54.4
G1 X0.45S0
G1 X152.05S500
G1 X0.1S0
G1 X0.05S500
G1 X0.1S0
G1 X80.3S500
G0 X2.917
G0 Y0.05
G0 X-2.917
G1 X-26.4
G1 X-0.05S0
G1 X-206.15S500
G1 X-0.4S0
G1 X-54.4S500
G0 X-2.917
G0 Y0.05
G0 X2.917
G1 X54.45
G1 X0.3S0
G1 X206S500
G1 X0.4S0
G1 X26.2S500
G0 X2.917
G0 X0.05Y0.05
G0 X-2.917
G1 X-26.1
G1 X-0.6S0
G1 X-206.1S500
G1 X-0.05S0
G1 X-54.6S500
G0 X-2.917
G0 X0.05Y0.05
G0 X2.917
G1 X260.55
G1 X0.8S0
G1 X26.05S500
G0 X2.917
G0 X-0.05Y0.05
G0 X-2.917
G1 X-25.95
G1 X-0.95S0
G1 X-258.3S500
G1 X-0.25S0
G1 X-1.9S500
G0 X-2.917
G0 X-0.05Y0.05
G0 X2.917
G1 X1.9
G1 X0.35S0
G1 X147.05S500
G1 X0.1S0
G1 X0.05S500
G1 X0.05S0
G1 X110.95S500
G1 X1.05S0
G1 X25.95S500
G0 X2.917
G0 Y0.05
G0 X-2.917
G1 X-25.95
G1 X-1.05S0
G1 X-110.95S500
G1 X-0.2S0
G1 X-147.05S500
G1 X-0.4S0
G1 X-1.8S500
G0 X-2.917
G0 Y0.05
G0 X2.917
G1 X1.85
G1 X0.35S0
G1 X147S500
G1 X0.3S0
G1 X110.85S500
G1 X1.15S0
G1 X25.85S500
G0 X2.917
G0 X0.05Y0.05
G0 X-2.917
G1 X-25.9
G1 X-1.15S0
G1 X-110.8S500
G1 X-0.35S0
G1 X-147S500
G1 X-0.4S0
G1 X-1.85S500
G0 X-2.917
G0 X0.05Y0.05
G0 X2.917
G1 X1.85
G1 X0.3S0
G1 X147S500
G1 X0.35S0
G1 X110.85S500
G1 X1.1S0
G1 X25.95S500
G0 X2.917
G0 X-0.05Y0.05
G0 X-2.917
G1 X-25.85
G1 X-1.2S0
G1 X-110.8S500
G1 X-0.3S0
G1 X-147.1S500
G1 X-0.2S0
G1 X-1.9S500
G0 X-2.917
G0 X-0.05Y0.05
G0 X2.917
G1 X149.35
G1 X0.05S0
G1 X111S500
G1 X1.15S0
G1 X25.9S500
G0 X2.917
G0 Y0.05
G0 X-2.917
G1 X-25.95
G1 X-1.1S0
G1 X-229.3S500
G1 X-0.05S0
G1 X-31S500
G0 X-2.917
G0 Y0.05
G0 X2.917
G1 X30.95
G1 X0.2S0
G1 X229.2S500
G1 X1.1S0
G1 X25.9S500
G0 X2.917
G0 X0.05Y0.05
G0 X-2.917
G1 X-26
G1 X-1.05S0
G1 X-229.15S500
G1 X-0.3S0
G1 X-30.95S500
G0 X-2.917
G0 X0.05Y0.05
G0 X2.917
G1 X30.85
G1 X0.45S0
G1 X229.1S500
G1 X0.95S0
G1 X26.05S500
G0 X2.917
G0 X-0.05Y0.05
G0 X-2.917
G1 X-26.05
G1 X-0.9S0
G1 X-229S500
G1 X-0.5S0
G1 X-30.9S500
G0 X-2.917
G0 X-0.05Y0.05
G0 X2.917
G1 X31
G1 X0.6S0
G1 X228.95S500
G1 X0.75S0
G1 X26.15S500
G0 X2.917
G0 X-0.05Y0.05
G0 X-2.917
G1 X-26.15
G1 X-0.65S0
G1 X-222.8S500
G1 X-0.05S0
G1 X-0.05S500
G1 X-0.05S0
G1 X-0.05S500
G1 X-0.1S0
G1 X-0.05S500
G1 X-0.05S0
G1 X-0.05S500
G1 X-0.05S0
G1 X-0.05S500
G1 X-0.05S0
G1 X-0.05S500
G1 X-0.05S0
G1 X-0.05S500
G1 X-0.05S0
G1 X-0.05S500
G1 X-0.05S0
G1 X-0.05S500
G1 X-0.05S0
G1 X-0.05S500
G1 X-0.05S0
G1 X-0.05S500
G1 X-0.05S0
G1 X-0.05S500
G1 X-0.05S0
G1 X-0.05S500
G1 X-0.05S0
G1 X-0.05S500
G1 X-0.05S0
G1 X-0.05S500
G1 X-0.05S0
G1 X-0.05S500
G1 X-0.05S0
G1 X-0.05S500
G1 X-0.05S0
G1 X-0.05S500
G1 X-0.05S0
G1 X-0.05S500
G1 X-0.05S0
G1 X-0.05S500
G1 X-0.05S0
G1 X-0.05S500
G1 X-0.05S0
G1 X-0.1S500
G1 X-0.05S0
G1 X-0.05S500
G1 X-0.05S0
G1 X-0.05S500
G1 X-0.05S0
G1 X-0.1S500
G1 X-0.05S0
G1 X-0.05S500
G1 X-0.05S0
G1 X-0.05S500
G1 X-0.05S0
G1 X-0.1S500
G1 X-0.05S0
G1 X-0.05S500
G1 X-0.05S0
G1 X-0.05S500
G1 X-0.05S0
G1 X-0.1S500
G1 X-0.05S0
G1 X-0.05S500
G1 X-0.05S0
G1 X-0.05S500
G1 X-0.05S0
G1 X-0.1S500
G1 X-0.05S0
G1 X-0.05S500
G1 X-0.05S0
G1 X-0.05S500
G1 X-0.05S0
G1 X-0.1S500
G1 X-0.05S0
G1 X-0.05S500
G1 X-0.05S0
G1 X-0.05S500
G1 X-0.05S0
G1 X-0.1S500
G1 X-0.05S0
G1 X-0.05S500
G1 X-0.05S0
G1 X-0.05S500
G1 X-0.05S0
G1 X-0.1S500
G1 X-0.05S0
G1 X-0.05S500
G1 X-0.05S0
G1 X-0.05S500
G1 X-0.05S0
G1 X-0.1S500
G1 X-0.05S0
G1 X-0.05S500
G1 X-0.05S0
G1 X-0.05S500
G1 X-0.05S0
G1 X-0.1S500
G1 X-0.05S0
G1 X-0.05S500
G1 X-0.05S0
G1 X-0.05S500
G1 X-0.05S0
G1 X-0.1S500
G1 X-0.05S0
G1 X-0.05S500
G1 X-0.05S0
G1 X-0.05S500
G1 X-0.75S0
G1 X-31S500
G0 X-2.917
G0 Y0.05
G0 X2.917
G1 X31
G1 X7S0
G1 X222.65S500
G1 X0.5S0
G1 X26.25S500
G0 X2.917
G0 Y0.05
G0 X-2.917
G1 X-26.35
G1 X-0.3S0
G1 X-222.7S500
G1 X-7S0
G1 X-31.1S500
G0 X-2.917
G0 X0.05Y0.05
G0 X2.917
G1 X31.1
G1 X7.05S0
G1 X249.2S500
G0 X2.917
G0 X0.05Y0.05
G0 X-2.917
G1 X-249.2
G1 X-7.1S0
G1 X-31.1S500
G0 X-2.917
G0 X-0.05Y0.05
G0 X2.917
G1 X31.15
G1 X7.15S0
G1 X249.15S500
G0 X2.917
G0 X-0.05Y0.05
G0 X-2.917
G1 X-249
G1 X-7.2S0
G1 X-31.15S500
G0 X-2.917
G0 Y0.05
G0 X2.917
G1 X31.2
G1 X7.1S0
G1 X249.1S500
G0 X2.917
G0 Y0.05
G0 X-2.917
G1 X-249
G1 X-7.25S0
G1 X-31.2S500
G0 X-2.917
G0 X0.05Y0.05
G0 X2.917
G1 X31.1
G1 X7.35S0
G1 X248.9S500
G0 X2.917
G0 X0.05Y0.05
G0 X-2.917
G1 X-248.95
G1 X-7.5S0
G1 X-30.95S500
G0 X-2.917
G0 X-0.05Y0.05
G0 X2.917
G1 X30.95
G1 X7.6S0
G1 X248.9S500
G0 X2.917
G0 X-0.05Y0.05
G0 X-2.917
G1 X-248.85
G1 X-7.65S0
G1 X-30.85S500
G0 X-2.917
G0 Y0.05
G0 X2.917
G1 X30.75
G1 X7.8S0
G1 X248.85S500
G0 X2.917
G0 Y0.05
G0 X-2.917
G1 X-248.85
G1 X-7.85S0
G1 X-30.75S500
G0 X-2.917
G0 X0.05Y0.05
G0 X2.917
G1 X30.65
G1 X7.95S0
G1 X248.75S500
G0 X2.917
G0 X0.05Y0.05
G0 X-2.917
G1 X-248.75
G1 X-8.1S0
G1 X-30.55S500
G0 X-2.917
G0 X-0.05Y0.05
G0 X2.917
G1 X30.55
G1 X8.15S0
G1 X248.75S500
G0 X2.917
G0 X-0.05Y0.05
G0 X-2.917
G1 X-248.65
G1 X-8.25S0
G1 X-30.45S500
G0 X-2.917
G0 Y0.05
G0 X2.917
G1 X30.35
G1 X8.4S0
G1 X248.65S500
G0 X2.917
G0 Y0.05
G0 X-2.917
G1 X-248.65
G1 X-8.45S0
G1 X-30.35S500
G0 X-2.917
G0 X0.05Y0.05
G0 X2.917
G1 X30.25
G1 X8.55S0
G1 X76.25S500
G1 X0.45S0
G1 X171.85S500
G0 X2.917
G0 X0.05Y0.05
G0 X-2.917
G1 X-171.8
G1 X-0.6S0
G1 X-76.2S500
G1 X-8.6S0
G1 X-30.2S500
G0 X-2.917
G0 X-0.05Y0.05
G0 X2.917
G1 X30.2
G1 X8.7S0
G1 X76.05S500
G1 X0.8S0
G1 X171.65S500
G0 X2.917
G0 X0.05Y0.05
G0 X-2.917
G1 X-171.7
G1 X-0.8S0
G1 X-76.05S500
G1 X-8.75S0
G1 X-30.1S500
G0 X-2.917
G0 Y0.05
G0 X2.917
G1 X30.05
G1 X8.85S0
G1 X76S500
G1 X0.85S0
G1 X171.65S500
G0 X2.917
G0 X-0.05Y0.05
G0 X-2.917
G1 X-171.55
G1 X-0.95S0
G1 X-75.9S500
G1 X-8.95S0
G1 X-30.05S500
G0 X-2.917
G0 X0.05Y0.05
G0 X2.917
G1 X29.9
G1 X9.05S0
G1 X75.95S500
G1 X0.9S0
G1 X171.6S500
G0 X2.917
G0 Y0.05
G0 X-2.917
G1 X-171.6
G1 X-0.95S0
G1 X-15.35S500
G1 X-0.5S0
G1 X-60S500
G1 X-9.15S0
G1 X-29.85S500
G0 X-2.917
G0 X-0.05Y0.05
G0 X2.917
G1 X29.85
G1 X9.2S0
G1 X59.85S500
G1 X0.75S0
G1 X15.3S500
G1 X0.9S0
G1 X171.55S500
G0 X2.917
G0 X0.05Y0.05
G0 X-2.917
G1 X-171.55
G1 X-1S0
G1 X-15.15S500
G1 X-0.9S0
G1 X-59.8S500
G1 X-5.9S0
G1 X-0.05S500
G1 X-3.3S0
G1 X-29.75S500
G0 X-2.917
G0 Y0.05
G0 X2.917
G1 X29.7
G1 X3.25S0
G1 X0.05S500
G1 X6.05S0
G1 X59.65S500
G1 X1.1S0
G1 X15.1S500
G1 X0.95S0
G1 X171.55S500
G0 X2.917
G0 X-0.05Y0.05
G0 X-2.917
G1 X-171.55
G1 X-0.95S0
G1 X-15S500
G1 X-1.25S0
G1 X-59.55S500
G1 X-0.8S0
G1 X-0.05S500
G1 X-5.3S0
G1 X-0.1S500
G1 X-3.1S0
G1 X-29.75S500
G0 X-2.917
G0 X0.05Y0.05
G0 X2.917
G1 X29.65
G1 X3.05S0
G1 X0.15S500
G1 X6.25S0
G1 X59.45S500
G1 X1.4S0
G1 X14.9S500
G1 X0.95S0
G1 X171.6S500
G0 X2.917
G0 Y0.05
G0 X-2.917
G1 X-171.6
G1 X-0.9S0
G1 X-14.9S500
G1 X-1.5S0
G1 X-59.4S500
G1 X-0.75S0
G1 X-0.05S500
G1 X-5.55S0
G1 X-0.1S500
G1 X-3.05S0
G1 X-29.6S500
G0 X-2.917
G0 X-0.05Y0.05
G0 X2.917
G1 X29.6
G1 X3S0
G1 X0.15S500
G1 X5.65S0
G1 X0.05S500
G1 X0.75S0
G1 X59.3S500
G1 X1.6S0
G1 X14.85S500
G1 X0.85S0
G1 X171.6S500
G0 X2.917
G0 X0.05Y0.05
G0 X-2.917
G1 X-171.7
G1 X-0.75S0
G1 X-14.85S500
G1 X-1.7S0
G1 X-59.25S500
G1 X-0.7S0
G1 X-0.1S500
G1 X-5.75S0
G1 X-0.2S500
G1 X-2.9S0
G1 X-29.5S500
G0 X-2.917
G0 Y0.05
G0 X2.917
G1 X29.45
G1 X2.85S0
G1 X0.2S500
G1 X5.95S0
G1 X0.1S500
G1 X0.6S0
G1 X59.2S500
G1 X1.75S0
G1 X14.9S500
G1 X0.65S0
G1 X171.75S500
G0 X2.917
G0 X-0.05Y0.05
G0 X-2.917
G1 X-171.75
G1 X-0.55S0
G1 X-14.9S500
G1 X-1.8S0
G1 X-59.15S500
G1 X-0.6S0
G1 X-0.1S500
G1 X-6.05S0
G1 X-0.25S500
G1 X-2.8S0
G1 X-29.45S500
G0 X-2.917
G0 X0.05Y0.05
G0 X2.917
G1 X29.35
G1 X2.8S0
G1 X0.3S500
G1 X6S0
G1 X0.25S500
G1 X0.5S0
G1 X59.1S500
G1 X1.85S0
G1 X14.95S500
G1 X0.4S0
G1 X171.9S500
G0 X2.917
G0 Y0.05
G0 X-2.917
G1 X-172.05
G1 X-0.05S0
G1 X-0.05S500
G1 X-0.05S0
G1 X-15.05S500
G1 X-1.9S0
G1 X-59S500
G1 X-0.5S0
G1 X-6.75S500
G1 X-2.7S0
G1 X-29.3S500
G0 X-2.917
G0 X-0.05Y0.05
G0 X2.917
G1 X29.3
G1 X2.65S0
G1 X6.95S500
G1 X0.4S0
G1 X59S500
G1 X1.95S0
G1 X187.15S500
G0 X2.917
G0 X0.05Y0.05
G0 X-2.917
G1 X-187.2
G1 X-2S0
G1 X-58.9S500
G1 X-0.4S0
G1 X-7.1S500
G1 X-2.6S0
G1 X-29.2S500
G0 X-2.917
G0 Y0.05
G0 X2.917
G1 X29.15
G1 X2.55S0
G1 X7.3S500
G1 X0.3S0
G1 X58.9S500
G1 X2S0
G1 X187.2S500
G0 X2.917
G0 X-0.05Y0.05
G0 X-2.917
G1 X-187.15
G1 X-2S0
G1 X-58.9S500
G1 X-0.25S0
G1 X-7.45S500
G1 X-2.5S0
G1 X-29.15S500
G0 X-2.917
G0 X0.05Y0.05
G0 X2.917
G1 X29.1
G1 X2.35S0
G1 X7.6S500
G1 X0.3S0
G1 X58.8S500
G1 X2.05S0
G1 X187.2S500
G0 X2.917
G0 X-0.05Y0.05
G0 X-2.917
G1 X-187.15
G1 X-2.05S0
G1 X-58.75S500
G1 X-0.25S0
G1 X-7.75S500
G1 X-2.35S0
G1 X-29.05S500
G0 X-2.917
G0 X-0.05Y0.05
G0 X2.917
G1 X29.05
G1 X2.3S0
G1 X66.85S500
G1 X2.1S0
G1 X187.15S500
G0 X2.917
G0 Y0.05
G0 X-2.917
G1 X-187.2
G1 X-2.1S0
G1 X-66.85S500
G1 X-2.3S0
G1 X-28.95S500
G0 X-2.917
G0 Y0.05
G0 X2.917
G1 X28.9
G1 X2.2S0
G1 X66.95S500
G1 X2.15S0
G1 X187.15S500
G0 X2.917
G0 X0.05Y0.05
G0 X-2.917
G1 X-187.2
G1 X-2.15S0
G1 X-67.05S500
G1 X-2.15S0
G1 X-28.9S500
G0 X-2.917
G0 X0.05Y0.05
G0 X2.917
G1 X28.85
G1 X2.1S0
G1 X67.1S500
G1 X2.15S0
G1 X187.2S500
G0 X2.917
G0 X-0.05Y0.05
G0 X-2.917
G1 X-187.15
G1 X-2.15S0
G1 X-67.2S500
G1 X-2.05S0
G1 X-28.8S500
G0 X-2.917
G0 X-0.05Y0.05
G0 X2.917
G1 X28.8
G1 X2S0
G1 X67.3S500
G1 X2.1S0
G1 X187.25S500
G0 X2.917
G0 Y0.05
G0 X-2.917
G1 X-187.2
G1 X-2.15S0
G1 X-67.35S500
G1 X-2S0
G1 X-28.7S500
G0 X-2.917
G0 Y0.05
G0 X2.917
G1 X28.65
G1 X1.95S0
G1 X67.45S500
G1 X2.1S0
G1 X187.2S500
G0 X2.917
G0 X0.05Y0.05
G0 X-2.917
G1 X-187.3
G1 X-2S0
G1 X-67.6S500
G1 X-1.85S0
G1 X-28.7S500
G0 X-2.917
G0 X0.05Y0.05
G0 X2.917
G1 X28.6
G1 X8.3S0
G1 X61.15S500
G1 X2.05S0
G1 X144.75S500
G1 X0.25S0
G1 X42.3S500
G0 X2.917
G0 X-0.05Y0.05
G0 X-2.917
G1 X-42.05
G1 X-0.6S0
G1 X-144.65S500
G1 X-1.95S0
G1 X-60.95S500
G1 X-8.6S0
G1 X-28.55S500
G0 X-2.917
G0 X-0.05Y0.05
G0 X2.917
G1 X28.55
G1 X8.8S0
G1 X60.8S500
G1 X1.95S0
G1 X144.55S500
G1 X0.8S0
G1 X42S500
G0 X2.917
G0 Y0.05
G0 X-2.917
G1 X-41.95
G1 X-0.9S0
G1 X-144.55S500
G1 X-1.85S0
G1 X-60.8S500
G1 X-8.85S0
G1 X-28.5S500
G0 X-2.917
G0 Y0.05
G0 X2.917
G1 X10.1
G1 X0.05S0
G1 X18.4S500
G1 X8.9S0
G1 X60.7S500
G1 X1.85S0
G1 X144.5S500
G1 X1S0
G1 X41.85S500
G0 X2.917
G0 X0.05Y0.05
G0 X-2.917
G1 X-41.85
G1 X-1.1S0
G1 X-144.5S500
G1 X-1.75S0
G1 X-60.7S500
G1 X-8.85S0
G1 X-18.35S500
G1 X-0.35S0
G1 X-10S500
G0 X-2.917
G0 X0.05Y0.05
G0 X2.917
G1 X9.85
G1 X0.55S0
G1 X18.3S500
G1 X8.85S0
G1 X60.65S500
G1 X1.75S0
G1 X11.5S500
G1 X0.4S0
G1 X132.55S500
G1 X1.2S0
G1 X41.8S500
G0 X2.917
G0 X-0.05Y0.05
G0 X-2.917
G1 X-41.75
G1 X-1.25S0
G1 X-132.45S500
G1 X-0.55S0
G1 X-11.45S500
G1 X-1.65S0
G1 X-60.65S500
G1 X-8.8S0
G1 X-18.3S500
G1 X-0.7S0
G1 X-9.8S500
G0 X-2.917
G0 X-0.05Y0.05
G0 X2.917
G1 X9.8
G1 X0.8S0
G1 X18.3S500
G1 X8.8S0
G1 X60.65S500
G1 X1.55S0
G1 X11.45S500
G1 X0.65S0
G1 X132.4S500
G1 X1.3S0
G1 X41.75S500
G0 X2.917
G0 Y0.05
G0 X-2.917
G1 X-41.75
G1 X-1.35S0
G1 X-132.25S500
G1 X-0.8S0
G1 X-11.45S500
G1 X-1.5S0
G1 X-60.6S500
G1 X-8.75S0
G1 X-18.4S500
G1 X-0.85S0
G1 X-9.7S500
G0 X-2.917
G0 Y0.05
G0 X2.917
G1 X9.7
G1 X0.9S0
G1 X18.45S500
G1 X8.65S0
G1 X60.65S500
G1 X1.4S0
G1 X11.5S500
G1 X0.8S0
G1 X132.3S500
G1 X1.3S0
G1 X41.7S500
G0 X2.917
G0 X0.05Y0.05
G0 X-2.917
G1 X-41.75
G1 X-1.35S0
G1 X-53.4S500
G1 X-0.3S0
G1 X-78.55S500
G1 X-0.85S0
G1 X-11.5S500
G1 X-1.25S0
G1 X-60.65S500
G1 X-8.65S0
G1 X-18.55S500
G1 X-0.9S0
G1 X-9.75S500
G0 X-2.917
G0 X0.05Y0.05
G0 X2.917
G1 X9.7
G1 X0.9S0
G1 X18.6S500
G1 X8.6S0
G1 X60.7S500
G1 X1.15S0
G1 X11.55S500
G1 X0.9S0
G1 X78.4S500
G1 X0.5S0
G1 X53.35S500
G1 X1.35S0
G1 X41.65S500
G0 X2.917
G0 X0.05Y0.05
G0 X-2.917
G1 X-41.75
G1 X-1.35S0
G1 X-53.25S500
G1 X-0.55S0
G1 X-78.35S500
G1 X-1S0
G1 X-11.6S500
G1 X-0.95S0
G1 X-60.75S500
G1 X-8.55S0
G1 X-18.7S500
G1 X-0.95S0
G1 X-9.65S500
G0 X-2.917
G0 X-0.05Y0.05
G0 X2.917
G1 X9.7
G1 X0.95S0
G1 X18.75S500
G1 X8.55S0
G1 X60.85S500
G1 X0.6S0
G1 X11.8S500
G1 X0.95S0
G1 X78.35S500
G1 X0.65S0
G1 X53.2S500
G1 X1.35S0
G1 X41.75S500
G0 X2.917
G0 X-0.05Y0.05
G0 X-2.917
G1 X-41.75
G1 X-1.25S0
G1 X-19S500
G1 X-0.05S0
G1 X-34.2S500
G1 X-0.7S0
G1 X-78.25S500
G1 X-1S0
G1 X-12S500
G1 X-0.05S0
G1 X-0.1S500
G1 X-0.05S0
G1 X-61S500
G1 X-8.5S0
G1 X-18.8S500
G1 X-1S0
G1 X-9.65S500
G0 X-2.917
G0 Y0.05
G0 X2.917
G1 X9.7
G1 X0.9S0
G1 X18.9S500
G1 X8.5S0
G1 X73.15S500
G1 X1S0
G1 X78.25S500
G1 X0.7S0
G1 X34.1S500
G1 X0.2S0
G1 X18.95S500
G1 X1.3S0
G1 X41.75S500
G0 X2.917
G0 Y0.05
G0 X-2.917
G1 X-41.8
G1 X-1.25S0
G1 X-18.9S500
G1 X-0.3S0
G1 X-34S500
G1 X-0.75S0
G1 X-78.3S500
G1 X-0.95S0
G1 X-73.15S500
G1 X-8.4S0
G1 X-19.05S500
G1 X-0.85S0
G1 X-9.75S500
G0 X-2.917
G0 X0.05Y0.05
G0 X2.917
G1 X9.7
G1 X0.85S0
G1 X19.15S500
G1 X8.35S0
G1 X73.15S500
G1 X0.9S0
G1 X78.3S500
G1 X0.75S0
G1 X34.1S500
G1 X0.1S0
G1 X19.1S500
G1 X1.1S0
G1 X41.8S500
G0 X2.917
G0 X0.05Y0.05
G0 X-2.917
G1 X-41.85
G1 X-1.1S0
G1 X-53.3S500
G1 X-0.75S0
G1 X-78.35S500
G1 X-0.85S0
G1 X-73.1S500
G1 X-8.3S0
G1 X-19.3S500
G1 X-0.7S0
G1 X-9.8S500
G0 X-2.917
G0 X-0.05Y0.05
G0 X2.917
G1 X9.9
G1 X0.55S0
G1 X19.45S500
G1 X8.25S0
G1 X73.15S500
G1 X0.8S0
G1 X78.35S500
G1 X0.75S0
G1 X53.3S500
G1 X1.05S0
G1 X41.9S500
G0 X2.917
G0 X-0.05Y0.05
G0 X-2.917
G1 X-41.9
G1 X-0.9S0
G1 X-53.45S500
G1 X-0.65S0
G1 X-78.45S500
G1 X-0.7S0
G1 X-73.15S500
G1 X-8.2S0
G1 X-19.6S500
G1 X-0.45S0
G1 X-9.9S500
G0 X-2.917
G0 Y0.05
G0 X2.917
G1 X10
G1 X0.3S0
G1 X19.6S500
G1 X8.3S0
G1 X73.1S500
G1 X0.65S0
G1 X78.5S500
G1 X0.65S0
G1 X53.5S500
G1 X0.8S0
G1 X42S500
G0 X2.917
G0 Y0.05
G0 X-2.917
G1 X-42.1
G1 X-0.65S0
G1 X-53.6S500
G1 X-0.55S0
G1 X-78.55S500
G1 X-0.6S0
G1 X-73.1S500
G1 X-8.4S0
G1 X-29.9S500
G0 X-2.917
G0 X0.05Y0.05
G0 X2.917
G1 X29.75
G1 X8.5S0
G1 X73.2S500
G1 X0.4S0
G1 X78.7S500
G1 X0.45S0
G1 X53.8S500
G1 X0.4S0
G1 X42.15S500
G0 X2.917
G0 X0.05Y0.05
G0 X-2.917
G1 X-175.65
G1 X-0.2S0
G1 X-73.25S500
G1 X-8.6S0
G1 X-29.7S500
G0 X-2.917
G0 X-0.05Y0.05
G0 X2.917
G1 X29.7
G1 X8.7S0
G1 X249.05S500
G0 X2.917
G0 X-0.05Y0.05
G0 X-2.917
G1 X-249
G1 X-8.7S0
G1 X-29.65S500
G0 X-2.917
G0 Y0.05
G0 X2.917
G1 X29.6
G1 X8.8S0
G1 X249S500
G0 X2.917
G0 Y0.05
G0 X-2.917
G1 X-248.9
G1 X-5.7S0
G1 X-0.1S500
G1 X-3.15S0
G1 X-29.6S500
G0 X-2.917
G0 X0.05Y0.05
G0 X2.917
G1 X29.5
G1 X3.1S0
G1 X0.1S500
G1 X5.8S0
G1 X248.85S500
G0 X2.917
G0 X0.05Y0.05
G0 X-2.917
G1 X-248.9
G1 X-5.85S0
G1 X-0.15S500
G1 X-3.05S0
G1 X-29.45S500
G0 X-2.917
G0 X-0.05Y0.05
G0 X2.917
G1 X29.45
G1 X3S0
G1 X0.15S500
G1 X6.05S0
G1 X248.8S500
G0 X2.917
G0 X-0.05Y0.05
G0 X-2.917
G1 X-248.75
G1 X-6.15S0
G1 X-0.15S500
G1 X-2.95S0
G1 X-29.35S500
G0 X-2.917
G0 Y0.05
G0 X2.917
G1 X29.3
G1 X2.9S0
G1 X0.2S500
G1 X6.3S0
