; LightBurn Pro 2.0.05
; GRBL device profile, absolute coords
; Bounds: X3.54 Y4.7 to X297.82 Y208.65
G00 G17 G40 G21 G54
G90
M4
; Image @ 7000.02 мм/мин, 50% power
M8
G0 X8.738Y54.699
; Layer C00
G91
G0 X2.917
G1 X0.05F7000.02S500
G1 X0.05S0
G1 X0.05S500
G1 X0.05S0
G1 X0.05S500
G1 X0.05S0
G1 X0.05S500
G1 X0.05S0
G1 X0.05S500
G1 X0.05S0
G1 X0.05S500
G1 X0.05S0
G1 X0.05S500
G1 X0.05S0
G1 X0.05S500
G1 X0.05S0
G1 X0.05S500
G1 X0.05S0
G1 X0.05S500
G1 X0.05S0
G1 X0.05S500
G1 X0.05S0
G1 X0.05S500
G1 X0.1S0
G1 X0.05S500
G1 X0.05S0
G1 X0.05S500
G1 X0.1S0
G1 X0.05S500
G1 X0.1S0
G1 X0.05S500
G1 X0.1S0
G1 X0.05S500
G1 X0.1S0
G1 X0.05S500
G1 X0.1S0
G1 X0.05S500
G1 X0.05S0
G1 X0.05S500
G1 X0.1S0
G1 X0.05S500
G1 X0.05S0
G1 X0.05S500
G1 X0.1S0
G1 X0.05S500
G1 X0.05S0
G1 X0.05S500
G1 X0.1S0
G1 X0.05S500
G1 X0.05S0
G1 X0.05S500
G1 X0.1S0
G1 X0.05S500
G1 X0.05S0
G1 X0.05S500
G1 X0.1S0
G1 X0.05S500
G1 X0.05S0
G1 X0.05S500
G1 X0.1S0
G1 X0.05S500
G1 X0.1S0
G1 X0.05S500
G1 X0.1S0
G1 X0.05S500
G1 X0.1S0
G1 X0.05S500
G1 X0.1S0
G1 X0.05S500
G1 X0.1S0
G1 X0.05S500
G1 X0.1S0
G1 X0.05S500
G1 X0.1S0
G1 X0.05S500
G1 X0.1S0
G1 X0.05S500
G1 X0.1S0
G1 X0.05S500
G1 X0.1S0
G1 X0.05S500
G1 X0.1S0
G1 X0.05S500
G1 X0.1S0
G1 X0.05S500
G1 X0.1S0
G1 X0.05S500
G1 X0.1S0
G1 X0.05S500
G1 X0.1S0
G1 X0.05S500
G1 X0.1S0
G1 X0.05S500
G1 X0.05S0
G1 X0.05S500
G1 X0.1S0
G1 X0.05S500
G1 X0.05S0
G1 X0.05S500
G1 X0.05S0
G1 X0.05S500
G1 X0.05S0
G1 X0.05S500
G1 X0.05S0
G1 X0.05S500
G1 X0.05S0
G1 X0.05S500
G1 X0.05S0
G1 X0.05S500
G1 X0.05S0
G1 X0.05S500
G1 X0.05S0
G1 X0.05S500
G1 X0.05S0
G1 X0.05S500
G1 X0.05S0
G1 X0.05S500
G1 X0.05S0
G1 X0.05S500
G1 X0.05S0
G1 X0.05S500
G1 X0.1S0
G1 X0.05S500
G1 X0.05S0
G1 X0.05S500
G1 X0.1S0
G1 X0.05S500
G1 X0.1S0
G1 X0.05S500
G1 X0.1S0
G1 X0.05S500
G1 X0.1S0
G1 X0.05S500
G1 X0.1S0
G1 X0.05S500
G1 X0.1S0
G1 X0.05S500
G1 X0.1S0
G1 X0.05S500
G1 X0.1S0
G1 X0.05S500
G1 X0.1S0
G1 X0.05S500
G1 X0.1S0
G1 X0.05S500
G1 X0.1S0
G1 X0.05S500
G1 X0.1S0
G1 X0.05S500
G1 X0.1S0
G1 X0.05S500
G1 X0.05S0
G1 X0.05S500
G1 X0.1S0
G1 X0.05S500
G1 X0.05S0
G1 X0.05S500
G1 X0.05S0
G1 X0.05S500
G1 X0.05S0
G1 X0.05S500
G1 X0.05S0
G1 X0.05S500
G1 X0.05S0
G1 X0.05S500
G1 X0.05S0
G1 X0.05S500
G1 X0.05S0
G1 X0.05S500
G1 X0.05S0
G1 X0.05S500
G1 X0.05S0
G1 X0.05S500
G1 X0.05S0
G1 X0.05S500
G1 X0.05S0
G1 X0.05S500
G1 X0.05S0
G1 X0.05S500
G1 X0.05S0
G1 X0.05S500
G1 X0.05S0
G1 X0.05S500
G1 X0.1S0
G1 X0.05S500
G1 X0.05S0
G1 X0.05S500
G1 X0.1S0
G1 X0.05S500
G1 X0.1S0
G1 X0.05S500
G1 X0.05S0
G1 X0.05S500
G1 X0.1S0
G1 X0.05S500
G1 X0.1S0
G1 X0.05S500
G1 X0.1S0
G1 X0.05S500
G1 X0.1S0
G1 X0.05S500
G1 X0.1S0
G1 X0.05S500
G1 X0.1S0
G1 X0.05S500
G1 X0.1S0
G1 X0.05S500
G1 X0.1S0
G1 X0.05S500
G1 X0.1S0
G1 X0.05S500
G1 X0.1S0
G1 X0.05S500
G1 X0.1S0
G1 X0.05S500
G1 X0.1S0
G1 X0.05S500
G1 X0.1S0
G1 X0.05S500
G1 X0.1S0
G1 X0.05S500
G1 X0.1S0
G1 X0.05S500
G1 X0.1S0
G1 X0.05S500
G1 X0.1S0
G1 X0.05S500
G1 X0.1S0
G1 X0.05S500
G1 X0.1S0
G1 X0.05S500
G1 X0.1S0
G1 X0.05S500
G1 X0.1S0
G1 X0.05S500
G1 X0.1S0
G1 X0.05S500
G1 X0.05S0
G1 X0.05S500
G1 X0.1S0
G1 X0.05S500
G1 X0.05S0
G1 X0.05S500
G1 X0.05S0
G1 X0.05S500
G1 X0.05S0
G1 X0.05S500
G1 X0.05S0
G1 X0.05S500
G1 X0.05S0
G1 X0.05S500
G1 X0.05S0
G1 X0.05S500
G1 X0.05S0
G1 X0.05S500
G1 X0.05S0
G1 X0.05S500
G1 X0.05S0
G1 X0.05S500
G1 X0.05S0
G1 X0.05S500
G1 X0.05S0
G1 X0.05S500
G1 X0.05S0
G1 X0.05S500
G1 X0.05S0
G1 X0.05S500
G1 X0.05S0
G1 X0.05S500
G1 X0.1S0
G1 X0.05S500
G1 X0.05S0
G1 X0.05S500
G1 X0.1S0
G1 X0.05S500
G1 X0.1S0
G1 X0.05S500
G1 X0.1S0
G1 X0.05S500
G1 X0.1S0
G1 X0.05S500
G1 X0.1S0
G1 X0.05S500
G1 X0.1S0
G1 X0.05S500
G1 X0.1S0
G1 X0.05S500
G1 X0.1S0
G1 X0.05S500
G1 X0.1S0
G1 X0.05S500
G1 X0.1S0
G1 X0.05S500
G1 X0.1S0
G1 X0.05S500
G1 X0.1S0
G1 X0.05S500
G1 X0.1S0
G1 X0.05S500
G1 X0.1S0
G1 X0.05S500
G1 X0.1S0
G1 X0.05S500
G1 X0.1S0
G1 X0.05S500
G1 X0.1S0
G1 X0.05S500
G1 X0.1S0
G1 X0.05S500
G1 X0.1S0
G1 X0.05S500
G1 X0.1S0
G1 X0.05S500
G1 X0.1S0
G1 X0.05S500
G1 X0.1S0
G1 X0.05S500
G1 X0.1S0
G1 X0.05S500
G1 X0.1S0
G1 X0.05S500
G1 X0.1S0
G1 X0.05S500
G1 X0.05S0
G1 X0.05S500
G1 X0.1S0
G1 X0.05S500
G1 X0.05S0
G1 X0.05S500
G1 X0.1S0
G1 X0.05S500
G1 X0.05S0
G1 X0.05S500
G1 X0.1S0
G1 X0.05S500
G1 X0.05S0
G1 X0.05S500
G1 X0.1S0
G1 X0.05S500
G1 X0.05S0
G1 X0.05S500
G1 X0.1S0
G1 X0.05S500
G1 X0.05S0
G1 X0.05S500
G1 X0.1S0
G1 X0.05S500
G1 X0.1S0
G1 X0.05S500
G1 X0.1S0
G1 X0.05S500
G1 X0.1S0
G1 X0.05S500
G1 X0.05S0
G1 X0.05S500
G1 X0.1S0
G1 X0.05S500
G1 X0.05S0
G1 X0.05S500
G1 X0.05S0
G1 X0.05S500
G1 X0.05S0
G1 X0.05S500
G1 X0.05S0
G1 X0.05S500
G1 X0.05S0
G1 X0.05S500
G1 X0.05S0
G1 X0.05S500
G1 X0.05S0
G1 X0.05S500
G1 X0.05S0
G1 X0.05S500
G1 X0.05S0
G1 X0.05S500
G1 X0.1S0
G1 X0.05S500
G1 X0.05S0
G1 X0.05S500
G1 X0.1S0
G1 X0.05S500
G1 X0.05S0
G1 X0.05S500
G1 X0.1S0
G1 X0.05S500
G1 X0.05S0
G1 X0.05S500
G1 X0.1S0
G1 X0.05S500
G1 X0.05S0
G1 X0.05S500
G1 X0.1S0
G1 X0.05S500
G1 X0.05S0
G1 X0.05S500
G1 X0.1S0
G1 X0.05S500
G1 X0.05S0
G1 X0.05S500
G1 X0.1S0
G1 X0.05S500
G1 X0.1S0
G1 X0.05S500
G1 X0.1S0
G1 X0.05S500
G1 X0.1S0
G1 X0.05S500
G1 X0.1S0
G1 X0.05S500
G1 X0.1S0
G1 X0.05S500
G1 X0.1S0
G1 X0.05S500
G1 X0.1S0
G1 X0.05S500
G1 X0.1S0
G1 X0.05S500
G1 X0.1S0
G1 X0.05S500
G1 X0.1S0
G1 X0.05S500
G1 X0.1S0
G1 X0.05S500
G1 X0.1S0
G1 X0.05S500
G1 X0.1S0
G1 X0.05S500
G1 X0.1S0
G1 X0.05S500
G1 X0.1S0
G1 X0.05S500
G1 X0.1S0
G1 X0.05S500
G1 X0.1S0
G1 X0.05S500
G1 X0.1S0
G1 X0.05S500
G1 X0.1S0
G1 X0.05S500
G1 X0.1S0
G1 X0.05S500
G1 X0.1S0
G1 X0.05S500
G1 X0.1S0
G1 X0.05S500
G1 X0.1S0
G1 X0.05S500
G1 X0.1S0
G1 X0.05S500
G1 X0.1S0
G1 X0.05S500
G1 X0.1S0
G1 X0.05S500
G1 X0.1S0
G1 X0.05S500
G1 X0.1S0
G1 X0.05S500
G1 X0.1S0
G1 X0.05S500
G1 X0.1S0
G1 X0.05S500
G1 X0.1S0
G1 X0.05S500
G1 X0.1S0
G1 X0.05S500
G1 X0.1S0
G1 X0.05S500
G1 X0.1S0
G1 X0.05S500
G1 X0.1S0
G1 X0.05S500
G1 X0.1S0
G1 X0.05S500
G1 X0.1S0
G1 X0.05S500
G1 X0.1S0
G1 X0.05S500
G1 X0.1S0
G1 X0.05S500
G1 X0.1S0
G1 X0.05S500
G1 X0.1S0
G1 X0.05S500
G1 X0.1S0
G1 X0.05S500
G1 X0.1S0
G1 X0.05S500
G1 X0.1S0
G1 X0.05S500
G1 X0.1S0
G1 X0.05S500
G1 X0.1S0
G1 X0.05S500
G1 X0.1S0
G1 X0.05S500
G1 X0.05S0
G1 X0.05S500
G1 X0.1S0
G1 X0.05S500
G1 X0.1S0
G1 X0.05S500
G1 X0.05S0
G1 X0.05S500
G1 X0.1S0
G1 X0.05S500
G1 X0.1S0
G1 X0.05S500
G1 X0.05S0
G1 X0.05S500
G1 X0.1S0
G1 X0.05S500
G1 X0.1S0
G1 X0.05S500
G1 X0.1S0
G1 X0.05S500
G1 X0.1S0
G1 X0.05S500
G1 X0.1S0
G1 X0.05S500
G1 X0.1S0
G1 X0.05S500
G1 X0.1S0
G1 X0.05S500
G1 X0.1S0
G1 X0.05S500
G1 X0.1S0
G1 X0.05S500
G1 X0.1S0
G1 X0.05S500
G1 X0.1S0
G1 X0.05S500
G1 X0.1S0
G1 X0.05S500
G1 X0.1S0
G1 X0.05S500
G1 X0.1S0
G1 X0.05S500
G1 X0.1S0
G1 X0.05S500
G1 X0.1S0
G1 X0.05S500
G1 X0.1S0
G1 X0.05S500
G1 X0.1S0
G1 X0.05S500
G1 X0.1S0
G1 X0.05S500
G1 X0.1S0
G1 X0.05S500
G1 X0.1S0
G1 X0.05S500
G1 X0.1S0
G1 X0.05S500
G1 X0.1S0
G1 X0.05S500
G1 X0.1S0
G1 X0.05S500
G1 X0.1S0
G1 X0.05S500
G1 X0.1S0
G1 X0.05S500
G1 X0.1S0
G1 X0.05S500
G1 X0.1S0
G1 X0.05S500
G1 X0.1S0
G1 X0.05S500
G1 X0.1S0
G1 X0.05S500
G1 X0.1S0
G1 X0.05S500
G1 X0.05S0
G1 X0.05S500
G1 X0.1S0
G1 X0.05S500
G1 X0.05S0
G1 X0.05S500
G1 X0.05S0
G1 X0.05S500
G1 X0.05S0
G1 X0.05S500
G1 X0.05S0
G1 X0.05S500
G1 X0.05S0
G1 X0.05S500
G1 X0.05S0
G1 X0.05S500
G1 X0.05S0
G1 X0.05S500
G1 X0.05S0
G1 X0.05S500
G1 X0.05S0
G1 X0.05S500
G1 X0.05S0
G1 X0.05S500
G1 X0.05S0
G1 X0.05S500
G1 X0.1S0
G1 X0.05S500
G1 X0.05S0
G1 X0.05S500
G1 X0.1S0
G1 X0.05S500
G1 X0.1S0
G1 X0.05S500
G1 X0.1S0
G1 X0.05S500
G1 X0.1S0
G1 X0.05S500
G1 X0.1S0
G1 X0.05S500
G1 X0.1S0
G1 X0.05S500
G1 X0.1S0
G1 X0.05S500
G1 X0.1S0
G1 X0.05S500
G1 X0.1S0
G1 X0.05S500
G1 X0.1S0
G1 X0.05S500
G1 X0.1S0
G1 X0.05S500
G1 X0.1S0
G1 X0.05S500
G1 X0.1S0
G1 X0.05S500
G1 X0.1S0
G1 X0.05S500
G1 X0.1S0
G1 X0.05S500
G1 X0.1S0
G1 X0.05S500
G1 X0.1S0
G1 X0.05S500
G1 X0.1S0
G1 X0.05S500
G1 X0.1S0
G1 X0.05S500
G1 X0.1S0
G1 X0.05S500
G1 X0.1S0
G1 X0.05S500
G1 X0.1S0
G1 X0.05S500
G1 X0.1S0
G1 X0.05S500
G1 X0.1S0
G1 X0.05S500
G1 X0.05S0
G1 X0.05S500
G1 X0.1S0
G1 X0.05S500
G1 X0.05S0
G1 X0.05S500
G1 X0.05S0
G1 X0.05S500
G1 X0.05S0
G1 X0.05S500
G1 X0.05S0
G1 X0.05S500
G1 X0.05S0
G1 X0.05S500
G1 X0.05S0
G1 X0.05S500
G1 X0.05S0
G1 X0.05S500
G1 X0.05S0
G1 X0.05S500
G1 X0.05S0
G1 X0.05S500
G1 X0.05S0
G1 X0.05S500
G1 X0.05S0
G1 X0.05S500
G1 X0.05S0
G1 X0.05S500
G1 X0.1S0
G1 X0.05S500
G1 X0.05S0
G1 X0.05S500
G1 X0.1S0
G1 X0.05S500
G1 X0.1S0
G1 X0.05S500
G1 X0.1S0
G1 X0.05S500
G1 X0.1S0
G1 X0.05S500
G1 X0.1S0
G1 X0.05S500
G1 X0.1S0
G1 X0.05S500
G1 X0.1S0
G1 X0.05S500
G1 X0.1S0
G1 X0.05S500
G1 X0.1S0
G1 X0.05S500
G1 X0.1S0
G1 X0.05S500
G1 X0.1S0
G1 X0.05S500
G1 X0.1S0
G1 X0.05S500
G1 X0.1S0
G1 X0.05S500
G1 X0.1S0
G1 X0.05S500
G1 X0.1S0
G1 X0.05S500
G1 X0.1S0
G1 X0.05S500
G1 X0.1S0
G1 X0.05S500
G1 X0.1S0
G1 X0.05S500
G1 X0.05S0
G1 X0.05S500
G1 X0.1S0
G1 X0.05S500
G1 X0.05S0
G1 X0.05S500
G1 X0.1S0
G1 X0.05S500
G1 X0.05S0
G1 X0.05S500
G1 X0.1S0
G1 X0.05S500
G1 X0.05S0
G1 X0.05S500
G1 X0.1S0
G1 X0.05S500
G1 X0.05S0
G1 X0.05S500
G1 X0.1S0
G1 X0.05S500
G1 X0.05S0
G1 X0.05S500
G1 X0.1S0
G1 X0.05S500
G1 X0.05S0
G1 X0.05S500
G1 X0.1S0
G1 X0.05S500
G1 X0.1S0
G1 X0.05S500
G1 X0.1S0
G1 X0.05S500
G1 X0.1S0
G1 X0.05S500
G1 X0.1S0
G1 X0.05S500
G1 X0.1S0
G1 X0.05S500
G1 X0.1S0
G1 X0.05S500
G1 X0.05S0
G1 X0.05S500
G1 X0.1S0
G1 X0.05S500
G1 X0.05S0
G1 X0.05S500
G1 X0.05S0
G1 X0.05S500
G1 X0.05S0
G1 X0.05S500
G1 X0.05S0
G1 X0.05S500
G1 X0.05S0
G1 X0.05S500
G1 X0.05S0
G1 X0.05S500
G1 X0.05S0
G1 X0.05S500
G1 X0.05S0
G1 X0.05S500
G1 X0.05S0
G1 X0.05S500
G1 X0.05S0
G1 X0.05S500
G1 X0.05S0
G1 X0.05S500
G1 X0.05S0
G1 X0.05S500
G1 X0.05S0
G1 X0.05S500
G1 X0.05S0
G1 X0.05S500
G1 X0.05S0
G1 X0.05S500
G1 X0.05S0
G1 X0.05S500
G1 X0.05S0
G1 X0.05S500
G1 X0.1S0
G1 X0.05S500
G1 X0.05S0
G1 X0.05S500
G1 X0.1S0
G1 X0.05S500
G1 X0.1S0
G1 X0.05S500
G1 X0.1S0
G1 X0.05S500
G1 X0.1S0
G1 X0.05S500
G1 X0.1S0
G1 X0.05S500
G1 X0.1S0
G1 X0.05S500
G1 X0.1S0
G1 X0.05S500
G1 X0.1S0
G1 X0.05S500
G1 X0.1S0
G1 X0.05S500
G1 X0.1S0
G1 X0.05S500
G1 X0.1S0
G1 X0.05S500
G1 X0.1S0
G1 X0.05S500
G1 X0.1S0
G1 X0.05S500
G1 X0.1S0
G1 X0.05S500
G1 X0.1S0
G1 X0.05S500
G1 X0.1S0
G1 X0.05S500
G1 X0.1S0
G1 X0.05S500
G1 X0.1S0
G1 X0.05S500
G1 X0.1S0
G1 X0.05S500
G1 X0.1S0
G1 X0.05S500
G1 X0.1S0
G1 X0.05S500
G1 X0.1S0
G1 X0.05S500
G1 X0.1S0
G1 X0.05S500
G1 X0.05S0
G1 X0.05S500
G1 X0.1S0
G1 X0.05S500
G1 X0.05S0
G1 X0.05S500
G1 X0.05S0
G1 X0.05S500
G1 X0.05S0
G1 X0.05S500
G1 X0.05S0
G1 X0.05S500
G1 X0.05S0
G1 X0.05S500
G1 X0.05S0
G1 X0.05S500
G1 X0.05S0
G1 X0.05S500
G1 X0.05S0
G1 X0.05S500
G1 X0.05S0
G1 X0.05S500
G1 X0.05S0
G1 X0.05S500
G1 X0.1S0
G1 X0.05S500
G1 X0.05S0
G1 X0.05S500
G1 X0.1S0
G1 X0.05S500
G1 X0.1S0
G1 X0.05S500
G1 X0.1S0
G1 X0.05S500
G1 X0.1S0
G1 X0.05S500
G1 X0.1S0
G1 X0.05S500
G1 X0.1S0
G1 X0.05S500
G1 X0.1S0
G1 X0.05S500
G1 X0.1S0
G1 X0.05S500
G1 X0.1S0
G1 X0.05S500
G1 X0.1S0
G1 X0.05S500
G1 X0.1S0
G1 X0.05S500
G1 X0.1S0
G1 X0.05S500
G1 X0.1S0
G1 X0.05S500
G1 X0.1S0
G1 X0.05S500
G1 X0.1S0
G1 X0.05S500
G1 X0.1S0
G1 X0.05S500
G1 X0.1S0
G1 X0.05S500
G1 X0.1S0
G1 X0.05S500
G1 X0.1S0
G1 X0.05S500
G1 X0.1S0
G1 X0.05S500
G1 X0.1S0
G1 X0.05S500
G1 X0.1S0
G1 X0.05S500
G1 X0.1S0
G1 X0.05S500
G1 X0.1S0
G1 X0.05S500
G1 X0.1S0
G1 X0.05S500
G1 X0.1S0
G1 X0.05S500
G1 X0.1S0
G1 X0.05S500
G1 X0.1S0
G1 X0.05S500
G1 X0.1S0
G1 X0.05S500
G1 X0.1S0
G1 X0.05S500
G1 X0.1S0
G1 X0.05S500
G1 X0.05S0
G1 X0.05S500
G1 X0.1S0
G1 X0.05S500
G1 X0.05S0
G1 X0.05S500
G1 X0.05S0
G1 X0.05S500
G1 X0.05S0
G1 X0.05S500
G1 X0.05S0
G1 X0.05S500
G1 X0.05S0
G1 X0.05S500
G1 X0.05S0
G1 X0.05S500
G1 X0.05S0
G1 X0.05S500
G1 X0.05S0
G1 X0.05S500
G1 X0.05S0
G1 X0.05S500
G1 X0.05S0
G1 X0.05S500
G1 X0.05S0
G1 X0.05S500
G1 X0.05S0
G1 X0.05S500
G1 X0.05S0
G1 X0.05S500
G1 X0.05S0
G1 X0.05S500
G1 X0.05S0
G1 X0.05S500
G1 X0.05S0
G1 X0.05S500
G1 X0.05S0
G1 X0.05S500
G1 X0.1S0
G1 X0.05S500
G1 X0.05S0
G1 X0.05S500
G1 X0.1S0
G1 X0.05S500
G1 X0.1S0
G1 X0.05S500
G1 X0.1S0
G1 X0.05S500
G1 X0.1S0
G1 X0.05S500
G1 X0.1S0
G1 X0.05S500
G1 X0.05S0
G1 X0.05S500
G1 X0.1S0
G1 X0.05S500
G1 X0.05S0
G1 X0.05S500
G1 X0.05S0
G1 X0.05S500
G1 X0.05S0
G1 X0.05S500
G1 X0.05S0
G1 X0.05S500
G1 X0.05S0
G1 X0.05S500
G1 X0.05S0
G1 X0.05S500
G1 X0.05S0
G1 X0.05S500
G1 X0.05S0
G1 X0.05S500
G1 X0.05S0
G1 X0.05S500
G1 X0.05S0
G1 X0.05S500
G1 X0.05S0
G1 X0.05S500
G1 X0.05S0
G1 X0.05S500
G1 X0.1S0
G1 X0.05S500
G1 X0.05S0
G1 X0.05S500
G1 X0.1S0
G1 X0.05S500
G1 X0.1S0
G1 X0.05S500
G1 X0.1S0
G1 X0.05S500
G1 X0.1S0
G1 X0.05S500
G1 X0.1S0
G1 X0.05S500
G1 X0.1S0
G1 X0.05S500
G1 X0.1S0
G1 X0.05S500
G0 X2.917
G0 X0.05Y0.05
G0 X-2.917
G1 X-68.2
G0 X-2.917
G0 Y0.05
G0 X2.917
G1 X68.25
G0 X2.917
G0 X0.05Y0.05
G0 X-2.917
G1 X-68.3
G0 X-2.917
G0 Y0.05
G0 X2.917
G1 X68.3
G0 X2.917
G0 X-0.05Y0.05
G0 X-2.917
G1 X-68.25
G0 X-2.917
G0 Y0.05
G0 X2.917
G1 X68.3
G0 X2.917
G0 Y0.05
G0 X-2.917
G1 X-68.3
G0 X-2.917
G0 Y0.05
G0 X2.917
G1 X68.3
G0 X2.917
G0 Y0.05
G0 X-2.917
G1 X-68.3
G0 X-2.917
G0 Y0.05
G0 X2.917
G1 X68.25
G0 X2.917
G0 X0.05Y0.05
G0 X-2.917
G1 X-68.3
G0 X-2.917
G0 Y0.05
G0 X2.917
G1 X68.3
G0 X2.917
G0 Y0.05
G0 X-2.917
G1 X-68.3
G0 X-2.917
G0 Y0.05
G0 X2.917
G1 X68.3
G0 X2.917
G0 X-0.05Y0.05
G0 X-2.917
G1 X-68.25
G0 X-2.917
G0 Y0.05
G0 X2.917
G1 X68.3
G0 X2.917
G0 Y0.05
G0 X-2.917
G1 X-68.3
G0 X-2.917
G0 Y0.05
G0 X2.917
G1 X68.3
G0 X2.917
G0 Y0.05
G0 X-2.917
G1 X-68.3
G0 X-2.917
G0 Y0.05
G0 X2.917
G1 X68.25
G0 X2.917
G0 X0.05Y0.05
G0 X-2.917
G1 X-68.3
G0 X-2.917
G0 Y0.05
G0 X2.917
G1 X68.3
G0 X2.917
G0 Y0.05
G0 X-2.917
G1 X-68.3
G0 X-2.917
G0 Y0.05
G0 X2.917
G1 X68.3
G0 X2.917
G0 X-0.05Y0.05
G0 X-2.917
G1 X-68.25
G0 X-2.917
G0 Y0.05
G0 X2.917
G1 X68.3
G0 X2.917
G0 Y0.05
G0 X-2.917
G1 X-68.3
G0 X-2.917
G0 Y0.05
G0 X2.917
G1 X68.3
G0 X2.917
G0 Y0.05
G0 X-2.917
G1 X-68.3
G0 X-2.917
G0 Y0.05
G0 X2.917
G1 X68.25
G0 X2.917
G0 X0.05Y0.05
G0 X-2.917
G1 X-3.25
G1 X-62.1S0
G1 X-2.95S500
G0 X-2.917
G0 Y0.05
G0 X2.917
G1 X2.9
G1 X62.2S0
G1 X3.2S500
G0 X2.917
G0 Y0.05
G0 X-2.917
G1 X-3.1
G1 X-62.4S0
G1 X-2.8S500
G0 X-2.917
G0 Y0.05
G0 X2.917
G1 X2.75
G1 X62.45S0
G1 X3.1S500
G0 X2.917
G0 X-0.05Y0.05
G0 X-2.917
G1 X-3
G1 X-62.55S0
G1 X-2.7S500
G0 X-2.917
G0 Y0.05
G0 X2.917
G1 X2.65
G1 X62.65S0
G1 X3S500
G0 X2.917
G0 Y0.05
G0 X-2.917
G1 X-2.95
G1 X-63S0
G1 X-2.35S500
G0 X-2.917
G0 Y0.05
G0 X2.917
G1 X2.3
G1 X63.15S0
G1 X2.85S500
G0 X2.917
G0 Y0.05
G0 X-2.917
G1 X-2.8
G1 X-63.25S0
G1 X-2.25S500
G0 X-2.917
G0 Y0.05
G0 X2.917
G1 X2.25
G1 X63.25S0
G1 X2.75S500
G0 X2.917
G0 X0.05Y0.05
G0 X-2.917
G1 X-2.75
G1 X-2.25S0
G1 X-0.05S500
G1 X-0.2S0
G1 X-0.05S500
G1 X-0.15S0
G1 X-0.05S500
G1 X-0.1S0
G1 X-0.05S500
G1 X-0.1S0
G1 X-0.05S500
G1 X-0.1S0
G1 X-0.05S500
G1 X-0.1S0
G1 X-0.05S500
G1 X-0.1S0
G1 X-0.05S500
G1 X-0.1S0
G1 X-0.05S500
G1 X-0.1S0
G1 X-0.05S500
G1 X-0.1S0
G1 X-0.05S500
G1 X-0.1S0
G1 X-0.05S500
G1 X-0.1S0
G1 X-0.05S500
G1 X-0.1S0
G1 X-0.05S500
G1 X-0.1S0
G1 X-0.05S500
G1 X-0.1S0
G1 X-0.05S500
G1 X-0.15S0
G1 X-0.05S500
G1 X-0.15S0
G1 X-0.05S500
G1 X-0.15S0
G1 X-0.05S500
G1 X-0.15S0
G1 X-0.05S500
G1 X-0.15S0
G1 X-0.05S500
G1 X-0.15S0
G1 X-0.05S500
G1 X-0.15S0
G1 X-0.05S500
G1 X-0.15S0
G1 X-0.05S500
G1 X-0.15S0
G1 X-0.05S500
G1 X-0.15S0
G1 X-0.05S500
G1 X-0.15S0
G1 X-0.05S500
G1 X-0.2S0
G1 X-0.05S500
G1 X-1.45S0
G1 X-0.05S500
G1 X-0.15S0
G1 X-0.05S500
G1 X-0.15S0
G1 X-0.05S500
G1 X-0.15S0
G1 X-0.05S500
G1 X-0.15S0
G1 X-0.05S500
G1 X-0.15S0
G1 X-0.05S500
G1 X-0.15S0
G1 X-0.05S500
G1 X-0.15S0
G1 X-0.05S500
G1 X-0.15S0
G1 X-0.05S500
G1 X-0.15S0
G1 X-0.05S500
G1 X-0.15S0
G1 X-0.05S500
G1 X-0.15S0
G1 X-0.05S500
G1 X-0.15S0
G1 X-0.05S500
G1 X-0.15S0
G1 X-0.05S500
G1 X-0.15S0
G1 X-0.05S500
G1 X-0.15S0
G1 X-0.05S500
G1 X-0.15S0
G1 X-0.05S500
G1 X-0.2S0
G1 X-0.05S500
G1 X-2.1S0
G1 X-0.05S500
G1 X-0.15S0
G1 X-0.05S500
G1 X-0.1S0
G1 X-0.05S500
G1 X-0.1S0
G1 X-0.05S500
G1 X-0.1S0
G1 X-0.05S500
G1 X-0.1S0
G1 X-0.05S500
G1 X-0.1S0
G1 X-0.05S500
G1 X-0.15S0
G1 X-0.05S500
G1 X-0.15S0
G1 X-0.05S500
G1 X-0.15S0
G1 X-0.05S500
G1 X-0.2S0
G1 X-0.05S500
G1 X-0.2S0
G1 X-0.05S500
G1 X-0.2S0
G1 X-0.05S500
G1 X-0.15S0
G1 X-0.05S500
G1 X-0.15S0
G1 X-0.05S500
G1 X-0.1S0
G1 X-0.05S500
G1 X-0.1S0
G1 X-0.05S500
G1 X-0.1S0
G1 X-0.05S500
G1 X-0.1S0
G1 X-0.05S500
G1 X-0.1S0
G1 X-0.05S500
G1 X-0.1S0
G1 X-0.05S500
G1 X-0.1S0
G1 X-0.05S500
G1 X-0.1S0
G1 X-0.05S500
G1 X-0.1S0
G1 X-0.05S500
G1 X-0.1S0
G1 X-0.05S500
G1 X-0.1S0
G1 X-0.05S500
G1 X-0.1S0
G1 X-0.05S500
G1 X-0.1S0
G1 X-0.05S500
G1 X-0.1S0
G1 X-0.05S500
G1 X-0.15S0
G1 X-0.05S500
G1 X-0.15S0
G1 X-0.05S500
G1 X-0.2S0
G1 X-0.05S500
G1 X-1.55S0
G1 X-0.05S500
G1 X-0.15S0
G1 X-0.05S500
G1 X-0.1S0
G1 X-0.05S500
G1 X-0.1S0
G1 X-0.05S500
G1 X-0.1S0
G1 X-0.05S500
G1 X-0.1S0
G1 X-0.05S500
G1 X-0.1S0
G1 X-0.05S500
G1 X-0.1S0
G1 X-0.05S500
G1 X-0.15S0
G1 X-0.05S500
G1 X-0.15S0
G1 X-0.05S500
G1 X-0.15S0
G1 X-0.05S500
G1 X-0.15S0
G1 X-0.05S500
G1 X-0.15S0
G1 X-0.05S500
G1 X-0.15S0
G1 X-0.05S500
G1 X-0.15S0
G1 X-0.05S500
G1 X-0.15S0
G1 X-0.05S500
G1 X-0.15S0
G1 X-0.05S500
G1 X-0.1S0
G1 X-0.05S500
G1 X-0.15S0
G1 X-0.05S500
G1 X-0.15S0
G1 X-0.05S500
G1 X-0.2S0
G1 X-0.05S500
G1 X-1.3S0
G1 X-0.05S500
G1 X-0.2S0
G1 X-0.05S500
G1 X-0.15S0
G1 X-0.05S500
G1 X-0.1S0
G1 X-0.05S500
G1 X-0.1S0
G1 X-0.05S500
G1 X-0.1S0
G1 X-0.05S500
G1 X-0.1S0
G1 X-0.05S500
G1 X-0.1S0
G1 X-0.05S500
G1 X-0.1S0
G1 X-0.05S500
G1 X-0.15S0
G1 X-0.05S500
G1 X-0.15S0
G1 X-0.05S500
G1 X-0.15S0
G1 X-0.05S500
G1 X-0.15S0
G1 X-0.05S500
G1 X-0.15S0
G1 X-0.05S500
G1 X-0.1S0
G1 X-0.05S500
G1 X-0.1S0
G1 X-0.05S500
G1 X-0.1S0
G1 X-0.05S500
G1 X-0.1S0
G1 X-0.05S500
G1 X-0.1S0
G1 X-0.05S500
G1 X-0.1S0
G1 X-0.05S500
G1 X-0.1S0
G1 X-0.05S500
G1 X-0.1S0
G1 X-0.05S500
G1 X-0.1S0
G1 X-0.05S500
G1 X-0.1S0
G1 X-0.05S500
G1 X-0.1S0
G1 X-0.05S500
G1 X-0.1S0
G1 X-0.05S500
G1 X-0.1S0
G1 X-0.05S500
G1 X-0.1S0
G1 X-0.05S500
G1 X-0.1S0
G1 X-0.05S500
G1 X-0.1S0
G1 X-0.05S500
G1 X-0.1S0
G1 X-0.05S500
G1 X-0.1S0
G1 X-0.05S500
G1 X-0.15S0
G1 X-0.05S500
G1 X-0.15S0
G1 X-0.05S500
G1 X-0.15S0
G1 X-0.05S500
G1 X-0.1S0
G1 X-0.05S500
G1 X-0.1S0
G1 X-0.05S500
G1 X-0.1S0
G1 X-0.05S500
G1 X-0.1S0
G1 X-0.05S500
G1 X-0.1S0
G1 X-0.05S500
G1 X-0.1S0
G1 X-0.05S500
G1 X-0.1S0
G1 X-0.05S500
G1 X-0.1S0
G1 X-0.05S500
G1 X-0.1S0
G1 X-0.05S500
G1 X-0.1S0
G1 X-0.05S500
G1 X-0.1S0
G1 X-0.05S500
G1 X-0.1S0
G1 X-0.05S500
G1 X-0.15S0
G1 X-0.05S500
G1 X-0.15S0
G1 X-0.05S500
G1 X-0.15S0
G1 X-0.05S500
G1 X-0.15S0
G1 X-0.05S500
G1 X-0.15S0
G1 X-0.05S500
G1 X-0.15S0
G1 X-0.05S500
G1 X-0.15S0
G1 X-0.05S500
G1 X-0.1S0
G1 X-0.05S500
G1 X-0.1S0
G1 X-0.05S500
G1 X-0.1S0
G1 X-0.05S500
G1 X-0.1S0
G1 X-0.05S500
G1 X-0.1S0
G1 X-0.05S500
G1 X-0.1S0
G1 X-0.05S500
G1 X-0.1S0
G1 X-0.05S500
G1 X-0.1S0
G1 X-0.05S500
G1 X-0.1S0
G1 X-0.05S500
G1 X-0.1S0
G1 X-0.05S500
G1 X-0.1S0
G1 X-0.05S500
G1 X-0.1S0
G1 X-0.05S500
G1 X-0.1S0
G1 X-0.05S500
G1 X-0.1S0
G1 X-0.05S500
G1 X-0.1S0
G1 X-0.05S500
G1 X-0.1S0
G1 X-0.05S500
G1 X-0.1S0
G1 X-0.05S500
G1 X-0.1S0
G1 X-0.05S500
G1 X-0.1S0
G1 X-0.05S500
G1 X-0.1S0
G1 X-0.05S500
G1 X-0.15S0
G1 X-0.05S500
G1 X-0.15S0
G1 X-0.05S500
G1 X-0.1S0
G1 X-0.05S500
G1 X-0.1S0
G1 X-0.05S500
G1 X-0.1S0
G1 X-0.05S500
G1 X-0.15S0
G1 X-0.05S500
G1 X-0.15S0
G1 X-0.05S500
G1 X-0.15S0
G1 X-0.05S500
G1 X-0.2S0
G1 X-0.05S500
G1 X-0.25S0
G1 X-0.05S500
G1 X-1.6S0
G1 X-0.05S500
G1 X-0.15S0
G1 X-0.05S500
G1 X-0.15S0
G1 X-0.05S500
G1 X-0.15S0
G1 X-0.05S500
G1 X-0.15S0
G1 X-0.05S500
G1 X-0.15S0
G1 X-0.05S500
G1 X-0.15S0
G1 X-0.05S500
G1 X-0.2S0
G1 X-0.05S500
G1 X-0.2S0
G1 X-0.05S500
G1 X-0.15S0
G1 X-0.05S500
G1 X-0.15S0
G1 X-0.05S500
G1 X-0.1S0
G1 X-0.05S500
G1 X-0.1S0
G1 X-0.05S500
G1 X-0.1S0
G1 X-0.05S500
G1 X-0.1S0
G1 X-0.05S500
G1 X-0.1S0
G1 X-0.05S500
G1 X-0.1S0
G1 X-0.05S500
G1 X-0.1S0
G1 X-0.05S500
G1 X-0.1S0
G1 X-0.05S500
G1 X-0.1S0
G1 X-0.05S500
G1 X-0.1S0
G1 X-0.05S500
G1 X-0.1S0
G1 X-0.05S500
G1 X-0.1S0
G1 X-0.05S500
G1 X-0.1S0
G1 X-0.05S500
G1 X-0.1S0
G1 X-0.05S500
G1 X-0.1S0
G1 X-0.05S500
G1 X-0.1S0
G1 X-0.05S500
G1 X-0.1S0
G1 X-0.05S500
G1 X-0.1S0
G1 X-0.05S500
G1 X-0.1S0
G1 X-0.05S500
G1 X-0.1S0
G1 X-0.05S500
G1 X-0.1S0
G1 X-0.05S500
G1 X-0.15S0
G1 X-0.05S500
G1 X-0.15S0
G1 X-0.05S500
G1 X-0.2S0
G1 X-0.05S500
G1 X-1.5S0
G1 X-0.05S500
G1 X-0.2S0
G1 X-0.05S500
G1 X-0.15S0
G1 X-0.05S500
G1 X-0.1S0
G1 X-0.05S500
G1 X-0.1S0
G1 X-0.05S500
G1 X-0.1S0
G1 X-0.05S500
G1 X-0.1S0
G1 X-0.05S500
G1 X-0.1S0
G1 X-0.05S500
G1 X-0.1S0
G1 X-0.05S500
G1 X-0.1S0
G1 X-0.05S500
G1 X-0.1S0
G1 X-0.05S500
G1 X-0.1S0
G1 X-0.05S500
G1 X-0.1S0
G1 X-0.05S500
G1 X-0.1S0
G1 X-0.05S500
G1 X-0.1S0
G1 X-0.05S500
G1 X-0.1S0
G1 X-0.05S500
G1 X-0.1S0
G1 X-0.05S500
G1 X-0.1S0
G1 X-0.05S500
G1 X-0.1S0
G1 X-0.05S500
G1 X-0.1S0
G1 X-0.05S500
G1 X-0.1S0
G1 X-0.05S500
G1 X-0.15S0
G1 X-0.05S500
G1 X-0.15S0
G1 X-0.05S500
G1 X-0.2S0
G1 X-0.05S500
G1 X-1.9S0
G1 X-0.05S500
G1 X-0.15S0
G1 X-0.05S500
G1 X-0.15S0
G1 X-0.05S500
G1 X-0.15S0
G1 X-0.05S500
G1 X-0.1S0
G1 X-0.05S500
G1 X-0.1S0
G1 X-0.05S500
G1 X-0.1S0
G1 X-0.05S500
G1 X-0.1S0
G1 X-0.05S500
G1 X-0.1S0
G1 X-0.05S500
G1 X-0.1S0
G1 X-0.05S500
G1 X-0.15S0
G1 X-0.05S500
G1 X-0.15S0
G1 X-0.05S500
G1 X-0.2S0
G1 X-0.05S500
G1 X-1.45S0
G1 X-0.05S500
G1 X-0.15S0
G1 X-0.05S500
G1 X-0.15S0
G1 X-0.05S500
G1 X-0.15S0
G1 X-0.05S500
G1 X-0.15S0
G1 X-0.05S500
G1 X-0.15S0
G1 X-0.05S500
G1 X-0.15S0
G1 X-0.05S500
G1 X-0.1S0
G1 X-0.05S500
G1 X-0.1S0
G1 X-0.05S500
G1 X-0.1S0
G1 X-0.05S500
G1 X-0.1S0
G1 X-0.05S500
G1 X-0.1S0
G1 X-0.05S500
G1 X-0.1S0
G1 X-0.05S500
G1 X-0.1S0
G1 X-0.05S500
G1 X-0.1S0
G1 X-0.05S500
G1 X-0.1S0
G1 X-0.05S500
G1 X-0.1S0
G1 X-0.05S500
G1 X-0.15S0
G1 X-0.05S500
G1 X-0.15S0
G1 X-0.05S500
G1 X-0.2S0
G1 X-0.05S500
G1 X-0.2S0
G1 X-0.05S500
G1 X-0.2S0
G1 X-0.05S500
G1 X-0.75S0
G1 X-2.25S500
G0 X-2.917
G0 Y0.05
G0 X2.917
G1 X2.25
G1 X0.6S0
G1 X62.25S500
G1 X0.55S0
G1 X2.65S500
G0 X2.917
G0 Y0.05
G0 X-2.917
G1 X-2.6
G1 X-0.55S0
G1 X-62.35S500
G1 X-0.55S0
G1 X-2.25S500
G0 X-2.917
G0 Y0.05
G0 X2.917
G1 X2.25
G1 X0.55S0
G1 X62.4S500
G1 X0.5S0
G1 X2.6S500
G0 X2.917
G0 X-0.05Y0.05
G0 X-2.917
G1 X-2.55
G1 X-0.45S0
G1 X-62.5S500
G1 X-0.5S0
G1 X-2.25S500
G0 X-2.917
G0 Y0.05
G0 X2.917
G1 X2.15
G1 X0.55S0
G1 X62.6S500
G1 X0.4S0
G1 X2.6S500
G0 X2.917
G0 Y0.05
G0 X-2.917
G1 X-2.6
G1 X-0.35S0
G1 X-62.75S500
G1 X-0.5S0
G1 X-2.1S500
G0 X-2.917
G0 Y0.05
G0 X2.917
G1 X2.05
G1 X0.5S0
G1 X62.85S500
G1 X0.3S0
G1 X2.6S500
G0 X2.917
G0 Y0.05
G0 X-2.917
G1 X-2.55
G1 X-0.35S0
G1 X-62.85S500
G1 X-0.55S0
G1 X-2S500
G0 X-2.917
G0 Y0.05
G0 X2.917
G1 X2.05
G1 X0.5S0
G1 X62.9S500
G1 X0.3S0
G1 X2.5S500
G0 X2.917
G0 X0.05Y0.05
G0 X-2.917
G1 X-2.5
G1 X-0.35S0
G1 X-62.9S500
G1 X-0.55S0
G1 X-2S500
G0 X-2.917
G0 Y0.05
G0 X2.917
G1 X2
G1 X0.55S0
G1 X62.9S500
G1 X0.45S0
G1 X2.4S500
G0 X2.917
G0 Y0.05
G0 X-2.917
G1 X-2.35
G1 X-0.5S0
G1 X-62.9S500
G1 X-0.55S0
G1 X-2S500
G0 X-2.917
G0 Y0.05
G0 X2.917
G1 X2.05
G1 X0.5S0
G1 X62.9S500
G1 X0.5S0
G1 X2.35S500
G0 X2.917
G0 X-0.05Y0.05
G0 X-2.917
G1 X-2.3
G1 X-0.5S0
G1 X-62.9S500
G1 X-0.55S0
G1 X-2S500
G0 X-2.917
G0 Y0.05
G0 X2.917
G1 X2
G1 X0.55S0
G1 X2.5S500
G1 X0.05S0
G1 X8.2S500
G1 X0.05S0
G1 X1.5S500
G1 X0.05S0
G1 X0.2S500
G1 X0.05S0
G1 X13.05S500
G1 X0.05S0
G1 X1.5S500
G1 X0.05S0
G1 X3.25S500
G1 X0.05S0
G1 X1.55S500
G1 X0.05S0
G1 X0.2S500
G1 X0.05S0
G1 X1.45S500
G1 X0.05S0
G1 X4.9S500
G1 X0.05S0
G1 X8.15S500
G1 X0.05S0
G1 X11.5S500
G1 X0.05S0
G1 X1.45S500
G1 X0.05S0
G1 X2.8S500
G1 X0.5S0
G1 X2.35S500
G0 X2.917
G0 Y0.05
G0 X-2.917
G1 X-2.35
G1 X-0.5S0
G1 X-0.9S500
G1 X-0.2S0
G1 X-0.05S500
G1 X-0.2S0
G1 X-0.05S500
G1 X-0.05S0
G1 X-1.2S500
G1 X-0.35S0
G1 X-1.2S500
G1 X-0.35S0
G1 X-1.2S500
G1 X-0.55S0
G1 X-1.25S500
G1 X-0.3S0
G1 X-1.25S500
G1 X-0.6S0
G1 X-0.95S500
G1 X-0.55S0
G1 X-1.25S500
G1 X-0.3S0
G1 X-1.2S500
G1 X-0.6S0
G1 X-1.2S500
G1 X-0.35S0
G1 X-1.2S500
G1 X-0.55S0
G1 X-1.25S500
G1 X-0.3S0
G1 X-1.25S500
G1 X-0.6S0
G1 X-0.95S500
G1 X-0.55S0
G1 X-1.25S500
G1 X-0.3S0
G1 X-1.2S500
G1 X-0.05S0
G1 X-0.05S500
G1 X-0.5S0
G1 X-0.95S500
G1 X-0.6S0
G1 X-1.2S500
G1 X-0.35S0
G1 X-1.2S500
G1 X-0.6S0
G1 X-1.2S500
G1 X-0.3S0
G1 X-1.25S500
G1 X-0.55S0
G1 X-1.25S500
G1 X-0.35S0
G1 X-1.15S500
G1 X-0.35S0
G1 X-1.2S500
G1 X-0.6S0
G1 X-1.25S500
G1 X-0.25S0
G1 X-1.25S500
G1 X-0.6S0
G1 X-0.95S500
G1 X-0.6S0
G1 X-1.2S500
G1 X-0.55S0
G1 X-1S500
G1 X-0.55S0
G1 X-1.25S500
G1 X-0.3S0
G1 X-1.2S500
G1 X-0.6S0
G1 X-1.25S500
G1 X-0.3S0
G1 X-1.2S500
G1 X-0.05S0
G1 X-0.05S500
G1 X-0.2S0
G1 X-0.05S500
G1 X-0.2S0
G1 X-1S500
G1 X-0.6S0
G1 X-1.2S500
G1 X-0.3S0
G1 X-1.25S500
G1 X-0.6S0
G1 X-1.2S500
G1 X-0.3S0
G1 X-1.25S500
G1 X-0.55S0
G1 X-0.6S500
G1 X-0.5S0
G1 X-2.05S500
G0 X-2.917
G0 Y0.05
G0 X2.917
G1 X2
G1 X0.55S0
G1 X0.55S500
G1 X0.7S0
G1 X1.1S500
G1 X0.4S0
G1 X1.15S500
G1 X0.65S0
G1 X1.15S500
G1 X0.4S0
G1 X1.1S500
G1 X0.7S0
G1 X0.85S500
G1 X0.7S0
G1 X1.15S500
G1 X0.4S0
G1 X1.1S500
G1 X0.7S0
G1 X1.1S500
G1 X0.4S0
G1 X1.15S500
G1 X0.65S0
G1 X0.9S500
G1 X0.7S0
G1 X1.05S500
G1 X0.7S0
G1 X0.85S500
G1 X0.7S0
G1 X1.15S500
G1 X0.35S0
G1 X1.15S500
G1 X0.7S0
G1 X1.1S500
G1 X0.45S0
G1 X1.1S500
G1 X0.4S0
G1 X1.15S500
G1 X0.7S0
G1 X1.1S500
G1 X0.4S0
G1 X1.1S500
G1 X0.7S0
G1 X1.15S500
G1 X0.35S0
G1 X1.15S500
G1 X0.7S0
G1 X0.85S500
G1 X0.7S0
G1 X1.1S500
G1 X0.4S0
G1 X1.15S500
G1 X0.7S0
G1 X0.8S500
G1 X0.7S0
G1 X1.1S500
G1 X0.45S0
G1 X1.15S500
G1 X0.6S0
G1 X1.15S500
G1 X0.45S0
G1 X1.1S500
G1 X0.7S0
G1 X1.1S500
G1 X0.4S0
G1 X1.15S500
G1 X0.7S0
G1 X0.8S500
G1 X0.7S0
G1 X1.1S500
G1 X0.45S0
G1 X1.15S500
G1 X0.65S0
G1 X1.1S500
G1 X0.45S0
G1 X1.1S500
G1 X0.45S0
G1 X1.1S500
G1 X0.65S0
G1 X0.85S500
G1 X0.5S0
G1 X2.35S500
G0 X2.917
G0 Y0.05
G0 X-2.917
G1 X-2.35
G1 X-0.5S0
G1 X-0.8S500
G1 X-0.7S0
G1 X-1.1S500
G1 X-0.5S0
G1 X-1S500
G1 X-0.5S0
G1 X-1.1S500
G1 X-0.7S0
G1 X-1.05S500
G1 X-0.5S0
G1 X-1.05S500
G1 X-0.75S0
G1 X-0.8S500
G1 X-0.75S0
G1 X-1.05S500
G1 X-0.45S0
G1 X-1.1S500
G1 X-0.75S0
G1 X-1.05S500
G1 X-0.45S0
G1 X-1.1S500
G1 X-0.7S0
G1 X-1.1S500
G1 X-0.45S0
G1 X-1.05S500
G1 X-0.75S0
G1 X-0.8S500
G1 X-0.75S0
G1 X-1.05S500
G1 X-0.5S0
G1 X-1.05S500
G1 X-0.75S0
G1 X-0.8S500
G1 X-0.75S0
G1 X-1.05S500
G1 X-0.45S0
G1 X-1.1S500
G1 X-0.7S0
G1 X-1.05S500
G1 X-0.5S0
G1 X-1.05S500
G1 X-0.75S0
G1 X-1.05S500
G1 X-0.5S0
G1 X-1.05S500
G1 X-0.5S0
G1 X-1.05S500
G1 X-0.7S0
G1 X-1.1S500
G1 X-0.45S0
G1 X-1.1S500
G1 X-0.7S0
G1 X-0.8S500
G1 X-0.75S0
G1 X-1.05S500
G1 X-0.75S0
G1 X-0.8S500
G1 X-0.75S0
G1 X-1.05S500
G1 X-0.5S0
G1 X-1.05S500
G1 X-0.75S0
G1 X-1.05S500
G1 X-0.45S0
G1 X-1.1S500
G1 X-0.7S0
G1 X-0.8S500
G1 X-0.75S0
G1 X-1.05S500
G1 X-0.5S0
G1 X-1.05S500
G1 X-0.75S0
G1 X-1.05S500
G1 X-0.5S0
G1 X-1.05S500
G1 X-0.75S0
G1 X-0.5S500
G1 X-0.55S0
G1 X-2S500
G0 X-2.917
G0 Y0.05
G0 X2.917
G1 X2
G1 X0.55S0
G1 X0.5S500
G1 X0.75S0
G1 X1S500
G1 X0.6S0
G1 X1S500
G1 X0.75S0
G1 X1S500
G1 X0.6S0
G1 X0.95S500
G1 X0.75S0
G1 X0.8S500
G1 X0.8S0
G1 X1S500
G1 X0.55S0
G1 X1S500
G1 X0.75S0
G1 X1S500
G1 X0.6S0
G1 X0.95S500
G1 X0.8S0
G1 X0.8S500
G1 X0.75S0
G1 X1S500
G1 X0.8S0
G1 X0.75S500
G1 X0.8S0
G1 X1S500
G1 X0.55S0
G1 X1S500
G1 X0.8S0
G1 X0.95S500
G1 X0.6S0
G1 X0.95S500
G1 X0.6S0
G1 X1S500
G1 X0.75S0
G1 X1S500
G1 X0.6S0
G1 X0.95S500
G1 X0.8S0
G1 X0.95S500
G1 X0.65S0
G1 X0.95S500
G1 X0.8S0
G1 X0.75S500
G1 X0.8S0
G1 X0.95S500
G1 X0.6S0
G1 X1S500
G1 X0.75S0
G1 X0.8S500
G1 X0.8S0
G1 X0.95S500
G1 X0.55S0
G1 X1.05S500
G1 X0.75S0
G1 X1S500
G1 X0.55S0
G1 X1S500
G1 X0.8S0
G1 X1S500
G1 X0.55S0
G1 X0.95S500
G1 X0.8S0
G1 X0.8S500
G1 X0.8S0
G1 X0.95S500
G1 X0.55S0
G1 X1.05S500
G1 X0.75S0
G1 X1S500
G1 X0.6S0
G1 X0.9S500
G1 X0.6S0
G1 X1S500
G1 X0.8S0
G1 X0.75S500
G1 X0.5S0
G1 X2.3S500
G0 X2.917
G0 X0.05Y0.05
G0 X-2.917
G1 X-2.35
G1 X-0.5S0
G1 X-0.7S500
G1 X-0.85S0
G1 X-0.95S500
G1 X-0.7S0
G1 X-0.8S500
G1 X-0.7S0
G1 X-1S500
G1 X-0.7S0
G1 X-1S500
G1 X-0.65S0
G1 X-0.85S500
G1 X-0.85S0
G1 X-0.8S500
G1 X-0.85S0
G1 X-0.85S500
G1 X-0.65S0
G1 X-0.95S500
G1 X-0.8S0
G1 X-0.95S500
G1 X-0.65S0
G1 X-1S500
G1 X-0.7S0
G1 X-0.95S500
G1 X-0.7S0
G1 X-0.85S500
G1 X-0.9S0
G1 X-0.75S500
G1 X-0.75S0
G1 X-0.95S500
G1 X-0.65S0
G1 X-0.9S500
G1 X-0.85S0
G1 X-0.8S500
G1 X-0.85S0
G1 X-0.8S500
G1 X-0.75S0
G1 X-0.9S500
G1 X-0.8S0
G1 X-0.95S500
G1 X-0.65S0
G1 X-0.85S500
G1 X-0.85S0
G1 X-0.95S500
G1 X-0.7S0
G1 X-0.8S500
G1 X-0.75S0
G1 X-0.95S500
G1 X-0.75S0
G1 X-0.9S500
G1 X-0.7S0
G1 X-0.95S500
G1 X-0.8S0
G1 X-0.75S500
G1 X-0.85S0
G1 X-0.85S500
G1 X-0.85S0
G1 X-0.8S500
G1 X-0.85S0
G1 X-0.85S500
G1 X-0.7S0
G1 X-0.9S500
G1 X-0.8S0
G1 X-0.9S500
G1 X-0.75S0
G1 X-0.9S500
G1 X-0.75S0
G1 X-0.8S500
G1 X-0.9S0
G1 X-0.85S500
G1 X-0.65S0
G1 X-0.95S500
G1 X-0.8S0
G1 X-0.9S500
G1 X-0.7S0
G1 X-0.95S500
G1 X-0.75S0
G1 X-0.5S500
G1 X-0.5S0
G1 X-2.05S500
G0 X-2.917
G0 Y0.05
G0 X2.917
G1 X2
G1 X0.55S0
G1 X0.5S500
G1 X0.8S0
G1 X0.85S500
G1 X0.8S0
G1 X0.9S500
G1 X0.75S0
G1 X0.9S500
G1 X0.8S0
G1 X0.7S500
G1 X0.95S0
G1 X0.75S500
G1 X0.8S0
G1 X0.9S500
G1 X0.8S0
G1 X0.85S500
G1 X0.75S0
G1 X0.9S500
G1 X0.8S0
G1 X0.75S500
G1 X0.9S0
G1 X0.8S500
G1 X0.95S0
G1 X0.7S500
G1 X0.85S0
G1 X0.85S500
G1 X0.75S0
G1 X0.9S500
G1 X0.75S0
G1 X0.9S500
G1 X0.8S0
G1 X0.85S500
G1 X0.85S0
G1 X0.7S500
G1 X0.8S0
G1 X0.9S500
G1 X0.95S0
G1 X0.7S500
G1 X0.8S0
G1 X0.9S500
G1 X0.75S0
G1 X0.9S500
G1 X0.75S0
G1 X0.75S500
G1 X0.95S0
G1 X0.75S500
G1 X0.95S0
G1 X0.7S500
G1 X0.8S0
G1 X0.9S500
G1 X0.75S0
G1 X0.75S500
G1 X0.95S0
G1 X0.7S500
G1 X0.85S0
G1 X0.9S500
G1 X0.7S0
G1 X0.95S500
G1 X0.8S0
G1 X0.85S500
G1 X0.8S0
G1 X0.85S500
G1 X0.85S0
G1 X0.7S500
G1 X0.9S0
G1 X0.8S500
G1 X0.95S0
G1 X0.65S500
G1 X0.85S0
G1 X0.9S500
G1 X0.7S0
G1 X0.95S500
G1 X0.8S0
G1 X0.65S500
G1 X0.85S0
G1 X0.9S500
G1 X0.95S0
G1 X0.6S500
G1 X0.5S0
G1 X2.35S500
G0 X2.917
G0 Y0.05
G0 X-2.917
G1 X-2.35
G1 X-0.5S0
G1 X-0.6S500
G1 X-0.95S0
G1 X-0.85S500
G1 X-0.9S0
G1 X-0.6S500
G1 X-0.95S0
G1 X-0.8S500
G1 X-0.75S0
G1 X-0.85S500
G1 X-0.9S0
G1 X-0.6S500
G1 X-1S0
G1 X-0.75S500
G1 X-1S0
G1 X-0.65S500
G1 X-0.85S0
G1 X-0.85S500
G1 X-0.8S0
G1 X-0.8S500
G1 X-0.95S0
G1 X-0.8S500
G1 X-0.8S0
G1 X-0.8S500
G1 X-0.9S0
G1 X-0.65S500
G1 X-1S0
G1 X-0.75S500
G1 X-0.75S0
G1 X-0.85S500
G1 X-0.9S0
G1 X-0.6S500
G1 X-1S0
G1 X-0.8S500
G1 X-0.95S0
G1 X-0.6S500
G1 X-0.95S0
G1 X-0.8S500
G1 X-0.8S0
G1 X-0.8S500
G1 X-0.9S0
G1 X-0.65S500
G1 X-0.95S0
G1 X-0.85S500
G1 X-0.9S0
G1 X-0.6S500
G1 X-0.95S0
G1 X-0.85S500
G1 X-0.75S0
G1 X-0.85S500
G1 X-0.85S0
G1 X-0.85S500
G1 X-0.8S0
G1 X-0.75S500
G1 X-0.95S0
G1 X-0.65S500
G1 X-0.95S0
G1 X-0.8S500
G1 X-0.95S0
G1 X-0.65S500
G1 X-0.9S0
G1 X-0.8S500
G1 X-0.8S0
G1 X-0.85S500
G1 X-0.85S0
G1 X-0.85S500
G1 X-0.8S0
G1 X-0.75S500
G1 X-1S0
G1 X-0.6S500
G1 X-0.9S0
G1 X-0.85S500
G1 X-0.75S0
G1 X-0.85S500
G1 X-0.9S0
G1 X-0.85S500
G1 X-0.75S0
G1 X-0.5S500
G1 X-0.55S0
G1 X-2S500
G0 X-2.917
G0 Y0.05
G0 X2.917
G1 X2
G1 X0.55S0
G1 X0.5S500
G1 X0.8S0
G1 X0.75S500
G1 X1S0
G1 X0.75S500
G1 X0.8S0
G1 X0.8S500
G1 X0.95S0
G1 X0.6S500
G1 X0.95S0
G1 X0.85S500
G1 X0.75S0
G1 X0.8S500
G1 X0.95S0
G1 X0.8S500
G1 X0.75S0
G1 X0.8S500
G1 X1S0
G1 X0.55S500
G1 X1S0
G1 X0.8S500
G1 X0.95S0
G1 X0.6S500
G1 X1S0
G1 X0.75S500
G1 X0.8S0
G1 X0.8S500
G1 X0.95S0
G1 X0.8S500
G1 X0.8S0
G1 X0.75S500
G1 X1S0
G1 X0.55S500
G1 X1S0
G1 X0.8S500
G1 X1S0
G1 X0.55S500
G1 X1S0
G1 X0.75S500
G1 X0.8S0
G1 X0.8S500
G1 X0.95S0
G1 X0.6S500
G1 X1S0
G1 X0.75S500
G1 X1S0
G1 X0.6S500
G1 X0.95S0
G1 X0.8S500
G1 X0.8S0
G1 X0.7S500
G1 X1.05S0
G1 X0.55S500
G1 X0.95S0
G1 X0.85S500
G1 X0.7S0
G1 X0.85S500
G1 X0.95S0
G1 X0.8S500
G1 X0.8S0
G1 X0.8S500
G1 X0.95S0
G1 X0.55S500
G1 X1S0
G1 X0.8S500
G1 X1S0
G1 X0.55S500
G1 X1S0
G1 X0.8S500
G1 X0.7S0
G1 X0.85S500
G1 X0.95S0
G1 X0.55S500
G1 X1S0
G1 X0.8S500
G1 X1S0
G1 X0.55S500
G1 X0.5S0
G1 X2.3S500
G0 X2.917
G0 X0.05Y0.05
G0 X-2.917
G1 X-2.35
G1 X-0.5S0
G1 X-0.55S500
G1 X-1S0
G1 X-0.75S500
G1 X-1S0
G1 X-0.6S500
G1 X-1S0
G1 X-0.8S500
G1 X-0.7S0
G1 X-0.8S500
G1 X-1S0
G1 X-0.55S500
G1 X-1S0
G1 X-0.8S500
G1 X-0.95S0
G1 X-0.6S500
G1 X-1S0
G1 X-0.75S500
G1 X-0.75S0
G1 X-0.8S500
G1 X-1.05S0
G1 X-0.8S500
G1 X-0.7S0
G1 X-0.8S500
G1 X-1S0
G1 X-0.6S500
G1 X-1S0
G1 X-0.75S500
G1 X-0.75S0
G1 X-0.8S500
G1 X-1S0
G1 X-0.55S500
G1 X-1S0
G1 X-0.75S500
G1 X-1S0
G1 X-0.55S500
G1 X-1S0
G1 X-0.8S500
G1 X-0.75S0
G1 X-0.8S500
G1 X-1.05S0
G1 X-0.55S500
G1 X-0.95S0
G1 X-0.8S500
G1 X-1S0
G1 X-0.55S500
G1 X-1S0
G1 X-0.8S500
G1 X-0.75S0
G1 X-0.8S500
G1 X-1S0
G1 X-0.75S500
G1 X-0.75S0
G1 X-0.8S500
G1 X-1.05S0
G1 X-0.5S500
G1 X-1S0
G1 X-0.8S500
G1 X-0.95S0
G1 X-0.55S500
G1 X-1.05S0
G1 X-0.75S500
G1 X-0.8S0
G1 X-0.8S500
G1 X-1S0
G1 X-0.75S500
G1 X-0.8S0
G1 X-0.75S500
G1 X-1S0
G1 X-0.55S500
G1 X-1S0
G1 X-0.8S500
G1 X-0.75S0
G1 X-0.75S500
G1 X-1.05S0
G1 X-0.8S500
G1 X-0.75S0
G1 X-0.5S500
G1 X-0.5S0
G1 X-2.05S500
G0 X-2.917
G0 Y0.05
G0 X2.917
G1 X2
G1 X0.55S0
G1 X0.5S500
G1 X0.8S0
G1 X0.75S500
G1 X1.05S0
G1 X0.7S500
G1 X0.8S0
G1 X0.8S500
G1 X1S0
G1 X0.6S500
G1 X0.95S0
G1 X0.75S500
G1 X0.8S0
G1 X0.75S500
G1 X1S0
G1 X0.8S500
G1 X0.75S0
G1 X0.8S500
G1 X1.05S0
G1 X0.55S500
G1 X0.95S0
G1 X0.8S500
G1 X0.95S0
G1 X0.55S500
G1 X1.05S0
G1 X0.75S500
G1 X0.8S0
G1 X0.75S500
G1 X1S0
G1 X0.8S500
G1 X0.8S0
G1 X0.75S500
G1 X0.95S0
G1 X0.6S500
G1 X1S0
G1 X0.8S500
G1 X0.95S0
G1 X0.55S500
G1 X1.05S0
G1 X0.75S500
G1 X0.8S0
G1 X0.8S500
G1 X1S0
G1 X0.6S500
G1 X0.9S0
G1 X0.8S500
G1 X0.95S0
G1 X0.6S500
G1 X1S0
G1 X0.8S500
G1 X0.75S0
G1 X0.75S500
G1 X1.05S0
G1 X0.6S500
G1 X0.95S0
G1 X0.8S500
G1 X0.75S0
G1 X0.75S500
G1 X1.05S0
G1 X0.75S500
G1 X0.8S0
G1 X0.75S500
G1 X0.95S0
G1 X0.65S500
G1 X1S0
G1 X0.75S500
G1 X0.95S0
G1 X0.6S500
G1 X1S0
G1 X0.8S500
G1 X0.75S0
G1 X0.75S500
G1 X1S0
G1 X0.6S500
G1 X1S0
G1 X0.75S500
G1 X0.95S0
G1 X0.6S500
G1 X0.45S0
G1 X2.4S500
G0 X2.917
G0 Y0.05
G0 X-2.917
G1 X-2.35
G1 X-0.5S0
G1 X-0.6S500
G1 X-0.95S0
G1 X-0.75S500
G1 X-0.9S0
G1 X-0.8S500
G1 X-0.9S0
G1 X-0.8S500
G1 X-0.7S0
G1 X-0.8S500
G1 X-1.05S0
G1 X-0.6S500
G1 X-0.9S0
G1 X-0.8S500
G1 X-0.9S0
G1 X-0.75S500
G1 X-0.9S0
G1 X-0.75S500
G1 X-0.8S0
G1 X-0.8S500
G1 X-1S0
G1 X-0.8S500
G1 X-0.7S0
G1 X-0.8S500
G1 X-0.9S0
G1 X-0.65S500
G1 X-1.05S0
G1 X-0.7S500
G1 X-0.8S0
G1 X-0.8S500
G1 X-1S0
G1 X-0.65S500
G1 X-0.9S0
G1 X-0.75S500
G1 X-0.95S0
G1 X-0.6S500
G1 X-1S0
G1 X-0.8S500
G1 X-0.8S0
G1 X-0.75S500
G1 X-1.05S0
G1 X-0.6S500
G1 X-0.9S0
G1 X-0.8S500
G1 X-1S0
G1 X-0.65S500
G1 X-0.9S0
G1 X-0.8S500
G1 X-0.75S0
G1 X-0.8S500
G1 X-1S0
G1 X-0.75S500
G1 X-0.8S0
G1 X-0.75S500
G1 X-1.05S0
G1 X-0.6S500
G1 X-0.9S0
G1 X-0.8S500
G1 X-0.9S0
G1 X-0.65S500
G1 X-1S0
G1 X-0.75S500
G1 X-0.8S0
G1 X-0.8S500
G1 X-1S0
G1 X-0.75S500
G1 X-0.75S0
G1 X-0.8S500
G1 X-0.9S0
G1 X-0.65S500
G1 X-1S0
G1 X-0.8S500
G1 X-0.75S0
G1 X-0.75S500
G1 X-1.05S0
G1 X-0.8S500
G1 X-0.75S0
G1 X-0.5S500
G1 X-0.55S0
G1 X-2S500
G0 X-2.917
G0 Y0.05
G0 X2.917
G1 X2.05
G1 X0.5S0
G1 X0.5S500
G1 X0.75S0
G1 X0.8S500
G1 X1.05S0
G1 X0.75S500
G1 X0.75S0
G1 X0.8S500
G1 X1S0
G1 X0.65S500
G1 X0.9S0
G1 X0.75S500
G1 X0.8S0
G1 X0.75S500
G1 X1S0
G1 X0.8S500
G1 X0.75S0
G1 X0.8S500
G1 X1.05S0
G1 X0.65S500
G1 X0.85S0
G1 X0.8S500
G1 X0.85S0
G1 X0.65S500
G1 X1S0
G1 X0.85S500
G1 X0.75S0
G1 X0.75S500
G1 X1S0
G1 X0.8S500
G1 X0.8S0
G1 X0.75S500
G1 X0.8S0
G1 X0.7S500
G1 X1.05S0
G1 X0.8S500
G1 X0.85S0
G1 X0.65S500
G1 X1.05S0
G1 X0.8S500
G1 X0.75S0
G1 X0.75S500
G1 X1.05S0
G1 X0.65S500
G1 X0.85S0
G1 X0.8S500
G1 X0.85S0
G1 X0.7S500
G1 X1S0
G1 X0.8S500
G1 X0.75S0
G1 X0.75S500
G1 X1.05S0
G1 X0.7S500
G1 X0.85S0
G1 X0.75S500
G1 X0.75S0
G1 X0.8S500
G1 X1.05S0
G1 X0.75S500
G1 X0.8S0
G1 X0.75S500
G1 X0.85S0
G1 X0.85S500
G1 X0.85S0
G1 X0.8S500
G1 X0.8S0
G1 X0.75S500
G1 X1S0
G1 X0.8S500
G1 X0.7S0
G1 X0.8S500
G1 X0.85S0
G1 X0.9S500
G1 X0.85S0
G1 X0.75S500
G1 X0.85S0
G1 X0.7S500
G1 X0.5S0
G1 X2.35S500
G0 X2.917
G0 X-0.05Y0.05
G0 X-2.917
G1 X-2.3
G1 X-0.5S0
G1 X-0.75S500
G1 X-0.8S0
G1 X-0.75S500
G1 X-0.8S0
G1 X-1S500
G1 X-0.8S0
G1 X-0.75S500
G1 X-0.75S0
G1 X-0.8S500
G1 X-1.05S0
G1 X-0.75S500
G1 X-0.75S0
G1 X-0.8S500
G1 X-0.8S0
G1 X-0.95S500
G1 X-0.8S0
G1 X-0.8S500
G1 X-0.75S0
G1 X-0.8S500
G1 X-1S0
G1 X-0.75S500
G1 X-0.75S0
G1 X-0.8S500
G1 X-0.8S0
G1 X-0.75S500
G1 X-1S0
G1 X-0.8S500
G1 X-0.75S0
G1 X-0.8S500
G1 X-1S0
G1 X-0.8S500
G1 X-0.75S0
G1 X-0.75S500
G1 X-0.8S0
G1 X-0.75S500
G1 X-1S0
G1 X-0.8S500
G1 X-0.8S0
G1 X-0.75S500
G1 X-1S0
G1 X-0.75S500
G1 X-0.8S0
G1 X-0.8S500
G1 X-1S0
G1 X-0.75S500
G1 X-0.8S0
G1 X-0.8S500
G1 X-0.75S0
G1 X-0.75S500
G1 X-1.05S0
G1 X-0.75S500
G1 X-0.8S0
G1 X-0.75S500
G1 X-1S0
G1 X-0.8S500
G1 X-0.75S0
G1 X-0.8S500
G1 X-0.8S0
G1 X-0.75S500
G1 X-1S0
G1 X-0.75S500
G1 X-0.8S0
G1 X-0.8S500
G1 X-1S0
G1 X-0.8S500
G1 X-0.75S0
G1 X-0.8S500
G1 X-0.75S0
G1 X-0.75S500
G1 X-1S0
G1 X-0.8S500
G1 X-0.75S0
G1 X-0.8S500
G1 X-1S0
G1 X-0.8S500
G1 X-0.75S0
G1 X-0.5S500
G1 X-0.55S0
G1 X-2S500
G0 X-2.917
G0 Y0.05
G0 X2.917
G1 X2
G1 X0.55S0
G1 X0.5S500
G1 X0.75S0
G1 X0.8S500
G1 X1S0
G1 X0.8S500
G1 X0.7S0
G1 X0.85S500
G1 X1S0
G1 X0.8S500
G1 X0.7S0
G1 X0.85S500
G1 X0.7S0
G1 X0.85S500
G1 X0.95S0
G1 X0.85S500
G1 X0.7S0
G1 X0.85S500
G1 X0.95S0
G1 X0.8S500
G1 X0.7S0
G1 X0.85S500
G1 X0.75S0
G1 X0.8S500
G1 X0.95S0
G1 X0.85S500
G1 X0.7S0
G1 X0.85S500
G1 X0.95S0
G1 X0.85S500
G1 X0.7S0
G1 X0.85S500
G1 X0.7S0
G1 X0.8S500
G1 X1S0
G1 X0.8S500
G1 X0.75S0
G1 X0.8S500
G1 X0.95S0
G1 X0.85S500
G1 X0.7S0
G1 X0.85S500
G1 X0.95S0
G1 X0.8S500
G1 X0.75S0
G1 X0.85S500
G1 X0.7S0
G1 X0.8S500
G1 X1S0
G1 X0.8S500
G1 X0.75S0
G1 X0.8S500
G1 X0.95S0
G1 X0.85S500
G1 X0.7S0
G1 X0.85S500
G1 X0.7S0
G1 X0.85S500
G1 X0.95S0
G1 X0.85S500
G1 X0.7S0
G1 X0.8S500
G1 X0.75S0
G1 X1.1S500
G1 X0.7S0
G1 X0.8S500
G1 X0.7S0
G1 X0.85S500
G1 X0.95S0
G1 X0.85S500
G1 X0.7S0
G1 X0.85S500
G1 X0.7S0
G1 X1.1S500
G1 X0.7S0
G1 X0.8S500
G1 X0.75S0
G1 X0.8S500
G1 X0.5S0
G1 X2.35S500
G0 X2.917
G0 Y0.05
G0 X-2.917
G1 X-2.35
G1 X-0.5S0
G1 X-0.85S500
G1 X-0.65S0
G1 X-0.9S500
G1 X-0.6S0
G1 X-1.2S500
G1 X-0.6S0
G1 X-0.9S500
G1 X-0.65S0
G1 X-0.9S500
G1 X-0.9S0
G1 X-0.95S500
G1 X-0.6S0
G1 X-0.9S500
G1 X-0.65S0
G1 X-1.15S500
G1 X-0.65S0
G1 X-0.9S500
G1 X-0.6S0
G1 X-0.95S500
G1 X-0.85S0
G1 X-0.9S500
G1 X-0.65S0
G1 X-0.9S500
G1 X-0.65S0
G1 X-0.9S500
G1 X-0.9S0
G1 X-0.9S500
G1 X-0.65S0
G1 X-0.9S500
G1 X-0.9S0
G1 X-0.9S500
G1 X-0.6S0
G1 X-0.95S500
G1 X-0.6S0
G1 X-0.9S500
G1 X-0.95S0
G1 X-0.9S500
G1 X-0.6S0
G1 X-0.95S500
G1 X-0.85S0
G1 X-0.9S500
G1 X-0.65S0
G1 X-0.9S500
G1 X-0.9S0
G1 X-0.9S500
G1 X-0.6S0
G1 X-0.95S500
G1 X-0.6S0
G1 X-0.9S500
G1 X-0.95S0
G1 X-0.9S500
G1 X-0.6S0
G1 X-0.95S500
G1 X-0.85S0
G1 X-0.9S500
G1 X-0.65S0
G1 X-0.9S500
G1 X-0.65S0
G1 X-0.9S500
G1 X-0.9S0
G1 X-0.9S500
G1 X-0.65S0
G1 X-0.9S500
G1 X-0.9S0
G1 X-0.9S500
G1 X-0.6S0
G1 X-0.95S500
G1 X-0.6S0
G1 X-0.9S500
G1 X-0.9S0
G1 X-0.95S500
G1 X-0.6S0
G1 X-0.9S500
G1 X-0.9S0
G1 X-0.9S500
G1 X-0.6S0
G1 X-0.6S500
G1 X-0.55S0
G1 X-2S500
G0 X-2.917
G0 Y0.05
G0 X2.917
G1 X2.05
G1 X0.5S0
G1 X0.6S500
G1 X0.55S0
G1 X1.05S500
G1 X0.7S0
G1 X1.05S500
G1 X0.55S0
G1 X1S500
G1 X0.6S0
G1 X1.2S500
G1 X0.5S0
G1 X1.05S500
G1 X0.5S0
G1 X1.05S500
G1 X0.75S0
G1 X1S500
G1 X0.55S0
G1 X1.05S500
G1 X0.55S0
G1 X1.2S500
G1 X0.55S0
G1 X1S500
G1 X0.5S0
G1 X1.05S500
G1 X0.75S0
G1 X1.05S500
G1 X0.5S0
G1 X1.05S500
G1 X0.75S0
G1 X1S500
G1 X0.55S0
G1 X1.05S500
G1 X0.45S0
G1 X1.25S500
G1 X0.6S0
G1 X1S500
G1 X0.55S0
G1 X1S500
G1 X0.75S0
G1 X1.05S500
G1 X0.5S0
G1 X1.05S500
G1 X0.75S0
G1 X1S500
G1 X0.55S0
G1 X1.05S500
G1 X0.45S0
G1 X1.25S500
G1 X0.6S0
G1 X1S500
G1 X0.55S0
G1 X1.05S500
G1 X0.7S0
G1 X1.05S500
G1 X0.55S0
G1 X1S500
G1 X0.5S0
G1 X1S500
G1 X0.8S0
G1 X1.05S500
G1 X0.5S0
G1 X1S500
G1 X0.55S0
G1 X1.25S500
G1 X0.55S0
G1 X1.05S500
G1 X0.45S0
G1 X1.25S500
G1 X0.6S0
G1 X1S500
G1 X0.5S0
G1 X1.05S500
G1 X0.5S0
G1 X1.3S500
G1 X0.5S0
G1 X1S500
G1 X0.55S0
G1 X0.9S500
G1 X0.5S0
G1 X2.35S500
G0 X2.917
G0 Y0.05
G0 X-2.917
G1 X-2.35
G1 X-0.5S0
G1 X-0.95S500
G1 X-0.4S0
G1 X-1.15S500
G1 X-0.4S0
G1 X-1.4S500
G1 X-0.45S0
G1 X-1.1S500
G1 X-0.4S0
G1 X-1.15S500
G1 X-0.4S0
G1 X-1.4S500
G1 X-0.35S0
G1 X-1.15S500
G1 X-0.45S0
G1 X-1.35S500
G1 X-0.4S0
G1 X-1.15S500
G1 X-0.4S0
G1 X-1.15S500
G1 X-0.65S0
G1 X-1.15S500
G1 X-0.4S0
G1 X-1.1S500
G1 X-0.45S0
G1 X-1.15S500
G1 X-0.6S0
G1 X-1.15S500
G1 X-0.45S0
G1 X-1.1S500
G1 X-0.4S0
G1 X-1.4S500
G1 X-0.4S0
G1 X-1.15S500
G1 X-0.45S0
G1 X-1.1S500
G1 X-0.65S0
G1 X-1.1S500
G1 X-0.45S0
G1 X-1.15S500
G1 X-0.6S0
G1 X-1.2S500
G1 X-0.4S0
G1 X-1.1S500
G1 X-0.4S0
G1 X-1.45S500
G1 X-0.35S0
G1 X-1.15S500
G1 X-0.4S0
G1 X-1.15S500
G1 X-0.65S0
G1 X-1.15S500
G1 X-0.4S0
G1 X-1.15S500
G1 X-0.65S0
G1 X-1.15S500
G1 X-0.4S0
G1 X-1.1S500
G1 X-0.4S0
G1 X-1.45S500
G1 X-0.35S0
G1 X-1.15S500
G1 X-0.4S0
G1 X-1.15S500
G1 X-0.65S0
G1 X-1.15S500
G1 X-0.4S0
G1 X-1.15S500
G1 X-0.4S0
G1 X-1.4S500
G1 X-0.4S0
G1 X-1.1S500
G1 X-0.45S0
G1 X-1.15S500
G1 X-0.6S0
G1 X-1.15S500
G1 X-0.45S0
G1 X-0.65S500
G1 X-0.55S0
G1 X-2S500
G0 X-2.917
G0 Y0.05
G0 X2.917
G1 X2
G1 X0.55S0
G1 X0.75S500
G1 X0.3S0
G1 X1.25S500
G1 X0.5S0
G1 X1.25S500
G1 X0.3S0
G1 X1.25S500
G1 X0.3S0
G1 X1.5S500
G1 X0.35S0
G1 X1.2S500
G1 X0.3S0
G1 X1.25S500
G1 X0.55S0
G1 X1.2S500
G1 X0.35S0
G1 X1.2S500
G1 X0.35S0
G1 X1.45S500
G1 X0.3S0
G1 X1.25S500
G1 X0.35S0
G1 X1.2S500
G1 X0.55S0
G1 X1.25S500
G1 X0.3S0
G1 X1.25S500
G1 X0.55S0
G1 X1.2S500
G1 X0.35S0
G1 X1.2S500
G1 X0.35S0
G1 X1.45S500
G1 X0.3S0
G1 X1.25S500
G1 X0.35S0
G1 X1.2S500
G1 X0.55S0
G1 X1.25S500
G1 X0.3S0
G1 X1.25S500
G1 X0.55S0
G1 X1.25S500
G1 X0.3S0
G1 X1.2S500
G1 X0.35S0
G1 X1.5S500
G1 X0.3S0
G1 X1.25S500
G1 X0.3S0
G1 X1.2S500
G1 X0.55S0
G1 X1.25S500
G1 X0.3S0
G1 X1.25S500
G1 X0.3S0
G1 X1.25S500
G1 X0.55S0
G1 X1.25S500
G1 X0.3S0
G1 X1.2S500
G1 X0.35S0
G1 X1.5S500
G1 X0.3S0
G1 X1.2S500
G1 X0.35S0
G1 X1.45S500
G1 X0.35S0
G1 X1.2S500
G1 X0.35S0
G1 X1.2S500
G1 X0.3S0
G1 X1.5S500
G1 X0.3S0
G1 X1.2S500
G1 X0.35S0
G1 X1S500
G1 X0.45S0
G1 X2.35S500
G0 X2.917
G0 X0.05Y0.05
G0 X-2.917
G1 X-2.35
G1 X-0.5S0
G1 X-1.05S500
G1 X-0.25S0
G1 X-1.3S500
G1 X-0.25S0
G1 X-1.5S500
G1 X-0.25S0
G1 X-1.3S500
G1 X-0.3S0
G1 X-1.25S500
G1 X-0.25S0
G1 X-1.55S500
G1 X-0.25S0
G1 X-1.3S500
G1 X-0.25S0
G1 X-1.55S500
G1 X-0.25S0
G1 X-1.3S500
G1 X-0.25S0
G1 X-1.3S500
G1 X-0.45S0
G1 X-1.3S500
G1 X-0.3S0
G1 X-1.25S500
G1 X-0.25S0
G1 X-1.3S500
G1 X-0.5S0
G1 X-1.3S500
G1 X-0.25S0
G1 X-1.3S500
G1 X-0.25S0
G1 X-1.55S500
G1 X-0.25S0
G1 X-1.25S500
G1 X-0.25S0
G1 X-1.35S500
G1 X-0.45S0
G1 X-1.35S500
G1 X-0.25S0
G1 X-1.3S500
G1 X-0.45S0
G1 X-1.3S500
G1 X-0.25S0
G1 X-1.3S500
G1 X-0.25S0
G1 X-1.55S500
G1 X-0.25S0
G1 X-1.3S500
G1 X-0.2S0
G1 X-1.35S500
G1 X-0.45S0
G1 X-1.35S500
G1 X-0.25S0
G1 X-1.3S500
G1 X-0.45S0
G1 X-1.3S500
G1 X-0.25S0
G1 X-1.3S500
G1 X-0.25S0
G1 X-1.55S500
G1 X-0.25S0
G1 X-1.3S500
G1 X-0.2S0
G1 X-1.35S500
G1 X-0.45S0
G1 X-1.35S500
G1 X-0.25S0
G1 X-1.25S500
G1 X-0.25S0
G1 X-1.55S500
G1 X-0.25S0
G1 X-1.3S500
G1 X-0.25S0
G1 X-1.3S500
G1 X-0.5S0
G1 X-1.3S500
G1 X-0.25S0
G1 X-0.75S500
G1 X-0.55S0
G1 X-2S500
G0 X-2.917
G0 Y0.05
G0 X2.917
G1 X2.05
G1 X0.5S0
G1 X0.8S500
G1 X0.2S0
G1 X1.35S500
G1 X0.4S0
G1 X1.4S500
G1 X0.15S0
G1 X1.35S500
G1 X0.2S0
G1 X1.65S500
G1 X0.15S0
G1 X1.35S500
G1 X0.15S0
G1 X1.4S500
G1 X0.4S0
G1 X1.4S500
G1 X0.2S0
G1 X1.35S500
G1 X0.15S0
G1 X1.65S500
G1 X0.15S0
G1 X1.35S500
G1 X0.2S0
G1 X1.4S500
G1 X0.4S0
G1 X1.35S500
G1 X0.15S0
G1 X1.4S500
G1 X0.45S0
G1 X1.35S500
G1 X0.2S0
G1 X1.35S500
G1 X0.15S0
G1 X1.65S500
G1 X0.15S0
G1 X1.4S500
G1 X0.15S0
G1 X1.4S500
G1 X0.4S0
G1 X1.35S500
G1 X0.2S0
G1 X1.35S500
G1 X0.45S0
G1 X1.35S500
G1 X0.2S0
G1 X1.35S500
G1 X0.15S0
G1 X1.65S500
G1 X0.15S0
G1 X1.35S500
G1 X0.2S0
G1 X1.4S500
G1 X0.4S0
G1 X1.35S500
G1 X0.2S0
G1 X1.35S500
G1 X0.2S0
G1 X1.4S500
G1 X0.35S0
G1 X1.4S500
G1 X0.15S0
G1 X1.4S500
G1 X0.2S0
G1 X1.55S500
G1 X0.25S0
G1 X1.35S500
G1 X0.15S0
G1 X1.65S500
G1 X0.15S0
G1 X1.35S500
G1 X0.2S0
G1 X1.35S500
G1 X0.2S0
G1 X1.6S500
G1 X0.15S0
G1 X1.4S500
G1 X0.2S0
G1 X1.05S500
G1 X0.5S0
G1 X2.35S500
G0 X2.917
G0 Y0.05
G0 X-2.917
G1 X-2.35
G1 X-0.5S0
G1 X-15.8S500
G1 X-0.3S0
G1 X-4.6S500
G1 X-0.2S0
G1 X-8S500
G1 X-0.25S0
G1 X-3.1S500
G1 X-0.25S0
G1 X-7.95S500
G1 X-0.25S0
G1 X-3.1S500
G1 X-0.25S0
G1 X-7.95S500
G1 X-0.25S0
G1 X-8S500
G1 X-0.2S0
G1 X-2.45S500
G1 X-0.55S0
G1 X-2S500
G0 X-2.917
G0 Y0.05
G0 X2.917
G1 X2
G1 X0.55S0
G1 X62.9S500
G1 X0.5S0
G1 X2.3S500
G0 X2.917
G0 X0.05Y0.05
G0 X-2.917
G1 X-2.35
G1 X-0.5S0
G1 X-62.9S500
G1 X-0.5S0
G1 X-2.05S500
G0 X-2.917
G0 Y0.05
G0 X2.917
G1 X2
G1 X0.55S0
G1 X62.9S500
G1 X0.5S0
G1 X2.35S500
G0 X2.917
G0 Y0.05
G0 X-2.917
G1 X-2.4
G1 X-0.45S0
G1 X-62.9S500
G1 X-0.55S0
G1 X-2S500
G0 X-2.917
G0 Y0.05
G0 X2.917
G1 X2
G1 X0.55S0
G1 X62.9S500
G1 X0.5S0
G1 X2.35S500
G0 X2.917
G0 X-0.05Y0.05
G0 X-2.917
G1 X-2.3
G1 X-0.5S0
G1 X-62.9S500
G1 X-0.5S0
G1 X-2.05S500
G0 X-2.917
G0 Y0.05
G0 X2.917
G1 X2
G1 X0.55S0
G1 X62.9S500
G1 X0.5S0
G1 X2.35S500
G0 X2.917
G0 Y0.05
G0 X-2.917
G1 X-2.35
G1 X-0.5S0
G1 X-62.9S500
G1 X-0.55S0
G1 X-2S500
G0 X-2.917
G0 Y0.05
G0 X2.917
G1 X2
G1 X0.55S0
G1 X62.9S500
G1 X0.5S0
G1 X2.35S500
G0 X2.917
G0 Y0.05
G0 X-2.917
G1 X-2.35
G1 X-0.5S0
G1 X-62.9S500
G1 X-0.5S0
G1 X-2.05S500
G0 X-2.917
G0 Y0.05
G0 X2.917
G1 X2
G1 X0.55S0
G1 X0.85S500
G1 X0.05S0
G1 X60.85S500
G1 X0.05S0
G1 X1.1S500
G1 X0.5S0
G1 X2.3S500
G0 X2.917
G0 X0.05Y0.05
G0 X-2.917
G1 X-2.4
G1 X-0.45S0
G1 X-1.05S500
G1 X-0.2S0
G1 X-60.65S500
G1 X-0.25S0
G1 X-0.75S500
G1 X-0.55S0
G1 X-2S500
G0 X-2.917
G0 Y0.05
G0 X2.917
G1 X2.05
G1 X0.5S0
G1 X0.75S500
G1 X0.3S0
G1 X60.55S500
G1 X0.3S0
G1 X1S500
G1 X0.5S0
G1 X2.35S500
G0 X2.917
G0 Y0.05
G0 X-2.917
G1 X-2.35
G1 X-0.5S0
G1 X-1S500
G1 X-0.35S0
G1 X-60.5S500
G1 X-0.35S0
G1 X-0.7S500
G1 X-0.55S0
G1 X-2S500
G0 X-2.917
G0 Y0.05
G0 X2.917
G1 X2
G1 X0.55S0
G1 X0.65S500
G1 X0.45S0
G1 X60.4S500
G1 X0.45S0
G1 X0.95S500
G1 X0.5S0
G1 X2.3S500
G0 X2.917
G0 X0.05Y0.05
G0 X-2.917
G1 X-2.35
G1 X-0.5S0
G1 X-0.9S500
G1 X-0.55S0
G1 X-60.25S500
G1 X-0.6S0
G1 X-0.6S500
G1 X-0.55S0
G1 X-2S500
G0 X-2.917
G0 Y0.05
G0 X2.917
G1 X2.05
G1 X0.5S0
G1 X0.55S500
G1 X0.7S0
G1 X60.15S500
G1 X0.65S0
G1 X0.85S500
G1 X0.5S0
G1 X2.35S500
G0 X2.917
G0 Y0.05
G0 X-2.917
G1 X-2.35
G1 X-0.5S0
G1 X-0.8S500
G1 X-0.75S0
G1 X-60.1S500
G1 X-0.75S0
G1 X-0.5S500
G1 X-0.55S0
G1 X-2S500
G0 X-2.917
G0 Y0.05
G0 X2.917
G1 X2
G1 X0.55S0
G1 X0.5S500
G1 X0.8S0
G1 X60.05S500
G1 X0.8S0
G1 X0.75S500
G1 X0.5S0
G1 X2.35S500
G0 X2.917
G0 X-0.05Y0.05
G0 X-2.917
G1 X-2.3
G1 X-0.5S0
G1 X-0.65S500
G1 X-0.9S0
G1 X-60.1S500
G1 X-0.75S0
G1 X-0.5S500
G1 X-0.55S0
G1 X-2S500
G0 X-2.917
G0 Y0.05
G0 X2.917
G1 X2.05
G1 X0.5S0
G1 X0.5S500
G1 X0.8S0
G1 X60.05S500
G1 X0.95S0
G1 X0.6S500
G1 X0.45S0
G1 X2.4S500
G0 X2.917
G0 Y0.05
G0 X-2.917
G1 X-2.35
G1 X-0.5S0
G1 X-0.55S500
G1 X-1S0
G1 X-60.1S500
G1 X-0.75S0
G1 X-0.5S500
G1 X-0.55S0
G1 X-2S500
G0 X-2.917
G0 Y0.05
G0 X2.917
G1 X2
G1 X0.55S0
G1 X0.5S500
G1 X0.8S0
G1 X60.05S500
G1 X1S0
G1 X0.55S500
G1 X0.5S0
G1 X2.35S500
G0 X2.917
G0 Y0.05
G0 X-2.917
G1 X-2.35
G1 X-0.5S0
G1 X-0.55S500
G1 X-1S0
G1 X-60.1S500
G1 X-0.75S0
G1 X-0.5S500
G1 X-0.5S0
G1 X-2.05S500
G0 X-2.917
G0 Y0.05
G0 X2.917
G1 X2
G1 X0.55S0
G1 X0.5S500
G1 X0.8S0
G1 X60.15S500
G1 X0.85S0
G1 X0.6S500
G1 X0.5S0
G1 X2.3S500
G0 X2.917
G0 X0.05Y0.05
G0 X-2.917
G1 X-2.35
G1 X-0.5S0
G1 X-0.65S500
G1 X-0.75S0
G1 X-60.25S500
G1 X-0.75S0
G1 X-0.5S500
G1 X-0.55S0
G1 X-2S500
G0 X-2.917
G0 Y0.05
G0 X2.917
G1 X2
G1 X0.55S0
G1 X0.5S500
G1 X0.8S0
G1 X60.25S500
G1 X0.65S0
G1 X0.7S500
G1 X0.5S0
G1 X2.35S500
G0 X2.917
G0 Y0.05
G0 X-2.917
G1 X-2.35
G1 X-0.5S0
G1 X-0.75S500
G1 X-0.55S0
G1 X-60.35S500
G1 X-0.75S0
G1 X-0.5S500
G1 X-0.5S0
G1 X-2.05S500
G0 X-2.917
G0 Y0.05
G0 X2.917
G1 X2
G1 X0.55S0
G1 X0.5S500
G1 X0.75S0
G1 X60.35S500
G1 X0.5S0
G1 X0.8S500
G1 X0.5S0
G1 X2.3S500
G0 X2.917
G0 X0.05Y0.05
G0 X-2.917
G1 X-2.35
G1 X-0.5S0
G1 X-0.85S500
G1 X-0.35S0
G1 X-60.5S500
G1 X-0.65S0
G1 X-0.55S500
G1 X-0.55S0
G1 X-2S500
G0 X-2.917
G0 Y0.05
G0 X2.917
G1 X2
G1 X0.55S0
G1 X61.8S500
G1 X0.1S0
G1 X1S500
G1 X0.45S0
G1 X2.4S500
G0 X2.917
G0 Y0.05
G0 X-2.917
G1 X-2.35
G1 X-0.5S0
G1 X-62.9S500
G1 X-0.5S0
G1 X-2.05S500
G0 X-2.917
G0 Y0.05
G0 X2.917
G1 X2
G1 X0.55S0
G1 X62.9S500
G1 X0.5S0
G1 X2.35S500
G0 X2.917
G0 X-0.05Y0.05
G0 X-2.917
G1 X-2.3
G1 X-0.5S0
G1 X-62.9S500
G1 X-0.55S0
G1 X-2S500
G0 X-2.917
G0 Y0.05
G0 X2.917
G1 X2.05
G1 X0.5S0
G1 X62.9S500
G1 X0.5S0
G1 X2.35S500
G0 X2.917
G0 Y0.05
G0 X-2.917
G1 X-2.35
G1 X-0.5S0
G1 X-62.9S500
G1 X-0.55S0
G1 X-2S500
G0 X-2.917
G0 Y0.05
G0 X2.917
G1 X2
G1 X0.55S0
G1 X62.9S500
G1 X0.5S0
G1 X2.35S500
G0 X2.917
G0 Y0.05
G0 X-2.917
G1 X-2.35
G1 X-0.5S0
G1 X-62.9S500
G1 X-0.55S0
G1 X-2S500
G0 X-2.917
G0 Y0.05
G0 X2.917
G1 X2.05
G1 X0.5S0
G1 X62.9S500
G1 X0.5S0
G1 X2.3S500
G0 X2.917
G0 X0.05Y0.05
G0 X-2.917
G1 X-2.35
G1 X-0.5S0
G1 X-62.9S500
G1 X-0.55S0
G1 X-2S500
G0 X-2.917
G0 Y0.05
G0 X2.917
G1 X2
G1 X0.55S0
G1 X62.9S500
G1 X0.5S0
G1 X2.35S500
G0 X2.917
G0 Y0.05
G0 X-2.917
G1 X-2.35
G1 X-0.5S0
G1 X-62.9S500
G1 X-0.5S0
G1 X-2.05S500
G0 X-2.917
G0 Y0.05
G0 X2.917
G1 X2
G1 X0.55S0
G1 X62.9S500
G1 X0.45S0
G1 X2.4S500
G0 X2.917
G0 X-0.05Y0.05
G0 X-2.917
G1 X-2.3
G1 X-0.5S0
G1 X-62.9S500
G1 X-0.55S0
G1 X-2S500
G0 X-2.917
G0 Y0.05
G0 X2.917
G1 X2
G1 X0.55S0
G1 X62.9S500
G1 X0.5S0
G1 X2.35S500
G0 X2.917
G0 Y0.05
G0 X-2.917
G1 X-2.35
G1 X-0.5S0
G1 X-62.9S500
G1 X-0.5S0
G1 X-2.05S500
G0 X-2.917
G0 Y0.05
G0 X2.917
G1 X2
G1 X0.55S0
G1 X0.6S500
G1 X0.55S0
G1 X60.3S500
G1 X0.6S0
G1 X0.85S500
G1 X0.5S0
G1 X2.35S500
G0 X2.917
G0 Y0.05
G0 X-2.917
G1 X-2.35
G1 X-0.5S0
G1 X-0.8S500
G1 X-0.75S0
G1 X-60.1S500
G1 X-0.75S0
G1 X-0.5S500
G1 X-0.55S0
G1 X-2S500
G0 X-2.917
G0 Y0.05
G0 X2.917
G1 X2.05
G1 X0.5S0
G1 X0.5S500
G1 X0.75S0
G1 X60.15S500
G1 X0.75S0
G1 X0.75S500
G1 X0.5S0
G1 X2.3S500
G0 X2.917
G0 X0.05Y0.05
G0 X-2.917
G1 X-2.35
G1 X-0.5S0
G1 X-0.7S500
G1 X-0.85S0
G1 X-60.05S500
G1 X-0.8S0
G1 X-0.5S500
G1 X-0.55S0
G1 X-2S500
G0 X-2.917
G0 Y0.05
G0 X2.917
G1 X2
G1 X0.55S0
G1 X0.5S500
G1 X0.8S0
G1 X60.05S500
G1 X0.9S0
G1 X0.65S500
G1 X0.5S0
G1 X2.35S500
G0 X2.917
G0 Y0.05
G0 X-2.917
G1 X-2.35
G1 X-0.5S0
G1 X-0.6S500
G1 X-0.95S0
G1 X-46.6S500
G1 X-0.3S0
G1 X-13.2S500
G1 X-0.75S0
G1 X-0.5S500
G1 X-0.55S0
G1 X-2S500
G0 X-2.917
G0 Y0.05
G0 X2.917
G1 X2.05
G1 X0.5S0
G1 X0.5S500
G1 X0.8S0
G1 X13.1S500
G1 X0.45S0
G1 X46.5S500
G1 X1S0
G1 X0.55S500
G1 X0.5S0
G1 X2.35S500
G0 X2.917
G0 X-0.05Y0.05
G0 X-2.917
G1 X-2.3
G1 X-0.5S0
G1 X-0.55S500
G1 X-1S0
G1 X-46.45S500
G1 X-0.55S0
G1 X-13.1S500
G1 X-0.75S0
G1 X-0.5S500
G1 X-0.55S0
G1 X-2S500
G0 X-2.917
G0 Y0.05
G0 X2.917
G1 X2
G1 X0.55S0
G1 X0.5S500
G1 X0.8S0
G1 X13.05S500
G1 X0.55S0
G1 X46.4S500
G1 X1.05S0
G1 X0.55S500
G1 X0.5S0
G1 X2.35S500
G0 X2.917
G0 Y0.05
G0 X-2.917
G1 X-2.35
G1 X-0.5S0
G1 X-0.6S500
G1 X-0.95S0
G1 X-46.4S500
G1 X-0.65S0
G1 X-13.05S500
G1 X-0.75S0
G1 X-0.5S500
G1 X-0.5S0
G1 X-2.05S500
G0 X-2.917
G0 Y0.05
G0 X2.917
G1 X2
G1 X0.55S0
G1 X0.5S500
G1 X0.8S0
G1 X12.15S500
G1 X0.55S0
G1 X0.15S500
G1 X0.9S0
G1 X0.05S500
G1 X0.05S0
G1 X0.1S500
G1 X0.25S0
G1 X45.85S500
G1 X0.9S0
G1 X0.65S500
G1 X0.5S0
G1 X2.35S500
G0 X2.917
G0 Y0.05
G0 X-2.917
G1 X-2.35
G1 X-0.5S0
G1 X-0.75S500
G1 X-0.8S0
G1 X-45.75S500
G1 X-2.2S0
G1 X-12.15S500
G1 X-0.75S0
G1 X-0.5S500
G1 X-0.55S0
G1 X-2S500
G0 X-2.917
G0 Y0.05
G0 X2.917
G1 X2
G1 X0.55S0
G1 X0.5S500
G1 X0.8S0
G1 X12S500
G1 X2.35S0
G1 X45.7S500
G1 X0.75S0
G1 X0.8S500
G1 X0.5S0
G1 X2.35S500
G0 X2.917
G0 X-0.05Y0.05
G0 X-2.917
G1 X-2.3
G1 X-0.5S0
G1 X-0.8S500
G1 X-0.75S0
G1 X-45.7S500
G1 X-2.35S0
G1 X-12.05S500
G1 X-0.7S0
G1 X-0.55S500
G1 X-0.5S0
G1 X-2.05S500
G0 X-2.917
G0 Y0.05
G0 X2.917
G1 X2
G1 X0.55S0
G1 X0.6S500
G1 X0.6S0
G1 X12.1S500
G1 X2.4S0
G1 X45.75S500
G1 X0.6S0
G1 X0.85S500
G1 X0.5S0
G1 X2.35S500
G0 X2.917
G0 Y0.05
G0 X-2.917
G1 X-2.35
G1 X-0.5S0
G1 X-1S500
G1 X-0.05S0
G1 X-0.05S500
G1 X-0.05S0
G1 X-0.05S500
G1 X-0.1S0
G1 X-0.05S500
G1 X-0.05S0
G1 X-45.7S500
G1 X-1.05S0
G1 X-0.05S500
G1 X-1.5S0
G1 X-12.1S500
G1 X-0.45S0
G1 X-0.65S500
G1 X-0.55S0
G1 X-2S500
G0 X-2.917
G0 Y0.05
G0 X2.917
G1 X2.05
G1 X0.5S0
G1 X0.7S500
G1 X0.4S0
G1 X12S500
G1 X1.55S0
G1 X0.2S500
G1 X1S0
G1 X47.05S500
G1 X0.5S0
G1 X2.35S500
G0 X2.917
G0 Y0.05
G0 X-2.917
G1 X-2.35
G1 X-0.5S0
G1 X-47S500
G1 X-1S0
G1 X-0.3S500
G1 X-1.5S0
G1 X-12.05S500
G1 X-0.3S0
G1 X-0.75S500
G1 X-0.55S0
G1 X-2S500
G0 X-2.917
G0 Y0.05
G0 X2.917
G1 X2
G1 X0.55S0
G1 X0.75S500
G1 X0.25S0
G1 X12.05S500
G1 X1.55S0
G1 X0.3S500
G1 X1S0
G1 X47S500
G1 X0.5S0
G1 X2.35S500
G0 X2.917
G0 X-0.05Y0.05
G0 X-2.917
G1 X-2.3
G1 X-0.5S0
G1 X-46.95S500
G1 X-0.95S0
G1 X-0.45S500
G1 X-1.55S0
G1 X-12S500
G1 X-0.05S0
G1 X-0.05S500
G1 X-0.1S0
G1 X-0.8S500
G1 X-0.55S0
G1 X-2S500
G0 X-2.917
G0 Y0.05
G0 X2.917
G1 X2.05
G1 X0.5S0
G1 X12.95S500
G1 X0.75S0
G1 X0.05S500
G1 X0.05S0
G1 X0.1S500
G1 X0.05S0
G1 X0.05S500
G1 X0.05S0
G1 X0.1S500
G1 X0.05S0
G1 X0.1S500
G1 X0.05S0
G1 X0.7S500
G1 X0.05S0
G1 X0.05S500
G1 X0.05S0
G1 X0.05S500
G1 X0.8S0
G1 X46.85S500
G1 X0.5S0
G1 X2.35S500
G0 X2.917
G0 Y0.05
G0 X-2.917
G1 X-2.35
G1 X-0.5S0
G1 X-46.8S500
G1 X-0.75S0
G1 X-1.7S500
G1 X-0.8S0
G1 X-12.85S500
G1 X-0.55S0
G1 X-2S500
G0 X-2.917
G0 Y0.05
G0 X2.917
G1 X2
G1 X0.55S0
G1 X12.85S500
G1 X0.75S0
G1 X1.75S500
G1 X0.8S0
G1 X46.75S500
G1 X0.5S0
G1 X2.35S500
G0 X2.917
G0 Y0.05
G0 X-2.917
G1 X-2.35
G1 X-0.5S0
G1 X-46.7S500
G1 X-0.8S0
G1 X-1.85S500
G1 X-0.75S0
G1 X-12.8S500
G1 X-0.5S0
G1 X-2.05S500
G0 X-2.917
G0 Y0.05
G0 X2.917
G1 X2
G1 X0.55S0
G1 X12.75S500
G1 X0.75S0
G1 X1.95S500
G1 X0.75S0
G1 X46.7S500
G1 X0.5S0
G1 X2.35S500
G0 X2.917
G0 X-0.05Y0.05
G0 X-2.917
G1 X-2.3
G1 X-0.5S0
G1 X-46.6S500
G1 X-0.55S0
G1 X-0.05S500
G1 X-0.05S0
G1 X-2.2S500
G1 X-0.75S0
G1 X-12.7S500
G1 X-0.55S0
G1 X-2S500
G0 X-2.917
G0 Y0.05
G0 X2.917
G1 X2
G1 X0.55S0
G1 X12.65S500
G1 X0.75S0
G1 X2.45S500
G1 X0.5S0
G1 X46.55S500
G1 X0.5S0
G1 X2.35S500
G0 X2.917
G0 Y0.05
G0 X-2.917
G1 X-2.35
G1 X-0.5S0
G1 X-46.5S500
G1 X-0.55S0
G1 X-2.5S500
G1 X-0.75S0
G1 X-12.6S500
G1 X-0.5S0
G1 X-2.05S500
G0 X-2.917
G0 Y0.05
G0 X2.917
G1 X2
G1 X0.55S0
G1 X12.55S500
G1 X0.75S0
G1 X2.6S500
G1 X0.55S0
G1 X46.45S500
G1 X0.5S0
G1 X2.35S500
G0 X2.917
G0 Y0.05
G0 X-2.917
G1 X-2.35
G1 X-0.5S0
G1 X-46.45S500
G1 X-0.55S0
G1 X-2.65S500
G1 X-0.75S0
G1 X-12.5S500
G1 X-0.55S0
G1 X-2S500
G0 X-2.917
G0 Y0.05
G0 X2.917
G1 X2.05
G1 X0.5S0
G1 X0.65S500
G1 X0.45S0
G1 X11.35S500
G1 X0.75S0
G1 X2.7S500
G1 X0.65S0
G1 X45.2S500
G1 X0.25S0
G1 X0.9S500
G1 X0.5S0
G1 X2.35S500
G0 X2.917
G0 X-0.05Y0.05
G0 X-2.917
G1 X-2.3
G1 X-0.5S0
G1 X-0.85S500
G1 X-0.4S0
G1 X-45.05S500
G1 X-0.7S0
G1 X-2.75S500
G1 X-0.75S0
G1 X-11.2S500
G1 X-0.6S0
G1 X-0.6S500
G1 X-0.55S0
G1 X-2S500
G0 X-2.917
G0 Y0.05
G0 X2.917
G1 X2
G1 X0.55S0
G1 X0.55S500
G1 X0.7S0
G1 X11.1S500
G1 X0.75S0
G1 X2.8S500
G1 X0.75S0
G1 X44.95S500
G1 X0.5S0
G1 X0.8S500
G1 X0.5S0
G1 X2.35S500
G0 X2.917
G0 Y0.05
G0 X-2.917
G1 X-2.35
G1 X-0.5S0
G1 X-0.8S500
G1 X-0.5S0
G1 X-44.95S500
G1 X-0.7S0
G1 X-2.9S500
G1 X-0.75S0
G1 X-11.05S500
G1 X-0.75S0
G1 X-0.5S500
G1 X-0.55S0
G1 X-2S500
G0 X-2.917
G0 Y0.05
G0 X2.917
G1 X2.05
G1 X0.5S0
G1 X0.5S500
G1 X0.75S0
G1 X11.05S500
G1 X0.7S0
G1 X2.95S500
G1 X0.75S0
G1 X44.85S500
G1 X0.55S0
G1 X0.8S500
G1 X0.5S0
G1 X2.35S500
G0 X2.917
G0 Y0.05
G0 X-2.917
G1 X-2.35
G1 X-0.5S0
G1 X-0.8S500
G1 X-0.6S0
G1 X-44.8S500
G1 X-0.65S0
G1 X-1.4S500
G1 X-0.35S0
G1 X-1.35S500
G1 X-0.65S0
G1 X-11S500
G1 X-0.8S0
G1 X-0.5S500
G1 X-0.55S0
G1 X-2S500
G0 X-2.917
G0 Y0.05
G0 X2.917
G1 X2
G1 X0.55S0
G1 X0.5S500
G1 X0.75S0
G1 X11.05S500
G1 X0.6S0
G1 X1.3S500
G1 X0.6S0
G1 X1.25S500
G1 X0.65S0
G1 X44.7S500
G1 X0.7S0
G1 X0.8S500
G1 X0.5S0
G1 X2.35S500
G0 X2.917
G0 Y0.05
G0 X-2.917
G1 X-2.35
G1 X-0.5S0
G1 X-0.8S500
G1 X-0.7S0
G1 X-44.7S500
G1 X-0.6S0
G1 X-1.25S500
G1 X-0.7S0
G1 X-1.3S500
G1 X-0.55S0
G1 X-11.05S500
G1 X-0.75S0
G1 X-0.5S500
G1 X-0.5S0
G1 X-2.05S500
G0 X-2.917
G0 Y0.05
G0 X2.917
G1 X2
G1 X0.55S0
G1 X0.5S500
G1 X0.8S0
G1 X11S500
G1 X0.55S0
G1 X1.25S500
G1 X0.8S0
G1 X1.25S500
G1 X0.55S0
G1 X44.65S500
G1 X0.8S0
G1 X0.75S500
G1 X0.5S0
G1 X2.3S500
G0 X2.917
G0 X0.05Y0.05
G0 X-2.917
G1 X-2.35
G1 X-0.5S0
G1 X-0.7S500
G1 X-0.85S0
G1 X-44.65S500
G1 X-0.55S0
G1 X-1.25S500
G1 X-0.85S0
G1 X-1.25S500
G1 X-0.5S0
G1 X-11.05S500
G1 X-0.75S0
G1 X-0.5S500
G1 X-0.55S0
G1 X-2S500
G0 X-2.917
G0 Y0.05
G0 X2.917
G1 X2
G1 X0.55S0
G1 X0.5S500
G1 X0.75S0
G1 X11.05S500
G1 X0.55S0
G1 X1.15S500
G1 X1S0
G1 X1.15S500
G1 X0.55S0
G1 X44.65S500
G1 X0.9S0
G1 X0.65S500
G1 X0.5S0
G1 X2.35S500
G0 X2.917
G0 Y0.05
G0 X-2.917
G1 X-2.35
G1 X-0.5S0
G1 X-0.6S500
G1 X-0.95S0
G1 X-44.65S500
G1 X-0.55S0
G1 X-0.85S500
G1 X-1.6S0
G1 X-0.85S500
G1 X-0.55S0
G1 X-11S500
G1 X-0.8S0
G1 X-0.5S500
G1 X-0.5S0
G1 X-2.05S500
G0 X-2.917
G0 Y0.05
G0 X2.917
G1 X2
G1 X0.55S0
G1 X0.5S500
G1 X0.75S0
G1 X11.05S500
G1 X0.5S0
G1 X0.85S500
G1 X1.7S0
G1 X0.8S500
G1 X0.55S0
G1 X44.65S500
G1 X1S0
G1 X0.55S500
G1 X0.5S0
G1 X2.35S500
G0 X2.917
G0 Y0.05
G0 X-2.917
G1 X-2.35
G1 X-0.5S0
G1 X-0.55S500
G1 X-1S0
G1 X-44.65S500
G1 X-0.5S0
G1 X-0.8S500
G1 X-1.8S0
G1 X-0.75S500
G1 X-0.55S0
G1 X-11S500
G1 X-0.75S0
G1 X-0.55S500
G1 X-0.55S0
G1 X-2S500
G0 X-2.917
G0 Y0.05
G0 X2.917
G1 X2.05
G1 X0.5S0
G1 X0.55S500
G1 X0.7S0
G1 X11.05S500
G1 X0.5S0
G1 X0.75S500
G1 X1.9S0
G1 X0.75S500
G1 X0.5S0
G1 X44.7S500
G1 X0.9S0
G1 X0.6S500
G1 X0.5S0
G1 X2.35S500
G0 X2.917
G0 X-0.05Y0.05
G0 X-2.917
G1 X-2.3
G1 X-0.5S0
G1 X-0.6S500
G1 X-0.85S0
G1 X-44.7S500
G1 X-0.5S0
G1 X-0.75S500
G1 X-2S0
G1 X-0.65S500
G1 X-0.55S0
G1 X-11.05S500
G1 X-0.7S0
G1 X-0.55S500
G1 X-0.55S0
G1 X-2S500
G0 X-2.917
G0 Y0.05
G0 X2.917
G1 X2
G1 X0.55S0
G1 X0.65S500
G1 X0.65S0
G1 X11S500
G1 X0.5S0
G1 X0.65S500
G1 X0.75S0
G1 X0.55S500
G1 X0.8S0
G1 X0.8S500
G1 X0.45S0
G1 X44.7S500
G1 X0.75S0
G1 X0.65S500
G1 X0.5S0
G1 X2.35S500
G0 X2.917
G0 Y0.05
G0 X-2.917
G1 X-2.35
G1 X-0.5S0
G1 X-0.75S500
G1 X-0.6S0
G1 X-44.65S500
G1 X-0.55S0
G1 X-0.75S500
G1 X-0.75S0
G1 X-0.7S500
G1 X-0.75S0
G1 X-0.55S500
G1 X-0.55S0
G1 X-11.05S500
G1 X-0.5S0
G1 X-0.75S500
G1 X-0.55S0
G1 X-2S500
G0 X-2.917
G0 Y0.05
G0 X2.917
G1 X2.05
G1 X0.5S0
G1 X0.75S500
G1 X0.5S0
G1 X11.05S500
G1 X0.55S0
G1 X0.5S500
G1 X0.75S0
G1 X0.8S500
G1 X0.7S0
G1 X0.8S500
G1 X0.5S0
G1 X44.7S500
G1 X0.5S0
G1 X0.8S500
G1 X0.5S0
G1 X2.35S500
G0 X2.917
G0 Y0.05
G0 X-2.917
G1 X-2.35
G1 X-0.5S0
G1 X-0.85S500
G1 X-0.4S0
G1 X-44.7S500
G1 X-0.55S0
G1 X-0.75S500
G1 X-0.75S0
G1 X-0.85S500
G1 X-0.75S0
G1 X-0.5S500
G1 X-0.5S0
G1 X-11.05S500
G1 X-0.45S0
G1 X-0.8S500
G1 X-0.55S0
G1 X-2S500
G0 X-2.917
G0 Y0.05
G0 X2.917
G1 X2
G1 X0.55S0
G1 X0.8S500
G1 X0.4S0
G1 X11.1S500
G1 X0.55S0
G1 X0.45S500
G1 X0.7S0
G1 X0.95S500
G1 X0.7S0
G1 X0.75S500
G1 X0.55S0
G1 X44.75S500
G1 X0.35S0
G1 X0.85S500
G1 X0.5S0
G1 X2.35S500
G0 X2.917
G0 Y0.05
G0 X-2.917
G1 X-2.35
G1 X-0.5S0
G1 X-1S500
G1 X-0.1S0
G1 X-44.85S500
G1 X-0.55S0
G1 X-0.75S500
G1 X-0.65S0
G1 X-1S500
G1 X-0.65S0
G1 X-0.55S500
G1 X-0.5S0
G1 X-11.2S500
G1 X-0.05S0
G1 X-0.05S500
G1 X-0.1S0
G1 X-0.9S500
G1 X-0.5S0
G1 X-2.05S500
G0 X-2.917
G0 Y0.05
G0 X2.917
G1 X2
G1 X0.55S0
G1 X12.3S500
G1 X0.55S0
G1 X0.45S500
G1 X0.6S0
G1 X1.2S500
G1 X0.55S0
G1 X0.75S500
G1 X0.55S0
G1 X45.95S500
G1 X0.5S0
G1 X2.35S500
G1 X189.9S0
G1 X0.05S500
G1 X0.05S0
G1 X0.1S500
G1 X0.05S0
G1 X0.1S500
G1 X0.05S0
G1 X0.1S500
G1 X0.05S0
G1 X0.1S500
G1 X0.05S0
G1 X0.1S500
G1 X0.05S0
G1 X0.1S500
G1 X0.05S0
G1 X0.1S500
G1 X0.05S0
G1 X0.1S500
G1 X0.05S0
G1 X0.1S500
G1 X0.05S0
G1 X0.1S500
G1 X0.05S0
G1 X0.05S500
G1 X3.85S0
G1 X0.05S500
G1 X0.05S0
G1 X0.1S500
G1 X0.05S0
G1 X0.1S500
G1 X0.05S0
G1 X0.1S500
G0 X2.917
G0 X0.05Y0.05
G0 X-2.917
G1 X-0.6
G1 X-3.8S0
G1 X-1.7S500
G1 X-9.9S0
G1 X-0.2S500
G1 X-31.1S0
G1 X-0.2S500
G1 X-128.75S0
G1 X-1.55S500
G1 X-18.2S0
G1 X-2.3S500
G1 X-0.5S0
G1 X-45.95S500
G1 X-0.55S0
G1 X-0.75S500
G1 X-0.55S0
G1 X-1.25S500
G1 X-0.55S0
G1 X-0.5S500
G1 X-0.5S0
G1 X-12.3S500
G1 X-0.55S0
G1 X-2S500
G0 X-2.917
G0 Y0.05
G0 X2.917
G1 X2
G1 X0.55S0
G1 X12.3S500
G1 X0.55S0
G1 X0.5S500
G1 X0.5S0
G1 X1.3S500
G1 X0.5S0
G1 X0.75S500
G1 X0.55S0
G1 X45.95S500
G1 X0.5S0
G1 X2.35S500
G1 X18.1S0
G1 X1.6S500
G1 X84.8S0
G1 X0.1S500
G1 X43.85S0
G1 X0.35S500
G1 X30.95S0
G1 X0.3S500
G1 X9.8S0
G1 X1.75S500
G1 X3.7S0
G1 X0.7S500
G0 X2.917
G0 Y0.05
G0 X-2.917
G1 X-0.7
G1 X-3.7S0
G1 X-1.75S500
G1 X-9.7S0
G1 X-0.45S500
G1 X-30.8S0
G1 X-0.5S500
G1 X-43.75S0
G1 X-0.25S500
G1 X-2.65S0
G1 X-0.1S500
G1 X-81.9S0
G1 X-1.65S500
G1 X-18.1S0
G1 X-2.35S500
G1 X-0.5S0
G1 X-45.95S500
G1 X-0.55S0
G1 X-0.75S500
G1 X-0.5S0
G1 X-1.3S500
G1 X-0.55S0
G1 X-0.5S500
G1 X-0.5S0
G1 X-12.3S500
G1 X-0.5S0
G1 X-2.05S500
G0 X-2.917
G0 Y0.05
G0 X2.917
G1 X2
G1 X0.55S0
G1 X12.3S500
G1 X0.55S0
G1 X0.45S500
G1 X0.55S0
G1 X1.25S500
G1 X0.55S0
G1 X0.75S500
G1 X0.55S0
G1 X45.95S500
G1 X0.5S0
G1 X2.35S500
G1 X18.05S0
G1 X1.7S500
G1 X12.75S0
G1 X0.05S500
G1 X0.1S0
G1 X0.05S500
G1 X0.1S0
G1 X0.05S500
G1 X0.1S0
G1 X0.05S500
G1 X0.1S0
G1 X0.05S500
G1 X8.7S0
G1 X0.05S500
G1 X0.05S0
G1 X0.1S500
G1 X5.2S0
G1 X0.05S500
G1 X0.15S0
G1 X0.05S500
G1 X1.7S0
G1 X0.45S500
G1 X22.95S0
G1 X0.05S500
G1 X0.1S0
G1 X0.05S500
G1 X0.1S0
G1 X0.05S500
G1 X23.65S0
G1 X0.15S500
G1 X4.85S0
G1 X0.2S500
G1 X2.5S0
G1 X0.35S500
G1 X7.65S0
G1 X0.05S500
G1 X19.55S0
G1 X0.05S500
G1 X0.1S0
G1 X0.05S500
G1 X0.1S0
G1 X0.05S500
G1 X0.1S0
G1 X0.05S500
G1 X0.1S0
G1 X0.05S500
G1 X0.1S0
G1 X0.05S500
G1 X0.1S0
G1 X0.05S500
G1 X0.1S0
G1 X0.05S500
G1 X0.1S0
G1 X0.05S500
G1 X15.3S0
G1 X0.55S500
G1 X0.05S0
G1 X0.05S500
G1 X30.6S0
G1 X0.6S500
G1 X9.55S0
G1 X1.7S500
G1 X3.7S0
G1 X0.7S500
G0 X2.917
G0 X0.05Y0.05
G0 X-2.917
G1 X-0.7
G1 X-3.7S0
G1 X-1.75S500
G1 X-9.4S0
G1 X-0.75S500
G1 X-30.5S0
G1 X-0.8S500
G1 X-14.95S0
G1 X-1.65S500
G1 X-19.4S0
G1 X-0.3S500
G1 X-0.05S0
G1 X-0.1S500
G1 X-0.05S0
G1 X-0.1S500
G1 X-7.15S0
G1 X-0.45S500
G1 X-2.25S0
G1 X-0.35S500
G1 X-4.8S0
G1 X-0.35S500
G1 X-23.35S0
G1 X-0.6S500
G1 X-2.35S0
G1 X-0.55S500
G1 X-19.85S0
G1 X-0.6S500
G1 X-1.5S0
G1 X-0.55S500
G1 X-5S0
G1 X-0.4S500
G1 X-8.3S0
G1 X-1.15S500
G1 X-12.5S0
G1 X-1.7S500
G1 X-18.05S0
G1 X-2.35S500
G1 X-0.5S0
G1 X-45.95S500
G1 X-0.55S0
G1 X-0.75S500
G1 X-0.5S0
G1 X-1.3S500
G1 X-0.5S0
G1 X-0.5S500
G1 X-0.55S0
G1 X-12.3S500
G1 X-0.55S0
G1 X-2S500
G0 X-2.917
G0 Y0.05
G0 X2.917
G1 X2.05
G1 X0.5S0
G1 X12.3S500
G1 X0.5S0
G1 X0.5S500
G1 X0.55S0
G1 X1.3S500
G1 X0.5S0
G1 X0.75S500
G1 X0.55S0
G1 X45.95S500
G1 X0.5S0
G1 X2.35S500
G1 X18.05S0
G1 X1.7S500
G1 X12.35S0
G1 X1.45S500
G1 X8.05S0
G1 X0.5S500
G1 X4.95S0
G1 X0.6S500
G1 X1.5S0
G1 X0.65S500
G1 X19.75S0
G1 X0.65S500
G1 X2.3S0
G1 X0.65S500
G1 X23.15S0
G1 X0.55S500
G1 X4.75S0
G1 X0.45S500
G1 X2.05S0
G1 X0.55S500
G1 X6.8S0
G1 X0.95S500
G1 X19.35S0
G1 X1.9S500
G1 X14.75S0
G1 X0.9S500
G1 X30.4S0
G1 X0.9S500
G1 X9.25S0
G1 X1.75S500
G1 X3.7S0
G1 X0.7S500
G0 X2.917
G0 X-0.05Y0.05
G0 X-2.917
G1 X-0.65
G1 X-3.7S0
G1 X-1.8S500
G1 X-9.05S0
G1 X-1.05S500
G1 X-30.25S0
G1 X-1S500
G1 X-14.7S0
G1 X-2S500
G1 X-19.35S0
G1 X-1.4S500
G1 X-6.35S0
G1 X-0.65S500
G1 X-1.85S0
G1 X-0.55S500
G1 X-4.75S0
G1 X-0.65S500
G1 X-23S0
G1 X-0.7S500
G1 X-2.3S0
G1 X-0.7S500
G1 X-19.7S0
G1 X-0.6S500
G1 X-1.55S0
G1 X-0.65S500
G1 X-4.85S0
G1 X-0.65S500
G1 X-7.85S0
G1 X-1.65S500
G1 X-12.25S0
G1 X-1.65S500
G1 X-18.1S0
G1 X-2.35S500
G1 X-0.5S0
G1 X-45.95S500
G1 X-0.55S0
G1 X-0.75S500
G1 X-0.55S0
G1 X-1.25S500
G1 X-0.55S0
G1 X-0.45S500
G1 X-0.55S0
G1 X-12.3S500
G1 X-0.55S0
G1 X-2S500
G0 X-2.917
G0 Y0.05
G0 X2.917
G1 X2
G1 X0.55S0
G1 X12.3S500
G1 X0.5S0
G1 X0.55S500
G1 X0.5S0
G1 X1.3S500
G1 X0.5S0
G1 X0.75S500
G1 X0.55S0
G1 X45.95S500
G1 X0.5S0
G1 X2.35S500
G1 X18S0
G1 X1.75S500
G1 X3.8S0
G1 X2.9S500
G1 X5.4S0
G1 X1.9S500
G1 X5.15S0
G1 X0.7S500
G1 X1.75S0
G1 X0.75S500
G1 X4.9S0
G1 X0.6S500
G1 X1.6S0
G1 X0.65S500
G1 X12.75S0
G1 X2.9S500
G1 X3.95S0
G1 X0.7S500
G1 X2.35S0
G1 X0.75S500
G1 X4.95S0
G1 X2.95S500
G1 X4.85S0
G1 X3S500
G1 X4.6S0
G1 X0.7S500
G1 X1.8S0
G1 X0.75S500
G1 X4.75S0
G1 X0.6S500
G1 X1.75S0
G1 X0.7S500
G1 X6S0
G1 X1.75S500
G1 X12.65S0
G1 X2.95S500
G1 X3.7S0
G1 X2.15S500
G1 X6.8S0
G1 X2.95S500
G1 X4.8S0
G1 X1.15S500
G1 X6.7S0
G1 X3S500
G1 X12.75S0
G1 X2.85S500
G1 X4.85S0
G1 X1.1S500
G1 X8.95S0
G1 X1.8S500
G1 X3.7S0
G1 X0.75S500
G1 X7.15S0
G1 X2.95S500
G1 X4.85S0
G1 X4.05S500
G0 X2.917
G0 X0.05Y0.05
G0 X-2.917
G1 X-4.15
G1 X-4.8S0
G1 X-3S500
G1 X-7.1S0
G1 X-0.7S500
G1 X-3.7S0
G1 X-1.95S500
G1 X-8.65S0
G1 X-1.3S500
G1 X-4.8S0
G1 X-2.95S500
G1 X-4.9S0
G1 X-4S500
G1 X-3.8S0
G1 X-3S500
G1 X-6.55S0
G1 X-1.3S500
G1 X-4.75S0
G1 X-3S500
G1 X-6.75S0
G1 X-2.15S500
G1 X-3.75S0
G1 X-3S500
G1 X-4.85S0
G1 X-3.9S500
G1 X-3.85S0
G1 X-2.2S500
G1 X-0.05S0
G1 X-0.05S500
G1 X-0.05S0
G1 X-0.05S500
G1 X-0.05S0
G1 X-0.05S500
G1 X-5.25S0
G1 X-0.8S500
G1 X-1.55S0
G1 X-0.7S500
G1 X-4.75S0
G1 X-0.95S500
G1 X-1.45S0
G1 X-0.95S500
G1 X-0.05S0
G1 X-0.05S500
G1 X-4.4S0
G1 X-3S500
G1 X-4.8S0
G1 X-3S500
G1 X-4.95S0
G1 X-0.7S500
G1 X-2.45S0
G1 X-0.65S500
G1 X-3.9S0
G1 X-3S500
G1 X-4.85S0
G1 X-3.95S500
G1 X-3.9S0
G1 X-0.6S500
G1 X-0.7S0
G1 X-0.05S500
G1 X-0.05S0
G1 X-0.05S500
G1 X-0.05S0
G1 X-0.05S500
G1 X-0.05S0
G1 X-0.05S500
G1 X-0.6S0
G1 X-0.65S500
G1 X-4.85S0
G1 X-0.9S500
G1 X-1.45S0
G1 X-1.05S500
G1 X-4.85S0
G1 X-2.05S500
G1 X-5.3S0
G1 X-3S500
G1 X-3.75S0
G1 X-1.8S500
G1 X-7.1S0
G1 X-4S500
G1 X-6.85S0
G1 X-2.35S500
G1 X-0.5S0
G1 X-45.95S500
G1 X-0.55S0
G1 X-0.75S500
G1 X-0.5S0
G1 X-1.3S500
G1 X-0.55S0
G1 X-0.45S500
G1 X-0.55S0
G1 X-12.3S500
G1 X-0.55S0
G1 X-2S500
G0 X-2.917
G0 Y0.05
G0 X2.917
G1 X2.05
G1 X0.5S0
G1 X0.8S500
G1 X0.15S0
G1 X11.35S500
G1 X0.5S0
G1 X0.5S500
G1 X0.55S0
G1 X1.25S500
G1 X0.55S0
G1 X0.75S500
G1 X0.55S0
G1 X45.95S500
G1 X0.5S0
G1 X2.3S500
G1 X6.9S0
G1 X4.05S500
G1 X6.95S0
G1 X1.9S500
G1 X3.7S0
G1 X3.05S500
G1 X5.2S0
G1 X2.25S500
G1 X4.7S0
G1 X1.15S500
G1 X1.25S0
G1 X1.05S500
G1 X4.85S0
G1 X0.6S500
G1 X0.6S0
G1 X0.45S500
G1 X0.7S0
G1 X0.6S500
G1 X3.8S0
G1 X4.05S500
G1 X4.75S0
G1 X3.05S500
G1 X3.85S0
G1 X0.7S500
G1 X1S0
G1 X0.35S500
G1 X1.15S0
G1 X0.7S500
G1 X4.85S0
G1 X3.05S500
G1 X4.8S0
G1 X3S500
G1 X4.35S0
G1 X1.15S500
G1 X1.25S0
G1 X1.05S500
G1 X4.8S0
G1 X0.8S500
G1 X1.35S0
G1 X0.9S500
G1 X4.9S0
G1 X2.85S500
G1 X3.8S0
G1 X4S500
G1 X4.8S0
G1 X3.05S500
G1 X3.7S0
G1 X2.25S500
G1 X6.6S0
G1 X3.05S500
G1 X4.8S0
G1 X1.4S500
G1 X6.4S0
G1 X3S500
G1 X3.75S0
G1 X4.1S500
G1 X4.8S0
G1 X3.05S500
G1 X4.75S0
G1 X1.45S500
G1 X8.45S0
G1 X2S500
G1 X3.7S0
G1 X0.7S500
G1 X7.1S0
G1 X3.05S500
G1 X4.75S0
G1 X4.15S500
G0 X2.917
G0 Y0.05
G0 X-2.917
G1 X-4.15
G1 X-4.75S0
G1 X-3.05S500
G1 X-7.15S0
G1 X-0.7S500
G1 X-3.65S0
G1 X-2.1S500
G1 X-8.25S0
G1 X-1.55S500
G1 X-4.75S0
G1 X-3.05S500
G1 X-4.8S0
G1 X-4.1S500
G1 X-3.7S0
G1 X-3.05S500
G1 X-6.25S0
G1 X-1.6S500
G1 X-4.75S0
G1 X-3.05S500
G1 X-6.55S0
G1 X-2.35S500
G1 X-3.65S0
G1 X-3.05S500
G1 X-4.75S0
G1 X-4.1S500
G1 X-3.75S0
G1 X-2.95S500
G1 X-4.8S0
G1 X-1S500
G1 X-1.15S0
G1 X-0.9S500
G1 X-4.75S0
G1 X-1.15S500
G1 X-1.1S0
G1 X-1.35S500
G1 X-4.25S0
G1 X-3.05S500
G1 X-4.75S0
G1 X-3.05S500
G1 X-4.85S0
G1 X-0.7S500
G1 X-1.05S0
G1 X-0.55S500
G1 X-0.95S0
G1 X-0.7S500
G1 X-3.8S0
G1 X-3.05S500
G1 X-4.75S0
G1 X-4.1S500
G1 X-3.7S0
G1 X-0.65S500
G1 X-0.7S0
G1 X-0.5S500
G1 X-0.6S0
G1 X-0.6S500
G1 X-4.75S0
G1 X-1.2S500
G1 X-1.05S0
G1 X-1.35S500
G1 X-4.6S0
G1 X-2.3S500
G1 X-5.15S0
G1 X-3.05S500
G1 X-3.7S0
G1 X-1.95S500
G1 X-6.9S0
G1 X-4.1S500
G1 X-6.8S0
G1 X-2.35S500
G1 X-0.5S0
G1 X-45.95S500
G1 X-0.55S0
G1 X-0.7S500
G1 X-0.55S0
G1 X-1.3S500
G1 X-0.5S0
G1 X-0.5S500
G1 X-0.55S0
G1 X-11.3S500
G1 X-0.25S0
G1 X-0.75S500
G1 X-0.55S0
G1 X-2S500
G0 X-2.917
G0 Y0.05
G0 X2.917
G1 X2
G1 X0.55S0
G1 X0.7S500
G1 X0.35S0
G1 X11.25S500
G1 X0.55S0
G1 X0.45S500
G1 X0.55S0
G1 X1.3S500
G1 X0.5S0
G1 X0.75S500
G1 X0.55S0
G1 X45.95S500
G1 X0.5S0
G1 X2.35S500
G1 X6.8S0
G1 X4.1S500
G1 X6.8S0
G1 X2.05S500
G1 X3.7S0
G1 X3.05S500
G1 X5.1S0
G1 X2.45S500
G1 X4.45S0
G1 X1.45S500
G1 X0.9S0
G1 X1.25S500
G1 X4.85S0
G1 X0.55S500
G1 X0.6S0
G1 X0.5S500
G1 X0.7S0
G1 X0.65S500
G1 X3.7S0
G1 X4.1S500
G1 X4.75S0
G1 X3.05S500
G1 X3.8S0
G1 X0.7S500
G1 X0.9S0
G1 X0.65S500
G1 X1S0
G1 X0.7S500
G1 X4.85S0
G1 X3.05S500
G1 X4.8S0
G1 X3.05S500
G1 X4.15S0
G1 X1.45S500
G1 X0.9S0
G1 X1.3S500
G1 X4.75S0
G1 X0.95S500
G1 X1.05S0
G1 X1.05S500
G1 X4.75S0
G1 X3S500
G1 X3.75S0
G1 X4.05S500
G1 X4.8S0
G1 X3.05S500
G1 X3.7S0
G1 X2.3S500
G1 X6.55S0
G1 X3.05S500
G1 X4.75S0
G1 X1.7S500
G1 X6.1S0
G1 X3.05S500
G1 X3.75S0
G1 X4.15S500
G1 X4.75S0
G1 X3.05S500
G1 X4.75S0
G1 X1.7S500
G1 X8S0
G1 X2.15S500
G1 X3.75S0
G1 X0.7S500
G1 X7.1S0
G1 X3.05S500
G1 X4.75S0
G1 X4.2S500
G0 X2.917
G0 Y0.05
G0 X-2.917
G1 X-4.2
G1 X-4.75S0
G1 X-3.05S500
G1 X-7.1S0
G1 X-0.7S500
G1 X-3.75S0
G1 X-2.25S500
G1 X-7.8S0
G1 X-1.8S500
G1 X-4.75S0
G1 X-3.05S500
G1 X-4.8S0
G1 X-4.15S500
G1 X-3.65S0
G1 X-3.05S500
G1 X-6.05S0
G1 X-1.75S500
G1 X-4.8S0
G1 X-3.05S500
G1 X-6.5S0
G1 X-2.35S500
G1 X-3.7S0
G1 X-3.05S500
G1 X-4.75S0
G1 X-4.1S500
G1 X-3.75S0
G1 X-3S500
G1 X-4.75S0
G1 X-1.15S500
G1 X-0.85S0
G1 X-1.05S500
G1 X-4.75S0
G1 X-1.4S500
G1 X-0.75S0
G1 X-1.6S500
G1 X-4.1S0
G1 X-3S500
G1 X-4.8S0
G1 X-3.05S500
G1 X-4.8S0
G1 X-0.7S500
G1 X-1.05S0
G1 X-0.6S500
G1 X-1S0
G1 X-0.65S500
G1 X-3.8S0
G1 X-3.05S500
G1 X-4.75S0
G1 X-4.1S500
G1 X-3.75S0
G1 X-0.55S500
G1 X-0.75S0
G1 X-0.5S500
G1 X-0.65S0
G1 X-0.55S500
G1 X-4.8S0
G1 X-1.35S500
G1 X-0.75S0
G1 X-1.6S500
G1 X-4.35S0
G1 X-2.5S500
G1 X-5.05S0
G1 X-3.05S500
G1 X-3.75S0
G1 X-2.15S500
G1 X-6.6S0
G1 X-4.15S500
G1 X-6.8S0
G1 X-2.35S500
G1 X-0.5S0
G1 X-45.95S500
G1 X-0.55S0
G1 X-0.75S500
G1 X-0.55S0
G1 X-1.25S500
G1 X-0.5S0
G1 X-0.5S500
G1 X-0.55S0
G1 X-11.2S500
G1 X-0.4S0
G1 X-0.7S500
G1 X-0.5S0
G1 X-2.05S500
G0 X-2.917
G0 Y0.05
G0 X2.917
G1 X2
G1 X0.55S0
G1 X0.65S500
G1 X0.45S0
G1 X11.2S500
G1 X0.65S0
G1 X0.4S500
G1 X0.5S0
G1 X1.3S500
G1 X0.5S0
G1 X0.75S500
G1 X0.5S0
G1 X44.6S500
G1 X0.05S0
G1 X0.05S500
G1 X0.05S0
G1 X0.05S500
G1 X0.05S0
G1 X0.05S500
G1 X0.05S0
G1 X0.1S500
G1 X0.05S0
G1 X0.9S500
G1 X0.5S0
G1 X2.35S500
G1 X6.8S0
G1 X4.1S500
G1 X6.45S0
G1 X1.4S500
G1 X0.7S0
G1 X0.05S500
G1 X0.15S0
G1 X0.05S500
G1 X3.75S0
G1 X3.05S500
G1 X5S0
G1 X2.65S500
G1 X4.2S0
G1 X1.65S500
G1 X0.65S0
G1 X1.45S500
G1 X4.8S0
G1 X0.55S500
G1 X0.65S0
G1 X0.5S500
G1 X0.75S0
G1 X0.6S500
G1 X3.75S0
G1 X4.05S500
G1 X4.75S0
G1 X3.05S500
G1 X3.8S0
G1 X0.65S500
G1 X0.95S0
G1 X0.65S500
G1 X1.1S0
G1 X0.65S500
G1 X4.8S0
G1 X3.05S500
G1 X4.75S0
G1 X3.05S500
G1 X4.1S0
G1 X1.65S500
G1 X0.6S0
G1 X1.45S500
G1 X4.8S0
G1 X1.2S500
G1 X0.6S0
G1 X1.25S500
G1 X4.75S0
G1 X3S500
G1 X3.75S0
G1 X4.05S500
G1 X4.8S0
G1 X3.05S500
G1 X3.65S0
G1 X2.45S500
G1 X6.45S0
G1 X3.05S500
G1 X4.75S0
G1 X2S500
G1 X5.85S0
G1 X3S500
G1 X3.7S0
G1 X4.2S500
G1 X4.75S0
G1 X3.05S500
G1 X4.75S0
G1 X2S500
G1 X7.4S0
G1 X1.45S500
G1 X0.1S0
G1 X0.05S500
G1 X0.1S0
G1 X0.05S500
G1 X0.1S0
G1 X0.05S500
G1 X0.1S0
G1 X0.05S500
G1 X0.1S0
G1 X0.05S500
G1 X0.1S0
G1 X0.05S500
G1 X3.85S0
G1 X0.7S500
G1 X7.1S0
G1 X3.05S500
G1 X4.75S0
G1 X4.2S500
G0 X2.917
G0 Y0.05
G0 X-2.917
G1 X-4.2
G1 X-4.75S0
G1 X-3.05S500
G1 X-7.15S0
G1 X-0.7S500
G1 X-4.75S0
G1 X-1.55S500
G1 X-7.15S0
G1 X-2.1S500
G1 X-4.75S0
G1 X-3.05S500
G1 X-4.8S0
G1 X-4.1S500
G1 X-3.75S0
G1 X-3.05S500
G1 X-5.7S0
G1 X-2.1S500
G1 X-4.75S0
G1 X-3.05S500
G1 X-6.45S0
G1 X-2.4S500
G1 X-3.75S0
G1 X-3S500
G1 X-4.75S0
G1 X-4.1S500
G1 X-3.75S0
G1 X-3.05S500
G1 X-4.7S0
G1 X-1.35S500
G1 X-0.45S0
G1 X-1.25S500
G1 X-4.75S0
G1 X-1.6S500
G1 X-0.5S0
G1 X-1.7S500
G1 X-4S0
G1 X-3.05S500
G1 X-4.8S0
G1 X-3S500
G1 X-4.85S0
G1 X-0.65S500
G1 X-1.1S0
G1 X-0.6S500
G1 X-1S0
G1 X-0.65S500
G1 X-3.8S0
G1 X-3.05S500
G1 X-4.75S0
G1 X-4.1S500
G1 X-3.7S0
G1 X-0.55S500
G1 X-0.8S0
G1 X-0.5S500
G1 X-0.7S0
G1 X-0.5S500
G1 X-4.75S0
G1 X-1.6S500
G1 X-0.5S0
G1 X-1.7S500
G1 X-4.2S0
G1 X-2.7S500
G1 X-4.95S0
G1 X-3.05S500
G1 X-4.75S0
G1 X-1.5S500
G1 X-6.3S0
G1 X-4.1S500
G1 X-6.8S0
G1 X-2.35S500
G1 X-0.5S0
G1 X-0.85S500
G1 X-0.65S0
G1 X-44.45S500
G1 X-0.55S0
G1 X-0.75S500
G1 X-0.5S0
G1 X-1.3S500
G1 X-0.5S0
G1 X-0.35S500
G1 X-0.7S0
G1 X-11.1S500
G1 X-0.65S0
G1 X-0.55S500
G1 X-0.55S0
G1 X-2S500
G0 X-2.917
G0 Y0.05
G0 X2.917
G1 X2
G1 X0.55S0
G1 X0.55S500
G1 X0.7S0
G1 X11.05S500
G1 X0.7S0
G1 X0.35S500
G1 X0.5S0
G1 X1.25S500
G1 X0.55S0
G1 X0.75S500
G1 X0.55S0
G1 X44.45S500
G1 X0.7S0
G1 X0.8S500
G1 X0.5S0
G1 X2.35S500
G1 X6.8S0
G1 X4.15S500
G1 X6.1S0
G1 X1.7S500
G1 X4.7S0
G1 X3.05S500
G1 X4.95S0
G1 X2.75S500
G1 X4.1S0
G1 X1.8S500
G1 X0.4S0
G1 X1.6S500
G1 X4.75S0
G1 X0.55S500
G1 X0.75S0
G1 X0.45S500
G1 X0.8S0
G1 X0.6S500
G1 X3.65S0
G1 X4.1S500
G1 X4.75S0
G1 X3.05S500
G1 X3.75S0
G1 X0.7S500
G1 X0.95S0
G1 X0.65S500
G1 X1.1S0
G1 X0.7S500
G1 X4.75S0
G1 X3.05S500
G1 X4.75S0
G1 X3.05S500
G1 X4S0
G1 X1.8S500
G1 X0.45S0
G1 X1.6S500
G1 X4.75S0
G1 X1.3S500
G1 X0.35S0
G1 X1.4S500
G1 X4.7S0
G1 X3.05S500
G1 X3.75S0
G1 X4.05S500
G1 X4.8S0
G1 X3.05S500
G1 X3.7S0
G1 X2.45S500
G1 X6.4S0
G1 X3.05S500
G1 X4.8S0
G1 X2.2S500
G1 X1.75S0
G1 X0.15S500
G1 X3.7S0
G1 X3.05S500
G1 X3.65S0
G1 X4.2S500
G1 X4.75S0
G1 X3.05S500
G1 X4.8S0
G1 X2.15S500
G1 X1.8S0
G1 X0.1S500
G1 X5S0
G1 X1.7S500
G1 X4.8S0
G1 X0.7S500
G1 X7.1S0
G1 X3.05S500
G1 X4.75S0
G1 X4.2S500
G0 X2.917
G0 Y0.05
G0 X-2.917
G1 X-4.2
G1 X-4.75S0
G1 X-3.05S500
G1 X-7.1S0
G1 X-0.7S500
G1 X-4.8S0
G1 X-1.95S500
G1 X-4.7S0
G1 X-0.25S500
G1 X-1.55S0
G1 X-2.25S500
G1 X-4.85S0
G1 X-3.05S500
G1 X-4.75S0
G1 X-4.2S500
G1 X-3.7S0
G1 X-3S500
G1 X-3.7S0
G1 X-0.25S500
G1 X-1.55S0
G1 X-2.25S500
G1 X-4.85S0
G1 X-3.05S500
G1 X-6.4S0
G1 X-2.45S500
G1 X-3.7S0
G1 X-3.05S500
G1 X-4.75S0
G1 X-4.1S500
G1 X-3.75S0
G1 X-3.05S500
G1 X-4.75S0
G1 X-1.45S500
G1 X-0.15S0
G1 X-1.4S500
G1 X-4.75S0
G1 X-1.65S500
G1 X-0.35S0
G1 X-1.9S500
G1 X-3.9S0
G1 X-3.05S500
G1 X-4.8S0
G1 X-3.05S500
G1 X-4.75S0
G1 X-0.65S500
G1 X-1.15S0
G1 X-0.65S500
G1 X-1S0
G1 X-0.65S500
G1 X-3.75S0
G1 X-3.05S500
G1 X-4.75S0
G1 X-4.1S500
G1 X-3.7S0
G1 X-0.55S500
G1 X-0.8S0
G1 X-0.5S500
G1 X-0.7S0
G1 X-0.55S500
G1 X-4.75S0
G1 X-1.65S500
G1 X-0.35S0
G1 X-1.85S500
G1 X-4.05S0
G1 X-2.8S500
G1 X-4.9S0
G1 X-3.05S500
G1 X-4.75S0
G1 X-1.9S500
G1 X-5.9S0
G1 X-4.1S500
G1 X-6.8S0
G1 X-2.35S500
G1 X-0.5S0
G1 X-0.75S500
G1 X-0.8S0
G1 X-44.4S500
G1 X-0.55S0
G1 X-0.75S500
G1 X-0.5S0
G1 X-1.3S500
G1 X-0.5S0
G1 X-0.3S500
G1 X-0.7S0
G1 X-11.1S500
G1 X-0.75S0
G1 X-0.5S500
G1 X-0.5S0
G1 X-2.05S500
G0 X-2.917
G0 Y0.05
G0 X2.917
G1 X2
G1 X0.55S0
G1 X0.5S500
G1 X0.85S0
G1 X11S500
G1 X0.75S0
G1 X0.2S500
G1 X0.55S0
G1 X1.3S500
G1 X0.5S0
G1 X0.7S500
G1 X0.6S0
G1 X44.4S500
G1 X0.8S0
G1 X0.75S500
G1 X0.5S0
G1 X2.35S500
G1 X6.8S0
G1 X4.1S500
G1 X5.5S0
G1 X0.05S500
G1 X0.1S0
G1 X2.2S500
G1 X4.7S0
G1 X3.05S500
G1 X4.85S0
G1 X2.9S500
G1 X4S0
G1 X1.9S500
G1 X0.25S0
G1 X1.7S500
G1 X4.75S0
G1 X0.55S500
G1 X0.7S0
G1 X0.5S500
G1 X0.8S0
G1 X0.55S500
G1 X3.75S0
G1 X4.05S500
G1 X4.75S0
G1 X3.05S500
G1 X3.75S0
G1 X0.65S500
G1 X1.05S0
G1 X0.6S500
G1 X1.15S0
G1 X0.65S500
G1 X4.75S0
G1 X3.05S500
G1 X4.8S0
G1 X3S500
G1 X3.95S0
G1 X1.9S500
G1 X0.25S0
G1 X1.7S500
G1 X4.8S0
G1 X2.95S500
G1 X4.8S0
G1 X3S500
G1 X3.8S0
G1 X4.05S500
G1 X4.8S0
G1 X3.05S500
G1 X3.7S0
G1 X2.5S500
G1 X6.35S0
G1 X3.05S500
G1 X5S0
G1 X0.05S500
G1 X0.05S0
G1 X2.15S500
G1 X1.25S0
G1 X0.4S500
G1 X3.65S0
G1 X3.1S500
G1 X3.7S0
G1 X4.1S500
G1 X4.8S0
G1 X3.05S500
G1 X4.95S0
G1 X0.05S500
G1 X0.05S0
G1 X2.15S500
G1 X0.05S0
G1 X0.05S500
G1 X1.2S0
G1 X0.4S500
G1 X4.35S0
G1 X0.05S500
G1 X0.1S0
G1 X2.15S500
G1 X4.75S0
G1 X3.05S500
G1 X4.8S0
G1 X3.05S500
G1 X4.75S0
G1 X4.2S500
G0 X2.917
G0 X-0.05Y0.05
G0 X-2.917
G1 X-4.1
G1 X-4.8S0
G1 X-3.05S500
G1 X-4.75S0
G1 X-3.05S500
G1 X-4.8S0
G1 X-2.55S500
G1 X-4.05S0
G1 X-0.6S500
G1 X-0.95S0
G1 X-2.2S500
G1 X-5.2S0
G1 X-3.05S500
G1 X-4.75S0
G1 X-4.2S500
G1 X-3.7S0
G1 X-3S500
G1 X-3.65S0
G1 X-0.6S500
G1 X-0.9S0
G1 X-2.25S500
G1 X-5.2S0
G1 X-3.05S500
G1 X-6.35S0
G1 X-2.5S500
G1 X-3.7S0
G1 X-3.05S500
G1 X-4.75S0
G1 X-4.1S500
G1 X-3.85S0
G1 X-0.05S500
G1 X-0.3S0
G1 X-2.55S500
G1 X-5S0
G1 X-2.8S500
G1 X-4.8S0
G1 X-1.75S500
G1 X-0.15S0
G1 X-2S500
G1 X-3.9S0
G1 X-3.05S500
G1 X-4.75S0
G1 X-3.05S500
G1 X-4.75S0
G1 X-0.65S500
G1 X-1.15S0
G1 X-0.65S500
G1 X-1.05S0
G1 X-0.6S500
G1 X-3.75S0
G1 X-3.05S500
G1 X-4.75S0
G1 X-4.1S500
G1 X-3.65S0
G1 X-0.6S500
G1 X-0.8S0
G1 X-0.5S500
G1 X-0.7S0
G1 X-0.55S500
G1 X-4.75S0
G1 X-1.75S500
G1 X-0.15S0
G1 X-2S500
G1 X-3.95S0
G1 X-2.9S500
G1 X-4.85S0
G1 X-3.05S500
G1 X-4.7S0
G1 X-2.7S500
G1 X-5.1S0
G1 X-4.15S500
G1 X-6.8S0
G1 X-2.35S500
G1 X-0.5S0
G1 X-0.65S500
G1 X-0.9S0
G1 X-44.4S500
G1 X-0.65S0
G1 X-0.65S500
G1 X-0.55S0
G1 X-1.25S500
G1 X-1.4S0
G1 X-11.05S500
G1 X-0.9S0
G1 X-0.5S500
G1 X-0.55S0
G1 X-2S500
G0 X-2.917
G0 Y0.05
G0 X2.917
G1 X2.05
G1 X0.5S0
G1 X0.5S500
G1 X0.95S0
G1 X11.05S500
G1 X1.35S0
G1 X1.3S500
G1 X0.5S0
G1 X0.6S500
G1 X0.7S0
G1 X44.4S500
G1 X0.95S0
G1 X0.6S500
G1 X0.5S0
G1 X2.3S500
G1 X6.85S0
G1 X4.1S500
G1 X4.9S0
G1 X2.9S500
G1 X4.75S0
G1 X3.05S500
G1 X4.8S0
G1 X1.25S500
G1 X0.45S0
G1 X1.25S500
G1 X3.9S0
G1 X2.05S500
G1 X0.1S0
G1 X1.8S500
G1 X4.75S0
G1 X0.55S500
G1 X0.75S0
G1 X0.45S500
G1 X0.85S0
G1 X0.5S500
G1 X3.7S0
G1 X4.1S500
G1 X4.75S0
G1 X3.05S500
G1 X3.7S0
G1 X0.65S500
G1 X1.1S0
G1 X0.6S500
G1 X1.15S0
G1 X0.7S500
G1 X4.75S0
G1 X3S500
G1 X4.8S0
G1 X3.05S500
G1 X3.85S0
G1 X2S500
G1 X0.15S0
G1 X1.75S500
G1 X4.9S0
G1 X2.6S500
G1 X5.05S0
G1 X2.2S500
G1 X4.6S0
G1 X4.05S500
G1 X4.8S0
G1 X3S500
G1 X3.8S0
G1 X2.5S500
G1 X6.3S0
G1 X3.05S500
G1 X5.3S0
G1 X2.2S500
G1 X0.7S0
G1 X0.75S500
G1 X3.65S0
G1 X3.05S500
G1 X3.7S0
G1 X4.15S500
G1 X4.75S0
G1 X3.05S500
G1 X5.3S0
G1 X2.2S500
G1 X0.7S0
G1 X0.75S500
G1 X3.75S0
G1 X2.85S500
G1 X4.8S0
G1 X3.05S500
G1 X4.75S0
G1 X3.05S500
G1 X4.8S0
G1 X4.1S500
G0 X2.917
G0 Y0.05
G0 X-2.917
G1 X-3.75
G1 X-5.2S0
G1 X-3S500
G1 X-4.8S0
G1 X-3S500
G1 X-4.8S0
G1 X-3.2S500
G1 X-3.4S0
G1 X-0.85S500
G1 X-0.45S0
G1 X-2.25S500
G1 X-5.45S0
G1 X-3S500
G1 X-4.8S0
G1 X-4.15S500
G1 X-3.7S0
G1 X-3.05S500
G1 X-3.6S0
G1 X-0.8S500
G1 X-0.5S0
G1 X-2.2S500
G1 X-5.45S0
G1 X-3.05S500
G1 X-6.3S0
G1 X-1.1S500
G1 X-5.2S0
G1 X-3S500
G1 X-4.75S0
G1 X-4.1S500
G1 X-4.95S0
G1 X-1.85S500
G1 X-5.1S0
G1 X-2.45S500
G1 X-5.1S0
G1 X-1.7S500
G1 X-0.1S0
G1 X-2S500
G1 X-3.9S0
G1 X-3S500
G1 X-4.8S0
G1 X-3.05S500
G1 X-4.7S0
G1 X-0.65S500
G1 X-1.2S0
G1 X-0.65S500
G1 X-1.05S0
G1 X-0.65S500
G1 X-3.7S0
G1 X-3.05S500
G1 X-4.75S0
G1 X-4.1S500
G1 X-3.7S0
G1 X-0.5S500
G1 X-0.85S0
G1 X-0.5S500
G1 X-0.75S0
G1 X-0.5S500
G1 X-4.85S0
G1 X-1.7S500
G1 X-0.1S0
G1 X-2.05S500
G1 X-3.85S0
G1 X-1.05S500
G1 X-0.9S0
G1 X-1.05S500
G1 X-4.8S0
G1 X-3.05S500
G1 X-4.7S0
G1 X-3.05S500
G1 X-4.8S0
G1 X-4.1S500
G1 X-6.8S0
G1 X-2.35S500
G1 X-0.5S0
G1 X-0.55S500
G1 X-1S0
G1 X-44.4S500
G1 X-0.75S0
G1 X-0.55S500
G1 X-0.5S0
G1 X-1.3S500
G1 X-1.3S0
G1 X-11.05S500
G1 X-1S0
G1 X-0.5S500
G1 X-0.55S0
G1 X-2S500
G0 X-2.917
G0 Y0.05
G0 X2.917
G1 X2
G1 X0.55S0
G1 X0.5S500
G1 X1S0
G1 X11.1S500
G1 X1.25S0
G1 X1.25S500
G1 X0.55S0
G1 X0.5S500
G1 X0.75S0
G1 X44.45S500
G1 X1S0
G1 X0.55S500
G1 X0.5S0
G1 X2.35S500
G1 X6.8S0
G1 X4.15S500
G1 X4.75S0
G1 X3S500
G1 X4.75S0
G1 X3S500
G1 X4.8S0
G1 X0.95S500
G1 X1.15S0
G1 X0.95S500
G1 X3.85S0
G1 X2.05S500
G1 X0.05S0
G1 X1.65S500
G1 X4.95S0
G1 X0.55S500
G1 X0.7S0
G1 X0.5S500
G1 X0.85S0
G1 X0.55S500
G1 X3.65S0
G1 X4.1S500
G1 X4.8S0
G1 X3S500
G1 X3.7S0
G1 X0.65S500
G1 X1.1S0
G1 X0.6S500
G1 X1.2S0
G1 X0.65S500
G1 X4.75S0
G1 X3S500
G1 X4.8S0
G1 X3S500
G1 X3.85S0
G1 X2.1S500
G1 X0.05S0
G1 X1.6S500
G1 X5.3S0
G1 X2.25S500
G1 X5.2S0
G1 X1.45S500
G1 X5.35S0
G1 X4.05S500
G1 X4.8S0
G1 X2.95S500
G1 X5.4S0
G1 X0.95S500
G1 X6.35S0
G1 X2.95S500
G1 X5.6S0
G1 X2.2S500
G1 X0.25S0
G1 X0.95S500
G1 X3.65S0
G1 X3S500
G1 X3.75S0
G1 X4.15S500
G1 X4.75S0
G1 X3S500
G1 X5.6S0
G1 X2.15S500
G1 X0.3S0
G1 X0.95S500
G1 X3.1S0
G1 X3.5S500
G1 X4.75S0
G1 X3.1S500
G1 X4.8S0
G1 X2.95S500
G1 X5.2S0
G1 X3.75S500
G0 X2.917
G0 X-0.05Y0.05
G0 X-2.917
G1 X-0.05
G1 X-0.05S0
G1 X-0.1S500
G1 X-0.05S0
G1 X-0.1S500
G1 X-0.05S0
G1 X-0.1S500
G1 X-0.05S0
G1 X-0.1S500
G1 X-0.05S0
G1 X-0.1S500
G1 X-0.05S0
G1 X-0.1S500
G1 X-0.05S0
G1 X-0.1S500
G1 X-0.05S0
G1 X-0.1S500
G1 X-0.05S0
G1 X-0.9S500
G1 X-0.05S0
G1 X-0.1S500
G1 X-0.05S0
G1 X-0.1S500
G1 X-0.05S0
G1 X-0.1S500
G1 X-0.05S0
G1 X-0.1S500
G1 X-0.05S0
G1 X-0.1S500
G1 X-0.05S0
G1 X-0.75S500
G1 X-5.15S0
G1 X-0.05S500
G1 X-0.05S0
G1 X-0.05S500
G1 X-0.05S0
G1 X-0.1S500
G1 X-0.05S0
G1 X-0.1S500
G1 X-0.05S0
G1 X-0.1S500
G1 X-0.05S0
G1 X-0.1S500
G1 X-0.05S0
G1 X-0.1S500
G1 X-0.05S0
G1 X-0.1S500
G1 X-0.05S0
G1 X-0.75S500
G1 X-0.05S0
G1 X-0.1S500
G1 X-0.05S0
G1 X-0.1S500
G1 X-0.05S0
G1 X-0.1S500
G1 X-0.05S0
G1 X-0.1S500
G1 X-0.05S0
G1 X-0.1S500
G1 X-0.05S0
G1 X-0.1S500
G1 X-0.05S0
G1 X-0.15S500
G1 X-4.8S0
G1 X-3.05S500
G1 X-4.8S0
G1 X-3.95S500
G1 X-2.65S0
G1 X-1.05S500
G1 X-0.05S0
G1 X-2.15S500
G1 X-5.8S0
G1 X-0.05S500
G1 X-0.05S0
G1 X-0.1S500
G1 X-0.05S0
G1 X-0.1S500
G1 X-0.05S0
G1 X-0.1S500
G1 X-0.05S0
G1 X-0.1S500
G1 X-0.05S0
G1 X-0.1S500
G1 X-0.05S0
G1 X-0.1S500
G1 X-0.05S0
G1 X-0.1S500
G1 X-0.05S0
G1 X-0.1S500
G1 X-0.05S0
G1 X-0.1S500
G1 X-0.05S0
G1 X-0.1S500
G1 X-0.05S0
G1 X-0.1S500
G1 X-0.05S0
G1 X-0.1S500
G1 X-0.05S0
G1 X-0.1S500
G1 X-0.05S0
G1 X-0.1S500
G1 X-0.05S0
G1 X-0.75S500
G1 X-4.8S0
G1 X-4.1S500
G1 X-3.8S0
G1 X-0.1S500
G1 X-0.05S0
G1 X-0.1S500
G1 X-0.05S0
G1 X-0.1S500
G1 X-0.05S0
G1 X-0.1S500
G1 X-0.05S0
G1 X-0.1S500
G1 X-0.05S0
G1 X-0.1S500
G1 X-0.05S0
G1 X-0.1S500
G1 X-0.05S0
G1 X-0.85S500
G1 X-0.05S0
G1 X-0.1S500
G1 X-0.05S0
G1 X-0.1S500
G1 X-0.05S0
G1 X-0.1S500
G1 X-0.05S0
G1 X-0.1S500
G1 X-0.05S0
G1 X-0.1S500
G1 X-0.05S0
G1 X-0.1S500
G1 X-0.05S0
G1 X-0.05S500
G1 X-3.7S0
G1 X-1.1S500
G1 X-0.05S0
G1 X-2.05S500
G1 X-5.85S0
G1 X-0.1S500
G1 X-0.05S0
G1 X-0.1S500
G1 X-0.05S0
G1 X-0.1S500
G1 X-0.05S0
G1 X-0.1S500
G1 X-0.05S0
G1 X-0.1S500
G1 X-0.05S0
G1 X-0.1S500
G1 X-0.05S0
G1 X-0.1S500
G1 X-0.05S0
G1 X-0.8S500
G1 X-0.05S0
G1 X-0.1S500
G1 X-0.05S0
G1 X-0.1S500
G1 X-0.05S0
G1 X-0.1S500
G1 X-0.05S0
G1 X-0.1S500
G1 X-0.05S0
G1 X-0.1S500
G1 X-0.05S0
G1 X-0.1S500
G1 X-0.05S0
G1 X-0.05S500
G1 X-6.4S0
G1 X-0.85S500
G1 X-5.6S0
G1 X-1S500
G1 X-0.2S0
G1 X-0.1S500
G1 X-0.05S0
G1 X-0.1S500
G1 X-0.05S0
G1 X-0.1S500
G1 X-0.05S0
G1 X-0.1S500
G1 X-0.05S0
G1 X-0.1S500
G1 X-0.05S0
G1 X-0.1S500
G1 X-0.05S0
G1 X-0.1S500
G1 X-0.05S0
G1 X-0.1S500
G1 X-0.05S0
G1 X-0.1S500
G1 X-0.05S0
G1 X-0.25S500
G1 X-4.85S0
G1 X-4.05S500
G1 X-5.8S0
G1 X-0.05S500
G1 X-0.05S0
G1 X-0.05S500
G1 X-0.05S0
G1 X-0.05S500
G1 X-0.05S0
G1 X-0.05S500
G1 X-0.05S0
G1 X-0.55S500
G1 X-5.4S0
G1 X-2.05S500
G1 X-5.45S0
G1 X-0.05S500
G1 X-0.05S0
G1 X-3.55S500
G1 X-3.95S0
G1 X-0.1S500
G1 X-0.05S0
G1 X-0.1S500
G1 X-0.05S0
G1 X-0.1S500
G1 X-0.05S0
G1 X-0.1S500
G1 X-0.05S0
G1 X-0.1S500
G1 X-0.05S0
G1 X-0.1S500
G1 X-0.05S0
G1 X-0.1S500
G1 X-0.05S0
G1 X-0.75S500
G1 X-0.05S0
G1 X-0.1S500
G1 X-0.05S0
G1 X-0.1S500
G1 X-0.05S0
G1 X-0.1S500
G1 X-0.05S0
G1 X-0.1S500
G1 X-0.05S0
G1 X-0.1S500
G1 X-0.05S0
G1 X-0.1S500
G1 X-0.05S0
G1 X-0.1S500
G1 X-4.9S0
G1 X-0.05S500
G1 X-0.05S0
G1 X-0.15S500
G1 X-0.05S0
G1 X-0.1S500
G1 X-0.05S0
G1 X-0.1S500
G1 X-0.05S0
G1 X-0.1S500
G1 X-0.05S0
G1 X-0.1S500
G1 X-0.05S0
G1 X-0.1S500
G1 X-0.05S0
G1 X-0.8S500
G1 X-0.05S0
G1 X-0.1S500
G1 X-0.05S0
G1 X-0.1S500
G1 X-0.05S0
G1 X-0.1S500
G1 X-0.05S0
G1 X-0.1S500
G1 X-0.05S0
G1 X-0.1S500
G1 X-0.05S0
G1 X-0.05S500
G1 X-0.05S0
G1 X-0.05S500
G1 X-0.05S0
G1 X-0.05S500
G1 X-4.8S0
G1 X-0.65S500
G1 X-1.2S0
G1 X-0.65S500
G1 X-1.05S0
G1 X-0.65S500
G1 X-3.75S0
G1 X-0.1S500
G1 X-0.05S0
G1 X-0.1S500
G1 X-0.05S0
G1 X-0.1S500
G1 X-0.05S0
G1 X-0.1S500
G1 X-0.05S0
G1 X-0.1S500
G1 X-0.05S0
G1 X-0.1S500
G1 X-0.05S0
G1 X-0.1S500
G1 X-0.05S0
G1 X-0.9S500
G1 X-0.05S0
G1 X-0.1S500
G1 X-0.05S0
G1 X-0.1S500
G1 X-0.05S0
G1 X-0.1S500
G1 X-0.05S0
G1 X-0.1S500
G1 X-0.05S0
G1 X-0.1S500
G1 X-0.05S0
G1 X-0.1S500
G1 X-0.05S0
G1 X-0.05S500
G1 X-4.85S0
G1 X-4S500
G1 X-3.75S0
G1 X-0.55S500
G1 X-0.8S0
G1 X-0.5S500
G1 X-0.7S0
G1 X-0.55S500
G1 X-5.15S0
G1 X-3.55S500
G1 X-3.8S0
G1 X-0.9S500
G1 X-1.35S0
G1 X-0.85S500
G1 X-4.8S0
G1 X-0.1S500
G1 X-0.05S0
G1 X-0.1S500
G1 X-0.05S0
G1 X-0.1S500
G1 X-0.05S0
G1 X-0.1S500
G1 X-0.05S0
G1 X-0.1S500
G1 X-0.05S0
G1 X-0.1S500
G1 X-0.05S0
G1 X-0.1S500
G1 X-0.05S0
G1 X-0.1S500
G1 X-0.05S0
G1 X-0.1S500
G1 X-0.05S0
G1 X-0.1S500
G1 X-0.05S0
G1 X-0.1S500
G1 X-0.05S0
G1 X-0.1S500
G1 X-0.05S0
G1 X-0.1S500
G1 X-0.05S0
G1 X-0.1S500
G1 X-0.05S0
G1 X-0.1S500
G1 X-0.05S0
G1 X-0.75S500
G1 X-4.7S0
G1 X-3.05S500
G1 X-4.8S0
G1 X-4.05S500
G1 X-6.85S0
G1 X-2.35S500
G1 X-0.5S0
G1 X-0.55S500
G1 X-1S0
G1 X-44.5S500
G1 X-0.7S0
G1 X-0.55S500
G1 X-0.55S0
G1 X-1.25S500
G1 X-1.2S0
G1 X-11.1S500
G1 X-1S0
G1 X-0.5S500
G1 X-0.55S0
G1 X-2S500
G0 X-2.917
G0 Y0.05
G0 X2.917
G1 X2.05
G1 X0.5S0
G1 X0.5S500
G1 X0.95S0
G1 X11.25S500
G1 X1.05S0
G1 X1.25S500
G1 X0.55S0
G1 X0.6S500
G1 X0.65S0
G1 X44.55S500
G1 X0.95S0
G1 X0.6S500
G1 X0.5S0
G1 X2.35S500
G1 X6.9S0
G1 X3.95S500
G1 X4.85S0
G1 X2.25S500
G1 X0.1S0
G1 X0.65S500
G1 X4.75S0
G1 X0.65S500
G1 X7.15S0
G1 X0.75S500
G1 X1.5S0
G1 X0.85S500
G1 X3.75S0
G1 X0.95S500
G1 X0.35S0
G1 X2.15S500
G1 X5.3S0
G1 X0.55S500
G1 X0.75S0
G1 X0.45S500
G1 X0.8S0
G1 X0.55S500
G1 X3.7S0
G1 X0.65S500
G1 X0.05S0
G1 X0.05S500
G1 X0.05S0
G1 X0.05S500
G1 X0.05S0
G1 X0.05S500
G1 X0.05S0
G1 X0.1S500
G1 X0.05S0
G1 X0.05S500
G1 X0.05S0
G1 X0.1S500
G1 X0.05S0
G1 X0.05S500
G1 X0.05S0
G1 X0.1S500
G1 X0.05S0
G1 X0.05S500
G1 X0.05S0
G1 X0.1S500
G1 X0.05S0
G1 X0.05S500
G1 X0.05S0
G1 X0.1S500
G1 X0.05S0
G1 X0.05S500
G1 X0.05S0
G1 X0.1S500
G1 X0.05S0
G1 X0.05S500
G1 X0.05S0
G1 X0.1S500
G1 X0.05S0
G1 X0.05S500
G1 X0.05S0
G1 X0.1S500
G1 X0.05S0
G1 X0.05S500
G1 X0.05S0
G1 X0.1S500
G1 X0.05S0
G1 X0.05S500
G1 X0.05S0
G1 X0.1S500
G1 X0.05S0
G1 X0.05S500
G1 X0.05S0
G1 X0.1S500
G1 X0.05S0
G1 X0.05S500
G1 X0.05S0
G1 X0.05S500
G1 X0.05S0
G1 X0.05S500
G1 X0.1S0
G1 X0.05S500
G1 X6S0
G1 X0.65S500
G1 X4.9S0
G1 X0.65S500
G1 X1.1S0
G1 X0.6S500
G1 X1.15S0
G1 X0.7S500
G1 X5.9S0
G1 X0.6S500
G1 X7.2S0
G1 X0.65S500
G1 X5S0
G1 X0.95S500
G1 X0.2S0
G1 X0.05S500
G1 X0.15S0
G1 X2.1S500
G1 X5.85S0
G1 X1.8S500
G1 X5.45S0
G1 X0.7S500
G1 X6.1S0
G1 X4S500
G1 X6.6S0
G1 X1.05S500
G1 X5.7S0
G1 X0.8S500
G1 X7.5S0
G1 X0.6S500
G1 X7.15S0
G1 X3.05S500
G1 X4.85S0
G1 X0.6S500
G1 X5S0
G1 X4.05S500
G1 X4.8S0
G1 X0.65S500
G1 X8.3S0
G1 X3.05S500
G1 X2.55S0
G1 X3.35S500
G1 X0.05S0
G1 X0.65S500
G1 X4.8S0
G1 X3S500
G1 X5.95S0
G1 X0.65S500
G1 X6.3S0
G1 X0.7S500
G1 X1.05S0
G1 X0.7S500
G0 X2.917
G0 X0.05Y0.05
G0 X-2.917
G1 X-0.65
G1 X-1.2S0
G1 X-0.7S500
G1 X-6.25S0
G1 X-0.6S500
G1 X-5.95S0
G1 X-3.1S500
G1 X-4.7S0
G1 X-0.7S500
G1 X-0.1S0
G1 X-3.3S500
G1 X-2.55S0
G1 X-2.95S500
G1 X-8.4S0
G1 X-0.65S500
G1 X-6.55S0
G1 X-0.75S500
G1 X-6.6S0
G1 X-0.6S500
G1 X-4.8S0
G1 X-2.9S500
G1 X-7.3S0
G1 X-0.6S500
G1 X-7.5S0
G1 X-0.75S500
G1 X-5.85S0
G1 X-1S500
G1 X-7.9S0
G1 X-0.65S500
G1 X-1.35S0
G1 X-0.65S500
G1 X-5.9S0
G1 X-0.9S500
G1 X-5.55S0
G1 X-1.65S500
G1 X-6S0
G1 X-1.9S500
G1 X-0.6S0
G1 X-0.85S500
G1 X-5S0
G1 X-0.65S500
G1 X-7.2S0
G1 X-0.6S500
G1 X-5.9S0
G1 X-0.65S500
G1 X-1.2S0
G1 X-0.65S500
G1 X-1.05S0
G1 X-0.65S500
G1 X-4.95S0
G1 X-0.6S500
G1 X-9.3S0
G1 X-0.75S500
G1 X-3.65S0
G1 X-0.6S500
G1 X-0.8S0
G1 X-0.5S500
G1 X-0.7S0
G1 X-0.55S500
G1 X-5.45S0
G1 X-1.9S500
G1 X-0.55S0
G1 X-0.85S500
G1 X-3.75S0
G1 X-0.8S500
G1 X-1.6S0
G1 X-0.7S500
G1 X-7.15S0
G1 X-0.65S500
G1 X-4.7S0
G1 X-0.7S500
G1 X-0.2S0
G1 X-2.15S500
G1 X-6.55S0
G1 X-0.7S500
G1 X-8.45S0
G1 X-2.35S500
G1 X-0.5S0
G1 X-0.65S500
G1 X-0.95S0
G1 X-44.5S500
G1 X-0.65S0
G1 X-0.7S500
G1 X-0.5S0
G1 X-1.25S500
G1 X-0.95S0
G1 X-11.4S500
G1 X-0.85S0
G1 X-0.5S500
G1 X-0.55S0
G1 X-2S500
G0 X-2.917
G0 Y0.05
G0 X2.917
G1 X2
G1 X0.55S0
G1 X0.5S500
G1 X0.8S0
G1 X11.5S500
G1 X0.85S0
G1 X1.25S500
G1 X0.5S0
G1 X0.75S500
G1 X0.6S0
G1 X44.6S500
G1 X0.8S0
G1 X0.75S500
G1 X0.5S0
G1 X2.35S500
G1 X8.45S0
G1 X0.7S500
G1 X6.55S0
G1 X2.1S500
G1 X0.25S0
G1 X0.7S500
G1 X4.7S0
G1 X0.65S500
G1 X7.1S0
G1 X0.75S500
G1 X1.65S0
G1 X0.75S500
G1 X3.75S0
G1 X0.75S500
G1 X0.75S0
G1 X1.7S500
G1 X5.55S0
G1 X0.6S500
G1 X0.65S0
G1 X0.5S500
G1 X0.8S0
G1 X0.55S500
G1 X3.7S0
G1 X0.9S500
G1 X9.15S0
G1 X0.6S500
G1 X4.95S0
G1 X0.65S500
G1 X1.1S0
G1 X0.6S500
G1 X1.2S0
G1 X0.65S500
G1 X5.9S0
G1 X0.6S500
G1 X7.25S0
G1 X0.6S500
G1 X5S0
G1 X0.8S500
G1 X0.7S0
G1 X1.7S500
G1 X6.25S0
G1 X1.5S500
G1 X5.6S0
G1 X1.05S500
G1 X5.75S0
G1 X0.6S500
G1 X1.4S0
G1 X0.65S500
G1 X7.85S0
G1 X1S500
G1 X5.95S0
G1 X0.75S500
G1 X7.45S0
G1 X0.55S500
G1 X7.45S0
G1 X2.8S500
G1 X4.85S0
G1 X0.55S500
G1 X6.65S0
G1 X0.7S500
G1 X6.55S0
G1 X0.65S500
G1 X8.5S0
G1 X2.85S500
G1 X2.55S0
G1 X3.2S500
G1 X0.2S0
G1 X0.65S500
G1 X4.8S0
G1 X3.05S500
G1 X5.95S0
G1 X0.6S500
G1 X6.2S0
G1 X0.65S500
G1 X1.35S0
G1 X0.65S500
G0 X2.917
G0 X0.05Y0.05
G0 X-2.917
G1 X-0.65
G1 X-1.45S0
G1 X-0.65S500
G1 X-6.15S0
G1 X-0.6S500
G1 X-6S0
G1 X-3S500
G1 X-4.8S0
G1 X-0.65S500
G1 X-0.25S0
G1 X-3.15S500
G1 X-2.6S0
G1 X-2.65S500
G1 X-8.65S0
G1 X-0.65S500
G1 X-6.55S0
G1 X-0.7S500
G1 X-6.65S0
G1 X-0.6S500
G1 X-4.8S0
G1 X-2.7S500
G1 X-7.5S0
G1 X-0.6S500
G1 X-7.5S0
G1 X-0.7S500
G1 X-6S0
G1 X-1.05S500
G1 X-7.75S0
G1 X-0.65S500
G1 X-1.4S0
G1 X-0.6S500
G1 X-5.6S0
G1 X-1.15S500
G1 X-5.75S0
G1 X-1.3S500
G1 X-6.45S0
G1 X-1.55S500
G1 X-0.8S0
G1 X-0.75S500
G1 X-5S0
G1 X-0.65S500
G1 X-7.2S0
G1 X-0.6S500
G1 X-5.9S0
G1 X-0.7S500
G1 X-1.15S0
G1 X-0.65S500
G1 X-1.05S0
G1 X-0.65S500
G1 X-4.95S0
G1 X-0.6S500
G1 X-9.05S0
G1 X-0.95S500
G1 X-3.75S0
G1 X-0.6S500
G1 X-0.75S0
G1 X-0.5S500
G1 X-0.65S0
G1 X-0.6S500
G1 X-5.65S0
G1 X-1.55S500
G1 X-0.85S0
G1 X-0.7S500
G1 X-3.75S0
G1 X-0.7S500
G1 X-1.75S0
G1 X-0.7S500
G1 X-7.1S0
G1 X-0.65S500
G1 X-4.75S0
G1 X-0.6S500
G1 X-0.4S0
G1 X-2S500
G1 X-6.55S0
G1 X-0.7S500
G1 X-8.45S0
G1 X-2.35S500
G1 X-0.5S0
G1 X-0.75S500
G1 X-0.8S0
G1 X-44.65S500
G1 X-0.55S0
G1 X-0.75S500
G1 X-0.5S0
G1 X-1.3S500
G1 X-0.8S0
G1 X-11.55S500
G1 X-0.75S0
G1 X-0.5S500
G1 X-0.5S0
G1 X-2.05S500
G0 X-2.917
G0 Y0.05
G0 X2.917
G1 X2
G1 X0.55S0
G1 X0.55S500
G1 X0.65S0
G1 X11.65S500
G1 X0.7S0
G1 X1.25S500
G1 X0.6S0
G1 X0.75S500
G1 X0.55S0
G1 X44.7S500
G1 X0.7S0
G1 X0.8S500
G1 X0.5S0
G1 X2.35S500
G1 X8.45S0
G1 X0.7S500
G1 X6.55S0
G1 X1.8S500
G1 X0.55S0
G1 X0.7S500
G1 X4.7S0
G1 X0.65S500
G1 X7.15S0
G1 X0.65S500
G1 X1.8S0
G1 X0.65S500
G1 X3.7S0
G1 X0.7S500
G1 X0.95S0
G1 X1.3S500
G1 X5.85S0
G1 X0.6S500
G1 X0.7S0
G1 X0.45S500
G1 X0.75S0
G1 X0.65S500
G1 X3.65S0
G1 X1.25S500
G1 X8.8S0
G1 X0.6S500
G1 X4.95S0
G1 X0.65S500
G1 X1.05S0
G1 X0.65S500
G1 X1.2S0
G1 X0.65S500
G1 X5.9S0
G1 X0.6S500
G1 X7.2S0
G1 X0.65S500
G1 X4.95S0
G1 X0.7S500
G1 X1S0
G1 X1.25S500
G1 X6.8S0
G1 X1.05S500
G1 X5.85S0
G1 X1.3S500
G1 X0.05S0
G1 X0.05S500
G1 X5.35S0
G1 X0.55S500
G1 X1.45S0
G1 X0.65S500
G1 X7.65S0
G1 X1.05S500
G1 X6.1S0
G1 X0.7S500
G1 X7.5S0
G1 X0.6S500
G1 X7.7S0
G1 X2.45S500
G1 X4.9S0
G1 X0.55S500
G1 X6.65S0
G1 X0.7S500
G1 X6.55S0
G1 X0.65S500
G1 X8.85S0
G1 X2.45S500
G1 X2.6S0
G1 X3S500
G1 X0.4S0
G1 X0.65S500
G1 X4.8S0
G1 X3.05S500
G1 X5.95S0
G1 X0.6S500
G1 X6.15S0
G1 X0.65S500
G1 X1.5S0
G1 X0.6S500
G0 X2.917
G0 X0.05Y0.05
G0 X-2.917
G1 X-0.65
G1 X-1.55S0
G1 X-0.65S500
G1 X-6.1S0
G1 X-0.6S500
G1 X-5.95S0
G1 X-3.1S500
G1 X-4.75S0
G1 X-0.65S500
G1 X-0.5S0
G1 X-2.9S500
G1 X-2.6S0
G1 X-2.3S500
G1 X-9S0
G1 X-0.65S500
G1 X-6.55S0
G1 X-0.7S500
G1 X-6.6S0
G1 X-0.65S500
G1 X-4.8S0
G1 X-2.35S500
G1 X-7.85S0
G1 X-0.6S500
G1 X-7.45S0
G1 X-0.7S500
G1 X-6.2S0
G1 X-1.05S500
G1 X-7.6S0
G1 X-0.65S500
G1 X-1.4S0
G1 X-0.6S500
G1 X-5.25S0
G1 X-1.5S500
G1 X-5.8S0
G1 X-1.05S500
G1 X-6.95S0
G1 X-1.1S500
G1 X-1.05S0
G1 X-0.7S500
G1 X-4.95S0
G1 X-0.6S500
G1 X-7.25S0
G1 X-0.6S500
G1 X-5.9S0
G1 X-0.65S500
G1 X-1.2S0
G1 X-0.6S500
G1 X-1.1S0
G1 X-0.65S500
G1 X-4.95S0
G1 X-0.6S500
G1 X-8.75S0
G1 X-1.3S500
G1 X-3.7S0
G1 X-0.65S500
G1 X-0.7S0
G1 X-0.5S500
G1 X-0.6S0
G1 X-0.65S500
G1 X-5.95S0
G1 X-1.15S500
G1 X-1S0
G1 X-0.7S500
G1 X-3.7S0
G1 X-0.65S500
G1 X-1.85S0
G1 X-0.65S500
G1 X-7.1S0
G1 X-0.65S500
G1 X-4.75S0
G1 X-0.65S500
G1 X-0.65S0
G1 X-1.75S500
G1 X-6.5S0
G1 X-0.7S500
G1 X-8.45S0
G1 X-2.35S500
G1 X-0.5S0
G1 X-0.9S500
G1 X-0.55S0
G1 X-44.75S500
G1 X-0.55S0
G1 X-0.8S500
G1 X-0.6S0
G1 X-1.25S500
G1 X-0.55S0
G1 X-11.8S500
G1 X-0.55S0
G1 X-0.6S500
G1 X-0.55S0
G1 X-2S500
G0 X-2.917
G0 Y0.05
G0 X2.917
G1 X2
G1 X0.55S0
G1 X14.7S500
G1 X0.7S0
G1 X0.75S500
G1 X0.55S0
G1 X46.2S500
G1 X0.5S0
G1 X2.3S500
G1 X8.5S0
G1 X0.7S500
G1 X6.55S0
G1 X1.55S500
G1 X0.8S0
G1 X0.7S500
G1 X4.7S0
G1 X0.65S500
G1 X7.1S0
G1 X0.65S500
G1 X1.85S0
G1 X0.65S500
G1 X3.7S0
G1 X0.65S500
G1 X1.1S0
G1 X1S500
G1 X6.05S0
G1 X0.7S500
G1 X0.55S0
G1 X0.5S500
G1 X0.65S0
G1 X0.7S500
G1 X3.7S0
G1 X1.45S500
G1 X8.6S0
G1 X0.6S500
G1 X4.95S0
G1 X0.65S500
G1 X1.05S0
G1 X0.65S500
G1 X1.2S0
G1 X0.65S500
G1 X5.9S0
G1 X0.65S500
G1 X7.15S0
G1 X0.65S500
G1 X4.95S0
G1 X0.65S500
G1 X1.1S0
G1 X1S500
G1 X7.1S0
G1 X1.1S500
G1 X5.7S0
G1 X1.65S500
G1 X5.1S0
G1 X0.6S500
G1 X1.4S0
G1 X0.65S500
G1 X7.55S0
G1 X1.05S500
G1 X6.25S0
G1 X0.7S500
G1 X7.45S0
G1 X0.6S500
G1 X8S0
G1 X2.15S500
G1 X4.9S0
G1 X0.6S500
G1 X6.6S0
G1 X0.7S500
G1 X6.55S0
G1 X0.65S500
G1 X9.1S0
G1 X2.2S500
G1 X2.6S0
G1 X2.75S500
G1 X0.65S0
G1 X0.65S500
G1 X4.8S0
G1 X3S500
G1 X6S0
G1 X0.6S500
G1 X6.1S0
G1 X0.6S500
G1 X1.65S0
G1 X0.65S500
G0 X2.917
G0 Y0.05
G0 X-2.917
G1 X-0.6
G1 X-1.75S0
G1 X-0.6S500
G1 X-6.05S0
G1 X-0.6S500
G1 X-6S0
G1 X-3S500
G1 X-4.8S0
G1 X-0.65S500
G1 X-0.8S0
G1 X-2.6S500
G1 X-2.6S0
G1 X-2.1S500
G1 X-9.2S0
G1 X-0.65S500
G1 X-6.55S0
G1 X-0.7S500
G1 X-6.6S0
G1 X-0.65S500
G1 X-4.85S0
G1 X-2.1S500
G1 X-8S0
G1 X-0.7S500
G1 X-7.4S0
G1 X-0.7S500
G1 X-6.3S0
G1 X-1.1S500
G1 X-7.45S0
G1 X-0.65S500
G1 X-1.45S0
G1 X-0.55S500
G1 X-4.95S0
G1 X-1.75S500
G1 X-5.65S0
G1 X-1.2S500
G1 X-7.15S0
G1 X-0.95S500
G1 X-1.1S0
G1 X-0.65S500
G1 X-4.95S0
G1 X-0.65S500
G1 X-7.15S0
G1 X-0.7S500
G1 X-5.85S0
G1 X-0.7S500
G1 X-1.15S0
G1 X-0.6S500
G1 X-1.1S0
G1 X-0.65S500
G1 X-4.9S0
G1 X-0.65S500
G1 X-8.45S0
G1 X-1.55S500
G1 X-3.75S0
G1 X-0.7S500
G1 X-0.65S0
G1 X-0.5S500
G1 X-0.5S0
G1 X-0.75S500
G1 X-6.15S0
G1 X-0.9S500
G1 X-1.1S0
G1 X-0.65S500
G1 X-3.7S0
G1 X-0.6S500
G1 X-1.9S0
G1 X-0.6S500
G1 X-7.15S0
G1 X-0.65S500
G1 X-4.7S0
G1 X-0.65S500
G1 X-1S0
G1 X-1.4S500
G1 X-6.55S0
G1 X-0.7S500
G1 X-8.45S0
G1 X-2.35S500
G1 X-0.5S0
G1 X-46.2S500
G1 X-0.55S0
G1 X-0.8S500
G1 X-0.7S0
G1 X-14.65S500
G1 X-0.5S0
G1 X-2.05S500
G0 X-2.917
G0 Y0.05
G0 X2.917
G1 X2
G1 X0.55S0
G1 X14.6S500
G1 X0.8S0
G1 X0.75S500
G1 X0.55S0
G1 X46.2S500
G1 X0.5S0
G1 X2.35S500
G1 X8.45S0
G1 X0.7S500
G1 X6.55S0
G1 X0.95S500
G1 X0.05S0
G1 X0.1S500
G1 X1.25S0
G1 X0.65S500
G1 X4.75S0
G1 X0.65S500
G1 X7.1S0
G1 X0.65S500
G1 X1.9S0
G1 X0.6S500
G1 X3.7S0
G1 X0.65S500
G1 X1.1S0
G1 X0.85S500
G1 X6.25S0
G1 X0.75S500
G1 X0.5S0
G1 X0.45S500
G1 X0.55S0
G1 X0.8S500
G1 X3.75S0
G1 X1.7S500
G1 X8.3S0
G1 X0.6S500
G1 X4.95S0
G1 X0.7S500
G1 X1S0
G1 X0.65S500
G1 X1.15S0
G1 X0.7S500
G1 X5.85S0
G1 X0.7S500
G1 X7.2S0
G1 X0.6S500
G1 X4.95S0
G1 X0.65S500
G1 X1.15S0
G1 X0.8S500
G1 X7.1S0
G1 X1.45S500
G1 X5.6S0
G1 X1.9S500
G1 X4.75S0
G1 X0.6S500
G1 X1.4S0
G1 X0.65S500
G1 X7.4S0
G1 X1.05S500
G1 X6.45S0
G1 X0.65S500
G1 X7.4S0
G1 X0.7S500
G1 X7.95S0
G1 X2.1S500
G1 X4.9S0
G1 X0.7S500
G1 X6.5S0
G1 X0.75S500
G1 X6.55S0
G1 X0.65S500
G1 X9.15S0
G1 X2.1S500
G1 X2.65S0
G1 X2.4S500
G1 X1S0
G1 X0.65S500
G1 X4.75S0
G1 X0.9S500
G1 X0.05S0
G1 X2.05S500
G1 X6.05S0
G1 X0.6S500
G1 X6S0
G1 X0.65S500
G1 X1.75S0
G1 X0.65S500
G0 X2.917
G0 Y0.05
G0 X-2.917
G1 X-0.65
G1 X-1.8S0
G1 X-0.6S500
G1 X-6S0
G1 X-0.6S500
G1 X-8.3S0
G1 X-0.7S500
G1 X-4.75S0
G1 X-0.7S500
G1 X-1.3S0
G1 X-2.1S500
G1 X-2.75S0
G1 X-2.2S500
G1 X-8.95S0
G1 X-0.65S500
G1 X-6.55S0
G1 X-0.75S500
G1 X-6.5S0
G1 X-0.75S500
G1 X-4.95S0
G1 X-2.2S500
G1 X-7.7S0
G1 X-0.8S500
G1 X-7.35S0
G1 X-0.65S500
G1 X-6.5S0
G1 X-1.1S500
G1 X-7.3S0
G1 X-0.65S500
G1 X-1.4S0
G1 X-0.6S500
G1 X-4.55S0
G1 X-2.05S500
G1 X-5.6S0
G1 X-1.6S500
G1 X-7.05S0
G1 X-0.8S500
G1 X-1.1S0
G1 X-0.65S500
G1 X-4.95S0
G1 X-0.65S500
G1 X-7.1S0
G1 X-0.8S500
G1 X-5.8S0
G1 X-0.7S500
G1 X-1.15S0
G1 X-0.6S500
G1 X-1.05S0
G1 X-0.7S500
G1 X-4.95S0
G1 X-0.6S500
G1 X-8.1S0
G1 X-1.9S500
G1 X-3.75S0
G1 X-0.85S500
G1 X-0.5S0
G1 X-0.5S500
G1 X-0.4S0
G1 X-0.8S500
G1 X-6.3S0
G1 X-0.8S500
G1 X-1.15S0
G1 X-0.6S500
G1 X-3.7S0
G1 X-0.65S500
G1 X-1.85S0
G1 X-0.6S500
G1 X-7.15S0
G1 X-0.65S500
G1 X-4.7S0
G1 X-0.7S500
G1 X-1.65S0
G1 X-0.7S500
G1 X-6.55S0
G1 X-0.7S500
G1 X-8.45S0
G1 X-2.35S500
G1 X-0.5S0
G1 X-46.2S500
G1 X-0.6S0
G1 X-0.75S500
G1 X-0.8S0
G1 X-14.55S500
G1 X-0.55S0
G1 X-2S500
G0 X-2.917
G0 Y0.05
G0 X2.917
G1 X2.05
G1 X0.5S0
G1 X14.5S500
G1 X0.8S0
G1 X0.75S500
G1 X0.65S0
G1 X4.5S500
G1 X0.2S0
G1 X41.5S500
G1 X0.5S0
G1 X2.35S500
G1 X8.45S0
G1 X0.7S500
G1 X6.5S0
G1 X0.65S500
G1 X1.8S0
G1 X0.6S500
G1 X4.75S0
G1 X0.65S500
G1 X7.1S0
G1 X0.65S500
G1 X1.9S0
G1 X0.6S500
G1 X3.7S0
G1 X0.6S500
G1 X1.2S0
G1 X0.7S500
G1 X6.35S0
G1 X0.95S500
G1 X0.25S0
G1 X0.5S500
G1 X0.4S0
G1 X0.9S500
G1 X3.85S0
G1 X1.95S500
G1 X8S0
G1 X0.6S500
G1 X4.95S0
G1 X0.75S500
G1 X0.95S0
G1 X0.65S500
G1 X1.15S0
G1 X0.7S500
G1 X5.75S0
G1 X0.9S500
G1 X7.05S0
G1 X0.65S500
G1 X4.95S0
G1 X0.65S500
G1 X1.15S0
G1 X0.75S500
G1 X6.95S0
G1 X1.8S500
G1 X5.6S0
G1 X2.05S500
G1 X4.45S0
G1 X0.6S500
G1 X1.4S0
G1 X0.65S500
G1 X7.25S0
G1 X1.05S500
G1 X6.6S0
G1 X0.65S500
G1 X7.3S0
G1 X0.9S500
G1 X7.5S0
G1 X2.25S500
G1 X5S0
G1 X0.85S500
G1 X6.45S0
G1 X0.8S500
G1 X6.5S0
G1 X0.65S500
G1 X8.8S0
G1 X2.2S500
G1 X2.9S0
G1 X1.9S500
G1 X1.5S0
G1 X0.65S500
G1 X4.8S0
G1 X0.7S500
G1 X8.3S0
G1 X0.6S500
G1 X6S0
G1 X0.6S500
G1 X1.85S0
G1 X0.65S500
G0 X2.917
G0 Y0.05
G0 X-2.917
G1 X-0.65
G1 X-1.8S0
G1 X-0.7S500
G1 X-5.95S0
G1 X-0.65S500
G1 X-8.25S0
G1 X-0.7S500
G1 X-4.8S0
G1 X-0.65S500
G1 X-1.75S0
G1 X-1.65S500
G1 X-3S0
G1 X-2.25S500
G1 X-8.65S0
G1 X-0.65S500
G1 X-6.5S0
G1 X-0.85S500
G1 X-6.35S0
G1 X-0.95S500
G1 X-5.1S0
G1 X-2.2S500
G1 X-7.35S0
G1 X-1S500
G1 X-7.25S0
G1 X-0.65S500
G1 X-6.65S0
G1 X-1.05S500
G1 X-7.2S0
G1 X-0.65S500
G1 X-1.4S0
G1 X-0.6S500
G1 X-4.25S0
G1 X-2.1S500
G1 X-5.65S0
G1 X-2S500
G1 X-6.9S0
G1 X-0.7S500
G1 X-1.2S0
G1 X-0.6S500
G1 X-4.95S0
G1 X-0.6S500
G1 X-7.05S0
G1 X-1S500
G1 X-5.7S0
G1 X-0.75S500
G1 X-1.1S0
G1 X-0.6S500
G1 X-1S0
G1 X-0.75S500
G1 X-4.95S0
G1 X-0.6S500
G1 X-7.85S0
G1 X-2.05S500
G1 X-3.9S0
G1 X-1S500
G1 X-0.25S0
G1 X-0.55S500
G1 X-0.15S0
G1 X-1.05S500
G1 X-6.4S0
G1 X-0.65S500
G1 X-1.2S0
G1 X-0.6S500
G1 X-3.7S0
G1 X-0.6S500
G1 X-1.9S0
G1 X-0.65S500
G1 X-7.1S0
G1 X-0.65S500
G1 X-4.7S0
G1 X-0.7S500
G1 X-1.75S0
G1 X-0.6S500
G1 X-6.55S0
G1 X-0.7S500
G1 X-8.45S0
G1 X-2.35S500
G1 X-0.5S0
G1 X-41.2S500
G1 X-0.55S0
G1 X-4.45S500
G1 X-0.7S0
G1 X-0.75S500
G1 X-0.8S0
G1 X-14.45S500
G1 X-0.55S0
G1 X-2S500
G0 X-2.917
G0 Y0.05
G0 X2.917
G1 X2
G1 X0.55S0
G1 X14.45S500
G1 X0.75S0
G1 X0.75S500
G1 X0.75S0
G1 X4.4S500
G1 X0.65S0
G1 X41.15S500
G1 X0.5S0
G1 X2.35S500
G1 X8.45S0
G1 X0.7S500
G1 X6.55S0
G1 X0.6S500
G1 X1.75S0
G1 X0.7S500
G1 X4.7S0
G1 X0.65S500
G1 X7.15S0
G1 X0.6S500
G1 X1.85S0
G1 X0.65S500
G1 X3.7S0
G1 X0.6S500
G1 X1.2S0
G1 X0.65S500
G1 X6.45S0
G1 X2.9S500
G1 X4S0
G1 X2.15S500
G1 X7.7S0
G1 X0.65S500
G1 X4.9S0
G1 X0.75S500
G1 X0.95S0
G1 X0.65S500
G1 X1.1S0
G1 X0.7S500
G1 X5.65S0
G1 X1.15S500
G1 X6.95S0
G1 X0.65S500
G1 X4.95S0
G1 X0.65S500
G1 X1.15S0
G1 X0.65S500
G1 X6.9S0
G1 X2.15S500
G1 X5.65S0
G1 X2.1S500
G1 X4.15S0
G1 X0.6S500
G1 X1.4S0
G1 X0.65S500
G1 X7.15S0
G1 X1.05S500
G1 X6.7S0
G1 X0.65S500
G1 X7.15S0
G1 X1.1S500
G1 X7.2S0
G1 X2.2S500
G1 X5.15S0
G1 X1.1S500
G1 X6.3S0
G1 X0.9S500
G1 X6.45S0
G1 X0.65S500
G1 X8.55S0
G1 X2.2S500
G1 X3.15S0
G1 X1.35S500
G1 X2.05S0
G1 X0.65S500
G1 X4.75S0
G1 X0.7S500
G1 X8.35S0
G1 X0.6S500
G1 X5.95S0
G1 X0.65S500
G1 X1.85S0
G1 X0.65S500
G0 X2.917
G0 Y0.05
G0 X-2.917
G1 X-0.65
G1 X-1.85S0
G1 X-0.65S500
G1 X-5.95S0
G1 X-0.6S500
G1 X-8.3S0
G1 X-0.7S500
G1 X-4.8S0
G1 X-0.65S500
G1 X-2.4S0
G1 X-0.1S500
G1 X-0.05S0
G1 X-0.85S500
G1 X-3.25S0
G1 X-0.05S500
G1 X-0.05S0
G1 X-2.25S500
G1 X-8.3S0
G1 X-0.65S500
G1 X-6.45S0
G1 X-0.9S500
G1 X-6.15S0
G1 X-1.35S500
G1 X-5.15S0
G1 X-0.05S500
G1 X-0.05S0
G1 X-2.25S500
G1 X-6.8S0
G1 X-1.4S500
G1 X-7S0
G1 X-0.65S500
G1 X-6.8S0
G1 X-1.05S500
G1 X-7.05S0
G1 X-0.65S500
G1 X-1.4S0
G1 X-0.6S500
G1 X-3.9S0
G1 X-2.1S500
G1 X-5.75S0
G1 X-2.4S500
G1 X-6.8S0
G1 X-0.6S500
G1 X-1.2S0
G1 X-0.65S500
G1 X-4.95S0
G1 X-0.65S500
G1 X-6.85S0
G1 X-1.35S500
G1 X-5.55S0
G1 X-0.75S500
G1 X-1.05S0
G1 X-0.6S500
G1 X-0.95S0
G1 X-0.75S500
G1 X-5S0
G1 X-0.6S500
G1 X-7.55S0
G1 X-2.15S500
G1 X-4.2S0
G1 X-2.85S500
G1 X-6.45S0
G1 X-0.65S500
G1 X-1.2S0
G1 X-0.6S500
G1 X-3.7S0
G1 X-0.65S500
G1 X-1.85S0
G1 X-0.65S500
G1 X-7.1S0
G1 X-0.65S500
G1 X-4.75S0
G1 X-0.6S500
G1 X-1.8S0
G1 X-0.6S500
G1 X-6.55S0
G1 X-0.7S500
G1 X-8.45S0
G1 X-2.35S500
G1 X-0.5S0
G1 X-41.1S500
G1 X-0.75S0
G1 X-4.4S500
G1 X-0.75S0
G1 X-0.75S500
G1 X-0.8S0
G1 X-14.35S500
G1 X-0.55S0
G1 X-2S500
G0 X-2.917
G0 Y0.05
G0 X2.917
G1 X2.05
G1 X0.5S0
G1 X14.3S500
G1 X0.8S0
G1 X0.8S500
G1 X0.75S0
G1 X4.35S500
G1 X0.8S0
G1 X41.1S500
G1 X0.5S0
G1 X2.35S500
G1 X8.45S0
G1 X0.7S500
G1 X6.55S0
G1 X0.6S500
G1 X1.75S0
G1 X0.7S500
G1 X4.7S0
G1 X0.7S500
G1 X7.1S0
G1 X0.6S500
G1 X1.85S0
G1 X0.6S500
G1 X3.75S0
G1 X0.6S500
G1 X1.2S0
G1 X0.6S500
G1 X6.55S0
G1 X2.8S500
G1 X4.3S0
G1 X2.2S500
G1 X7.4S0
G1 X0.6S500
G1 X5S0
G1 X0.75S500
G1 X0.9S0
G1 X0.65S500
G1 X1S0
G1 X0.8S500
G1 X5.4S0
G1 X1.65S500
G1 X6.75S0
G1 X0.6S500
G1 X4.95S0
G1 X0.6S500
G1 X1.2S0
G1 X0.65S500
G1 X6.7S0
G1 X2.55S500
G1 X5.8S0
G1 X2.05S500
G1 X3.85S0
G1 X0.65S500
G1 X1.3S0
G1 X0.7S500
G1 X7S0
G1 X1.05S500
G1 X6.85S0
G1 X0.65S500
G1 X6.9S0
G1 X1.65S500
G1 X6.5S0
G1 X2.3S500
G1 X5.2S0
G1 X1.6S500
G1 X6S0
G1 X1S500
G1 X6.4S0
G1 X0.65S500
G1 X8.15S0
G1 X2.25S500
G1 X3.5S0
G1 X0.65S500
G1 X2.75S0
G1 X0.65S500
G1 X4.8S0
G1 X0.7S500
G1 X8.3S0
G1 X0.6S500
G1 X5.95S0
G1 X0.65S500
G1 X1.85S0
G1 X0.65S500
G0 X2.917
G0 Y0.05
G0 X-2.917
G1 X-0.7
G1 X-1.8S0
G1 X-0.65S500
G1 X-5.95S0
G1 X-0.6S500
G1 X-8.3S0
G1 X-0.75S500
G1 X-4.75S0
G1 X-0.65S500
G1 X-2.8S0
G1 X-0.6S500
G1 X-3.6S0
G1 X-2.3S500
G1 X-8S0
G1 X-0.65S500
G1 X-6.4S0
G1 X-1.05S500
G1 X-5.85S0
G1 X-1.8S500
G1 X-5.2S0
G1 X-2.3S500
G1 X-6.3S0
G1 X-1.85S500
G1 X-6.8S0
G1 X-0.65S500
G1 X-6.95S0
G1 X-1S500
G1 X-7S0
G1 X-0.65S500
G1 X-1.3S0
G1 X-0.65S500
G1 X-3.8S0
G1 X-1.9S500
G1 X-5.9S0
G1 X-2.75S500
G1 X-6.6S0
G1 X-0.65S500
G1 X-1.2S0
G1 X-0.6S500
G1 X-4.95S0
G1 X-0.65S500
G1 X-6.6S0
G1 X-1.85S500
G1 X-5.3S0
G1 X-0.8S500
G1 X-1S0
G1 X-0.65S500
G1 X-0.85S0
G1 X-0.8S500
G1 X-5S0
G1 X-0.6S500
G1 X-7.3S0
G1 X-2.15S500
G1 X-4.5S0
