; LightBurn Pro 2.0.05
; GRBL-LPC device profile, absolute coords
; Bounds: X17.76 Y13.2 to X283.31 Y198.4
G00 G17 G40 G21 G54
G90
M4
; Image @ 1500 мм/мин, 100% power
M8
G0 X27.364Y63.299
; Layer C00
G91
G1 X.625F7000S0
X.3F1500S1000
X6.5F7000S0
X.9F1500S1000
X.4F7000S0
X1.2F1500S1000
X7.1F7000S0
X.3F1500S1000
X.3F7000S0
X.2F1500S1000
X.4F7000S0
X.2F1500S1000
X.3F7000S0
X.1F1500S1000
X.4F7000S0
X.3F1500S1000
X.2F7000S0
X.3F1500S1000
X3.8F7000S0
X.2F1500S1000
X5.3F7000S0
X.3F1500S1000
X6.5F7000S0
X.9F1500S1000
X.4F7000S0
X1.2F1500S1000
X7F7000S0
X.4F1500S1000
X.3F7000S0
X.3F1500S1000
X.3F7000S0
X.3F1500S1000
X.1F7000S0
X.2F1500S1000
X.4F7000S0
X.3F1500S1000
X.1F7000S0
X.4F1500S1000
X21.9F7000S0
X.3F1500S1000
X6.5F7000S0
X.9F1500S1000
X.5F7000S0
X1.1F1500S1000
X7.1F7000S0
X.4F1500S1000
X.2F7000S0
X.3F1500S1000
X.3F7000S0
X.3F1500S1000
X.2F7000S0
X.1F1500S1000
X.4F7000S0
X.3F1500S1000
X.1F7000S0
X.4F1500S1000
X3.9F7000S0
X.2F1500S1000
X5.3F7000S0
X.2F1500S1000
X6.5F7000S0
X.9F1500S1000
X.4F7000S0
X.3F1500S1000
X.1F7000S0
X.4F1500S1000
X.1F7000S0
X.3F1500S1000
X7.1F7000S0
X.3F1500S1000
X.3F7000S0
X.3F1500S1000
X.3F7000S0
X.2F1500S1000
X.2F7000S0
X.2F1500S1000
X.4F7000S0
X.2F1500S1000
X.3F7000S0
X.3F1500S1000
X22.1F7000S0
X.2F1500S1000
X6.5F7000S0
X.4F1500S1000
X.1F7000S0
X.5F1500S1000
X.4F7000S0
X1.2F1500S1000
X7F7000S0
X.4F1500S1000
X.3F7000S0
X.3F1500S1000
X.3F7000S0
X.2F1500S1000
X.2F7000S0
X.2F1500S1000
X.4F7000S0
X.2F1500S1000
X.2F7000S0
X.4F1500S1000
X3.8F7000S0
X.3F1500S1000
X5.2F7000S0
X.3F1500S1000
X6.5F7000S0
X.4F1500S1000
X.1F7000S0
X.4F1500S1000
X.4F7000S0
X.4F1500S1000
X.1F7000S0
X.4F1500S1000
X.1F7000S0
X.2F1500S1000
X7.1F7000S0
X.3F1500S1000
X.3F7000S0
X.3F1500S1000
X.3F7000S0
X.2F1500S1000
X.3F7000S0
X.1F1500S1000
X.5F7000S0
X.2F1500S1000
X.2F7000S0
X.3F1500S1000
X22F7000S0
X.2F1500S1000
X6.5F7000S0
X.4F1500S1000
X.1F7000S0
X.4F1500S1000
X.4F7000S0
X.4F1500S1000
X.1F7000S0
X.4F1500S1000
X.1F7000S0
X.2F1500S1000
X7F7000S0
X.4F1500S1000
X.3F7000S0
X.3F1500S1000
X.3F7000S0
X.2F1500S1000
X.2F7000S0
X.2F1500S1000
X.4F7000S0
X.2F1500S1000
X.3F7000S0
X.3F1500S1000
X3.8F7000S0
X.3F1500S1000
X5.2F7000S0
X.3F1500S1000
X6.5F7000S0
X1F1500S1000
X.4F7000S0
X1.1F1500S1000
X7.1F7000S0
X.4F1500S1000
X.3F7000S0
X.3F1500S1000
X.3F7000S0
X.2F1500S1000
X.2F7000S0
X.1F1500S1000
X.4F7000S0
X.3F1500S1000
X.2F7000S0
X.4F1500S1000
X.625F7000S0
Y.1
X-.625
X-.5F1500S1000
X-.1F7000S0
X-.3F1500S1000
X-.3F7000S0
X-.7F1500S1000
X-.2F7000S0
X-.4F1500S1000
X-.2F7000S0
X-.4F1500S1000
X-7.1F7000S0
X-1.2F1500S1000
X-.3F7000S0
X-1F1500S1000
X-6.5F7000S0
X-.2F1500S1000
X-5.4F7000S0
X-.2F1500S1000
X-3.7F7000S0
X-.5F1500S1000
X-.1F7000S0
X-.3F1500S1000
X-.3F7000S0
X-.7F1500S1000
X-.3F7000S0
X-.3F1500S1000
X-.2F7000S0
X-.4F1500S1000
X-7F7000S0
X-1.3F1500S1000
X-.3F7000S0
X-1.1F1500S1000
X-6.4F7000S0
X-.3F1500S1000
X-21.8F7000S0
X-.5F1500S1000
X-.1F7000S0
X-.4F1500S1000
X-.2F7000S0
X-.7F1500S1000
X-.2F7000S0
X-.4F1500S1000
X-.2F7000S0
X-.5F1500S1000
X-7F7000S0
X-1.2F1500S1000
X-.3F7000S0
X-1F1500S1000
X-6.5F7000S0
X-.2F1500S1000
X-5.3F7000S0
X-.3F1500S1000
X-3.8F7000S0
X-.4F1500S1000
X-.2F7000S0
X-.2F1500S1000
X-.4F7000S0
X-.2F1500S1000
X-.1F7000S0
X-.3F1500S1000
X-.3F7000S0
X-.3F1500S1000
X-.2F7000S0
X-.4F1500S1000
X-7.1F7000S0
X-1.2F1500S1000
X-.4F7000S0
X-1F1500S1000
X-6.4F7000S0
X-.3F1500S1000
X-22F7000S0
X-.5F1500S1000
X-.1F7000S0
X-.3F1500S1000
X-.3F7000S0
X-.3F1500S1000
X-.1F7000S0
X-.3F1500S1000
X-.2F7000S0
X-.4F1500S1000
X-.2F7000S0
X-.4F1500S1000
X-7F7000S0
X-1.3F1500S1000
X-.3F7000S0
X-1F1500S1000
X-6.5F7000S0
X-.2F1500S1000
X-5.3F7000S0
X-.3F1500S1000
X-3.8F7000S0
X-.4F1500S1000
X-.1F7000S0
X-.3F1500S1000
X-.4F7000S0
X-.2F1500S1000
X-.1F7000S0
X-.3F1500S1000
X-.3F7000S0
X-.3F1500S1000
X-.2F7000S0
X-.4F1500S1000
X-7.1F7000S0
X-1.2F1500S1000
X-.3F7000S0
X-1F1500S1000
X-6.4F7000S0
X-.4F1500S1000
X-21.9F7000S0
X-.4F1500S1000
X-.2F7000S0
X-.2F1500S1000
X-.3F7000S0
X-.3F1500S1000
X-.1F7000S0
X-.3F1500S1000
X-.3F7000S0
X-.3F1500S1000
X-.2F7000S0
X-.4F1500S1000
X-7.1F7000S0
X-1.2F1500S1000
X-.3F7000S0
X-1.1F1500S1000
X-6.3F7000S0
X-.4F1500S1000
X-5.2F7000S0
X-.3F1500S1000
X-3.7F7000S0
X-.5F1500S1000
X-.1F7000S0
X-.4F1500S1000
X-.3F7000S0
X-.2F1500S1000
X-.1F7000S0
X-.4F1500S1000
X-.1F7000S0
X-.4F1500S1000
X-.2F7000S0
X-.5F1500S1000
X-7F7000S0
X-1.2F1500S1000
X-.3F7000S0
X-1F1500S1000
X-6.5F7000S0
X-.3F1500S1000
X-.625F7000S0
X.1Y.1
X.625
X.2F1500S1000
X6.5F7000S0
X1.1F1500S1000
X.2F7000S0
X1.2F1500S1000
X5.1F7000S0
X.2F1500S1000
X1.8F7000S0
X.4F1500S1000
X.2F7000S0
X.4F1500S1000
X.1F7000S0
X.8F1500S1000
X.3F7000S0
X.2F1500S1000
X.1F7000S0
X.6F1500S1000
X3.7F7000S0
X.1F1500S1000
X5.5F7000S0
X.3F1500S1000
X6.3F7000S0
X1.1F1500S1000
X.3F7000S0
X1.3F1500S1000
X5F7000S0
X.2F1500S1000
X1.8F7000S0
X.5F1500S1000
X.1F7000S0
X.3F1500S1000
X.3F7000S0
X.7F1500S1000
X.3F7000S0
X.2F1500S1000
X.1F7000S0
X.5F1500S1000
X22F7000S0
X.2F1500S1000
X6.4F7000S0
X1.1F1500S1000
X.3F7000S0
X1.2F1500S1000
X5.1F7000S0
X.2F1500S1000
X1.9F7000S0
X.4F1500S1000
X.1F7000S0
X.3F1500S1000
X.3F7000S0
X.7F1500S1000
X.3F7000S0
X.2F1500S1000
X.1F7000S0
X.5F1500S1000
X3.8F7000S0
X.1F1500S1000
X5.5F7000S0
X.2F1500S1000
X6.4F7000S0
X1.2F1500S1000
X.2F7000S0
X1.3F1500S1000
X5.1F7000S0
X.1F1500S1000
X1.8F7000S0
X.5F1500S1000
X.1F7000S0
X.3F1500S1000
X.3F7000S0
X.8F1500S1000
X.2F7000S0
X.2F1500S1000
X.2F7000S0
X.5F1500S1000
X22.1F7000S0
X.2F1500S1000
X6.4F7000S0
X1.1F1500S1000
X.3F7000S0
X1.2F1500S1000
X5.1F7000S0
X.2F1500S1000
X1.8F7000S0
X.4F1500S1000
X.2F7000S0
X.3F1500S1000
X.3F7000S0
X.7F1500S1000
X.3F7000S0
X.2F1500S1000
X.1F7000S0
X.5F1500S1000
X3.8F7000S0
X.1F1500S1000
X5.5F7000S0
X.2F1500S1000
X6.5F7000S0
X1.1F1500S1000
X.2F7000S0
X1.2F1500S1000
X5.2F7000S0
X.2F1500S1000
X1.7F7000S0
X.4F1500S1000
X.2F7000S0
X.3F1500S1000
X.3F7000S0
X.7F1500S1000
X.3F7000S0
X.2F1500S1000
X.2F7000S0
X.5F1500S1000
X21.9F7000S0
X.2F1500S1000
X6.5F7000S0
X1F1500S1000
X.3F7000S0
X1.3F1500S1000
X5.1F7000S0
X.1F1500S1000
X1.8F7000S0
X.4F1500S1000
X.2F7000S0
X.4F1500S1000
X.2F7000S0
X.8F1500S1000
X.2F7000S0
X.2F1500S1000
X.2F7000S0
X.5F1500S1000
X3.7F7000S0
X.2F1500S1000
X5.4F7000S0
X.3F1500S1000
X6.4F7000S0
X1.1F1500S1000
X.3F7000S0
X1.1F1500S1000
X5.2F7000S0
X.1F1500S1000
X1.9F7000S0
X.4F1500S1000
X.2F7000S0
X.3F1500S1000
X.2F7000S0
X.7F1500S1000
X.3F7000S0
X.2F1500S1000
X.1F7000S0
X.6F1500S1000
X.625F7000S0
Y.1
X-.625
X-.6F1500S1000
X-.1F7000S0
X-.2F1500S1000
X-.2F7000S0
X-.9F1500S1000
X-.1F7000S0
X-.3F1500S1000
X-.1F7000S0
X-.5F1500S1000
X-1.8F7000S0
X-.3F1500S1000
X-5.1F7000S0
X-1.2F1500S1000
X-.2F7000S0
X-1.1F1500S1000
X-6.5F7000S0
X-.1F1500S1000
X-5.6F7000S0
X-.1F1500S1000
X-3.7F7000S0
X-.5F1500S1000
X-.2F7000S0
X-.2F1500S1000
X-.3F7000S0
X-.8F1500S1000
X-.2F7000S0
X-.3F1500S1000
X-.1F7000S0
X-.4F1500S1000
X-1.8F7000S0
X-.3F1500S1000
X-5F7000S0
X-1.3F1500S1000
X-.2F7000S0
X-1.2F1500S1000
X-6.4F7000S0
X-.1F1500S1000
X-22F7000S0
X-.6F1500S1000
X-.1F7000S0
X-.3F1500S1000
X-.1F7000S0
X-.9F1500S1000
X-.1F7000S0
X-.4F1500S1000
X-.1F7000S0
X-.5F1500S1000
X-1.8F7000S0
X-.2F1500S1000
X-5.1F7000S0
X-1.2F1500S1000
X-.3F7000S0
X-1.1F1500S1000
X-6.4F7000S0
X-.2F1500S1000
X-5.5F7000S0
X-.2F1500S1000
X-3.6F7000S0
X-.6F1500S1000
X-.1F7000S0
X-.2F1500S1000
X-.3F7000S0
X-.8F1500S1000
X-.2F7000S0
X-.3F1500S1000
X-.1F7000S0
X-.4F1500S1000
X-1.8F7000S0
X-.4F1500S1000
X-4.9F7000S0
X-1.3F1500S1000
X-.3F7000S0
X-1.1F1500S1000
X-6.4F7000S0
X-.2F1500S1000
X-22F7000S0
X-.6F1500S1000
X-.2F7000S0
X-.2F1500S1000
X-.2F7000S0
X-.9F1500S1000
X-.1F7000S0
X-.4F1500S1000
X-.1F7000S0
X-.4F1500S1000
X-1.8F7000S0
X-.3F1500S1000
X-5.1F7000S0
X-1.2F1500S1000
X-.3F7000S0
X-1F1500S1000
X-6.5F7000S0
X-.1F1500S1000
X-5.6F7000S0
X-.2F1500S1000
X-3.6F7000S0
X-.6F1500S1000
X-.1F7000S0
X-.2F1500S1000
X-.3F7000S0
X-.7F1500S1000
X-.3F7000S0
X-.2F1500S1000
X-.2F7000S0
X-.4F1500S1000
X-1.8F7000S0
X-.4F1500S1000
X-5F7000S0
X-1.2F1500S1000
X-.2F7000S0
X-1.2F1500S1000
X-6.3F7000S0
X-.3F1500S1000
X-21.9F7000S0
X-.6F1500S1000
X-.1F7000S0
X-.2F1500S1000
X-.3F7000S0
X-.7F1500S1000
X-.3F7000S0
X-.3F1500S1000
X-.1F7000S0
X-.4F1500S1000
X-1.8F7000S0
X-.3F1500S1000
X-5.1F7000S0
X-1.2F1500S1000
X-.2F7000S0
X-1.2F1500S1000
X-6.4F7000S0
X-.2F1500S1000
X-5.5F7000S0
X-.2F1500S1000
X-3.6F7000S0
X-.6F1500S1000
X-.1F7000S0
X-.2F1500S1000
X-.2F7000S0
X-.9F1500S1000
X-.2F7000S0
X-.3F1500S1000
X-.1F7000S0
X-.4F1500S1000
X-1.8F7000S0
X-.3F1500S1000
X-5.1F7000S0
X-1.2F1500S1000
X-.2F7000S0
X-1.1F1500S1000
X-6.5F7000S0
X-.1F1500S1000
X-.625F7000S0
Y.1
X.625
X.1F1500S1000
X6.5F7000S0
X1.1F1500S1000
X.2F7000S0
X.3F1500S1000
X.2F7000S0
X.7F1500S1000
X5F7000S0
X.4F1500S1000
X1.6F7000S0
X.1F1500S1000
X.1F7000S0
X.4F1500S1000
X.2F7000S0
X.2F1500S1000
X.2F7000S0
X.9F1500S1000
X.1F7000S0
X.3F1500S1000
X.1F7000S0
X.3F1500S1000
X.1F7000S0
X.3F1500S1000
X3.6F7000S0
X.1F1500S1000
X5.6F7000S0
X.2F1500S1000
X6.4F7000S0
X1.1F1500S1000
X.2F7000S0
X.3F1500S1000
X.2F7000S0
X.7F1500S1000
X5F7000S0
X.4F1500S1000
X1.9F7000S0
X.4F1500S1000
X.1F7000S0
X.2F1500S1000
X.2F7000S0
X.8F1500S1000
X.3F7000S0
X.2F1500S1000
X.2F7000S0
X.3F1500S1000
X.1F7000S0
X.2F1500S1000
X21.9F7000S0
X.1F1500S1000
X6.4F7000S0
X1.2F1500S1000
X.2F7000S0
X.4F1500S1000
X.1F7000S0
X.8F1500S1000
X4.9F7000S0
X.5F1500S1000
X1.7F7000S0
X.5F1500S1000
X.1F7000S0
X.2F1500S1000
X.2F7000S0
X.8F1500S1000
X.3F7000S0
X.2F1500S1000
X.1F7000S0
X.3F1500S1000
X.1F7000S0
X.3F1500S1000
X3.6F7000S0
X.1F1500S1000
X5.6F7000S0
X.1F1500S1000
X6.5F7000S0
X1.1F1500S1000
X.2F7000S0
X.3F1500S1000
X.1F7000S0
X.8F1500S1000
X5F7000S0
X.4F1500S1000
X1.6F7000S0
X.1F1500S1000
X.2F7000S0
X.4F1500S1000
X.1F7000S0
X.2F1500S1000
X.2F7000S0
X.9F1500S1000
X.3F7000S0
X.1F1500S1000
X.2F7000S0
X.3F1500S1000
X.1F7000S0
X.2F1500S1000
X22.1F7000S0
X.1F1500S1000
X6.5F7000S0
X1.1F1500S1000
X.2F7000S0
X.3F1500S1000
X.2F7000S0
X.7F1500S1000
X5F7000S0
X.4F1500S1000
X1.9F7000S0
X.4F1500S1000
X.1F7000S0
X.2F1500S1000
X.2F7000S0
X.9F1500S1000
X.2F7000S0
X.1F1500S1000
X.2F7000S0
X.4F1500S1000
X.1F7000S0
X.2F1500S1000
X3.6F7000S0
X.1F1500S1000
X5.6F7000S0
X.1F1500S1000
X6.5F7000S0
X1.1F1500S1000
X.2F7000S0
X.3F1500S1000
X.1F7000S0
X.7F1500S1000
X5.1F7000S0
X.4F1500S1000
X1.6F7000S0
X.1F1500S1000
X.2F7000S0
X.4F1500S1000
X.1F7000S0
X.2F1500S1000
X.2F7000S0
X.9F1500S1000
X.2F7000S0
X.2F1500S1000
X.1F7000S0
X.7F1500S1000
X21.9F7000S0
X.1F1500S1000
X6.5F7000S0
X1.1F1500S1000
X.2F7000S0
X.3F1500S1000
X.1F7000S0
X.8F1500S1000
X5F7000S0
X.4F1500S1000
X1.8F7000S0
X.5F1500S1000
X.1F7000S0
X.2F1500S1000
X.2F7000S0
X.9F1500S1000
X.2F7000S0
X.2F1500S1000
X.2F7000S0
X.3F1500S1000
X.1F7000S0
X.2F1500S1000
X3.6F7000S0
X.1F1500S1000
X5.6F7000S0
X.1F1500S1000
X6.5F7000S0
X1.1F1500S1000
X.3F7000S0
X.3F1500S1000
X.1F7000S0
X.6F1500S1000
X5.1F7000S0
X.5F1500S1000
X1.7F7000S0
X.5F1500S1000
X.1F7000S0
X.3F1500S1000
X.1F7000S0
X.9F1500S1000
X.2F7000S0
X.2F1500S1000
X.1F7000S0
X.7F1500S1000
X.625F7000S0
Y.1
X-.625
X-.7F1500S1000
X-.1F7000S0
X-.2F1500S1000
X-.1F7000S0
X-1.9F1500S1000
X-.1F7000S0
X-.1F1500S1000
X-1.6F7000S0
X-.5F1500S1000
X-5.1F7000S0
X-.6F1500S1000
X-.1F7000S0
X-.4F1500S1000
X-.2F7000S0
X-.8F1500S1000
X-.1F7000S0
X-.1F1500S1000
X-6.5F7000S0
X-.1F1500S1000
X-9.4F7000S0
X-.6F1500S1000
X-.2F7000S0
X-.2F1500S1000
X-.2F7000S0
X-1.3F1500S1000
X-.1F7000S0
X-.4F1500S1000
X-.1F7000S0
X-.2F1500S1000
X-1.5F7000S0
X-.6F1500S1000
X-4.9F7000S0
X-.8F1500S1000
X-.1F7000S0
X-.2F1500S1000
X-.3F7000S0
X-.8F1500S1000
X-.2F7000S0
X-.1F1500S1000
X-6.4F7000S0
X-.2F1500S1000
X-22F7000S0
X-.6F1500S1000
X-.1F7000S0
X-.3F1500S1000
X-.1F7000S0
X-1.3F1500S1000
X-.1F7000S0
X-.4F1500S1000
X-.2F7000S0
X-.1F1500S1000
X-1.6F7000S0
X-.5F1500S1000
X-5F7000S0
X-.7F1500S1000
X-.1F7000S0
X-.3F1500S1000
X-.2F7000S0
X-.8F1500S1000
X-.2F7000S0
X-.1F1500S1000
X-15.9F7000S0
X-.7F1500S1000
X-.1F7000S0
X-.2F1500S1000
X-.2F7000S0
X-1.2F1500S1000
X-.2F7000S0
X-.4F1500S1000
X-.1F7000S0
X-.2F1500S1000
X-1.5F7000S0
X-.6F1500S1000
X-4.9F7000S0
X-.7F1500S1000
X-.2F7000S0
X-.3F1500S1000
X-.1F7000S0
X-1F1500S1000
X-6.6F7000S0
X-.2F1500S1000
X-22.1F7000S0
X-.2F1500S1000
X-.1F7000S0
X-.3F1500S1000
X-.2F7000S0
X-.2F1500S1000
X-.2F7000S0
X-1.3F1500S1000
X-.1F7000S0
X-.4F1500S1000
X-.1F7000S0
X-.2F1500S1000
X-1.6F7000S0
X-.5F1500S1000
X-5F7000S0
X-.6F1500S1000
X-.2F7000S0
X-.3F1500S1000
X-.2F7000S0
X-.8F1500S1000
X-.2F7000S0
X-.1F1500S1000
X-6.3F7000S0
X-.2F1500S1000
X-9.4F7000S0
X-.7F1500S1000
X-.2F7000S0
X-.1F1500S1000
X-.2F7000S0
X-1.3F1500S1000
X-.1F7000S0
X-.4F1500S1000
X-.1F7000S0
X-.2F1500S1000
X-1.5F7000S0
X-.6F1500S1000
X-4.9F7000S0
X-.7F1500S1000
X-.2F7000S0
X-.3F1500S1000
X-.2F7000S0
X-.9F1500S1000
X-6.6F7000S0
X-.2F1500S1000
X-21.9F7000S0
X-.7F1500S1000
X-.1F7000S0
X-.2F1500S1000
X-.2F7000S0
X-1.2F1500S1000
X-.2F7000S0
X-.7F1500S1000
X-1.5F7000S0
X-.6F1500S1000
X-5F7000S0
X-.6F1500S1000
X-.2F7000S0
X-.3F1500S1000
X-.1F7000S0
X-1F1500S1000
X-6.6F7000S0
X-.1F1500S1000
X-9.4F7000S0
X-.7F1500S1000
X-.1F7000S0
X-.2F1500S1000
X-.2F7000S0
X-1.3F1500S1000
X-.1F7000S0
X-.4F1500S1000
X-.1F7000S0
X-.1F1500S1000
X-1.6F7000S0
X-.6F1500S1000
X-5F7000S0
X-.6F1500S1000
X-.1F7000S0
X-.3F1500S1000
X-.3F7000S0
X-.8F1500S1000
X-.1F7000S0
X-.2F1500S1000
X-6.4F7000S0
X-.2F1500S1000
X-.625F7000S0
Y.1
X.625
X.2F1500S1000
X6.7F7000S0
X.8F1500S1000
X.3F7000S0
X.2F1500S1000
X.1F7000S0
X.7F1500S1000
X5F7000S0
X.6F1500S1000
X1.5F7000S0
X.2F1500S1000
X.2F7000S0
X.3F1500S1000
X.1F7000S0
X1.4F1500S1000
X.1F7000S0
X.2F1500S1000
X.1F7000S0
X.7F1500S1000
X16.2F7000S0
X.9F1500S1000
X.1F7000S0
X.3F1500S1000
X.2F7000S0
X.7F1500S1000
X4.9F7000S0
X.6F1500S1000
X1.5F7000S0
X.3F1500S1000
X.1F7000S0
X.3F1500S1000
X.2F7000S0
X1.3F1500S1000
X.1F7000S0
X.2F1500S1000
X.2F7000S0
X.6F1500S1000
X22F7000S0
X.2F1500S1000
X6.6F7000S0
X.9F1500S1000
X.2F7000S0
X.2F1500S1000
X.2F7000S0
X.6F1500S1000
X5F7000S0
X.7F1500S1000
X1.4F7000S0
X.7F1500S1000
X.2F7000S0
X1.3F1500S1000
X.1F7000S0
X.2F1500S1000
X.1F7000S0
X.7F1500S1000
X9.4F7000S0
X.2F1500S1000
X6.6F7000S0
X.9F1500S1000
X.1F7000S0
X.4F1500S1000
X.1F7000S0
X.6F1500S1000
X5F7000S0
X.6F1500S1000
X1.5F7000S0
X.3F1500S1000
X.1F7000S0
X.3F1500S1000
X.1F7000S0
X1.3F1500S1000
X.2F7000S0
X.2F1500S1000
X.2F7000S0
X.6F1500S1000
X22.1F7000S0
X.2F1500S1000
X6.7F7000S0
X.9F1500S1000
X.2F7000S0
X.2F1500S1000
X.1F7000S0
X.7F1500S1000
X5F7000S0
X.7F1500S1000
X1.4F7000S0
X.7F1500S1000
X.1F7000S0
X1.6F1500S1000
X.2F7000S0
X.7F1500S1000
X9.4F7000S0
X.2F1500S1000
X6.6F7000S0
X.8F1500S1000
X.2F7000S0
X.4F1500S1000
X.1F7000S0
X.6F1500S1000
X5F7000S0
X.6F1500S1000
X1.5F7000S0
X.3F1500S1000
X.1F7000S0
X.3F1500S1000
X.1F7000S0
X1.4F1500S1000
X.1F7000S0
X.2F1500S1000
X.1F7000S0
X.7F1500S1000
X21.9F7000S0
X.3F1500S1000
X6.6F7000S0
X.9F1500S1000
X.3F7000S0
X.9F1500S1000
X5F7000S0
X.7F1500S1000
X1.4F7000S0
X.2F1500S1000
X.2F7000S0
X.3F1500S1000
X.1F7000S0
X1.3F1500S1000
X.2F7000S0
X.2F1500S1000
X.1F7000S0
X.7F1500S1000
X9.4F7000S0
X.2F1500S1000
X6.6F7000S0
X.9F1500S1000
X.2F7000S0
X.2F1500S1000
X.2F7000S0
X.7F1500S1000
X4.9F7000S0
X.5F1500S1000
X1.7F7000S0
X.2F1500S1000
X.1F7000S0
X.3F1500S1000
X.1F7000S0
X1.4F1500S1000
X.1F7000S0
X.2F1500S1000
X.1F7000S0
X.7F1500S1000
X.625F7000S0
Y.1
X-.625
X-1.4F1500S1000
X-.6F7000S0
X-.5F1500S1000
X-.1F7000S0
X-.2F1500S1000
X-.1F7000S0
X-.4F1500S1000
X-1.5F7000S0
X-.6F1500S1000
X-5F7000S0
X-.6F1500S1000
X-.6F7000S0
X-1.1F1500S1000
X-6.4F7000S0
X-.1F1500S1000
X-9.5F7000S0
X-.6F1500S1000
X-.2F7000S0
X-.6F1500S1000
X-.6F7000S0
X-.5F1500S1000
X-.1F7000S0
X-.7F1500S1000
X-1.4F7000S0
X-.7F1500S1000
X-5F7000S0
X-.7F1500S1000
X-.6F7000S0
X-1.1F1500S1000
X-6.3F7000S0
X-.2F1500S1000
X-22F7000S0
X-.7F1500S1000
X-.1F7000S0
X-.6F1500S1000
X-.6F7000S0
X-.5F1500S1000
X-.1F7000S0
X-.2F1500S1000
X-.1F7000S0
X-.4F1500S1000
X-1.5F7000S0
X-.6F1500S1000
X-5F7000S0
X-.7F1500S1000
X-.5F7000S0
X-1.2F1500S1000
X-6.3F7000S0
X-.2F1500S1000
X-9.4F7000S0
X-.7F1500S1000
X-.1F7000S0
X-.6F1500S1000
X-.6F7000S0
X-.5F1500S1000
X-.1F7000S0
X-.3F1500S1000
X-.1F7000S0
X-.4F1500S1000
X-1.3F7000S0
X-.7F1500S1000
X-5F7000S0
X-.7F1500S1000
X-.6F7000S0
X-1.1F1500S1000
X-6.3F7000S0
X-.2F1500S1000
X-22.2F7000S0
X-.6F1500S1000
X-.2F7000S0
X-.6F1500S1000
X-.6F7000S0
X-.5F1500S1000
X-.1F7000S0
X-.2F1500S1000
X-.1F7000S0
X-.4F1500S1000
X-1.5F7000S0
X-.6F1500S1000
X-5F7000S0
X-.7F1500S1000
X-.6F7000S0
X-1.1F1500S1000
X-6.3F7000S0
X-.2F1500S1000
X-9.4F7000S0
X-.7F1500S1000
X-.1F7000S0
X-.6F1500S1000
X-.6F7000S0
X-.4F1500S1000
X-.2F7000S0
X-.3F1500S1000
X-.1F7000S0
X-.4F1500S1000
X-1.4F7000S0
X-.6F1500S1000
X-4.9F7000S0
X-.7F1500S1000
X-.7F7000S0
X-1.1F1500S1000
X-6.4F7000S0
X-.1F1500S1000
X-22F7000S0
X-.7F1500S1000
X-.2F7000S0
X-.5F1500S1000
X-.6F7000S0
X-.5F1500S1000
X-.1F7000S0
X-.3F1500S1000
X-.1F7000S0
X-.4F1500S1000
X-1.3F7000S0
X-.7F1500S1000
X-4.9F7000S0
X-.7F1500S1000
X-.7F7000S0
X-1.1F1500S1000
X-6.3F7000S0
X-.1F1500S1000
X-9.5F7000S0
X-.4F1500S1000
X-.1F7000S0
X-.2F1500S1000
X-.1F7000S0
X-.6F1500S1000
X-.6F7000S0
X-.5F1500S1000
X-.1F7000S0
X-.2F1500S1000
X-.2F7000S0
X-.3F1500S1000
X-1.5F7000S0
X-.7F1500S1000
X-4.9F7000S0
X-.6F1500S1000
X-.7F7000S0
X-1.1F1500S1000
X-6.3F7000S0
X-.2F1500S1000
X-.625F7000S0
Y.1
X.625
X.1F1500S1000
X6.4F7000S0
X1.1F1500S1000
X.7F7000S0
X.6F1500S1000
X5F7000S0
X.6F1500S1000
X1.4F7000S0
X.4F1500S1000
X.2F7000S0
X.1F1500S1000
X.2F7000S0
X.4F1500S1000
X.7F7000S0
X.6F1500S1000
X.1F7000S0
X.2F1500S1000
X.1F7000S0
X.3F1500S1000
X9.6F7000S0
X.1F1500S1000
X6.2F7000S0
X1.2F1500S1000
X.7F7000S0
X.6F1500S1000
X5F7000S0
X.7F1500S1000
X1.3F7000S0
X.4F1500S1000
X.2F7000S0
X.2F1500S1000
X.2F7000S0
X.4F1500S1000
X.7F7000S0
X.5F1500S1000
X.1F7000S0
X.2F1500S1000
X.2F7000S0
X.3F1500S1000
X22F7000S0
X.1F1500S1000
X6.3F7000S0
X1.2F1500S1000
X.7F7000S0
X.6F1500S1000
X5F7000S0
X.7F1500S1000
X1.3F7000S0
X.4F1500S1000
X.2F7000S0
X.2F1500S1000
X.1F7000S0
X.5F1500S1000
X.6F7000S0
X.5F1500S1000
X.2F7000S0
X.2F1500S1000
X.2F7000S0
X.3F1500S1000
X9.4F7000S0
X.2F1500S1000
X6.3F7000S0
X1F1500S1000
X.8F7000S0
X.6F1500S1000
X5F7000S0
X.7F1500S1000
X1.3F7000S0
X.5F1500S1000
X.2F7000S0
X.1F1500S1000
X.2F7000S0
X.4F1500S1000
X.7F7000S0
X.5F1500S1000
X.2F7000S0
X.2F1500S1000
X.1F7000S0
X.4F1500S1000
X22.2F7000S0
X.1F1500S1000
X6.2F7000S0
X1.1F1500S1000
X.8F7000S0
X.6F1500S1000
X5F7000S0
X.6F1500S1000
X1.4F7000S0
X.4F1500S1000
X.2F7000S0
X.2F1500S1000
X.1F7000S0
X.5F1500S1000
X.6F7000S0
X.5F1500S1000
X.2F7000S0
X.2F1500S1000
X.2F7000S0
X.3F1500S1000
X9.4F7000S0
X.1F1500S1000
X6.4F7000S0
X1.1F1500S1000
X.7F7000S0
X.6F1500S1000
X5F7000S0
X.6F1500S1000
X1.4F7000S0
X.5F1500S1000
X.1F7000S0
X.2F1500S1000
X.1F7000S0
X.4F1500S1000
X.8F7000S0
X.5F1500S1000
X.2F7000S0
X.1F1500S1000
X.2F7000S0
X.3F1500S1000
X22F7000S0
X.2F1500S1000
X6.2F7000S0
X1.1F1500S1000
X.8F7000S0
X.6F1500S1000
X5F7000S0
X.7F1500S1000
X1.3F7000S0
X.5F1500S1000
X.2F7000S0
X.1F1500S1000
X.2F7000S0
X.4F1500S1000
X.7F7000S0
X.5F1500S1000
X.2F7000S0
X.1F1500S1000
X.2F7000S0
X.3F1500S1000
X9.4F7000S0
X.1F1500S1000
X6.4F7000S0
X1.1F1500S1000
X.7F7000S0
X.6F1500S1000
X5F7000S0
X.7F1500S1000
X1.3F7000S0
X.4F1500S1000
X.2F7000S0
X.3F1500S1000
X.1F7000S0
X.4F1500S1000
X.6F7000S0
X.6F1500S1000
X.2F7000S0
X.2F1500S1000
X.2F7000S0
X.3F1500S1000
X.625F7000S0
Y.1
X-.625
X-.3F1500S1000
X-.8F7000S0
X-.3F1500S1000
X-.1F7000S0
X-.5F1500S1000
X-.2F7000S0
X-.2F1500S1000
X-.8F7000S0
X-.3F1500S1000
X-1.4F7000S0
X-.5F1500S1000
X-2.4F7000S0
X-.1F1500S1000
X-2.8F7000S0
X-.3F1500S1000
X-1F7000S0
X-.9F1500S1000
X-15.8F7000S0
X-.3F1500S1000
X-.8F7000S0
X-.3F1500S1000
X-.2F7000S0
X-.4F1500S1000
X-.2F7000S0
X-.2F1500S1000
X-.8F7000S0
X-.3F1500S1000
X-1.4F7000S0
X-.5F1500S1000
X-2.5F7000S0
X-.1F1500S1000
X-2.6F7000S0
X-.5F1500S1000
X-.9F7000S0
X-.9F1500S1000
X-28.4F7000S0
X-.3F1500S1000
X-.8F7000S0
X-.3F1500S1000
X-.2F7000S0
X-.4F1500S1000
X-.2F7000S0
X-.2F1500S1000
X-.8F7000S0
X-.3F1500S1000
X-1.4F7000S0
X-.6F1500S1000
X-2.3F7000S0
X-.2F1500S1000
X-2.8F7000S0
X-.3F1500S1000
X-.9F7000S0
X-.9F1500S1000
X-15.8F7000S0
X-.3F1500S1000
X-.8F7000S0
X-.3F1500S1000
X-.1F7000S0
X-.6F1500S1000
X-.1F7000S0
X-.2F1500S1000
X-.9F7000S0
X-.2F1500S1000
X-1.4F7000S0
X-.5F1500S1000
X-2.4F7000S0
X-.2F1500S1000
X-2.7F7000S0
X-.4F1500S1000
X-1F7000S0
X-.9F1500S1000
X-28.5F7000S0
X-.2F1500S1000
X-.9F7000S0
X-.2F1500S1000
X-.2F7000S0
X-.5F1500S1000
X-.2F7000S0
X-.2F1500S1000
X-.8F7000S0
X-.2F1500S1000
X-1.5F7000S0
X-.5F1500S1000
X-2.4F7000S0
X-.1F1500S1000
X-2.9F7000S0
X-.3F1500S1000
X-.9F7000S0
X-1F1500S1000
X-15.7F7000S0
X-.2F1500S1000
X-.8F7000S0
X-.4F1500S1000
X-.1F7000S0
X-.6F1500S1000
X-.1F7000S0
X-.2F1500S1000
X-.8F7000S0
X-.3F1500S1000
X-1.4F7000S0
X-.5F1500S1000
X-2.4F7000S0
X-.2F1500S1000
X-2.6F7000S0
X-.4F1500S1000
X-1F7000S0
X-1F1500S1000
X-28.3F7000S0
X-.2F1500S1000
X-.9F7000S0
X-.3F1500S1000
X-.1F7000S0
X-.6F1500S1000
X-.1F7000S0
X-.2F1500S1000
X-.8F7000S0
X-.3F1500S1000
X-1.4F7000S0
X-.5F1500S1000
X-2.4F7000S0
X-.2F1500S1000
X-2.8F7000S0
X-.3F1500S1000
X-.9F7000S0
X-1F1500S1000
X-15.8F7000S0
X-.2F1500S1000
X-.8F7000S0
X-.3F1500S1000
X-.1F7000S0
X-.6F1500S1000
X-.2F7000S0
X-.1F1500S1000
X-.8F7000S0
X-.3F1500S1000
X-1.4F7000S0
X-.6F1500S1000
X-2.3F7000S0
X-.2F1500S1000
X-2.7F7000S0
X-.4F1500S1000
X-.9F7000S0
X-.9F1500S1000
X-.625F7000S0
X-.1Y.1
X.625
X.9F1500S1000
X1.1F7000S0
X.2F1500S1000
X2.8F7000S0
X.3F1500S1000
X2.3F7000S0
X.4F1500S1000
X1.5F7000S0
X.2F1500S1000
X1F7000S0
X.8F1500S1000
X.2F7000S0
X.1F1500S1000
X1F7000S0
X.2F1500S1000
X7.8F7000S0
X.1F1500S1000
X7.8F7000S0
X.9F1500S1000
X1.2F7000S0
X.1F1500S1000
X2.8F7000S0
X.3F1500S1000
X2.3F7000S0
X.4F1500S1000
X1.6F7000S0
X.1F1500S1000
X1.2F7000S0
X.7F1500S1000
X.1F7000S0
X.1F1500S1000
X1F7000S0
X.2F1500S1000
X20.4F7000S0
X.1F1500S1000
X7.8F7000S0
X.9F1500S1000
X1.1F7000S0
X.1F1500S1000
X.1F7000S0
X.1F1500S1000
X2.7F7000S0
X.3F1500S1000
X2.3F7000S0
X.4F1500S1000
X1.5F7000S0
X.1F1500S1000
X1.1F7000S0
X.1F1500S1000
X.1F7000S0
X.7F1500S1000
X.1F7000S0
X.1F1500S1000
X1F7000S0
X.2F1500S1000
X7.8F7000S0
X.1F1500S1000
X7.9F7000S0
X.9F1500S1000
X4F7000S0
X.3F1500S1000
X2.3F7000S0
X.4F1500S1000
X1.6F7000S0
X.1F1500S1000
X1.2F7000S0
X1F1500S1000
X.9F7000S0
X.2F1500S1000
X28.5F7000S0
X1F1500S1000
X1F7000S0
X.1F1500S1000
X.1F7000S0
X.1F1500S1000
X2.7F7000S0
X.2F1500S1000
X2.4F7000S0
X.4F1500S1000
X1.5F7000S0
X.1F1500S1000
X1F7000S0
X.1F1500S1000
X.2F7000S0
X.7F1500S1000
X.1F7000S0
X.1F1500S1000
X1.1F7000S0
X.1F1500S1000
X15.7F7000S0
X1F1500S1000
X1F7000S0
X.1F1500S1000
X2.9F7000S0
X.3F1500S1000
X2.3F7000S0
X.4F1500S1000
X1.6F7000S0
X.1F1500S1000
X1.1F7000S0
X.7F1500S1000
X.1F7000S0
X.2F1500S1000
X1F7000S0
X.2F1500S1000
X20.4F7000S0
X.1F1500S1000
X7.8F7000S0
X1F1500S1000
X1.2F7000S0
X.1F1500S1000
X2.7F7000S0
X.3F1500S1000
X2.3F7000S0
X.4F1500S1000
X1.6F7000S0
X.1F1500S1000
X1F7000S0
X1.2F1500S1000
X.9F7000S0
X.2F1500S1000
X7.8F7000S0
X.1F1500S1000
X7.9F7000S0
X.8F1500S1000
X1.2F7000S0
X.1F1500S1000
X2.8F7000S0
X.3F1500S1000
X2.4F7000S0
X.3F1500S1000
X1.6F7000S0
X.1F1500S1000
X1.2F7000S0
X.6F1500S1000
X.2F7000S0
X.1F1500S1000
X1.1F7000S0
X.1F1500S1000
X.625F7000S0
X-1.3Y.1
X-.625
X-.9F1500S1000
X-2.8F7000S0
X-.3F1500S1000
X-2.3F7000S0
X-.5F1500S1000
X-4F7000S0
X-.8F1500S1000
X-7.8F7000S0
X-.3F1500S1000
X-9F7000S0
X-1F1500S1000
X-2.7F7000S0
X-.3F1500S1000
X-2.3F7000S0
X-.5F1500S1000
X-3.9F7000S0
X-.9F1500S1000
X-7.9F7000S0
X-.3F1500S1000
X-21.5F7000S0
X-.9F1500S1000
X-2.8F7000S0
X-.3F1500S1000
X-2.4F7000S0
X-.4F1500S1000
X-3.9F7000S0
X-.9F1500S1000
X-7.9F7000S0
X-.3F1500S1000
X-9F7000S0
X-.8F1500S1000
X-2.9F7000S0
X-.2F1500S1000
X-2.4F7000S0
X-.4F1500S1000
X-4F7000S0
X-.9F1500S1000
X-7.7F7000S0
X-.3F1500S1000
X-21.8F7000S0
X-.8F1500S1000
X-2.9F7000S0
X-.3F1500S1000
X-2.3F7000S0
X-.5F1500S1000
X-3.9F7000S0
X-1F1500S1000
X-7.7F7000S0
X-.3F1500S1000
X-9.1F7000S0
X-.8F1500S1000
X-2.9F7000S0
X-.2F1500S1000
X-2.4F7000S0
X-.4F1500S1000
X-4F7000S0
X-.8F1500S1000
X-7.8F7000S0
X-.3F1500S1000
X-21.7F7000S0
X-.7F1500S1000
X-3F7000S0
X-.2F1500S1000
X-2.4F7000S0
X-.4F1500S1000
X-3.9F7000S0
X-1F1500S1000
X-7.7F7000S0
X-.3F1500S1000
X-9.1F7000S0
X-.8F1500S1000
X-2.8F7000S0
X-.3F1500S1000
X-2.4F7000S0
X-.4F1500S1000
X-4F7000S0
X-.8F1500S1000
X-7.8F7000S0
X-.4F1500S1000
X-.625F7000S0
Y.1
X.625
X.4F1500S1000
X7.8F7000S0
X.8F1500S1000
X3.9F7000S0
X.6F1500S1000
X2.4F7000S0
X.1F1500S1000
X2.8F7000S0
X.9F1500S1000
X9F7000S0
X.4F1500S1000
X7.8F7000S0
X.8F1500S1000
X4F7000S0
X.5F1500S1000
X2.4F7000S0
X.1F1500S1000
X3F7000S0
X.8F1500S1000
X21.5F7000S0
X.4F1500S1000
X7.8F7000S0
X.9F1500S1000
X3.9F7000S0
X.5F1500S1000
X2.4F7000S0
X.1F1500S1000
X2.9F7000S0
X.8F1500S1000
X9F7000S0
X.4F1500S1000
X7.8F7000S0
X.9F1500S1000
X3.9F7000S0
X.5F1500S1000
X5.5F7000S0
X.7F1500S1000
X21.8F7000S0
X.4F1500S1000
X7.8F7000S0
X.9F1500S1000
X3.8F7000S0
X.6F1500S1000
X5.4F7000S0
X.8F1500S1000
X9F7000S0
X.4F1500S1000
X7.8F7000S0
X.9F1500S1000
X3.8F7000S0
X.6F1500S1000
X5.4F7000S0
X.8F1500S1000
X21.6F7000S0
X.4F1500S1000
X7.8F7000S0
X.9F1500S1000
X3.9F7000S0
X.5F1500S1000
X5.4F7000S0
X.8F1500S1000
X9F7000S0
X.4F1500S1000
X7.8F7000S0
X.8F1500S1000
X3.9F7000S0
X.6F1500S1000
X2.4F7000S0
X.1F1500S1000
X3F7000S0
X.7F1500S1000
X.625F7000S0
X-.1Y.1
X-.625
X-.6F1500S1000
X-5.4F7000S0
X-.7F1500S1000
X-3.9F7000S0
X-.7F1500S1000
X-7.9F7000S0
X-.4F1500S1000
X-9F7000S0
X-.7F1500S1000
X-5.4F7000S0
X-.7F1500S1000
X-3.8F7000S0
X-.9F1500S1000
X-7.8F7000S0
X-.5F1500S1000
X-21.5F7000S0
X-.8F1500S1000
X-5.3F7000S0
X-.7F1500S1000
X-3.8F7000S0
X-.9F1500S1000
X-7.8F7000S0
X-.5F1500S1000
X-8.9F7000S0
X-.7F1500S1000
X-5.4F7000S0
X-.7F1500S1000
X-3.9F7000S0
X-.7F1500S1000
X-7.9F7000S0
X-.5F1500S1000
X-21.7F7000S0
X-.7F1500S1000
X-5.4F7000S0
X-.7F1500S1000
X-3.8F7000S0
X-.8F1500S1000
X-7.9F7000S0
X-.5F1500S1000
X-8.9F7000S0
X-.7F1500S1000
X-5.4F7000S0
X-.7F1500S1000
X-3.9F7000S0
X-.7F1500S1000
X-7.9F7000S0
X-.4F1500S1000
X-21.6F7000S0
X-.7F1500S1000
X-5.4F7000S0
X-.7F1500S1000
X-3.8F7000S0
X-.8F1500S1000
X-7.9F7000S0
X-.4F1500S1000
X-9.1F7000S0
X-.7F1500S1000
X-5.4F7000S0
X-.6F1500S1000
X-3.9F7000S0
X-.8F1500S1000
X-7.8F7000S0
X-.5F1500S1000
X-.625F7000S0
Y.1
X.625
X.5F1500S1000
X7.9F7000S0
X.7F1500S1000
X3.8F7000S0
X.8F1500S1000
X5.4F7000S0
X.6F1500S1000
X9F7000S0
X.5F1500S1000
X7.9F7000S0
X.8F1500S1000
X3.8F7000S0
X.6F1500S1000
X5.5F7000S0
X.6F1500S1000
X21.7F7000S0
X.4F1500S1000
X7.9F7000S0
X.8F1500S1000
X3.7F7000S0
X.7F1500S1000
X5.5F7000S0
X.6F1500S1000
X9F7000S0
X.5F1500S1000
X7.9F7000S0
X.8F1500S1000
X3.8F7000S0
X.7F1500S1000
X5.4F7000S0
X.6F1500S1000
X21.8F7000S0
X.5F1500S1000
X7.9F7000S0
X.8F1500S1000
X3.8F7000S0
X.6F1500S1000
X5.6F7000S0
X.5F1500S1000
X9F7000S0
X.5F1500S1000
X7.9F7000S0
X.8F1500S1000
X3.8F7000S0
X.7F1500S1000
X5.4F7000S0
X.6F1500S1000
X21.6F7000S0
X.4F1500S1000
X8F7000S0
X.8F1500S1000
X3.8F7000S0
X.7F1500S1000
X5.5F7000S0
X.5F1500S1000
X9.1F7000S0
X.4F1500S1000
X8F7000S0
X.7F1500S1000
X3.9F7000S0
X.6F1500S1000
X5.4F7000S0
X.7F1500S1000
X.625F7000S0
X-.1Y.1
X-.625
X-.4F1500S1000
X-5.6F7000S0
X-.7F1500S1000
X-3.9F7000S0
X-.6F1500S1000
X-8F7000S0
X-.5F1500S1000
X-.2F7000S0
X-.2F1500S1000
X-8.7F7000S0
X-.3F1500S1000
X-5.7F7000S0
X-.6F1500S1000
X-3.8F7000S0
X-.7F1500S1000
X-8.1F7000S0
X-.4F1500S1000
X-.2F7000S0
X-.2F1500S1000
X-21.3F7000S0
X-.3F1500S1000
X-5.7F7000S0
X-.6F1500S1000
X-3.8F7000S0
X-.7F1500S1000
X-8.1F7000S0
X-.4F1500S1000
X-.2F7000S0
X-.2F1500S1000
X-8.7F7000S0
X-.4F1500S1000
X-5.6F7000S0
X-.7F1500S1000
X-3.8F7000S0
X-.6F1500S1000
X-8F7000S0
X-.5F1500S1000
X-.2F7000S0
X-.3F1500S1000
X-21.4F7000S0
X-.3F1500S1000
X-5.6F7000S0
X-.7F1500S1000
X-3.8F7000S0
X-.7F1500S1000
X-7.9F7000S0
X-.6F1500S1000
X-.2F7000S0
X-.2F1500S1000
X-8.6F7000S0
X-.4F1500S1000
X-5.7F7000S0
X-.6F1500S1000
X-3.9F7000S0
X-.6F1500S1000
X-8F7000S0
X-.5F1500S1000
X-.2F7000S0
X-.2F1500S1000
X-21.2F7000S0
X-.4F1500S1000
X-5.6F7000S0
X-.7F1500S1000
X-3.9F7000S0
X-.6F1500S1000
X-8F7000S0
X-.5F1500S1000
X-.2F7000S0
X-.2F1500S1000
X-8.7F7000S0
X-.3F1500S1000
X-5.6F7000S0
X-.7F1500S1000
X-3.9F7000S0
X-.6F1500S1000
X-8F7000S0
X-.5F1500S1000
X-.2F7000S0
X-.2F1500S1000
X-.625F7000S0
X-.1Y.1
X.625
X.9F1500S1000
X8.2F7000S0
X.3F1500S1000
X.1F7000S0
X.1F1500S1000
X4F7000S0
X.5F1500S1000
X5.7F7000S0
X.3F1500S1000
X8.6F7000S0
X1F1500S1000
X8.1F7000S0
X.3F1500S1000
X.1F7000S0
X.1F1500S1000
X3.9F7000S0
X.6F1500S1000
X5.7F7000S0
X.4F1500S1000
X21.1F7000S0
X1F1500S1000
X8.1F7000S0
X.3F1500S1000
X.1F7000S0
X.1F1500S1000
X3.9F7000S0
X.6F1500S1000
X5.7F7000S0
X.3F1500S1000
X8.6F7000S0
X.4F1500S1000
X.1F7000S0
X.5F1500S1000
X8.1F7000S0
X.3F1500S1000
X.1F7000S0
X.1F1500S1000
X3.9F7000S0
X.6F1500S1000
X5.7F7000S0
X.3F1500S1000
X21.4F7000S0
X1F1500S1000
X8F7000S0
X.4F1500S1000
X4.1F7000S0
X.6F1500S1000
X5.6F7000S0
X.4F1500S1000
X8.6F7000S0
X1F1500S1000
X8.1F7000S0
X.3F1500S1000
X.1F7000S0
X.1F1500S1000
X3.9F7000S0
X.6F1500S1000
X5.7F7000S0
X.3F1500S1000
X21.2F7000S0
X.4F1500S1000
X.1F7000S0
X.5F1500S1000
X8.1F7000S0
X.3F1500S1000
X4.1F7000S0
X.6F1500S1000
X5.7F7000S0
X.3F1500S1000
X8.6F7000S0
X1F1500S1000
X8.1F7000S0
X.4F1500S1000
X4.1F7000S0
X.5F1500S1000
X5.7F7000S0
X.3F1500S1000
X.625F7000S0
X.1Y.1
X-.625
X-.4F1500S1000
X-5.8F7000S0
X-.4F1500S1000
X-4.3F7000S0
X-.2F1500S1000
X-8.1F7000S0
X-1F1500S1000
X-8.6F7000S0
X-.3F1500S1000
X-5.8F7000S0
X-.4F1500S1000
X-4.3F7000S0
X-.2F1500S1000
X-8.2F7000S0
X-1F1500S1000
X-21.1F7000S0
X-.3F1500S1000
X-5.8F7000S0
X-.4F1500S1000
X-4.3F7000S0
X-.2F1500S1000
X-8.2F7000S0
X-1F1500S1000
X-8.5F7000S0
X-.4F1500S1000
X-5.7F7000S0
X-.4F1500S1000
X-4.4F7000S0
X-.1F1500S1000
X-8.1F7000S0
X-1F1500S1000
X-21.4F7000S0
X-.3F1500S1000
X-5.8F7000S0
X-.3F1500S1000
X-4.4F7000S0
X-.1F1500S1000
X-8.3F7000S0
X-.9F1500S1000
X-8.6F7000S0
X-.3F1500S1000
X-5.7F7000S0
X-.5F1500S1000
X-4.3F7000S0
X-.2F1500S1000
X-8.1F7000S0
X-1F1500S1000
X-21.2F7000S0
X-.3F1500S1000
X-5.8F7000S0
X-.4F1500S1000
X-4.3F7000S0
X-.2F1500S1000
X-8.1F7000S0
X-1F1500S1000
X-8.6F7000S0
X-.3F1500S1000
X-5.8F7000S0
X-.4F1500S1000
X-4.3F7000S0
X-.2F1500S1000
X-8.1F7000S0
X-1.1F1500S1000
X-.625F7000S0
X.1Y.1
X.625
X1F1500S1000
X12.7F7000S0
X.2F1500S1000
X5.9F7000S0
X.3F1500S1000
X8.6F7000S0
X1F1500S1000
X12.7F7000S0
X.3F1500S1000
X5.8F7000S0
X.2F1500S1000
X21.3F7000S0
X1F1500S1000
X12.7F7000S0
X.3F1500S1000
X5.8F7000S0
X.2F1500S1000
X8.6F7000S0
X1.1F1500S1000
X12.7F7000S0
X.2F1500S1000
X5.9F7000S0
X.3F1500S1000
X21.4F7000S0
X1F1500S1000
X12.6F7000S0
X.4F1500S1000
X5.7F7000S0
X.3F1500S1000
X8.6F7000S0
X1.1F1500S1000
X12.7F7000S0
X.2F1500S1000
X5.9F7000S0
X.3F1500S1000
X21.1F7000S0
X1.1F1500S1000
X12.7F7000S0
X.2F1500S1000
X5.9F7000S0
X.3F1500S1000
X8.6F7000S0
X1F1500S1000
X12.7F7000S0
X.3F1500S1000
X5.8F7000S0
X.3F1500S1000
X.625F7000S0
Y.1
X-.625
X-.3F1500S1000
X-5.8F7000S0
X-.2F1500S1000
X-12.8F7000S0
X-1F1500S1000
X-8.7F7000S0
X-.2F1500S1000
X-5.9F7000S0
X-.1F1500S1000
X-12.8F7000S0
X-1F1500S1000
X-21.3F7000S0
X-.2F1500S1000
X-5.9F7000S0
X-.1F1500S1000
X-12.8F7000S0
X-1F1500S1000
X-8.7F7000S0
X-.2F1500S1000
X-5.9F7000S0
X-.2F1500S1000
X-12.7F7000S0
X-1F1500S1000
X-21.5F7000S0
X-.1F1500S1000
X-6F7000S0
X-.1F1500S1000
X-12.8F7000S0
X-1F1500S1000
X-8.7F7000S0
X-.2F1500S1000
X-5.9F7000S0
X-.2F1500S1000
X-12.7F7000S0
X-1F1500S1000
X-21.3F7000S0
X-.2F1500S1000
X-5.9F7000S0
X-.2F1500S1000
X-12.7F7000S0
X-1F1500S1000
X-8.7F7000S0
X-.2F1500S1000
X-5.9F7000S0
X-.2F1500S1000
X-12.7F7000S0
X-1.1F1500S1000
X-.625F7000S0
X.1Y.1
X.625
X1F1500S1000
X18.9F7000S0
X.2F1500S1000
X8.7F7000S0
X1F1500S1000
X18.8F7000S0
X.1F1500S1000
X21.4F7000S0
X1F1500S1000
X18.8F7000S0
X.1F1500S1000
X8.8F7000S0
X1F1500S1000
X18.7F7000S0
X.2F1500S1000
X21.6F7000S0
X1F1500S1000
X18.8F7000S0
X.1F1500S1000
X8.7F7000S0
X1.1F1500S1000
X18.8F7000S0
X.1F1500S1000
X21.4F7000S0
X.9F1500S1000
X18.9F7000S0
X.1F1500S1000
X8.8F7000S0
X1F1500S1000
X18.8F7000S0
X.2F1500S1000
X.625F7000S0
Y.1
X-.625
X-.2F1500S1000
X-18.7F7000S0
X-1F1500S1000
X-5.1F7000S0
X-.1F1500S1000
X-3.7F7000S0
X-.1F1500S1000
X-18.7F7000S0
X-1.1F1500S1000
X-21.4F7000S0
X-.2F1500S1000
X-18.7F7000S0
X-.9F1500S1000
X-5.1F7000S0
X-.1F1500S1000
X-3.7F7000S0
X-.1F1500S1000
X-18.8F7000S0
X-1F1500S1000
X-21.6F7000S0
X-.1F1500S1000
X-18.7F7000S0
X-1.1F1500S1000
X-5F7000S0
X-.1F1500S1000
X-3.7F7000S0
X-.1F1500S1000
X-18.8F7000S0
X-1F1500S1000
X-21.4F7000S0
X-.1F1500S1000
X-18.8F7000S0
X-1F1500S1000
X-5.1F7000S0
X-.1F1500S1000
X-3.6F7000S0
X-.1F1500S1000
X-18.8F7000S0
X-1F1500S1000
X-.625F7000S0
X.1Y.1
X.625
X1F1500S1000
X18.7F7000S0
X.2F1500S1000
X3.4F7000S0
X.3F1500S1000
X5.1F7000S0
X1F1500S1000
X18.7F7000S0
X.1F1500S1000
X21.5F7000S0
X1F1500S1000
X18.7F7000S0
X.1F1500S1000
X3.5F7000S0
X.4F1500S1000
X5F7000S0
X1F1500S1000
X18.7F7000S0
X.1F1500S1000
X21.6F7000S0
X1.1F1500S1000
X18.7F7000S0
X.1F1500S1000
X3.5F7000S0
X.3F1500S1000
X5.1F7000S0
X1F1500S1000
X18.7F7000S0
X.1F1500S1000
X21.5F7000S0
X1F1500S1000
X18.7F7000S0
X.1F1500S1000
X3.5F7000S0
X.3F1500S1000
X5.1F7000S0
X1F1500S1000
X.625F7000S0
X.1Y.1
X-.625
X-1.1F1500S1000
X-5F7000S0
X-.4F1500S1000
X-22.2F7000S0
X-1.1F1500S1000
X-40.2F7000S0
X-1.1F1500S1000
X-4.4F7000S0
X-.2F1500S1000
X-.4F7000S0
X-.4F1500S1000
X-22.3F7000S0
X-1F1500S1000
X-40.4F7000S0
X-1.1F1500S1000
X-4.4F7000S0
X-.2F1500S1000
X-.4F7000S0
X-.4F1500S1000
X-22.2F7000S0
X-1.1F1500S1000
X-40.2F7000S0
X-1.1F1500S1000
X-4.5F7000S0
X-.1F1500S1000
X-.4F7000S0
X-.4F1500S1000
X-22.2F7000S0
X-1.1F1500S1000
X-.625F7000S0
Y.1
X.625
X1.1F1500S1000
X22.2F7000S0
X.5F1500S1000
X.3F7000S0
X.2F1500S1000
X4.4F7000S0
X1.2F1500S1000
X40.1F7000S0
X1.2F1500S1000
X22.1F7000S0
X.5F1500S1000
X.3F7000S0
X.2F1500S1000
X4.4F7000S0
X1.1F1500S1000
X40.3F7000S0
X1.2F1500S1000
X22.2F7000S0
X.5F1500S1000
X.2F7000S0
X.3F1500S1000
X4.4F7000S0
X1.1F1500S1000
X40.2F7000S0
X1.1F1500S1000
X22.2F7000S0
X.5F1500S1000
X.3F7000S0
X.2F1500S1000
X4.4F7000S0
X1.1F1500S1000
X.625F7000S0
X2.2Y.1
X-.625
X-.3F1500S1000
X-1.9F7000S0
X-1.1F1500S1000
X-4.4F7000S0
X-.3F1500S1000
X-.2F7000S0
X-.5F1500S1000
X-20.1F7000S0
X-.2F1500S1000
X-1.9F7000S0
X-1.1F1500S1000
X-38.1F7000S0
X-.2F1500S1000
X-1.9F7000S0
X-1.1F1500S1000
X-4.4F7000S0
X-.3F1500S1000
X-.2F7000S0
X-.5F1500S1000
X-20.1F7000S0
X-.3F1500S1000
X-1.8F7000S0
X-1.1F1500S1000
X-38.3F7000S0
X-.2F1500S1000
X-1.9F7000S0
X-1.1F1500S1000
X-4.4F7000S0
X-.3F1500S1000
X-.2F7000S0
X-.6F1500S1000
X-20F7000S0
X-.2F1500S1000
X-1.9F7000S0
X-1.1F1500S1000
X-38.1F7000S0
X-.2F1500S1000
X-1.9F7000S0
X-1.1F1500S1000
X-4.3F7000S0
X-.4F1500S1000
X-.2F7000S0
X-.5F1500S1000
X-20.1F7000S0
X-.2F1500S1000
X-2F7000S0
X-1F1500S1000
X-.625F7000S0
Y.1
X.625
X1F1500S1000
X1.9F7000S0
X.4F1500S1000
X20F7000S0
X.6F1500S1000
X.1F7000S0
X.3F1500S1000
X4.4F7000S0
X1F1500S1000
X1.9F7000S0
X.4F1500S1000
X37.9F7000S0
X1F1500S1000
X2F7000S0
X.4F1500S1000
X20F7000S0
X1F1500S1000
X4.4F7000S0
X1F1500S1000
X1.9F7000S0
X.4F1500S1000
X38.1F7000S0
X1F1500S1000
X2F7000S0
X.4F1500S1000
X19.9F7000S0
X1.1F1500S1000
X4.4F7000S0
X1F1500S1000
X1.9F7000S0
X.4F1500S1000
X38F7000S0
X1F1500S1000
X1.9F7000S0
X.4F1500S1000
X20F7000S0
X.6F1500S1000
X.1F7000S0
X.3F1500S1000
X4.4F7000S0
X1F1500S1000
X1.9F7000S0
X.4F1500S1000
X.625F7000S0
X.1Y.1
X-.625
X-.5F1500S1000
X-2.2F7000S0
X-.8F1500S1000
X-4.3F7000S0
X-1F1500S1000
X-20F7000S0
X-.5F1500S1000
X-2.2F7000S0
X-.7F1500S1000
X-37.8F7000S0
X-.6F1500S1000
X-2.2F7000S0
X-.7F1500S1000
X-4.3F7000S0
X-1F1500S1000
X-20F7000S0
X-.5F1500S1000
X-2.2F7000S0
X-.7F1500S1000
X-38.1F7000S0
X-.5F1500S1000
X-2.2F7000S0
X-.6F1500S1000
X-4.4F7000S0
X-1F1500S1000
X-20F7000S0
X-.5F1500S1000
X-2.2F7000S0
X-.7F1500S1000
X-37.8F7000S0
X-.6F1500S1000
X-2.2F7000S0
X-.7F1500S1000
X-4.3F7000S0
X-1F1500S1000
X-20F7000S0
X-.5F1500S1000
X-2.2F7000S0
X-.7F1500S1000
X-.625F7000S0
X-.1Y.1
X.625
X.7F1500S1000
X2.3F7000S0
X.6F1500S1000
X19.9F7000S0
X1.1F1500S1000
X4.2F7000S0
X.6F1500S1000
X2.4F7000S0
X.4F1500S1000
X37.9F7000S0
X.6F1500S1000
X2.3F7000S0
X.6F1500S1000
X19.9F7000S0
X1F1500S1000
X4.2F7000S0
X.7F1500S1000
X2.3F7000S0
X.6F1500S1000
X37.9F7000S0
X.7F1500S1000
X2.3F7000S0
X.6F1500S1000
X19.9F7000S0
X1F1500S1000
X4.2F7000S0
X.7F1500S1000
X2.3F7000S0
X.6F1500S1000
X37.7F7000S0
X.7F1500S1000
X2.3F7000S0
X.6F1500S1000
X19.9F7000S0
X1F1500S1000
X4.3F7000S0
X.6F1500S1000
X2.3F7000S0
X.6F1500S1000
X.625F7000S0
X7.6Y.1
X-.625
X-.5F1500S1000
X-7.1F7000S0
X-.6F1500S1000
X-2.3F7000S0
X-.7F1500S1000
X-4.2F7000S0
X-1F1500S1000
X-12.4F7000S0
X-.4F1500S1000
X-7.1F7000S0
X-.6F1500S1000
X-2.3F7000S0
X-.7F1500S1000
X-30.2F7000S0
X-.4F1500S1000
X-7.1F7000S0
X-.6F1500S1000
X-2.4F7000S0
X-.6F1500S1000
X-4.2F7000S0
X-1F1500S1000
X-12.4F7000S0
X-.4F1500S1000
X-7.2F7000S0
X-.6F1500S1000
X-2.2F7000S0
X-.7F1500S1000
X-30.4F7000S0
X-.4F1500S1000
X-7.1F7000S0
X-.6F1500S1000
X-2.3F7000S0
X-.7F1500S1000
X-4.2F7000S0
X-1F1500S1000
X-12.4F7000S0
X-.4F1500S1000
X-7.2F7000S0
X-.5F1500S1000
X-2.3F7000S0
X-.7F1500S1000
X-30.2F7000S0
X-.4F1500S1000
X-7.1F7000S0
X-.6F1500S1000
X-2.3F7000S0
X-.7F1500S1000
X-4.2F7000S0
X-1F1500S1000
X-12.4F7000S0
X-.5F1500S1000
X-7F7000S0
X-.6F1500S1000
X-2.4F7000S0
X-.6F1500S1000
X-.625F7000S0
X-.1Y.1
X.625
X.7F1500S1000
X2.4F7000S0
X.6F1500S1000
X7F7000S0
X.5F1500S1000
X12.6F7000S0
X.8F1500S1000
X4.2F7000S0
X.7F1500S1000
X2.3F7000S0
X.5F1500S1000
X7.1F7000S0
X.6F1500S1000
X30.1F7000S0
X.7F1500S1000
X2.3F7000S0
X.5F1500S1000
X7.1F7000S0
X.6F1500S1000
X12.4F7000S0
X.9F1500S1000
X4.1F7000S0
X.7F1500S1000
X2.4F7000S0
X.6F1500S1000
X7F7000S0
X.6F1500S1000
X30.3F7000S0
X.6F1500S1000
X2.4F7000S0
X.5F1500S1000
X7.1F7000S0
X.6F1500S1000
X12.4F7000S0
X.9F1500S1000
X4.1F7000S0
X.7F1500S1000
X2.4F7000S0
X.6F1500S1000
X7F7000S0
X.6F1500S1000
X30F7000S0
X.7F1500S1000
X2.4F7000S0
X.6F1500S1000
X7F7000S0
X.6F1500S1000
X12.5F7000S0
X.8F1500S1000
X4.2F7000S0
X.6F1500S1000
X2.4F7000S0
X.6F1500S1000
X7.1F7000S0
X.5F1500S1000
X.625F7000S0
X4.1Y.1
X-.625
X-.1F1500S1000
X-3.9F7000S0
X-.9F1500S1000
X-6.8F7000S0
X-.6F1500S1000
X-2.3F7000S0
X-.7F1500S1000
X-.7F7000S0
X-.4F1500S1000
X-3.1F7000S0
X-.8F1500S1000
X-8.4F7000S0
X-.1F1500S1000
X-3.8F7000S0
X-1.1F1500S1000
X-6.7F7000S0
X-.6F1500S1000
X-2.4F7000S0
X-.7F1500S1000
X-.6F7000S0
X-.3F1500S1000
X-25F7000S0
X-.1F1500S1000
X-3.9F7000S0
X-.9F1500S1000
X-6.8F7000S0
X-.6F1500S1000
X-2.4F7000S0
X-.7F1500S1000
X-.6F7000S0
X-.3F1500S1000
X-3.3F7000S0
X-.7F1500S1000
X-8.4F7000S0
X-.2F1500S1000
X-3.8F7000S0
X-1F1500S1000
X-6.7F7000S0
X-.7F1500S1000
X-2.3F7000S0
X-.6F1500S1000
X-.7F7000S0
X-.3F1500S1000
X-25.2F7000S0
X-.1F1500S1000
X-3.8F7000S0
X-1F1500S1000
X-6.8F7000S0
X-.6F1500S1000
X-2.4F7000S0
X-.6F1500S1000
X-.7F7000S0
X-.3F1500S1000
X-3.3F7000S0
X-.7F1500S1000
X-8.4F7000S0
X-.1F1500S1000
X-3.9F7000S0
X-1F1500S1000
X-6.7F7000S0
X-.6F1500S1000
X-2.4F7000S0
X-.6F1500S1000
X-.7F7000S0
X-.3F1500S1000
X-25F7000S0
X-.1F1500S1000
X-3.9F7000S0
X-1F1500S1000
X-6.7F7000S0
X-.5F1500S1000
X-2.4F7000S0
X-.7F1500S1000
X-.7F7000S0
X-.3F1500S1000
X-3.3F7000S0
X-.7F1500S1000
X-8.4F7000S0
X-.2F1500S1000
X-3.8F7000S0
X-1F1500S1000
X-6.7F7000S0
X-.6F1500S1000
X-2.4F7000S0
X-.6F1500S1000
X-.7F7000S0
X-.4F1500S1000
X-.625F7000S0
Y.1
X.625
X.5F1500S1000
X.5F7000S0
X.8F1500S1000
X2.3F7000S0
X.6F1500S1000
X2.6F7000S0
X.1F1500S1000
X4F7000S0
X1.1F1500S1000
X3.7F7000S0
X.2F1500S1000
X8.4F7000S0
X.7F1500S1000
X3.2F7000S0
X.4F1500S1000
X.7F7000S0
X.7F1500S1000
X2.3F7000S0
X.5F1500S1000
X2.8F7000S0
X.1F1500S1000
X3.9F7000S0
X1.1F1500S1000
X3.7F7000S0
X.3F1500S1000
X24.8F7000S0
X.4F1500S1000
X.7F7000S0
X.7F1500S1000
X2.4F7000S0
X.4F1500S1000
X6.8F7000S0
X1.1F1500S1000
X3.7F7000S0
X.3F1500S1000
X8.3F7000S0
X.7F1500S1000
X3.2F7000S0
X.5F1500S1000
X.6F7000S0
X.7F1500S1000
X2.3F7000S0
X.6F1500S1000
X2.6F7000S0
X.1F1500S1000
X4F7000S0
X1.1F1500S1000
X3.7F7000S0
X.3F1500S1000
X25F7000S0
X.4F1500S1000
X.7F7000S0
X.7F1500S1000
X2.3F7000S0
X.5F1500S1000
X2.8F7000S0
X.1F1500S1000
X3.8F7000S0
X1.2F1500S1000
X3.6F7000S0
X.3F1500S1000
X8.4F7000S0
X.7F1500S1000
X3.2F7000S0
X.5F1500S1000
X.6F7000S0
X.7F1500S1000
X2.3F7000S0
X.6F1500S1000
X6.7F7000S0
X1.1F1500S1000
X3.7F7000S0
X.3F1500S1000
X24.8F7000S0
X.5F1500S1000
X.6F7000S0
X.7F1500S1000
X2.3F7000S0
X.6F1500S1000
X6.7F7000S0
X1.1F1500S1000
X3.7F7000S0
X.3F1500S1000
X8.2F7000S0
X.8F1500S1000
X3.2F7000S0
X.5F1500S1000
X.6F7000S0
X.7F1500S1000
X2.3F7000S0
X.6F1500S1000
X2.7F7000S0
X.1F1500S1000
X3.9F7000S0
X1.2F1500S1000
X3.6F7000S0
X.3F1500S1000
X.625F7000S0
X.3Y.1
X-.625
X-.7F1500S1000
X-3.4F7000S0
X-1.4F1500S1000
X-3.6F7000S0
X-.5F1500S1000
X-2.5F7000S0
X-.5F1500S1000
X-2.4F7000S0
X-.7F1500S1000
X-.4F7000S0
X-.7F1500S1000
X-3.2F7000S0
X-.9F1500S1000
X-7.8F7000S0
X-.8F1500S1000
X-3.4F7000S0
X-1.3F1500S1000
X-3.7F7000S0
X-.5F1500S1000
X-2.4F7000S0
X-.6F1500S1000
X-2.2F7000S0
X-.8F1500S1000
X-.4F7000S0
X-.8F1500S1000
X-24.5F7000S0
X-.7F1500S1000
X-3.3F7000S0
X-1.4F1500S1000
X-3.7F7000S0
X-.5F1500S1000
X-2.5F7000S0
X-.5F1500S1000
X-2.3F7000S0
X-.8F1500S1000
X-.4F7000S0
X-.7F1500S1000
X-3.1F7000S0
X-.9F1500S1000
X-7.8F7000S0
X-.8F1500S1000
X-3.5F7000S0
X-1.2F1500S1000
X-3.7F7000S0
X-.5F1500S1000
X-2.4F7000S0
X-.6F1500S1000
X-2.3F7000S0
X-.8F1500S1000
X-.4F7000S0
X-.7F1500S1000
X-24.6F7000S0
X-.8F1500S1000
X-3.3F7000S0
X-1.4F1500S1000
X-3.7F7000S0
X-.5F1500S1000
X-2.4F7000S0
X-.6F1500S1000
X-2.2F7000S0
X-.8F1500S1000
X-.4F7000S0
X-.8F1500S1000
X-3.1F7000S0
X-.9F1500S1000
X-7.9F7000S0
X-.7F1500S1000
X-3.4F7000S0
X-1.3F1500S1000
X-3.7F7000S0
X-.5F1500S1000
X-2.5F7000S0
X-.5F1500S1000
X-2.3F7000S0
X-.7F1500S1000
X-.5F7000S0
X-.6F1500S1000
X-24.5F7000S0
X-.8F1500S1000
X-3.3F7000S0
X-1.4F1500S1000
X-3.7F7000S0
X-.5F1500S1000
X-2.4F7000S0
X-.5F1500S1000
X-2.4F7000S0
X-.7F1500S1000
X-.4F7000S0
X-.7F1500S1000
X-3.2F7000S0
X-.9F1500S1000
X-7.8F7000S0
X-.8F1500S1000
X-3.4F7000S0
X-1.3F1500S1000
X-3.7F7000S0
X-.5F1500S1000
X-2.4F7000S0
X-.6F1500S1000
X-2.3F7000S0
X-.7F1500S1000
X-.5F7000S0
X-.7F1500S1000
X-.625F7000S0
X.1Y.1
X.625
X.7F1500S1000
X.3F7000S0
X.8F1500S1000
X5.3F7000S0
X.6F1500S1000
X3.5F7000S0
X1.4F1500S1000
X3.4F7000S0
X.8F1500S1000
X7.7F7000S0
X2.7F1500S1000
X1.5F7000S0
X.7F1500S1000
X.3F7000S0
X.8F1500S1000
X5.2F7000S0
X.7F1500S1000
X3.6F7000S0
X1.4F1500S1000
X3.3F7000S0
X.8F1500S1000
X24.5F7000S0
X.8F1500S1000
X.2F7000S0
X.8F1500S1000
X5.3F7000S0
X.6F1500S1000
X3.5F7000S0
X1.4F1500S1000
X3.3F7000S0
X1F1500S1000
X7.6F7000S0
X1.1F1500S1000
X.1F7000S0
X1.6F1500S1000
X1.3F7000S0
X.8F1500S1000
X.3F7000S0
X.8F1500S1000
X5.3F7000S0
X.6F1500S1000
X3.5F7000S0
X1.5F1500S1000
X3.3F7000S0
X.8F1500S1000
X24.6F7000S0
X.8F1500S1000
X.3F7000S0
X.8F1500S1000
X5.2F7000S0
X.7F1500S1000
X3.5F7000S0
X1.4F1500S1000
X3.3F7000S0
X.9F1500S1000
X7.7F7000S0
X1.1F1500S1000
X.1F7000S0
X1.5F1500S1000
X1.4F7000S0
X.8F1500S1000
X.3F7000S0
X.8F1500S1000
X5.3F7000S0
X.6F1500S1000
X3.5F7000S0
X1.5F1500S1000
X3.3F7000S0
X.8F1500S1000
X24.4F7000S0
X.8F1500S1000
X.3F7000S0
X.8F1500S1000
X5.3F7000S0
X.6F1500S1000
X3.5F7000S0
X1.4F1500S1000
X3.4F7000S0
X.8F1500S1000
X7.7F7000S0
X2.7F1500S1000
X1.5F7000S0
X.7F1500S1000
X.3F7000S0
X.8F1500S1000
X5.3F7000S0
X.6F1500S1000
X3.5F7000S0
X1.5F1500S1000
X3.3F7000S0
X.8F1500S1000
X.625F7000S0
X.1Y.1
X-.625
X-1F1500S1000
X-3.2F7000S0
X-1.5F1500S1000
X-3.4F7000S0
X-.8F1500S1000
X-5.2F7000S0
X-.8F1500S1000
X-.3F7000S0
X-.7F1500S1000
X-.9F7000S0
X-3.4F1500S1000
X-7.6F7000S0
X-.9F1500S1000
X-3.2F7000S0
X-1.5F1500S1000
X-3.5F7000S0
X-.7F1500S1000
X-5.3F7000S0
X-.8F1500S1000
X-.1F7000S0
X-.9F1500S1000
X-24.4F7000S0
X-.9F1500S1000
X-3.3F7000S0
X-1.4F1500S1000
X-3.5F7000S0
X-.7F1500S1000
X-5.3F7000S0
X-.8F1500S1000
X-.2F7000S0
X-.8F1500S1000
X-.8F7000S0
X-3.5F1500S1000
X-7.5F7000S0
X-.9F1500S1000
X-3.2F7000S0
X-1.5F1500S1000
X-3.5F7000S0
X-.7F1500S1000
X-5.3F7000S0
X-.8F1500S1000
X-.1F7000S0
X-.9F1500S1000
X-24.6F7000S0
X-.8F1500S1000
X-3.3F7000S0
X-1.5F1500S1000
X-3.4F7000S0
X-.7F1500S1000
X-5.4F7000S0
X-.7F1500S1000
X-.2F7000S0
X-.9F1500S1000
X-.6F7000S0
X-3.6F1500S1000
X-7.5F7000S0
X-1F1500S1000
X-3.2F7000S0
X-1.5F1500S1000
X-3.4F7000S0
X-.8F1500S1000
X-5.2F7000S0
X-.8F1500S1000
X-.3F7000S0
X-.7F1500S1000
X-24.4F7000S0
X-1F1500S1000
X-3.2F7000S0
X-1.5F1500S1000
X-3.5F7000S0
X-.7F1500S1000
X-5.3F7000S0
X-.7F1500S1000
X-.2F7000S0
X-.8F1500S1000
X-.9F7000S0
X-3.4F1500S1000
X-7.6F7000S0
X-.9F1500S1000
X-3.2F7000S0
X-1.6F1500S1000
X-3.3F7000S0
X-.8F1500S1000
X-5.3F7000S0
X-.7F1500S1000
X-.3F7000S0
X-.8F1500S1000
X-.625F7000S0
X.1Y.1
X.625
X.7F1500S1000
X.2F7000S0
X.7F1500S1000
X5.4F7000S0
X.8F1500S1000
X3.3F7000S0
X1.7F1500S1000
X3F7000S0
X1F1500S1000
X7.1F7000S0
X4.5F1500S1000
X.3F7000S0
X.8F1500S1000
X.2F7000S0
X.7F1500S1000
X5.2F7000S0
X.9F1500S1000
X3.3F7000S0
X1.7F1500S1000
X3F7000S0
X1.1F1500S1000
X24.4F7000S0
X.8F1500S1000
X.2F7000S0
X.7F1500S1000
X5.2F7000S0
X.9F1500S1000
X3.3F7000S0
X1.7F1500S1000
X3F7000S0
X1F1500S1000
X7.1F7000S0
X4.6F1500S1000
X.1F7000S0
X.9F1500S1000
X.1F7000S0
X.7F1500S1000
X5.4F7000S0
X.8F1500S1000
X3.3F7000S0
X1.6F1500S1000
X3.2F7000S0
X.9F1500S1000
X24.6F7000S0
X.8F1500S1000
X.2F7000S0
X.8F1500S1000
X5.2F7000S0
X.9F1500S1000
X3.3F7000S0
X1.6F1500S1000
X3.1F7000S0
X1.1F1500S1000
X6.9F7000S0
X4.5F1500S1000
X.3F7000S0
X.8F1500S1000
X.3F7000S0
X.6F1500S1000
X5.4F7000S0
X.8F1500S1000
X3.3F7000S0
X1.6F1500S1000
X3.2F7000S0
X.9F1500S1000
X24.4F7000S0
X.9F1500S1000
X.2F7000S0
X.6F1500S1000
X5.4F7000S0
X.8F1500S1000
X3.3F7000S0
X1.6F1500S1000
X3.2F7000S0
X.9F1500S1000
X7F7000S0
X4.6F1500S1000
X.3F7000S0
X.7F1500S1000
X.3F7000S0
X.7F1500S1000
X5.3F7000S0
X.9F1500S1000
X3.2F7000S0
X1.7F1500S1000
X3.1F7000S0
X.9F1500S1000
X.625F7000S0
X.1Y.1
X-.625
X-1.1F1500S1000
X-2.9F7000S0
X-1.8F1500S1000
X-3.2F7000S0
X-1F1500S1000
X-5.2F7000S0
X-.7F1500S1000
X-.2F7000S0
X-6F1500S1000
X-6.6F7000S0
X-1F1500S1000
X-3.1F7000S0
X-1.7F1500S1000
X-3.2F7000S0
X-1F1500S1000
X-5.3F7000S0
X-.7F1500S1000
X-.2F7000S0
X-.8F1500S1000
X-24.3F7000S0
X-1.1F1500S1000
X-3F7000S0
X-1.7F1500S1000
X-3.2F7000S0
X-1F1500S1000
X-5.3F7000S0
X-.7F1500S1000
X-.2F7000S0
X-6F1500S1000
X-6.5F7000S0
X-1.1F1500S1000
X-3F7000S0
X-1.7F1500S1000
X-3.2F7000S0
X-1F1500S1000
X-5.3F7000S0
X-.7F1500S1000
X-.1F7000S0
X-.9F1500S1000
X-24.5F7000S0
X-1F1500S1000
X-3F7000S0
X-1.8F1500S1000
X-3.3F7000S0
X-.9F1500S1000
X-5.3F7000S0
X-.6F1500S1000
X-.2F7000S0
X-6F1500S1000
X-6.6F7000S0
X-1.1F1500S1000
X-3F7000S0
X-1.7F1500S1000
X-3.2F7000S0
X-1F1500S1000
X-5.2F7000S0
X-.8F1500S1000
X-.2F7000S0
X-.7F1500S1000
X-24.4F7000S0
X-1F1500S1000
X-3.1F7000S0
X-1.7F1500S1000
X-3.2F7000S0
X-1F1500S1000
X-5.3F7000S0
X-.7F1500S1000
X-.2F7000S0
X-5.9F1500S1000
X-6.6F7000S0
X-1.1F1500S1000
X-3.1F7000S0
X-1.6F1500S1000
X-3.2F7000S0
X-1F1500S1000
X-5.2F7000S0
X-.8F1500S1000
X-.2F7000S0
X-.8F1500S1000
X-.625F7000S0
X.1Y.1
X.625
X.7F1500S1000
X.2F7000S0
X.7F1500S1000
X5.2F7000S0
X1.1F1500S1000
X3.1F7000S0
X1.9F1500S1000
X2.9F7000S0
X1.1F1500S1000
X1.7F7000S0
X.3F1500S1000
X2.8F7000S0
X.8F1500S1000
X.4F7000S0
X.1F1500S1000
X.1F7000S0
X6.4F1500S1000
X.1F7000S0
X.7F1500S1000
X5.3F7000S0
X1F1500S1000
X3.2F7000S0
X1.8F1500S1000
X2.9F7000S0
X1.1F1500S1000
X1.7F7000S0
X.3F1500S1000
X2.8F7000S0
X.8F1500S1000
X18.7F7000S0
X.9F1500S1000
X.1F7000S0
X.7F1500S1000
X5.3F7000S0
X1.1F1500S1000
X3.1F7000S0
X1.8F1500S1000
X3F7000S0
X1F1500S1000
X1.7F7000S0
X.2F1500S1000
X2.9F7000S0
X.8F1500S1000
X.5F7000S0
X.1F1500S1000
X.1F7000S0
X6.2F1500S1000
X.2F7000S0
X.7F1500S1000
X5.2F7000S0
X1.2F1500S1000
X3.1F7000S0
X1.8F1500S1000
X2.9F7000S0
X1.1F1500S1000
X1.8F7000S0
X.2F1500S1000
X2.8F7000S0
X.8F1500S1000
X18.9F7000S0
X.8F1500S1000
X.1F7000S0
X.8F1500S1000
X5.2F7000S0
X1.1F1500S1000
X3.2F7000S0
X1.8F1500S1000
X2.9F7000S0
X1.1F1500S1000
X1.7F7000S0
X.3F1500S1000
X2.8F7000S0
X.7F1500S1000
X.5F7000S0
X6.5F1500S1000
X.2F7000S0
X.8F1500S1000
X5.1F7000S0
X1.1F1500S1000
X3.2F7000S0
X1.8F1500S1000
X2.9F7000S0
X1.2F1500S1000
X1.6F7000S0
X.3F1500S1000
X2.8F7000S0
X.8F1500S1000
X18.7F7000S0
X.8F1500S1000
X.2F7000S0
X.7F1500S1000
X5.2F7000S0
X1.1F1500S1000
X3.2F7000S0
X1.8F1500S1000
X2.9F7000S0
X1.1F1500S1000
X1.8F7000S0
X.2F1500S1000
X2.8F7000S0
X.8F1500S1000
X.4F7000S0
X.1F1500S1000
X.1F7000S0
X6.3F1500S1000
X.2F7000S0
X.8F1500S1000
X5.1F7000S0
X1.1F1500S1000
X3.2F7000S0
X1.8F1500S1000
X2.9F7000S0
X1.2F1500S1000
X1.7F7000S0
X.2F1500S1000
X2.8F7000S0
X.8F1500S1000
X.625F7000S0
X.2Y.1
X-.625
X-1.2F1500S1000
X-2.5F7000S0
X-.4F1500S1000
X-1.6F7000S0
X-1.2F1500S1000
X-2.9F7000S0
X-1.8F1500S1000
X-3.2F7000S0
X-1.1F1500S1000
X-5.2F7000S0
X-3.5F1500S1000
X-1F7000S0
X-.1F1500S1000
X-.2F7000S0
X-2.7F1500S1000
X-.1F7000S0
X-1.1F1500S1000
X-2.6F7000S0
X-.4F1500S1000
X-1.6F7000S0
X-1.2F1500S1000
X-2.9F7000S0
X-1.8F1500S1000
X-3.1F7000S0
X-1.2F1500S1000
X-5.2F7000S0
X-.7F1500S1000
X-.2F7000S0
X-.8F1500S1000
X-18.6F7000S0
X-1.1F1500S1000
X-2.5F7000S0
X-.4F1500S1000
X-1.6F7000S0
X-1.3F1500S1000
X-2.8F7000S0
X-1.8F1500S1000
X-3.2F7000S0
X-1.1F1500S1000
X-5.2F7000S0
X-3.5F1500S1000
X-1.4F7000S0
X-3.9F1500S1000
X-2.5F7000S0
X-.4F1500S1000
X-1.7F7000S0
X-1.1F1500S1000
X-2.9F7000S0
X-1.8F1500S1000
X-3.2F7000S0
X-1.1F1500S1000
X-5.3F7000S0
X-.7F1500S1000
X-.1F7000S0
X-.9F1500S1000
X-18.7F7000S0
X-1.1F1500S1000
X-2.4F7000S0
X-.5F1500S1000
X-1.6F7000S0
X-1.2F1500S1000
X-2.9F7000S0
X-1.8F1500S1000
X-3.1F7000S0
X-1.2F1500S1000
X-5.2F7000S0
X-3.4F1500S1000
X-1.4F7000S0
X-4F1500S1000
X-2.5F7000S0
X-.4F1500S1000
X-1.7F7000S0
X-1.1F1500S1000
X-2.9F7000S0
X-1.8F1500S1000
X-3.2F7000S0
X-1.1F1500S1000
X-5.2F7000S0
X-1.7F1500S1000
X-18.6F7000S0
X-1F1500S1000
X-2.6F7000S0
X-.4F1500S1000
X-1.7F7000S0
X-1.1F1500S1000
X-2.9F7000S0
X-1.8F1500S1000
X-3.1F7000S0
X-1.2F1500S1000
X-5.2F7000S0
X-3.5F1500S1000
X-1.3F7000S0
X-4F1500S1000
X-2.5F7000S0
X-.5F1500S1000
X-1.6F7000S0
X-1.2F1500S1000
X-2.8F7000S0
X-1.8F1500S1000
X-3.2F7000S0
X-1.1F1500S1000
X-5.2F7000S0
X-.7F1500S1000
X-.2F7000S0
X-.8F1500S1000
X-.625F7000S0
Y.1
X.625
X.8F1500S1000
X.2F7000S0
X.6F1500S1000
X5.3F7000S0
X1.1F1500S1000
X3.2F7000S0
X1.8F1500S1000
X2.8F7000S0
X1.2F1500S1000
X1.6F7000S0
X.6F1500S1000
X2.3F7000S0
X3.2F1500S1000
X3.1F7000S0
X2.5F1500S1000
X5.3F7000S0
X1.2F1500S1000
X3.1F7000S0
X1.8F1500S1000
X2.8F7000S0
X1.3F1500S1000
X1.6F7000S0
X.5F1500S1000
X2.3F7000S0
X1.3F1500S1000
X18.4F7000S0
X.9F1500S1000
X.1F7000S0
X.7F1500S1000
X5.3F7000S0
X1.2F1500S1000
X3.1F7000S0
X1.8F1500S1000
X2.8F7000S0
X1.2F1500S1000
X1.6F7000S0
X.6F1500S1000
X2.3F7000S0
X3.3F1500S1000
X3F7000S0
X2.6F1500S1000
X5.2F7000S0
X1.2F1500S1000
X3.1F7000S0
X1.8F1500S1000
X2.8F7000S0
X1.3F1500S1000
X1.5F7000S0
X.6F1500S1000
X2.4F7000S0
X1.2F1500S1000
X18.6F7000S0
X.9F1500S1000
X.1F7000S0
X.7F1500S1000
X5.3F7000S0
X1.2F1500S1000
X3.1F7000S0
X1.8F1500S1000
X2.8F7000S0
X1.3F1500S1000
X1.5F7000S0
X.6F1500S1000
X2.3F7000S0
X3.2F1500S1000
X3F7000S0
X2.6F1500S1000
X5.3F7000S0
X1.1F1500S1000
X3.2F7000S0
X1.8F1500S1000
X2.8F7000S0
X1.3F1500S1000
X1.5F7000S0
X.6F1500S1000
X2.4F7000S0
X1.2F1500S1000
X18.4F7000S0
X1F1500S1000
X.1F7000S0
X.6F1500S1000
X5.3F7000S0
X1.2F1500S1000
X3.1F7000S0
X1.8F1500S1000
X2.8F7000S0
X1.3F1500S1000
X1.5F7000S0
X.6F1500S1000
X2.4F7000S0
X3.1F1500S1000
X3F7000S0
X2.7F1500S1000
X5.2F7000S0
X1.1F1500S1000
X3.2F7000S0
X1.8F1500S1000
X2.8F7000S0
X1.3F1500S1000
X1.5F7000S0
X.6F1500S1000
X2.4F7000S0
X1.2F1500S1000
X.625F7000S0
X.1Y.1
X-.625
X-1.4F1500S1000
X-2.3F7000S0
X-.6F1500S1000
X-1.5F7000S0
X-1.3F1500S1000
X-2.7F7000S0
X-1.9F1500S1000
X-3.1F7000S0
X-1.1F1500S1000
X-5F7000S0
X-.1F1500S1000
X-.3F7000S0
X-2F1500S1000
X-4.2F7000S0
X-2.6F1500S1000
X-2.3F7000S0
X-.6F1500S1000
X-1.5F7000S0
X-1.2F1500S1000
X-2.9F7000S0
X-1.9F1500S1000
X-3F7000S0
X-1.2F1500S1000
X-4.9F7000S0
X-.1F1500S1000
X-.3F7000S0
X-1.6F1500S1000
X-18.5F7000S0
X-1.3F1500S1000
X-2.3F7000S0
X-.6F1500S1000
X-1.5F7000S0
X-1.3F1500S1000
X-2.8F7000S0
X-1.9F1500S1000
X-3.1F7000S0
X-1.1F1500S1000
X-4.9F7000S0
X-.1F1500S1000
X-.2F7000S0
X-2.2F1500S1000
X-4.1F7000S0
X-2.6F1500S1000
X-2.4F7000S0
X-.5F1500S1000
X-1.6F7000S0
X-1.2F1500S1000
X-2.8F7000S0
X-1.9F1500S1000
X-3.1F7000S0
X-1.2F1500S1000
X-4.8F7000S0
X-.1F1500S1000
X-.3F7000S0
X-1.6F1500S1000
X-18.6F7000S0
X-1.4F1500S1000
X-2.3F7000S0
X-.6F1500S1000
X-1.5F7000S0
X-1.3F1500S1000
X-2.8F7000S0
X-1.8F1500S1000
X-3.1F7000S0
X-1.2F1500S1000
X-4.9F7000S0
X-.1F1500S1000
X-.3F7000S0
X-1.9F1500S1000
X-4.2F7000S0
X-2.7F1500S1000
X-2.3F7000S0
X-.6F1500S1000
X-1.5F7000S0
X-1.2F1500S1000
X-3F7000S0
X-1.8F1500S1000
X-3.1F7000S0
X-1F1500S1000
X-5F7000S0
X-.1F1500S1000
X-.3F7000S0
X-1.6F1500S1000
X-18.4F7000S0
X-1.4F1500S1000
X-2.3F7000S0
X-.6F1500S1000
X-1.6F7000S0
X-1.2F1500S1000
X-2.8F7000S0
X-1.9F1500S1000
X-3.1F7000S0
X-1F1500S1000
X-5F7000S0
X-.1F1500S1000
X-.3F7000S0
X-2F1500S1000
X-4.2F7000S0
X-2.6F1500S1000
X-2.3F7000S0
X-.6F1500S1000
X-1.6F7000S0
X-1.2F1500S1000
X-2.8F7000S0
X-1.9F1500S1000
X-3.1F7000S0
X-1.1F1500S1000
X-4.9F7000S0
X-.1F1500S1000
X-.3F7000S0
X-1.7F1500S1000
X-.625F7000S0
X.1Y.1
X.625
X1.6F1500S1000
X.2F7000S0
X.3F1500S1000
X4.8F7000S0
X1.1F1500S1000
X3.1F7000S0
X1.9F1500S1000
X2.9F7000S0
X1.1F1500S1000
X1.6F7000S0
X.6F1500S1000
X2.2F7000S0
X2.4F1500S1000
X4.8F7000S0
X1.9F1500S1000
X.1F7000S0
X.2F1500S1000
X4.9F7000S0
X1.1F1500S1000
X3F7000S0
X1.9F1500S1000
X2.9F7000S0
X1.1F1500S1000
X1.7F7000S0
X.5F1500S1000
X2.2F7000S0
X1.5F1500S1000
X18.5F7000S0
X1.5F1500S1000
X.2F7000S0
X.3F1500S1000
X4.8F7000S0
X1.2F1500S1000
X3F7000S0
X1.9F1500S1000
X2.9F7000S0
X1.1F1500S1000
X1.7F7000S0
X.4F1500S1000
X2.3F7000S0
X2.4F1500S1000
X4.9F7000S0
X2.1F1500S1000
X4.8F7000S0
X1.2F1500S1000
X3F7000S0
X1.9F1500S1000
X2.8F7000S0
X1.3F1500S1000
X1.5F7000S0
X.6F1500S1000
X2.3F7000S0
X1.4F1500S1000
X18.6F7000S0
X1.6F1500S1000
X.2F7000S0
X.2F1500S1000
X4.9F7000S0
X1.2F1500S1000
X3F7000S0
X1.9F1500S1000
X2.9F7000S0
X1.1F1500S1000
X1.6F7000S0
X.6F1500S1000
X2.2F7000S0
X2.3F1500S1000
X4.9F7000S0
X1.8F1500S1000
X.1F7000S0
X.3F1500S1000
X4.8F7000S0
X1.1F1500S1000
X3.1F7000S0
X1.9F1500S1000
X2.8F7000S0
X1.3F1500S1000
X1.5F7000S0
X.6F1500S1000
X2.2F7000S0
X1.5F1500S1000
X18.4F7000S0
X1.7F1500S1000
X.1F7000S0
X.3F1500S1000
X4.8F7000S0
X1.2F1500S1000
X3F7000S0
X1.9F1500S1000
X2.9F7000S0
X1.2F1500S1000
X1.5F7000S0
X.6F1500S1000
X2.3F7000S0
X2.3F1500S1000
X4.9F7000S0
X1.8F1500S1000
X.1F7000S0
X.2F1500S1000
X4.8F7000S0
X1.1F1500S1000
X3.1F7000S0
X1.9F1500S1000
X2.9F7000S0
X1.1F1500S1000
X1.6F7000S0
X.6F1500S1000
X2.2F7000S0
X1.6F1500S1000
X.625F7000S0
Y.1
X-.625
X-1.6F1500S1000
X-2.1F7000S0
X-.6F1500S1000
X-1.7F7000S0
X-1.1F1500S1000
X-2.9F7000S0
X-1.9F1500S1000
X-3.1F7000S0
X-1.1F1500S1000
X-4.7F7000S0
X-1.9F1500S1000
X-5.6F7000S0
X-2F1500S1000
X-2.2F7000S0
X-.6F1500S1000
X-1.6F7000S0
X-1F1500S1000
X-3F7000S0
X-2F1500S1000
X-2.9F7000S0
X-1.2F1500S1000
X-4.6F7000S0
X-.5F1500S1000
X-.2F7000S0
X-1.6F1500S1000
X-18.3F7000S0
X-1.6F1500S1000
X-2.2F7000S0
X-.6F1500S1000
X-1.6F7000S0
X-1.1F1500S1000
X-2.9F7000S0
X-1.9F1500S1000
X-3.1F7000S0
X-1.1F1500S1000
X-4.7F7000S0
X-2F1500S1000
X-5.5F7000S0
X-2.1F1500S1000
X-2.1F7000S0
X-.7F1500S1000
X-1.5F7000S0
X-1.1F1500S1000
X-3F7000S0
X-1.9F1500S1000
X-3F7000S0
X-1.1F1500S1000
X-4.7F7000S0
X-.4F1500S1000
X-.2F7000S0
X-1.6F1500S1000
X-18.5F7000S0
X-1.6F1500S1000
X-2.2F7000S0
X-.6F1500S1000
X-1.6F7000S0
X-1.1F1500S1000
X-2.9F7000S0
X-2F1500S1000
X-2.9F7000S0
X-1.2F1500S1000
X-4.7F7000S0
X-1.8F1500S1000
X-5.7F7000S0
X-2F1500S1000
X-2.2F7000S0
X-.6F1500S1000
X-1.6F7000S0
X-1.1F1500S1000
X-2.9F7000S0
X-1.9F1500S1000
X-3.1F7000S0
X-1F1500S1000
X-4.8F7000S0
X-.4F1500S1000
X-.2F7000S0
X-1.5F1500S1000
X-18.4F7000S0
X-1.6F1500S1000
X-2.2F7000S0
X-.5F1500S1000
X-1.7F7000S0
X-1.1F1500S1000
X-2.9F7000S0
X-1.9F1500S1000
X-3F7000S0
X-1.2F1500S1000
X-4.8F7000S0
X-1.7F1500S1000
X-5.7F7000S0
X-2F1500S1000
X-2.2F7000S0
X-.6F1500S1000
X-1.6F7000S0
X-1.1F1500S1000
X-2.9F7000S0
X-1.9F1500S1000
X-3.1F7000S0
X-1.1F1500S1000
X-4.6F7000S0
X-.6F1500S1000
X-.1F7000S0
X-1.5F1500S1000
X-.625F7000S0
X-.1Y.1
X.625
X1.6F1500S1000
X.2F7000S0
X.5F1500S1000
X4.6F7000S0
X1.1F1500S1000
X3.1F7000S0
X1.9F1500S1000
X2.9F7000S0
X1F1500S1000
X1.7F7000S0
X.6F1500S1000
X2.1F7000S0
X1.6F1500S1000
X6.5F7000S0
X1.7F1500S1000
X4.5F7000S0
X1.1F1500S1000
X3.1F7000S0
X1.9F1500S1000
X2.9F7000S0
X1.1F1500S1000
X1.6F7000S0
X.5F1500S1000
X2.3F7000S0
X1.6F1500S1000
X18.4F7000S0
X1.5F1500S1000
X.2F7000S0
X.5F1500S1000
X4.6F7000S0
X1.2F1500S1000
X3F7000S0
X1.9F1500S1000
X2.9F7000S0
X1F1500S1000
X1.8F7000S0
X.5F1500S1000
X2.2F7000S0
X1.6F1500S1000
X6.6F7000S0
X1.5F1500S1000
X4.5F7000S0
X1.2F1500S1000
X3F7000S0
X1.9F1500S1000
X2.9F7000S0
X1.1F1500S1000
X1.6F7000S0
X.6F1500S1000
X2.1F7000S0
X1.7F1500S1000
X18.5F7000S0
X1.6F1500S1000
X.1F7000S0
X.7F1500S1000
X4.4F7000S0
X1.3F1500S1000
X2.9F7000S0
X2F1500S1000
X3F7000S0
X.9F1500S1000
X1.7F7000S0
X.5F1500S1000
X2.2F7000S0
X1.5F1500S1000
X6.6F7000S0
X1.6F1500S1000
X4.6F7000S0
X1.1F1500S1000
X3F7000S0
X2F1500S1000
X2.9F7000S0
X1F1500S1000
X1.7F7000S0
X.6F1500S1000
X2.1F7000S0
X1.7F1500S1000
X18.4F7000S0
X1.5F1500S1000
X.1F7000S0
X.6F1500S1000
X4.6F7000S0
X1.2F1500S1000
X3F7000S0
X1.9F1500S1000
X2.9F7000S0
X1F1500S1000
X1.7F7000S0
X.6F1500S1000
X2.1F7000S0
X1.7F1500S1000
X6.5F7000S0
X1.5F1500S1000
X4.6F7000S0
X1.2F1500S1000
X3F7000S0
X2F1500S1000
X2.8F7000S0
X1F1500S1000
X1.7F7000S0
X.6F1500S1000
X2.2F7000S0
X1.6F1500S1000
X.625F7000S0
X.1Y.1
X-.625
X-1.8F1500S1000
X-2.1F7000S0
X-.6F1500S1000
X-1.6F7000S0
X-1.1F1500S1000
X-2.9F7000S0
X-1.9F1500S1000
X-3.1F7000S0
X-1F1500S1000
X-4.5F7000S0
X-1.5F1500S1000
X-7F7000S0
X-1.5F1500S1000
X-2F7000S0
X-.6F1500S1000
X-1.7F7000S0
X-1F1500S1000
X-2.9F7000S0
X-2F1500S1000
X-2.9F7000S0
X-1.2F1500S1000
X-4.5F7000S0
X-.7F1500S1000
X-.1F7000S0
X-1.2F1500S1000
X-18.7F7000S0
X-1.7F1500S1000
X-2.1F7000S0
X-.6F1500S1000
X-1.7F7000S0
X-1F1500S1000
X-2.9F7000S0
X-1.9F1500S1000
X-3.1F7000S0
X-1.1F1500S1000
X-4.4F7000S0
X-1.5F1500S1000
X-7.1F7000S0
X-1.5F1500S1000
X-1.9F7000S0
X-.6F1500S1000
X-1.6F7000S0
X-1.1F1500S1000
X-2.9F7000S0
X-1.9F1500S1000
X-3.1F7000S0
X-1.1F1500S1000
X-4.5F7000S0
X-.7F1500S1000
X-.2F7000S0
X-1F1500S1000
X-19F7000S0
X-1.7F1500S1000
X-2.1F7000S0
X-.6F1500S1000
X-1.7F7000S0
X-.9F1500S1000
X-3F7000S0
X-1.9F1500S1000
X-3F7000S0
X-1.2F1500S1000
X-4.3F7000S0
X-1.5F1500S1000
X-7.1F7000S0
X-1.4F1500S1000
X-2.2F7000S0
X-.5F1500S1000
X-1.6F7000S0
X-1.1F1500S1000
X-3F7000S0
X-1.8F1500S1000
X-3.1F7000S0
X-1F1500S1000
X-4.6F7000S0
X-.7F1500S1000
X-.2F7000S0
X-1F1500S1000
X-18.8F7000S0
X-1.7F1500S1000
X-2.1F7000S0
X-.5F1500S1000
X-1.7F7000S0
X-1.1F1500S1000
X-2.9F7000S0
X-1.9F1500S1000
X-3F7000S0
X-1.2F1500S1000
X-4.4F7000S0
X-1.4F1500S1000
X-7.2F7000S0
X-1.3F1500S1000
X-2.1F7000S0
X-.6F1500S1000
X-1.7F7000S0
X-1F1500S1000
X-2.9F7000S0
X-1.9F1500S1000
X-3.1F7000S0
X-1.1F1500S1000
X-4.5F7000S0
X-.7F1500S1000
X-.2F7000S0
X-1F1500S1000
X-.625F7000S0
Y.1
X.625
X1F1500S1000
X.2F7000S0
X.7F1500S1000
X4.5F7000S0
X1.1F1500S1000
X3F7000S0
X2F1500S1000
X3F7000S0
X.9F1500S1000
X1.7F7000S0
X.5F1500S1000
X1.9F7000S0
X1.5F1500S1000
X7.5F7000S0
X1.4F1500S1000
X4.3F7000S0
X1F1500S1000
X3.1F7000S0
X1.9F1500S1000
X3F7000S0
X.9F1500S1000
X1.7F7000S0
X.6F1500S1000
X2.1F7000S0
X1.8F1500S1000
X18.7F7000S0
X1F1500S1000
X.2F7000S0
X.8F1500S1000
X4.4F7000S0
X1.1F1500S1000
X3.1F7000S0
X1.9F1500S1000
X3F7000S0
X.9F1500S1000
X1.8F7000S0
X.5F1500S1000
X1.9F7000S0
X1.4F1500S1000
X7.6F7000S0
X1.4F1500S1000
X4.2F7000S0
X1F1500S1000
X3F7000S0
X2F1500S1000
X3F7000S0
X.9F1500S1000
X1.8F7000S0
X.5F1500S1000
X2.1F7000S0
X1.8F1500S1000
X18.9F7000S0
X1F1500S1000
X.2F7000S0
X.7F1500S1000
X4.5F7000S0
X1.1F1500S1000
X3.1F7000S0
X1.9F1500S1000
X2.9F7000S0
X1F1500S1000
X1.7F7000S0
X.6F1500S1000
X1.7F7000S0
X1.4F1500S1000
X7.7F7000S0
X1.4F1500S1000
X4.3F7000S0
X1F1500S1000
X3.1F7000S0
X1.9F1500S1000
X3F7000S0
X.9F1500S1000
X1.8F7000S0
X.4F1500S1000
X2.2F7000S0
X1.8F1500S1000
X18.7F7000S0
X1F1500S1000
X.2F7000S0
X.8F1500S1000
X4.5F7000S0
X1F1500S1000
X3.1F7000S0
X1.9F1500S1000
X3F7000S0
X.9F1500S1000
X1.8F7000S0
X.5F1500S1000
X1.9F7000S0
X1.3F1500S1000
X7.6F7000S0
X1.4F1500S1000
X4.2F7000S0
X1.1F1500S1000
X3.1F7000S0
X2F1500S1000
X2.9F7000S0
X.9F1500S1000
X1.8F7000S0
X.5F1500S1000
X2.2F7000S0
X1.6F1500S1000
X.625F7000S0
X.1Y.1
X-.625
X-1.8F1500S1000
X-2.3F7000S0
X-.3F1500S1000
X-1.8F7000S0
X-.9F1500S1000
X-3F7000S0
X-1.9F1500S1000
X-3.1F7000S0
X-1F1500S1000
X-4F7000S0
X-1.4F1500S1000
X-8.1F7000S0
X-1.3F1500S1000
X-1.8F7000S0
X-.3F1500S1000
X-2F7000S0
X-.7F1500S1000
X-3.1F7000S0
X-2F1500S1000
X-3.1F7000S0
X-.9F1500S1000
X-4.5F7000S0
X-1.9F1500S1000
X-.2F7000S0
X-.1F1500S1000
X-18.5F7000S0
X-1.9F1500S1000
X-2.3F7000S0
X-.2F1500S1000
X-1.9F7000S0
X-.7F1500S1000
X-3.1F7000S0
X-2F1500S1000
X-3.1F7000S0
X-.9F1500S1000
X-4.2F7000S0
X-1.2F1500S1000
X-8.3F7000S0
X-1.2F1500S1000
X-1.7F7000S0
X-.4F1500S1000
X-1.9F7000S0
X-.8F1500S1000
X-3F7000S0
X-1.9F1500S1000
X-3.2F7000S0
X-.9F1500S1000
X-4.5F7000S0
X-1.9F1500S1000
X-.3F7000S0
X-.1F1500S1000
X-18.6F7000S0
X-1.9F1500S1000
X-2.2F7000S0
X-.2F1500S1000
X-2F7000S0
X-.7F1500S1000
X-3.1F7000S0
X-1.9F1500S1000
X-3.2F7000S0
X-.9F1500S1000
X-4.1F7000S0
X-1.3F1500S1000
X-8.1F7000S0
X-1.3F1500S1000
X-1.8F7000S0
X-.4F1500S1000
X-1.8F7000S0
X-.9F1500S1000
X-3F7000S0
X-1.9F1500S1000
X-3.1F7000S0
X-1F1500S1000
X-4.5F7000S0
X-1.9F1500S1000
X-.2F7000S0
X-.2F1500S1000
X-18.4F7000S0
X-1.9F1500S1000
X-2.2F7000S0
X-.3F1500S1000
X-1.8F7000S0
X-.9F1500S1000
X-3F7000S0
X-1.9F1500S1000
X-3.1F7000S0
X-1F1500S1000
X-4.1F7000S0
X-1.3F1500S1000
X-8.1F7000S0
X-1.4F1500S1000
X-1.8F7000S0
X-.3F1500S1000
X-1.9F7000S0
X-.8F1500S1000
X-3F7000S0
X-1.9F1500S1000
X-3.2F7000S0
X-.9F1500S1000
X-4.5F7000S0
X-1.9F1500S1000
X-.2F7000S0
X-.1F1500S1000
X-.625F7000S0
X-.1Y.1
X.625
X.2F1500S1000
X.2F7000S0
X1.9F1500S1000
X4.6F7000S0
X.8F1500S1000
X3.2F7000S0
X1.9F1500S1000
X3.1F7000S0
X.7F1500S1000
X2F7000S0
X.2F1500S1000
X1.7F7000S0
X1.2F1500S1000
X8.6F7000S0
X1.3F1500S1000
X4F7000S0
X.8F1500S1000
X3.2F7000S0
X1.9F1500S1000
X3.1F7000S0
X.7F1500S1000
X2F7000S0
X.1F1500S1000
X2.3F7000S0
X2F1500S1000
X18.3F7000S0
X.2F1500S1000
X.2F7000S0
X1.9F1500S1000
X4.6F7000S0
X.8F1500S1000
X3.2F7000S0
X1.9F1500S1000
X3.1F7000S0
X.7F1500S1000
X1.9F7000S0
X.3F1500S1000
X1.7F7000S0
X1.3F1500S1000
X8.5F7000S0
X1.3F1500S1000
X4F7000S0
X.8F1500S1000
X3.2F7000S0
X1.9F1500S1000
X3.1F7000S0
X.7F1500S1000
X2F7000S0
X.1F1500S1000
X2.3F7000S0
X2F1500S1000
X18.5F7000S0
X.2F1500S1000
X.2F7000S0
X1.9F1500S1000
X4.6F7000S0
X.8F1500S1000
X3.1F7000S0
X2F1500S1000
X3.1F7000S0
X.7F1500S1000
X2F7000S0
X.2F1500S1000
X1.6F7000S0
X1.2F1500S1000
X8.6F7000S0
X1.3F1500S1000
X4.1F7000S0
X.8F1500S1000
X3.2F7000S0
X1.9F1500S1000
X3.1F7000S0
X.7F1500S1000
X2F7000S0
X.1F1500S1000
X2.3F7000S0
X1.9F1500S1000
X18.4F7000S0
X.2F1500S1000
X.2F7000S0
X2F1500S1000
X4.5F7000S0
X.8F1500S1000
X3.2F7000S0
X1.9F1500S1000
X3F7000S0
X.8F1500S1000
X2F7000S0
X.2F1500S1000
X1.7F7000S0
X1.3F1500S1000
X8.5F7000S0
X1.2F1500S1000
X4.1F7000S0
X.8F1500S1000
X3.3F7000S0
X1.8F1500S1000
X3.1F7000S0
X.7F1500S1000
X2F7000S0
X.1F1500S1000
X2.4F7000S0
X1.8F1500S1000
X.625F7000S0
Y.1
X-.625
X-1.9F1500S1000
X-4.5F7000S0
X-.4F1500S1000
X-3.2F7000S0
X-1.9F1500S1000
X-3.4F7000S0
X-.7F1500S1000
X-3.9F7000S0
X-1.2F1500S1000
X-9F7000S0
X-1.2F1500S1000
X-3.8F7000S0
X-.4F1500S1000
X-3.3F7000S0
X-1.9F1500S1000
X-3.3F7000S0
X-.7F1500S1000
X-4.6F7000S0
X-1.9F1500S1000
X-.1F7000S0
X-.3F1500S1000
X-18.4F7000S0
X-1.9F1500S1000
X-4.5F7000S0
X-.5F1500S1000
X-3.2F7000S0
X-1.8F1500S1000
X-3.4F7000S0
X-.6F1500S1000
X-4F7000S0
X-1.3F1500S1000
X-9F7000S0
X-1.1F1500S1000
X-3.8F7000S0
X-.5F1500S1000
X-3.3F7000S0
X-1.9F1500S1000
X-3.2F7000S0
X-.7F1500S1000
X-4.6F7000S0
X-1.9F1500S1000
X-.2F7000S0
X-.3F1500S1000
X-18.4F7000S0
X-2F1500S1000
X-4.5F7000S0
X-.5F1500S1000
X-3.2F7000S0
X-1.8F1500S1000
X-3.4F7000S0
X-.6F1500S1000
X-3.9F7000S0
X-1.2F1500S1000
X-9.1F7000S0
X-1.1F1500S1000
X-3.9F7000S0
X-.4F1500S1000
X-3.3F7000S0
X-1.9F1500S1000
X-3.3F7000S0
X-.7F1500S1000
X-4.5F7000S0
X-2F1500S1000
X-.1F7000S0
X-.3F1500S1000
X-18.4F7000S0
X-1.9F1500S1000
X-4.5F7000S0
X-.4F1500S1000
X-3.3F7000S0
X-1.8F1500S1000
X-3.4F7000S0
X-.6F1500S1000
X-4F7000S0
X-1.2F1500S1000
X-9F7000S0
X-1.2F1500S1000
X-3.8F7000S0
X-.5F1500S1000
X-3.2F7000S0
X-1.9F1500S1000
X-3.3F7000S0
X-.7F1500S1000
X-4.6F7000S0
X-1.9F1500S1000
X-.1F7000S0
X-.4F1500S1000
X-.625F7000S0
Y.1
X.625
X2.4F1500S1000
X4.8F7000S0
X.2F1500S1000
X.1F7000S0
X.1F1500S1000
X3.4F7000S0
X1.9F1500S1000
X3.4F7000S0
X.1F1500S1000
X3.7F7000S0
X1.3F1500S1000
X9.5F7000S0
X1.1F1500S1000
X3.9F7000S0
X.4F1500S1000
X3.5F7000S0
X1.8F1500S1000
X3.5F7000S0
X.1F1500S1000
X4.6F7000S0
X2F1500S1000
X18.2F7000S0
X2.4F1500S1000
X4.8F7000S0
X.3F1500S1000
X3.5F7000S0
X1.8F1500S1000
X7.4F7000S0
X1.2F1500S1000
X9.6F7000S0
X1.2F1500S1000
X3.6F7000S0
X.6F1500S1000
X3.4F7000S0
X1.8F1500S1000
X3.5F7000S0
X.1F1500S1000
X4.6F7000S0
X2F1500S1000
X18.4F7000S0
X2.4F1500S1000
X4.7F7000S0
X.3F1500S1000
X.2F7000S0
X.1F1500S1000
X3.4F7000S0
X1.8F1500S1000
X7.2F7000S0
X1.1F1500S1000
X9.7F7000S0
X1.1F1500S1000
X3.8F7000S0
X.5F1500S1000
X3.5F7000S0
X1.8F1500S1000
X3.4F7000S0
X.1F1500S1000
X4.7F7000S0
X1.9F1500S1000
X18.2F7000S0
X2.4F1500S1000
X4.9F7000S0
X.2F1500S1000
X.1F7000S0
X.1F1500S1000
X3.4F7000S0
X1.9F1500S1000
X3.3F7000S0
X.1F1500S1000
X.1F7000S0
X.1F1500S1000
X3.6F7000S0
X1.2F1500S1000
X9.6F7000S0
X1.2F1500S1000
X3.8F7000S0
X.3F1500S1000
X.1F7000S0
X.1F1500S1000
X3.5F7000S0
X1.7F1500S1000
X3.6F7000S0
X.1F1500S1000
X4.6F7000S0
X1.9F1500S1000
X.625F7000S0
X-.1Y.1
X-.625
X-1.8F1500S1000
X-8.3F7000S0
X-1.8F1500S1000
X-3.6F7000S0
X-.2F1500S1000
X-3.7F7000S0
X-1.2F1500S1000
X-9.9F7000S0
X-1.2F1500S1000
X-7.1F7000S0
X-1.8F1500S1000
X-8.8F7000S0
X-2.4F1500S1000
X-18.2F7000S0
X-1.9F1500S1000
X-8.2F7000S0
X-1.8F1500S1000
X-3.6F7000S0
X-.2F1500S1000
X-3.8F7000S0
X-1.1F1500S1000
X-10.1F7000S0
X-1.1F1500S1000
X-7F7000S0
X-1.8F1500S1000
X-3.7F7000S0
X-.1F1500S1000
X-5F7000S0
X-2.4F1500S1000
X-18.3F7000S0
X-2F1500S1000
X-8.2F7000S0
X-1.8F1500S1000
X-3.6F7000S0
X-.2F1500S1000
X-3.7F7000S0
X-1.1F1500S1000
X-10F7000S0
X-1.1F1500S1000
X-7.2F7000S0
X-1.8F1500S1000
X-3.7F7000S0
X-.1F1500S1000
X-5F7000S0
X-2.3F1500S1000
X-18.3F7000S0
X-1.9F1500S1000
X-8.2F7000S0
X-1.8F1500S1000
X-3.6F7000S0
X-.2F1500S1000
X-3.8F7000S0
X-1.1F1500S1000
X-10F7000S0
X-1.1F1500S1000
X-7.1F7000S0
X-1.9F1500S1000
X-3.7F7000S0
X-.1F1500S1000
X-4.9F7000S0
X-2.4F1500S1000
X-.625F7000S0
X.1Y.1
X.625
X2.2F1500S1000
X8.9F7000S0
X1.7F1500S1000
X7.1F7000S0
X1.1F1500S1000
X10.3F7000S0
X1.1F1500S1000
X7.4F7000S0
X1.7F1500S1000
X8.3F7000S0
X2F1500S1000
X18.2F7000S0
X2.2F1500S1000
X8.9F7000S0
X1.7F1500S1000
X7.1F7000S0
X1.1F1500S1000
X10.3F7000S0
X1.1F1500S1000
X7.4F7000S0
X1.7F1500S1000
X8.4F7000S0
X1.9F1500S1000
X18.3F7000S0
X2.3F1500S1000
X8.9F7000S0
X1.7F1500S1000
X6.9F7000S0
X1.1F1500S1000
X10.5F7000S0
X1.1F1500S1000
X7.4F7000S0
X1.7F1500S1000
X8.4F7000S0
X1.8F1500S1000
X18.2F7000S0
X2.3F1500S1000
X8.9F7000S0
X1.7F1500S1000
X7.1F7000S0
X1.1F1500S1000
X10.3F7000S0
X1.1F1500S1000
X7.4F7000S0
X1.8F1500S1000
X8.3F7000S0
X1.8F1500S1000
X.625F7000S0
Y.1
X-.625
X-1.9F1500S1000
X-8.3F7000S0
X-1.7F1500S1000
X-7.2F7000S0
X-1.1F1500S1000
X-10.7F7000S0
X-1.1F1500S1000
X-6.9F7000S0
X-1.7F1500S1000
X-8.9F7000S0
X-2.3F1500S1000
X-18.2F7000S0
X-1.9F1500S1000
X-8.4F7000S0
X-1.6F1500S1000
X-7.3F7000S0
X-1.2F1500S1000
X-10.5F7000S0
X-1.1F1500S1000
X-6.9F7000S0
X-1.7F1500S1000
X-8.9F7000S0
X-2.3F1500S1000
X-18.3F7000S0
X-2F1500S1000
X-8.4F7000S0
X-1.5F1500S1000
X-7.3F7000S0
X-1.1F1500S1000
X-10.7F7000S0
X-1.1F1500S1000
X-6.9F7000S0
X-1.7F1500S1000
X-8.9F7000S0
X-2.2F1500S1000
X-18.3F7000S0
X-1.9F1500S1000
X-8.3F7000S0
X-1.7F1500S1000
X-7.2F7000S0
X-1.1F1500S1000
X-10.7F7000S0
X-1.1F1500S1000
X-6.9F7000S0
X-1.7F1500S1000
X-9F7000S0
X-2.2F1500S1000
X-.625F7000S0
Y.1
X.625
X1.4F1500S1000
X.3F7000S0
X.5F1500S1000
X9F7000S0
X1.6F1500S1000
X6.8F7000S0
X1.1F1500S1000
X11.1F7000S0
X1F1500S1000
X7.2F7000S0
X1.5F1500S1000
X8.4F7000S0
X2F1500S1000
X18.2F7000S0
X1.3F1500S1000
X.3F7000S0
X.5F1500S1000
X9.1F7000S0
X1.6F1500S1000
X6.8F7000S0
X1.1F1500S1000
X11F7000S0
X1.1F1500S1000
X7.1F7000S0
X1.5F1500S1000
X8.4F7000S0
X2F1500S1000
X18.3F7000S0
X1.4F1500S1000
X.3F7000S0
X.5F1500S1000
X9.1F7000S0
X1.6F1500S1000
X6.7F7000S0
X1.1F1500S1000
X10.9F7000S0
X1.1F1500S1000
X7.3F7000S0
X1.5F1500S1000
X8.4F7000S0
X1.9F1500S1000
X18.2F7000S0
X1.4F1500S1000
X.3F7000S0
X.5F1500S1000
X9.1F7000S0
X1.6F1500S1000
X6.8F7000S0
X1F1500S1000
X11F7000S0
X1.1F1500S1000
X7.2F7000S0
X1.5F1500S1000
X8.5F7000S0
X1.9F1500S1000
X.625F7000S0
X-.1Y.1
X-.625
X-1.8F1500S1000
X-8.5F7000S0
X-1.4F1500S1000
X-1.9F7000S0
X-.1F1500S1000
X-5.1F7000S0
X-1F1500S1000
X-11.5F7000S0
X-1F1500S1000
X-6.7F7000S0
X-1.4F1500S1000
X-1.7F7000S0
X-.1F1500S1000
X-.1F7000S0
X-.1F1500S1000
X-7.3F7000S0
X-.3F1500S1000
X-.4F7000S0
X-1.4F1500S1000
X-18.2F7000S0
X-1.9F1500S1000
X-8.4F7000S0
X-1.4F1500S1000
X-1.7F7000S0
X-.1F1500S1000
X-.1F7000S0
X-.1F1500S1000
X-5.2F7000S0
X-1F1500S1000
X-11.4F7000S0
X-1F1500S1000
X-6.7F7000S0
X-1.5F1500S1000
X-1.8F7000S0
X-.1F1500S1000
X-7.2F7000S0
X-.5F1500S1000
X-.1F7000S0
X-.1F1500S1000
X-.1F7000S0
X-1.4F1500S1000
X-18.3F7000S0
X-2F1500S1000
X-8.4F7000S0
X-1.4F1500S1000
X-1.7F7000S0
X-.1F1500S1000
X-.1F7000S0
X-.1F1500S1000
X-5F7000S0
X-1.1F1500S1000
X-11.4F7000S0
X-1.1F1500S1000
X-6.7F7000S0
X-1.4F1500S1000
X-1.9F7000S0
X-.1F1500S1000
X-7.2F7000S0
X-.3F1500S1000
X-.2F7000S0
X-.1F1500S1000
X-.1F7000S0
X-1.4F1500S1000
X-18.3F7000S0
X-1.9F1500S1000
X-8.4F7000S0
X-1.5F1500S1000
X-1.8F7000S0
X-.1F1500S1000
X-5.1F7000S0
X-1.1F1500S1000
X-11.4F7000S0
X-1F1500S1000
X-6.7F7000S0
X-1.5F1500S1000
X-1.7F7000S0
X-.1F1500S1000
X-.1F7000S0
X-.1F1500S1000
X-7.1F7000S0
X-.4F1500S1000
X-.2F7000S0
X-.1F1500S1000
X-.1F7000S0
X-1.3F1500S1000
X-.625F7000S0
X-.1Y.1
X.625
X1.7F1500S1000
X.3F7000S0
X.2F1500S1000
X7.1F7000S0
X.4F1500S1000
X1.7F7000S0
X1.4F1500S1000
X6.5F7000S0
X.9F1500S1000
X12F7000S0
X.9F1500S1000
X4.9F7000S0
X.5F1500S1000
X1.6F7000S0
X1.3F1500S1000
X8.5F7000S0
X2F1500S1000
X18.2F7000S0
X1.6F1500S1000
X.2F7000S0
X.3F1500S1000
X7.1F7000S0
X.4F1500S1000
X1.7F7000S0
X1.4F1500S1000
X6.6F7000S0
X1F1500S1000
X11.8F7000S0
X1F1500S1000
X4.8F7000S0
X.5F1500S1000
X1.6F7000S0
X1.4F1500S1000
X8.4F7000S0
X2F1500S1000
X18.3F7000S0
X1.7F1500S1000
X.2F7000S0
X.2F1500S1000
X7.2F7000S0
X.4F1500S1000
X1.7F7000S0
X1.3F1500S1000
X6.6F7000S0
X1F1500S1000
X11.8F7000S0
X1F1500S1000
X4.9F7000S0
X.4F1500S1000
X1.7F7000S0
X1.4F1500S1000
X8.4F7000S0
X1.9F1500S1000
X18.2F7000S0
X1.7F1500S1000
X.3F7000S0
X.2F1500S1000
X7.1F7000S0
X.5F1500S1000
X1.6F7000S0
X1.4F1500S1000
X6.5F7000S0
X1F1500S1000
X11.8F7000S0
X1.1F1500S1000
X4.8F7000S0
X.4F1500S1000
X1.7F7000S0
X1.4F1500S1000
X8.5F7000S0
X1.8F1500S1000
X.625F7000S0
Y.1
X-.625
X-1.9F1500S1000
X-8.6F7000S0
X-1.1F1500S1000
X-1.7F7000S0
X-.6F1500S1000
X-4.6F7000S0
X-1F1500S1000
X-12.1F7000S0
X-1F1500S1000
X-6.5F7000S0
X-1.2F1500S1000
X-1.7F7000S0
X-.6F1500S1000
X-7.5F7000S0
X-1.5F1500S1000
X-18.4F7000S0
X-1.8F1500S1000
X-8.6F7000S0
X-1.2F1500S1000
X-1.7F7000S0
X-.6F1500S1000
X-4.6F7000S0
X-1.1F1500S1000
X-12.1F7000S0
X-1F1500S1000
X-6.5F7000S0
X-1.2F1500S1000
X-1.6F7000S0
X-.6F1500S1000
X-7.5F7000S0
X-1.5F1500S1000
X-18.5F7000S0
X-1.9F1500S1000
X-8.7F7000S0
X-1.1F1500S1000
X-1.7F7000S0
X-.6F1500S1000
X-4.6F7000S0
X-.9F1500S1000
X-12.2F7000S0
X-.9F1500S1000
X-6.7F7000S0
X-1.2F1500S1000
X-1.6F7000S0
X-.6F1500S1000
X-7.4F7000S0
X-1.6F1500S1000
X-18.3F7000S0
X-1.9F1500S1000
X-8.6F7000S0
X-1.2F1500S1000
X-1.7F7000S0
X-.6F1500S1000
X-4.6F7000S0
X-1.1F1500S1000
X-12F7000S0
X-1.1F1500S1000
X-6.5F7000S0
X-1.1F1500S1000
X-1.7F7000S0
X-.6F1500S1000
X-7.4F7000S0
X-1.6F1500S1000
X-.625F7000S0
X-1.5Y.1
X.625
X.1F1500S1000
X1.4F7000S0
X1.5F1500S1000
X7.4F7000S0
X.7F1500S1000
X1.7F7000S0
X1F1500S1000
X6.5F7000S0
X1F1500S1000
X12.4F7000S0
X1F1500S1000
X4.5F7000S0
X.6F1500S1000
X1.7F7000S0
X1.1F1500S1000
X8.7F7000S0
X1.8F1500S1000
X18.4F7000S0
X1.6F1500S1000
X7.3F7000S0
X.7F1500S1000
X1.7F7000S0
X1.1F1500S1000
X6.5F7000S0
X1F1500S1000
X12.4F7000S0
X1F1500S1000
X4.4F7000S0
X.7F1500S1000
X1.7F7000S0
X1F1500S1000
X8.7F7000S0
X1.8F1500S1000
X17.1F7000S0
X.1F1500S1000
X1.5F7000S0
X1.4F1500S1000
X7.5F7000S0
X.6F1500S1000
X1.7F7000S0
X1.1F1500S1000
X6.4F7000S0
X.9F1500S1000
X12.5F7000S0
X1F1500S1000
X4.5F7000S0
X.7F1500S1000
X1.7F7000S0
X.9F1500S1000
X8.8F7000S0
X1.8F1500S1000
X18.5F7000S0
X1.4F1500S1000
X7.5F7000S0
X.7F1500S1000
X1.7F7000S0
X1F1500S1000
X6.4F7000S0
X1F1500S1000
X12.4F7000S0
X1F1500S1000
X4.5F7000S0
X.6F1500S1000
X1.7F7000S0
X1F1500S1000
X8.8F7000S0
X1.9F1500S1000
X.625F7000S0
X-.1Y.1
X-.625
X-1.7F1500S1000
X-8.9F7000S0
X-.8F1500S1000
X-1.8F7000S0
X-.7F1500S1000
X-4.3F7000S0
X-1F1500S1000
X-12.7F7000S0
X-1F1500S1000
X-6.4F7000S0
X-.9F1500S1000
X-1.8F7000S0
X-.6F1500S1000
X-7.5F7000S0
X-1.5F1500S1000
X-18.4F7000S0
X-1.8F1500S1000
X-8.8F7000S0
X-.8F1500S1000
X-1.8F7000S0
X-.7F1500S1000
X-4.4F7000S0
X-1F1500S1000
X-12.7F7000S0
X-1F1500S1000
X-6.4F7000S0
X-.8F1500S1000
X-1.8F7000S0
X-.7F1500S1000
X-7.4F7000S0
X-1.5F1500S1000
X-18.6F7000S0
X-1.8F1500S1000
X-8.8F7000S0
X-.9F1500S1000
X-1.7F7000S0
X-.7F1500S1000
X-4.3F7000S0
X-1F1500S1000
X-12.7F7000S0
X-.9F1500S1000
X-6.6F7000S0
X-.8F1500S1000
X-1.7F7000S0
X-.7F1500S1000
X-7.4F7000S0
X-1.6F1500S1000
X-18.4F7000S0
X-1.7F1500S1000
X-9F7000S0
X-.8F1500S1000
X-1.8F7000S0
X-.6F1500S1000
X-4.4F7000S0
X-1F1500S1000
X-12.6F7000S0
X-1F1500S1000
X-6.4F7000S0
X-.9F1500S1000
X-1.7F7000S0
X-.8F1500S1000
X-7.4F7000S0
X-1.5F1500S1000
X-.625F7000S0
X-.1Y.1
X.625
X1.6F1500S1000
X7.4F7000S0
X.7F1500S1000
X2.1F7000S0
X.3F1500S1000
X6.6F7000S0
X.9F1500S1000
X13F7000S0
X1F1500S1000
X4.1F7000S0
X.8F1500S1000
X2F7000S0
X.4F1500S1000
X9.1F7000S0
X1.6F1500S1000
X18.5F7000S0
X1.5F1500S1000
X7.4F7000S0
X.7F1500S1000
X2.1F7000S0
X.3F1500S1000
X6.7F7000S0
X.9F1500S1000
X12.9F7000S0
X1.1F1500S1000
X4.1F7000S0
X.6F1500S1000
X2.1F7000S0
X.4F1500S1000
X9.1F7000S0
X1.6F1500S1000
X18.7F7000S0
X1.5F1500S1000
X7.5F7000S0
X.6F1500S1000
X2.1F7000S0
X.3F1500S1000
X6.5F7000S0
X.9F1500S1000
X13.1F7000S0
X.9F1500S1000
X4.3F7000S0
X.6F1500S1000
X2F7000S0
X.5F1500S1000
X9.1F7000S0
X1.6F1500S1000
X18.5F7000S0
X1.5F1500S1000
X7.5F7000S0
X.6F1500S1000
X2.1F7000S0
X.3F1500S1000
X6.5F7000S0
X1.1F1500S1000
X12.9F7000S0
X1F1500S1000
X4.2F7000S0
X.7F1500S1000
X2F7000S0
X.4F1500S1000
X9.1F7000S0
X1.7F1500S1000
X.625F7000S0
X-.1Y.1
X-.625
X-1.6F1500S1000
X-6.4F7000S0
X-.1F1500S1000
X-.1F7000S0
X-.2F1500S1000
X-2.5F7000S0
X-.1F1500S1000
X-2.2F7000S0
X-.6F1500S1000
X-4F7000S0
X-1F1500S1000
X-13.4F7000S0
X-.9F1500S1000
X-3.6F7000S0
X-.2F1500S1000
X-.1F7000S0
X-.1F1500S1000
X-4.8F7000S0
X-.6F1500S1000
X-7.5F7000S0
X-1.5F1500S1000
X-18.5F7000S0
X-1.6F1500S1000
X-6.5F7000S0
X-.2F1500S1000
X-2.5F7000S0
X-.1F1500S1000
X-2.4F7000S0
X-.5F1500S1000
X-4.1F7000S0
X-1F1500S1000
X-13.3F7000S0
X-1F1500S1000
X-3.5F7000S0
X-.2F1500S1000
X-.1F7000S0
X-.1F1500S1000
X-4.8F7000S0
X-.7F1500S1000
X-7.5F7000S0
X-1.4F1500S1000
X-18.7F7000S0
X-1.5F1500S1000
X-6.6F7000S0
X-.2F1500S1000
X-2.5F7000S0
X-.1F1500S1000
X-2.3F7000S0
X-.6F1500S1000
X-4F7000S0
X-.9F1500S1000
X-13.4F7000S0
X-.9F1500S1000
X-3.7F7000S0
X-.2F1500S1000
X-.1F7000S0
X-.1F1500S1000
X-4.8F7000S0
X-.6F1500S1000
X-7.6F7000S0
X-1.4F1500S1000
X-18.5F7000S0
X-1.6F1500S1000
X-6.4F7000S0
X-.2F1500S1000
X-.1F7000S0
X-.1F1500S1000
X-2.3F7000S0
X-.1F1500S1000
X-2.4F7000S0
X-.6F1500S1000
X-4.1F7000S0
X-.9F1500S1000
X-13.4F7000S0
X-.9F1500S1000
X-3.8F7000S0
X-.2F1500S1000
X-2.5F7000S0
X-.1F1500S1000
X-2.2F7000S0
X-.7F1500S1000
X-7.4F7000S0
X-1.6F1500S1000
X-.625F7000S0
X.1Y.1
X.625
X1.4F1500S1000
X7.6F7000S0
X.5F1500S1000
X4.8F7000S0
X.6F1500S1000
X3.4F7000S0
X.9F1500S1000
X13.7F7000S0
X.9F1500S1000
X3.9F7000S0
X.6F1500S1000
X4.8F7000S0
X.4F1500S1000
X6.4F7000S0
X1.6F1500S1000
X18.4F7000S0
X1.5F1500S1000
X7.6F7000S0
X.5F1500S1000
X4.9F7000S0
X.4F1500S1000
X3.6F7000S0
X.8F1500S1000
X13.7F7000S0
X.9F1500S1000
X3.9F7000S0
X.5F1500S1000
X4.9F7000S0
X.5F1500S1000
X6.4F7000S0
X1.5F1500S1000
X18.7F7000S0
X1.4F1500S1000
X7.6F7000S0
X.5F1500S1000
X4.9F7000S0
X.4F1500S1000
X3.4F7000S0
X.9F1500S1000
X13.7F7000S0
X.9F1500S1000
X4F7000S0
X.5F1500S1000
X4.8F7000S0
X.6F1500S1000
X6.4F7000S0
X1.5F1500S1000
X18.5F7000S0
X1.4F1500S1000
X7.6F7000S0
X.5F1500S1000
X4.9F7000S0
X.4F1500S1000
X3.4F7000S0
X1F1500S1000
X13.7F7000S0
X.8F1500S1000
X4F7000S0
X.5F1500S1000
X4.9F7000S0
X.5F1500S1000
X6.4F7000S0
X1.6F1500S1000
X.625F7000S0
X-.1Y.1
X-.625
X-1.4F1500S1000
X-6.5F7000S0
X-.5F1500S1000
X-4.9F7000S0
X-.4F1500S1000
X-3.9F7000S0
X-.9F1500S1000
X-13.9F7000S0
X-.9F1500S1000
X-3.4F7000S0
X-.4F1500S1000
X-5F7000S0
X-.3F1500S1000
X-7.6F7000S0
X-1.4F1500S1000
X-18.6F7000S0
X-1.4F1500S1000
X-6.6F7000S0
X-.5F1500S1000
X-4.8F7000S0
X-.4F1500S1000
X-4F7000S0
X-.9F1500S1000
X-13.9F7000S0
X-.9F1500S1000
X-3.3F7000S0
X-.4F1500S1000
X-5F7000S0
X-.4F1500S1000
X-7.6F7000S0
X-1.4F1500S1000
X-18.8F7000S0
X-1.3F1500S1000
X-6.6F7000S0
X-.4F1500S1000
X-4.9F7000S0
X-.4F1500S1000
X-3.8F7000S0
X-1F1500S1000
X-13.9F7000S0
X-.9F1500S1000
X-3.4F7000S0
X-.4F1500S1000
X-4.9F7000S0
X-.5F1500S1000
X-7.6F7000S0
X-1.4F1500S1000
X-18.6F7000S0
X-1.4F1500S1000
X-6.5F7000S0
X-.4F1500S1000
X-4.9F7000S0
X-.5F1500S1000
X-3.9F7000S0
X-.8F1500S1000
X-14F7000S0
X-.8F1500S1000
X-3.3F7000S0
X-.6F1500S1000
X-4.9F7000S0
X-.3F1500S1000
X-7.7F7000S0
X-1.4F1500S1000
X-.625F7000S0
X.1Y.1
X.625
X1.4F1500S1000
X7.6F7000S0
X.2F1500S1000
X5.1F7000S0
X.4F1500S1000
X3.3F7000S0
X.8F1500S1000
X14.2F7000S0
X.9F1500S1000
X3.8F7000S0
X.4F1500S1000
X4.9F7000S0
X.5F1500S1000
X6.5F7000S0
X1.3F1500S1000
X18.7F7000S0
X1.3F1500S1000
X7.7F7000S0
X.3F1500S1000
X5F7000S0
X.5F1500S1000
X3.2F7000S0
X.9F1500S1000
X14.2F7000S0
X.8F1500S1000
X3.9F7000S0
X.3F1500S1000
X4.8F7000S0
X.6F1500S1000
X6.5F7000S0
X1.3F1500S1000
X18.8F7000S0
X1.4F1500S1000
X7.7F7000S0
X.3F1500S1000
X4.9F7000S0
X.5F1500S1000
X3.1F7000S0
X1F1500S1000
X14.1F7000S0
X1F1500S1000
X3.8F7000S0
X.4F1500S1000
X4.8F7000S0
X.6F1500S1000
X6.5F7000S0
X1.3F1500S1000
X18.7F7000S0
X1.3F1500S1000
X7.7F7000S0
X.3F1500S1000
X4.9F7000S0
X.5F1500S1000
X3.2F7000S0
X.9F1500S1000
X14.2F7000S0
X.9F1500S1000
X3.8F7000S0
X.4F1500S1000
X4.9F7000S0
X.5F1500S1000
X6.5F7000S0
X1.3F1500S1000
X.625F7000S0
Y.1
X-.625
X-1.2F1500S1000
X-6.5F7000S0
X-.7F1500S1000
X-8.9F7000S0
X-.9F1500S1000
X-14.4F7000S0
X-.8F1500S1000
X-3.1F7000S0
X-.7F1500S1000
X-12.8F7000S0
X-.3F1500S1000
X-.1F7000S0
X-.9F1500S1000
X-18.8F7000S0
X-1.1F1500S1000
X-6.6F7000S0
X-.6F1500S1000
X-8.9F7000S0
X-1F1500S1000
X-14.4F7000S0
X-.9F1500S1000
X-2.9F7000S0
X-.6F1500S1000
X-12.9F7000S0
X-.3F1500S1000
X-.1F7000S0
X-.9F1500S1000
X-19F7000S0
X-1.1F1500S1000
X-6.6F7000S0
X-.6F1500S1000
X-8.8F7000S0
X-.9F1500S1000
X-14.4F7000S0
X-.9F1500S1000
X-3.1F7000S0
X-.6F1500S1000
X-12.9F7000S0
X-.3F1500S1000
X-.1F7000S0
X-1F1500S1000
X-18.7F7000S0
X-1.1F1500S1000
X-6.6F7000S0
X-.6F1500S1000
X-8.9F7000S0
X-.8F1500S1000
X-14.5F7000S0
X-.9F1500S1000
X-3F7000S0
X-.6F1500S1000
X-12.9F7000S0
X-.4F1500S1000
X-.1F7000S0
X-.8F1500S1000
X-.625F7000S0
Y.1
X.625
X.9F1500S1000
X.2F7000S0
X.1F1500S1000
X12.9F7000S0
X.8F1500S1000
X2.8F7000S0
X.8F1500S1000
X14.8F7000S0
X.8F1500S1000
X8.7F7000S0
X.8F1500S1000
X6.5F7000S0
X1F1500S1000
X18.9F7000S0
X.9F1500S1000
X.2F7000S0
X.2F1500S1000
X12.9F7000S0
X.7F1500S1000
X2.8F7000S0
X1F1500S1000
X14.6F7000S0
X.9F1500S1000
X8.6F7000S0
X.7F1500S1000
X6.7F7000S0
X.9F1500S1000
X19F7000S0
X1F1500S1000
X.1F7000S0
X.2F1500S1000
X12.9F7000S0
X.7F1500S1000
X2.8F7000S0
X.9F1500S1000
X14.8F7000S0
X.8F1500S1000
X8.7F7000S0
X.7F1500S1000
X6.6F7000S0
X1F1500S1000
X18.9F7000S0
X.8F1500S1000
X.2F7000S0
X.1F1500S1000
X13F7000S0
X.7F1500S1000
X2.9F7000S0
X.8F1500S1000
X14.8F7000S0
X.9F1500S1000
X8.7F7000S0
X.7F1500S1000
X6.5F7000S0
X1F1500S1000
X.625F7000S0
X-.1Y.1
X-.625
X-.7F1500S1000
X-6.8F7000S0
X-.6F1500S1000
X-8.6F7000S0
X-.8F1500S1000
X-15.1F7000S0
X-.9F1500S1000
X-2.7F7000S0
X-.6F1500S1000
X-13.4F7000S0
X-.8F1500S1000
X-19.1F7000S0
X-.6F1500S1000
X-6.8F7000S0
X-.6F1500S1000
X-8.7F7000S0
X-.9F1500S1000
X-15F7000S0
X-.8F1500S1000
X-2.7F7000S0
X-.6F1500S1000
X-13.4F7000S0
X-.8F1500S1000
X-19.2F7000S0
X-.7F1500S1000
X-6.8F7000S0
X-.6F1500S1000
X-8.5F7000S0
X-.9F1500S1000
X-15F7000S0
X-.9F1500S1000
X-2.8F7000S0
X-.6F1500S1000
X-13.3F7000S0
X-1F1500S1000
X-18.9F7000S0
X-.7F1500S1000
X-6.8F7000S0
X-.6F1500S1000
X-8.6F7000S0
X-.8F1500S1000
X-15.1F7000S0
X-.8F1500S1000
X-2.8F7000S0
X-.6F1500S1000
X-13.4F7000S0
X-.8F1500S1000
X-.625F7000S0
X-.3Y.1
X.625
X1F1500S1000
X13.5F7000S0
X.6F1500S1000
X2.7F7000S0
X.8F1500S1000
X15.2F7000S0
X.9F1500S1000
X8.6F7000S0
X.5F1500S1000
X26.2F7000S0
X1F1500S1000
X13.6F7000S0
X.5F1500S1000
X2.7F7000S0
X.9F1500S1000
X15.2F7000S0
X.8F1500S1000
X8.5F7000S0
X.6F1500S1000
X26.3F7000S0
X1F1500S1000
X13.6F7000S0
X.5F1500S1000
X2.6F7000S0
X.9F1500S1000
X15.3F7000S0
X.8F1500S1000
X8.6F7000S0
X.6F1500S1000
X26.1F7000S0
X1.1F1500S1000
X13.5F7000S0
X.6F1500S1000
X2.7F7000S0
X.8F1500S1000
X15.2F7000S0
X.9F1500S1000
X8.5F7000S0
X.6F1500S1000
X.625F7000S0
X-.1Y.1
X-.625
X-.4F1500S1000
X-8.5F7000S0
X-.8F1500S1000
X-15.6F7000S0
X-.7F1500S1000
X-2.7F7000S0
X-.4F1500S1000
X-13.6F7000S0
X-1F1500S1000
X-26.3F7000S0
X-.4F1500S1000
X-8.5F7000S0
X-.9F1500S1000
X-15.5F7000S0
X-.8F1500S1000
X-2.6F7000S0
X-.4F1500S1000
X-13.7F7000S0
X-1F1500S1000
X-26.4F7000S0
X-.4F1500S1000
X-8.5F7000S0
X-.7F1500S1000
X-15.6F7000S0
X-.8F1500S1000
X-2.7F7000S0
X-.4F1500S1000
X-13.7F7000S0
X-1F1500S1000
X-26.2F7000S0
X-.4F1500S1000
X-8.5F7000S0
X-.8F1500S1000
X-15.5F7000S0
X-.9F1500S1000
X-2.6F7000S0
X-.5F1500S1000
X-13.6F7000S0
X-1F1500S1000
X-.625F7000S0
X-1.1Y.1
X.625
X2.1F1500S1000
X16.6F7000S0
X.9F1500S1000
X15.6F7000S0
X.9F1500S1000
X33.9F7000S0
X2F1500S1000
X16.8F7000S0
X.8F1500S1000
X15.8F7000S0
X.8F1500S1000
X33.9F7000S0
X2.2F1500S1000
X16.5F7000S0
X.9F1500S1000
X15.7F7000S0
X.8F1500S1000
X33.9F7000S0
X2.2F1500S1000
X16.7F7000S0
X.7F1500S1000
X15.8F7000S0
X.8F1500S1000
X.625F7000S0
X.2Y.1
X-.625
X-.9F1500S1000
X-15.9F7000S0
X-.9F1500S1000
X-16.6F7000S0
X-2.1F1500S1000
X-33.7F7000S0
X-.9F1500S1000
X-16F7000S0
X-.7F1500S1000
X-16.6F7000S0
X-2.2F1500S1000
X-33.8F7000S0
X-.7F1500S1000
X-16F7000S0
X-.8F1500S1000
X-16.6F7000S0
X-2.1F1500S1000
X-33.8F7000S0
X-.8F1500S1000
X-15.9F7000S0
X-.9F1500S1000
X-16.6F7000S0
X-2.1F1500S1000
X-.625F7000S0
Y.1
X.625
X2.1F1500S1000
X2.5F7000S0
X.5F1500S1000
X13.5F7000S0
X.9F1500S1000
X16.2F7000S0
X.7F1500S1000
X33.7F7000S0
X2F1500S1000
X2.5F7000S0
X.4F1500S1000
X13.6F7000S0
X.9F1500S1000
X16.2F7000S0
X.8F1500S1000
X33.6F7000S0
X2.3F1500S1000
X2.4F7000S0
X.4F1500S1000
X13.5F7000S0
X.8F1500S1000
X16.3F7000S0
X.7F1500S1000
X33.7F7000S0
X2.1F1500S1000
X2.6F7000S0
X.3F1500S1000
X13.6F7000S0
X.8F1500S1000
X16.2F7000S0
X.9F1500S1000
X.625F7000S0
X.1Y.1
X-.625
X-.9F1500S1000
X-16.4F7000S0
X-.8F1500S1000
X-13.4F7000S0
X-.6F1500S1000
X-2.3F7000S0
X-2.2F1500S1000
X-33.5F7000S0
X-.8F1500S1000
X-16.5F7000S0
X-.8F1500S1000
X-13.4F7000S0
X-.5F1500S1000
X-2.4F7000S0
X-2.1F1500S1000
X-33.5F7000S0
X-.9F1500S1000
X-16.4F7000S0
X-.9F1500S1000
X-13.5F7000S0
X-.5F1500S1000
X-2.3F7000S0
X-2.1F1500S1000
X-33.6F7000S0
X-.8F1500S1000
X-16.4F7000S0
X-.8F1500S1000
X-13.4F7000S0
X-.7F1500S1000
X-2.2F7000S0
X-2.2F1500S1000
X-.625F7000S0
Y.1
X.625
X2.2F1500S1000
X2.2F7000S0
X.7F1500S1000
X13.3F7000S0
X.8F1500S1000
X16.7F7000S0
X.7F1500S1000
X33.5F7000S0
X1.1F1500S1000
X.2F7000S0
X.8F1500S1000
X2.1F7000S0
X.7F1500S1000
X13.4F7000S0
X.8F1500S1000
X16.8F7000S0
X.7F1500S1000
X33.4F7000S0
X1.3F1500S1000
X.1F7000S0
X.9F1500S1000
X2.2F7000S0
X.7F1500S1000
X13.2F7000S0
X.8F1500S1000
X16.7F7000S0
X.8F1500S1000
X33.4F7000S0
X2.3F1500S1000
X2.1F7000S0
X.7F1500S1000
X13.3F7000S0
X.8F1500S1000
X16.7F7000S0
X.8F1500S1000
X.625F7000S0
X.1Y.1
X-.625
X-.8F1500S1000
X-16.9F7000S0
X-.8F1500S1000
X-13.2F7000S0
X-.8F1500S1000
X-2F7000S0
X-2.3F1500S1000
X-33.4F7000S0
X-.7F1500S1000
X-16.9F7000S0
X-.8F1500S1000
X-13.2F7000S0
X-.7F1500S1000
X-2F7000S0
X-2.4F1500S1000
X-33.3F7000S0
X-.8F1500S1000
X-16.9F7000S0
X-.8F1500S1000
X-13.3F7000S0
X-.6F1500S1000
X-2.1F7000S0
X-2.2F1500S1000
X-33.3F7000S0
X-.9F1500S1000
X-16.8F7000S0
X-.8F1500S1000
X-13.2F7000S0
X-.8F1500S1000
X-2F7000S0
X-2.3F1500S1000
X-.625F7000S0
Y.1
X.625
X.3F1500S1000
X.1F7000S0
X2F1500S1000
X1.8F7000S0
X.9F1500S1000
X13.1F7000S0
X.8F1500S1000
X17F7000S0
X.9F1500S1000
X12.2F7000S0
X.2F1500S1000
X20.8F7000S0
X2.2F1500S1000
X2F7000S0
X.8F1500S1000
X13.1F7000S0
X.8F1500S1000
X17.1F7000S0
X.8F1500S1000
X12.2F7000S0
X.2F1500S1000
X20.9F7000S0
X.3F1500S1000
X.1F7000S0
X1.9F1500S1000
X2F7000S0
X.7F1500S1000
X13.1F7000S0
X.8F1500S1000
X17.1F7000S0
X.8F1500S1000
X12.3F7000S0
X.2F1500S1000
X20.7F7000S0
X.3F1500S1000
X.1F7000S0
X1.9F1500S1000
X2F7000S0
X.8F1500S1000
X13.1F7000S0
X.8F1500S1000
X17.1F7000S0
X.8F1500S1000
X12.2F7000S0
X.2F1500S1000
X.625F7000S0
X.1Y.1
X-.625
X-.4F1500S1000
X-12F7000S0
X-.8F1500S1000
X-17.3F7000S0
X-.8F1500S1000
X-13F7000S0
X-.8F1500S1000
X-1.9F7000S0
X-2.4F1500S1000
X-20.6F7000S0
X-.4F1500S1000
X-12.2F7000S0
X-.6F1500S1000
X-17.5F7000S0
X-.7F1500S1000
X-13F7000S0
X-.7F1500S1000
X-2F7000S0
X-2.4F1500S1000
X-20.7F7000S0
X-.4F1500S1000
X-12F7000S0
X-.7F1500S1000
X-17.4F7000S0
X-.8F1500S1000
X-13.1F7000S0
X-.7F1500S1000
X-1.9F7000S0
X-2.3F1500S1000
X-20.7F7000S0
X-.4F1500S1000
X-12F7000S0
X-.8F1500S1000
X-17.3F7000S0
X-.8F1500S1000
X-13F7000S0
X-.9F1500S1000
X-1.8F7000S0
X-2.4F1500S1000
X-.625F7000S0
Y.1
X.625
X.8F1500S1000
X.1F7000S0
X1.4F1500S1000
X1.9F7000S0
X.9F1500S1000
X12.9F7000S0
X.8F1500S1000
X17.5F7000S0
X.8F1500S1000
X11.8F7000S0
X.5F1500S1000
X20.7F7000S0
X.7F1500S1000
X.1F7000S0
X1.5F1500S1000
X1.8F7000S0
X.9F1500S1000
X12.9F7000S0
X.8F1500S1000
X17.6F7000S0
X.8F1500S1000
X11.8F7000S0
X.5F1500S1000
X20.6F7000S0
X.9F1500S1000
X.1F7000S0
X1.5F1500S1000
X1.8F7000S0
X.9F1500S1000
X12.7F7000S0
X.8F1500S1000
X17.7F7000S0
X.8F1500S1000
X11.8F7000S0
X.5F1500S1000
X20.5F7000S0
X.9F1500S1000
X.2F7000S0
X1.4F1500S1000
X1.9F7000S0
X.7F1500S1000
X13F7000S0
X.8F1500S1000
X17.5F7000S0
X.8F1500S1000
X11.9F7000S0
X.4F1500S1000
X.625F7000S0
Y.1
X-.625
X-.5F1500S1000
X-11.7F7000S0
X-.8F1500S1000
X-17.8F7000S0
X-.7F1500S1000
X-11.5F7000S0
X-.1F1500S1000
X-1.2F7000S0
X-.8F1500S1000
X-1.9F7000S0
X-.3F1500S1000
X-.2F7000S0
X-.9F1500S1000
X-.3F7000S0
X-.7F1500S1000
X-20.5F7000S0
X-.6F1500S1000
X-11.7F7000S0
X-.8F1500S1000
X-17.9F7000S0
X-.7F1500S1000
X-11.4F7000S0
X-.2F1500S1000
X-1.1F7000S0
X-.8F1500S1000
X-1.9F7000S0
X-.4F1500S1000
X-.1F7000S0
X-.9F1500S1000
X-.2F7000S0
X-.8F1500S1000
X-20.7F7000S0
X-.6F1500S1000
X-11.7F7000S0
X-.8F1500S1000
X-17.7F7000S0
X-.8F1500S1000
X-11.5F7000S0
X-.2F1500S1000
X-1F7000S0
X-.9F1500S1000
X-1.8F7000S0
X-.4F1500S1000
X-.2F7000S0
X-.9F1500S1000
X-.2F7000S0
X-.7F1500S1000
X-20.7F7000S0
X-.6F1500S1000
X-11.6F7000S0
X-.8F1500S1000
X-17.7F7000S0
X-.8F1500S1000
X-11.6F7000S0
X-.1F1500S1000
X-1.1F7000S0
X-.9F1500S1000
X-1.8F7000S0
X-.3F1500S1000
X-.1F7000S0
X-1F1500S1000
X-.3F7000S0
X-.7F1500S1000
X-.625F7000S0
Y.1
X.625
X.8F1500S1000
X.2F7000S0
X.9F1500S1000
X.2F7000S0
X.4F1500S1000
X1.7F7000S0
X1F1500S1000
X1F7000S0
X.2F1500S1000
X11.4F7000S0
X.8F1500S1000
X17.9F7000S0
X.8F1500S1000
X11.5F7000S0
X.6F1500S1000
X20.7F7000S0
X.7F1500S1000
X.2F7000S0
X.9F1500S1000
X.2F7000S0
X.4F1500S1000
X1.8F7000S0
X.9F1500S1000
X.9F7000S0
X.4F1500S1000
X11.3F7000S0
X.8F1500S1000
X18F7000S0
X.7F1500S1000
X11.5F7000S0
X.6F1500S1000
X20.7F7000S0
X.9F1500S1000
X.2F7000S0
X.9F1500S1000
X.2F7000S0
X.4F1500S1000
X1.8F7000S0
X.9F1500S1000
X.9F7000S0
X.4F1500S1000
X11.2F7000S0
X.7F1500S1000
X18.1F7000S0
X.7F1500S1000
X11.7F7000S0
X.6F1500S1000
X20.5F7000S0
X.8F1500S1000
X.2F7000S0
X.9F1500S1000
X.2F7000S0
X.3F1500S1000
X1.9F7000S0
X.9F1500S1000
X1F7000S0
X.2F1500S1000
X11.4F7000S0
X.8F1500S1000
X17.9F7000S0
X.8F1500S1000
X11.6F7000S0
X.5F1500S1000
X.625F7000S0
Y.1
X-.625
X-.5F1500S1000
X-11.5F7000S0
X-.8F1500S1000
X-18.1F7000S0
X-.8F1500S1000
X-11.2F7000S0
X-.4F1500S1000
X-1F7000S0
X-.8F1500S1000
X-.2F7000S0
X-.5F1500S1000
X-1.1F7000S0
X-2.5F1500S1000
X-20.6F7000S0
X-.6F1500S1000
X-11.5F7000S0
X-.7F1500S1000
X-18.3F7000S0
X-.7F1500S1000
X-11.1F7000S0
X-.5F1500S1000
X-.8F7000S0
X-.9F1500S1000
X-.2F7000S0
X-.5F1500S1000
X-1.1F7000S0
X-2.6F1500S1000
X-20.6F7000S0
X-.6F1500S1000
X-11.5F7000S0
X-.8F1500S1000
X-18.1F7000S0
X-.8F1500S1000
X-11.2F7000S0
X-.4F1500S1000
X-.9F7000S0
X-1F1500S1000
X-.1F7000S0
X-.5F1500S1000
X-1.1F7000S0
X-2.4F1500S1000
X-20.7F7000S0
X-.6F1500S1000
X-11.4F7000S0
X-.8F1500S1000
X-18.1F7000S0
X-.8F1500S1000
X-11.2F7000S0
X-.4F1500S1000
X-.9F7000S0
X-1F1500S1000
X-.1F7000S0
X-.5F1500S1000
X-1.2F7000S0
X-2.4F1500S1000
X-.625F7000S0
Y.1
X.625
X2.5F1500S1000
X1F7000S0
X.6F1500S1000
X.2F7000S0
X.8F1500S1000
X1F7000S0
X.4F1500S1000
X11.1F7000S0
X.8F1500S1000
X18.3F7000S0
X.8F1500S1000
X11.3F7000S0
X.6F1500S1000
X20.7F7000S0
X2.4F1500S1000
X1.1F7000S0
X.6F1500S1000
X.1F7000S0
X.9F1500S1000
X.8F7000S0
X.5F1500S1000
X11.1F7000S0
X.8F1500S1000
X18.4F7000S0
X.7F1500S1000
X11.3F7000S0
X.7F1500S1000
X20.7F7000S0
X2.5F1500S1000
X1.1F7000S0
X.5F1500S1000
X.2F7000S0
X.8F1500S1000
X1F7000S0
X.4F1500S1000
X11F7000S0
X.8F1500S1000
X18.4F7000S0
X.8F1500S1000
X11.3F7000S0
X.7F1500S1000
X20.5F7000S0
X2.5F1500S1000
X1F7000S0
X.6F1500S1000
X.2F7000S0
X.8F1500S1000
X1F7000S0
X.4F1500S1000
X11.1F7000S0
X.8F1500S1000
X18.3F7000S0
X.7F1500S1000
X11.5F7000S0
X.5F1500S1000
X.625F7000S0
Y.1
X-.625
X-.6F1500S1000
X-11.2F7000S0
X-.8F1500S1000
X-18.5F7000S0
X-.8F1500S1000
X-9F7000S0
X-.4F1500S1000
X-1.5F7000S0
X-.5F1500S1000
X-1F7000S0
X-.7F1500S1000
X-.3F7000S0
X-.6F1500S1000
X-.9F7000S0
X-2.6F1500S1000
X-20.6F7000S0
X-.6F1500S1000
X-11.3F7000S0
X-.7F1500S1000
X-18.6F7000S0
X-.8F1500S1000
X-9F7000S0
X-.3F1500S1000
X-1.6F7000S0
X-.5F1500S1000
X-.9F7000S0
X-.8F1500S1000
X-.1F7000S0
X-.7F1500S1000
X-.9F7000S0
X-2.7F1500S1000
X-20.7F7000S0
X-.6F1500S1000
X-11.1F7000S0
X-.9F1500S1000
X-18.5F7000S0
X-.8F1500S1000
X-9.1F7000S0
X-.3F1500S1000
X-1.5F7000S0
X-.6F1500S1000
X-.9F7000S0
X-.8F1500S1000
X-.1F7000S0
X-.7F1500S1000
X-.9F7000S0
X-2.5F1500S1000
X-20.7F7000S0
X-.7F1500S1000
X-11.1F7000S0
X-.7F1500S1000
X-18.6F7000S0
X-.8F1500S1000
X-9F7000S0
X-.4F1500S1000
X-1.6F7000S0
X-.4F1500S1000
X-1.1F7000S0
X-.6F1500S1000
X-.2F7000S0
X-.7F1500S1000
X-.9F7000S0
X-2.6F1500S1000
X-.625F7000S0
Y.1
X.625
X2.6F1500S1000
X.9F7000S0
X.6F1500S1000
X.3F7000S0
X.4F1500S1000
X.7F7000S0
X.1F1500S1000
X.4F7000S0
X.9F1500S1000
X1.1F7000S0
X.5F1500S1000
X8.9F7000S0
X.8F1500S1000
X18.7F7000S0
X.8F1500S1000
X11.1F7000S0
X.6F1500S1000
X20.7F7000S0
X2.5F1500S1000
X.9F7000S0
X.7F1500S1000
X.2F7000S0
X.5F1500S1000
X.7F7000S0
X.1F1500S1000
X.3F7000S0
X.9F1500S1000
X1.1F7000S0
X.5F1500S1000
X8.9F7000S0
X.8F1500S1000
X18.8F7000S0
X.7F1500S1000
X11.1F7000S0
X.6F1500S1000
X20.7F7000S0
X2.7F1500S1000
X.9F7000S0
X.7F1500S1000
X.1F7000S0
X.6F1500S1000
X.6F7000S0
X.2F1500S1000
X.3F7000S0
X.9F1500S1000
X1.1F7000S0
X.5F1500S1000
X8.8F7000S0
X.8F1500S1000
X18.8F7000S0
X.8F1500S1000
X11.1F7000S0
X.6F1500S1000
X20.5F7000S0
X2.8F1500S1000
X.8F7000S0
X.7F1500S1000
X.2F7000S0
X.5F1500S1000
X.7F7000S0
X.1F1500S1000
X.3F7000S0
X.9F1500S1000
X1.1F7000S0
X.5F1500S1000
X8.9F7000S0
X.8F1500S1000
X18.7F7000S0
X.8F1500S1000
X11F7000S0
X.6F1500S1000
X.625F7000S0
Y.1
X-.625
X-.6F1500S1000
X-10.9F7000S0
X-.8F1500S1000
X-19F7000S0
X-.7F1500S1000
X-8.8F7000S0
X-.5F1500S1000
X-1F7000S0
X-1.1F1500S1000
X-.2F7000S0
X-.2F1500S1000
X-.7F7000S0
X-.4F1500S1000
X-.2F7000S0
X-.6F1500S1000
X-.9F7000S0
X-2.7F1500S1000
X-20.7F7000S0
X-.6F1500S1000
X-11F7000S0
X-.7F1500S1000
X-19F7000S0
X-.8F1500S1000
X-8.7F7000S0
X-.5F1500S1000
X-1F7000S0
X-1F1500S1000
X-.3F7000S0
X-.2F1500S1000
X-.7F7000S0
X-.4F1500S1000
X-.2F7000S0
X-.6F1500S1000
X-.9F7000S0
X-2.7F1500S1000
X-20.9F7000S0
X-.5F1500S1000
X-11F7000S0
X-.7F1500S1000
X-19F7000S0
X-.8F1500S1000
X-8.7F7000S0
X-.6F1500S1000
X-1F7000S0
X-1F1500S1000
X-.2F7000S0
X-.3F1500S1000
X-.6F7000S0
X-.5F1500S1000
X-.2F7000S0
X-.6F1500S1000
X-.9F7000S0
X-2.6F1500S1000
X-20.8F7000S0
X-.6F1500S1000
X-10.9F7000S0
X-.8F1500S1000
X-18.9F7000S0
X-.8F1500S1000
X-8.7F7000S0
X-.6F1500S1000
X-1.1F7000S0
X-1F1500S1000
X-.1F7000S0
X-.3F1500S1000
X-.7F7000S0
X-.4F1500S1000
X-.3F7000S0
X-.5F1500S1000
X-.9F7000S0
X-2.7F1500S1000
X-.625F7000S0
Y.1
X.625
X2F1500S1000
X.2F7000S0
X.5F1500S1000
X.8F7000S0
X1.2F1500S1000
X.2F7000S0
X2.1F1500S1000
X.9F7000S0
X.7F1500S1000
X4.3F7000S0
X.2F1500S1000
X4.1F7000S0
X.8F1500S1000
X19.1F7000S0
X.8F1500S1000
X3.6F7000S0
X.4F1500S1000
X6.8F7000S0
X.6F1500S1000
X20.8F7000S0
X2F1500S1000
X.1F7000S0
X.5F1500S1000
X.8F7000S0
X1.3F1500S1000
X.1F7000S0
X2.2F1500S1000
X.9F7000S0
X.6F1500S1000
X4.3F7000S0
X.3F1500S1000
X4F7000S0
X.8F1500S1000
X19.1F7000S0
X.8F1500S1000
X3.7F7000S0
X.2F1500S1000
X6.9F7000S0
X.6F1500S1000
X20.8F7000S0
X2.2F1500S1000
X.1F7000S0
X.5F1500S1000
X.8F7000S0
X1.2F1500S1000
X.2F7000S0
X2.1F1500S1000
X1F7000S0
X.5F1500S1000
X4.3F7000S0
X.3F1500S1000
X4.1F7000S0
X.7F1500S1000
X19.2F7000S0
X.7F1500S1000
X3.8F7000S0
X.2F1500S1000
X6.9F7000S0
X.6F1500S1000
X20.7F7000S0
X2.1F1500S1000
X.1F7000S0
X.5F1500S1000
X.8F7000S0
X1.2F1500S1000
X.2F7000S0
X2.2F1500S1000
X.9F7000S0
X.6F1500S1000
X4.3F7000S0
X.2F1500S1000
X4.1F7000S0
X.8F1500S1000
X19.1F7000S0
X.8F1500S1000
X3.7F7000S0
X.3F1500S1000
X6.8F7000S0
X.6F1500S1000
X.625F7000S0
Y.1
X-.625
X-.7F1500S1000
X-6.7F7000S0
X-.4F1500S1000
X-3.5F7000S0
X-.8F1500S1000
X-19.3F7000S0
X-.8F1500S1000
X-3.9F7000S0
X-.4F1500S1000
X-4.3F7000S0
X-.5F1500S1000
X-.9F7000S0
X-3.7F1500S1000
X-.7F7000S0
X-.5F1500S1000
X-.2F7000S0
X-2F1500S1000
X-20.7F7000S0
X-.7F1500S1000
X-6.7F7000S0
X-.4F1500S1000
X-3.6F7000S0
X-.8F1500S1000
X-19.3F7000S0
X-.8F1500S1000
X-3.8F7000S0
X-.4F1500S1000
X-4.3F7000S0
X-.5F1500S1000
X-.9F7000S0
X-2.3F1500S1000
X-.1F7000S0
X-1.3F1500S1000
X-.8F7000S0
X-.4F1500S1000
X-.2F7000S0
X-2.1F1500S1000
X-20.8F7000S0
X-.7F1500S1000
X-6.7F7000S0
X-.3F1500S1000
X-3.6F7000S0
X-.8F1500S1000
X-19.3F7000S0
X-.7F1500S1000
X-4F7000S0
X-.4F1500S1000
X-4.2F7000S0
X-.6F1500S1000
X-1F7000S0
X-2.2F1500S1000
X-.1F7000S0
X-1.2F1500S1000
X-.7F7000S0
X-.6F1500S1000
X-.2F7000S0
X-1.9F1500S1000
X-20.8F7000S0
X-.6F1500S1000
X-6.8F7000S0
X-.4F1500S1000
X-3.6F7000S0
X-.7F1500S1000
X-19.3F7000S0
X-.8F1500S1000
X-3.9F7000S0
X-.4F1500S1000
X-4.3F7000S0
X-.5F1500S1000
X-.9F7000S0
X-3.6F1500S1000
X-.8F7000S0
X-.5F1500S1000
X-.2F7000S0
X-2F1500S1000
X-.625F7000S0
Y.1
X.625
X1.9F1500S1000
X.3F7000S0
X.7F1500S1000
X.4F7000S0
X3.8F1500S1000
X.9F7000S0
X.6F1500S1000
X4.2F7000S0
X.5F1500S1000
X3.7F7000S0
X.8F1500S1000
X19.5F7000S0
X.7F1500S1000
X3.5F7000S0
X.5F1500S1000
X6.6F7000S0
X.7F1500S1000
X20.8F7000S0
X1.8F1500S1000
X.3F7000S0
X.7F1500S1000
X.4F7000S0
X3.8F1500S1000
X.9F7000S0
X.6F1500S1000
X4.2F7000S0
X.4F1500S1000
X3.9F7000S0
X.7F1500S1000
X19.6F7000S0
X.8F1500S1000
X3.4F7000S0
X.4F1500S1000
X6.6F7000S0
X.7F1500S1000
X20.9F7000S0
X1.9F1500S1000
X.3F7000S0
X.7F1500S1000
X.4F7000S0
X3.8F1500S1000
X.9F7000S0
X.5F1500S1000
X4.3F7000S0
X.5F1500S1000
X3.7F7000S0
X.7F1500S1000
X19.5F7000S0
X.8F1500S1000
X3.5F7000S0
X.4F1500S1000
X6.7F7000S0
X.7F1500S1000
X20.7F7000S0
X1.9F1500S1000
X.3F7000S0
X.7F1500S1000
X.4F7000S0
X3.8F1500S1000
X.9F7000S0
X.5F1500S1000
X4.4F7000S0
X.3F1500S1000
X3.8F7000S0
X.8F1500S1000
X19.5F7000S0
X.7F1500S1000
X3.5F7000S0
X.5F1500S1000
X6.6F7000S0
X.7F1500S1000
X.625F7000S0
Y.1
X-.625
X-.7F1500S1000
X-6.6F7000S0
X-.5F1500S1000
X-3.3F7000S0
X-.8F1500S1000
X-19.7F7000S0
X-.7F1500S1000
X-3.6F7000S0
X-.5F1500S1000
X-4.4F7000S0
X-.5F1500S1000
X-.9F7000S0
X-3.9F1500S1000
X-.3F7000S0
X-.8F1500S1000
X-.1F7000S0
X-2F1500S1000
X-20.7F7000S0
X-.7F1500S1000
X-6.5F7000S0
X-.5F1500S1000
X-3.5F7000S0
X-.8F1500S1000
X-19.7F7000S0
X-.8F1500S1000
X-3.5F7000S0
X-.5F1500S1000
X-4.3F7000S0
X-.5F1500S1000
X-1F7000S0
X-3.8F1500S1000
X-.3F7000S0
X-.8F1500S1000
X-.2F7000S0
X-2F1500S1000
X-20.8F7000S0
X-.7F1500S1000
X-6.5F7000S0
X-.6F1500S1000
X-3.3F7000S0
X-.7F1500S1000
X-19.8F7000S0
X-.7F1500S1000
X-3.7F7000S0
X-.5F1500S1000
X-4.3F7000S0
X-.5F1500S1000
X-.9F7000S0
X-3.9F1500S1000
X-.3F7000S0
X-.8F1500S1000
X-.1F7000S0
X-1.9F1500S1000
X-20.8F7000S0
X-.7F1500S1000
X-6.6F7000S0
X-.4F1500S1000
X-3.5F7000S0
X-.7F1500S1000
X-19.7F7000S0
X-.8F1500S1000
X-3.6F7000S0
X-.5F1500S1000
X-4.3F7000S0
X-.5F1500S1000
X-.9F7000S0
X-3.9F1500S1000
X-.3F7000S0
X-.8F1500S1000
X-.1F7000S0
X-2F1500S1000
X-.625F7000S0
Y.1
X.625
X2.9F1500S1000
X.2F7000S0
X4F1500S1000
X1F7000S0
X.4F1500S1000
X4.3F7000S0
X.6F1500S1000
X3.5F7000S0
X.7F1500S1000
X19.9F7000S0
X.7F1500S1000
X3.3F7000S0
X.6F1500S1000
X6.4F7000S0
X.7F1500S1000
X20.9F7000S0
X2.4F1500S1000
X.1F7000S0
X.3F1500S1000
X.2F7000S0
X3.9F1500S1000
X1.1F7000S0
X.3F1500S1000
X4.4F7000S0
X.6F1500S1000
X3.5F7000S0
X.7F1500S1000
X19.9F7000S0
X.8F1500S1000
X3.3F7000S0
X.5F1500S1000
X6.4F7000S0
X.7F1500S1000
X20.9F7000S0
X2.6F1500S1000
X.1F7000S0
X.3F1500S1000
X.3F7000S0
X3.9F1500S1000
X.9F7000S0
X.5F1500S1000
X4.3F7000S0
X.5F1500S1000
X3.4F7000S0
X.8F1500S1000
X19.9F7000S0
X.8F1500S1000
X3.4F7000S0
X.5F1500S1000
X6.4F7000S0
X.7F1500S1000
X20.7F7000S0
X2.6F1500S1000
X.1F7000S0
X.4F1500S1000
X.2F7000S0
X3.9F1500S1000
X1F7000S0
X.4F1500S1000
X4.3F7000S0
X.6F1500S1000
X3.4F7000S0
X.8F1500S1000
X19.9F7000S0
X.7F1500S1000
X3.3F7000S0
X.6F1500S1000
X6.5F7000S0
X.6F1500S1000
X.625F7000S0
Y.1
X-.625
X-.7F1500S1000
X-6.3F7000S0
X-.7F1500S1000
X-3.2F7000S0
X-.7F1500S1000
X-20.1F7000S0
X-.7F1500S1000
X-3.4F7000S0
X-.5F1500S1000
X-4.5F7000S0
X-.2F1500S1000
X-1.2F7000S0
X-3.9F1500S1000
X-.1F7000S0
X-3F1500S1000
X-20.9F7000S0
X-.7F1500S1000
X-6.2F7000S0
X-.7F1500S1000
X-3.2F7000S0
X-.8F1500S1000
X-20.1F7000S0
X-.8F1500S1000
X-3.2F7000S0
X-.6F1500S1000
X-4.5F7000S0
X-.1F1500S1000
X-1.2F7000S0
X-3.9F1500S1000
X-.1F7000S0
X-3F1500S1000
X-21.1F7000S0
X-.7F1500S1000
X-6.2F7000S0
X-.6F1500S1000
X-3.2F7000S0
X-.7F1500S1000
X-20.1F7000S0
X-.8F1500S1000
X-3.4F7000S0
X-.6F1500S1000
X-4.4F7000S0
X-.2F1500S1000
X-1.1F7000S0
X-4F1500S1000
X-.1F7000S0
X-.4F1500S1000
X-.1F7000S0
X-2.4F1500S1000
X-20.9F7000S0
X-.7F1500S1000
X-6.4F7000S0
X-.6F1500S1000
X-3.2F7000S0
X-.8F1500S1000
X-20F7000S0
X-.7F1500S1000
X-3.3F7000S0
X-.7F1500S1000
X-4.4F7000S0
X-.3F1500S1000
X-1.1F7000S0
X-3.9F1500S1000
X-.1F7000S0
X-3F1500S1000
X-.625F7000S0
Y.1
X.625
X6.9F1500S1000
X5.9F7000S0
X.7F1500S1000
X3.2F7000S0
X.7F1500S1000
X20.2F7000S0
X.8F1500S1000
X3.1F7000S0
X.7F1500S1000
X6.2F7000S0
X.7F1500S1000
X21F7000S0
X6.8F1500S1000
X5.9F7000S0
X.7F1500S1000
X3.2F7000S0
X.8F1500S1000
X20.2F7000S0
X.7F1500S1000
X3.2F7000S0
X.6F1500S1000
X6.2F7000S0
X.7F1500S1000
X21F7000S0
X7F1500S1000
X5.9F7000S0
X.7F1500S1000
X3.2F7000S0
X.6F1500S1000
X20.3F7000S0
X.7F1500S1000
X3.3F7000S0
X.6F1500S1000
X6.2F7000S0
X.7F1500S1000
X20.9F7000S0
X6.8F1500S1000
X6.1F7000S0
X.6F1500S1000
X3.2F7000S0
X.8F1500S1000
X20.1F7000S0
X.8F1500S1000
X3.1F7000S0
X.7F1500S1000
X6.3F7000S0
X.6F1500S1000
X.625F7000S0
Y.1
X-.625
X-.7F1500S1000
X-6.1F7000S0
X-.7F1500S1000
X-3.1F7000S0
X-.7F1500S1000
X-20.5F7000S0
X-.7F1500S1000
X-3F7000S0
X-.7F1500S1000
X-6.1F7000S0
X-6.8F1500S1000
X-20.9F7000S0
X-.7F1500S1000
X-6.1F7000S0
X-.7F1500S1000
X-3.1F7000S0
X-.8F1500S1000
X-20.5F7000S0
X-.7F1500S1000
X-3F7000S0
X-.6F1500S1000
X-6.1F7000S0
X-6.9F1500S1000
X-21F7000S0
X-.7F1500S1000
X-6.1F7000S0
X-.7F1500S1000
X-3.1F7000S0
X-.8F1500S1000
X-20.3F7000S0
X-.8F1500S1000
X-3F7000S0
X-.7F1500S1000
X-6.1F7000S0
X-6.7F1500S1000
X-21F7000S0
X-.7F1500S1000
X-6.2F7000S0
X-.6F1500S1000
X-3.1F7000S0
X-.8F1500S1000
X-20.4F7000S0
X-.7F1500S1000
X-3F7000S0
X-.7F1500S1000
X-6.1F7000S0
X-6.8F1500S1000
X-.625F7000S0
Y.1
X.625
X6.6F1500S1000
X6.4F7000S0
X.6F1500S1000
X2.9F7000S0
X.8F1500S1000
X20.6F7000S0
X.6F1500S1000
X3.1F7000S0
X.7F1500S1000
X6.1F7000S0
X.7F1500S1000
X1.8F7000S0
X.4F1500S1000
X18.8F7000S0
X6.5F1500S1000
X6.3F7000S0
X.7F1500S1000
X3F7000S0
X.7F1500S1000
X20.6F7000S0
X.8F1500S1000
X2.9F7000S0
X.7F1500S1000
X6.1F7000S0
X.7F1500S1000
X1.8F7000S0
X.4F1500S1000
X18.9F7000S0
X6.6F1500S1000
X6.3F7000S0
X.7F1500S1000
X2.8F7000S0
X.8F1500S1000
X20.6F7000S0
X.7F1500S1000
X3.1F7000S0
X.7F1500S1000
X6.1F7000S0
X.7F1500S1000
X1.7F7000S0
X.5F1500S1000
X18.7F7000S0
X6.7F1500S1000
X6.2F7000S0
X.7F1500S1000
X2.9F7000S0
X.8F1500S1000
X20.5F7000S0
X.8F1500S1000
X3.1F7000S0
X.7F1500S1000
X6F7000S0
X.7F1500S1000
X1.8F7000S0
X.4F1500S1000
X.625F7000S0
Y.1
X-.625
X-.5F1500S1000
X-1.7F7000S0
X-.8F1500S1000
X-2.1F7000S0
X-.1F1500S1000
X-3.7F7000S0
X-.7F1500S1000
X-3F7000S0
X-.8F1500S1000
X-20.7F7000S0
X-.8F1500S1000
X-2.8F7000S0
X-.7F1500S1000
X-6.2F7000S0
X-.7F1500S1000
X-.1F7000S0
X-5.9F1500S1000
X-18.7F7000S0
X-.5F1500S1000
X-1.7F7000S0
X-.8F1500S1000
X-6F7000S0
X-.6F1500S1000
X-3F7000S0
X-.9F1500S1000
X-20.7F7000S0
X-.8F1500S1000
X-2.7F7000S0
X-.7F1500S1000
X-6.3F7000S0
X-.5F1500S1000
X-.2F7000S0
X-6F1500S1000
X-18.8F7000S0
X-.5F1500S1000
X-1.7F7000S0
X-.7F1500S1000
X-6.1F7000S0
X-.7F1500S1000
X-2.8F7000S0
X-.8F1500S1000
X-20.8F7000S0
X-.7F1500S1000
X-2.9F7000S0
X-.7F1500S1000
X-6.3F7000S0
X-.4F1500S1000
X-.3F7000S0
X-.4F1500S1000
X-.1F7000S0
X-5.3F1500S1000
X-18.8F7000S0
X-.5F1500S1000
X-1.7F7000S0
X-.8F1500S1000
X-2.2F7000S0
X-.1F1500S1000
X-3.7F7000S0
X-.7F1500S1000
X-3F7000S0
X-.6F1500S1000
X-20.8F7000S0
