; LightBurn Pro 2.0.05
; GRBL-LPC device profile, absolute coords
; Bounds: X18.23 Y12.2 to X283.78 Y197.6
G00 G17 G40 G21 G54
G90
M4
; Image @ 1500 мм/мин, 100% power
M8
G0 X27.827Y62.299
; Layer C00
G91
G1 X.625F7000S0
X.1F1500S1000
X.1F7000S0
X.1F1500S1000
X6.499F7000S0
X.101F1500S1000
X.1F7000S0
X.2F1500S1000
X.099F7000S0
X.101F1500S1000
X.1F7000S0
X.2F1500S1000
X.5F7000S0
X.2F1500S1000
X.1F7000S0
X.199F1500S1000
X.1F7000S0
X.201F1500S1000
X.099F7000S0
X.2F1500S1000
X7.1F7000S0
X.101F1500S1000
X.099F7000S0
X.101F1500S1000
X.399F7000S0
X.101F1500S1000
X.399F7000S0
X.101F1500S1000
X.099F7000S0
X.1F1500S1000
X.2F7000S0
X.101F1500S1000
X.399F7000S0
X.101F1500S1000
X.099F7000S0
X.1F1500S1000
X.2F7000S0
X.101F1500S1000
X.099F7000S0
X.201F1500S1000
X3.799F7000S0
X.1F1500S1000
X5.4F7000S0
X.1F1500S1000
X6.601F7000S0
X.099F1500S1000
X.101F7000S0
X.2F1500S1000
X.1F7000S0
X.2F1500S1000
X.1F7000S0
X.1F1500S1000
X.5F7000S0
X.1F1500S1000
X.099F7000S0
X.201F1500S1000
X.1F7000S0
X.199F1500S1000
X.101F7000S0
X.2F1500S1000
X7.1F7000S0
X.099F1500S1000
X.1F7000S0
X.201F1500S1000
X.299F7000S0
X.101F1500S1000
X.1F7000S0
X.1F1500S1000
X.3F7000S0
X.1F1500S1000
X.1F7000S0
X.099F1500S1000
X.1F7000S0
X.101F1500S1000
X.5F7000S0
X.1F1500S1000
X.1F7000S0
X.099F1500S1000
X.201F7000S0
X.2F1500S1000
X22.099F7000S0
X.201F1500S1000
X6.5F7000S0
X.1F1500S1000
X.099F7000S0
X.2F1500S1000
X.101F7000S0
X.199F1500S1000
X.1F7000S0
X.1F1500S1000
X.5F7000S0
X.201F1500S1000
X.099F7000S0
X.2F1500S1000
X.101F7000S0
X.199F1500S1000
X.1F7000S0
X.201F1500S1000
X7.1F7000S0
X.099F1500S1000
X.1F7000S0
X.1F1500S1000
X.4F7000S0
X.1F1500S1000
X.4F7000S0
X.1F1500S1000
X.101F7000S0
X.1F1500S1000
X.199F7000S0
X.1F1500S1000
X.4F7000S0
X.1F1500S1000
X.101F7000S0
X.1F1500S1000
X.199F7000S0
X.1F1500S1000
X.101F7000S0
X.1F1500S1000
X3.9F7000S0
X.199F1500S1000
X5.301F7000S0
X.1F1500S1000
X6.6F7000S0
X.2F1500S1000
X.1F7000S0
X.2F1500S1000
X.1F7000S0
X.2F1500S1000
X.6F7000S0
X.2F1500S1000
X.1F7000S0
X.1F1500S1000
X.1F7000S0
X.1F1500S1000
X.1F7000S0
X.1F1500S1000
X.1F7000S0
X.1F1500S1000
X7.2F7000S0
X.2F1500S1000
X.4F7000S0
X.1F1500S1000
X.1F7000S0
X.1F1500S1000
X.3F7000S0
X.1F1500S1000
X.4F7000S0
X.1F1500S1000
X.5F7000S0
X.2F1500S1000
X.2F7000S0
X.2F1500S1000
X.1F7000S0
X.1F1500S1000
X22.1F7000S0
X.1F1500S1000
X6.6F7000S0
X.2F1500S1000
X.1F7000S0
X.1F1500S1000
X.1F7000S0
X.2F1500S1000
X.1F7000S0
X.1F1500S1000
X.4F7000S0
X.1F1500S1000
X.1F7000S0
X.2F1500S1000
X.1F7000S0
X.2F1500S1000
X.1F7000S0
X.2F1500S1000
X.1F7000S0
X.1F1500S1000
X7F7000S0
X.1F1500S1000
X.1F7000S0
X.1F1500S1000
X.4F7000S0
X.1F1500S1000
X.1F7000S0
X.1F1500S1000
X.3F7000S0
X.1F1500S1000
X.3F7000S0
X.1F1500S1000
X.5F7000S0
X.2F1500S1000
X.2F7000S0
X.1F1500S1000
X.1F7000S0
X.2F1500S1000
X3.8F7000S0
X.2F1500S1000
X5.3F7000S0
X.1F1500S1000
X.1F7000S0
X.1F1500S1000
X6.5F7000S0
X.1F1500S1000
X.1F7000S0
X.1F1500S1000
X.1F7000S0
X.2F1500S1000
X.1F7000S0
X.1F1500S1000
X.1F7000S0
X.1F1500S1000
X.4F7000S0
X.2F1500S1000
X.1F7000S0
X.1F1500S1000
X.1F7000S0
X.2F1500S1000
X.1F7000S0
X.1F1500S1000
X.1F7000S0
X.1F1500S1000
X7.1F7000S0
X.2F1500S1000
X.5F7000S0
X.2F1500S1000
X.4F7000S0
X.1F1500S1000
X.3F7000S0
X.1F1500S1000
X.5F7000S0
X.1F1500S1000
X.3F7000S0
X.1F1500S1000
X.1F7000S0
X.1F1500S1000
X22F7000S0
X.2F1500S1000
X6.5F7000S0
X.1F1500S1000
X.1F7000S0
X.1F1500S1000
X.1F7000S0
X.2F1500S1000
X.1F7000S0
X.1F1500S1000
X.5F7000S0
X.1F1500S1000
X.1F7000S0
X.1F1500S1000
X.1F7000S0
X.1F1500S1000
X.1F7000S0
X.2F1500S1000
X.1F7000S0
X.1F1500S1000
X.1F7000S0
X.1F1500S1000
X7.1F7000S0
X.2F1500S1000
X.4F7000S0
X.2F1500S1000
X.4F7000S0
X.2F1500S1000
X.3F7000S0
X.1F1500S1000
X.5F7000S0
X.1F1500S1000
X.3F7000S0
X.2F1500S1000
X3.9F7000S0
X.1F1500S1000
X.1F7000S0
X.099F1500S1000
X5.201F7000S0
X.099F1500S1000
X.101F7000S0
X.099F1500S1000
X6.5F7000S0
X.101F1500S1000
X.1F7000S0
X.2F1500S1000
X.099F7000S0
X.201F1500S1000
X.099F7000S0
X.2F1500S1000
X.401F7000S0
X.2F1500S1000
X.1F7000S0
X.2F1500S1000
X.099F7000S0
X.201F1500S1000
X.099F7000S0
X.2F1500S1000
X7.101F7000S0
X.1F1500S1000
X.099F7000S0
X.2F1500S1000
X.3F7000S0
X.2F1500S1000
X.401F7000S0
X.2F1500S1000
X.199F7000S0
X.101F1500S1000
X.5F7000S0
X.2F1500S1000
X.199F7000S0
X.101F1500S1000
X.099F7000S0
X.201F1500S1000
X.625F7000S0
Y.1
X-.625
X-.5F1500S1000
X-.1F7000S0
X-.301F1500S1000
X-.3F7000S0
X-.7F1500S1000
X-.199F7000S0
X-.301F1500S1000
X-.3F7000S0
X-.399F1500S1000
X-7.101F7000S0
X-1.099F1500S1000
X-.401F7000S0
X-1F1500S1000
X-6.399F7000S0
X-.4F1500S1000
X-5.201F7000S0
X-.299F1500S1000
X-3.701F7000S0
X-.5F1500S1000
X-.1F7000S0
X-.299F1500S1000
X-.3F7000S0
X-.301F1500S1000
X-.1F7000S0
X-.299F1500S1000
X-.201F7000S0
X-.399F1500S1000
X-.2F7000S0
X-.5F1500S1000
X-6.9F7000S0
X-1.3F1500S1000
X-.3F7000S0
X-1F1500S1000
X-6.5F7000S0
X-.2F1500S1000
X-21.9F7000S0
X-.4F1500S1000
X-.2F7000S0
X-.3F1500S1000
X-.3F7000S0
X-.3F1500S1000
X-.1F7000S0
X-.3F1500S1000
X-.2F7000S0
X-.4F1500S1000
X-.2F7000S0
X-.5F1500S1000
X-7F7000S0
X-1.2F1500S1000
X-.3F7000S0
X-1F1500S1000
X-6.5F7000S0
X-.2F1500S1000
X-5.3F7000S0
X-.3F1500S1000
X-3.8F7000S0
X-.4F1500S1000
X-.2F7000S0
X-.2F1500S1000
X-.4F7000S0
X-.2F1500S1000
X-.1F7000S0
X-.3F1500S1000
X-.3F7000S0
X-.3F1500S1000
X-.2F7000S0
X-.4F1500S1000
X-7F7000S0
X-1.3F1500S1000
X-.4F7000S0
X-1F1500S1000
X-6.4F7000S0
X-.3F1500S1000
X-22F7000S0
X-.4F1500S1000
X-.2F7000S0
X-.3F1500S1000
X-.3F7000S0
X-.7F1500S1000
X-.2F7000S0
X-.4F1500S1000
X-.2F7000S0
X-.5F1500S1000
X-6.9F7000S0
X-1.3F1500S1000
X-.3F7000S0
X-1F1500S1000
X-6.501F7000S0
X-.199F1500S1000
X-5.301F7000S0
X-.3F1500S1000
X-3.799F7000S0
X-.401F1500S1000
X-.099F7000S0
X-.301F1500S1000
X-.299F7000S0
X-.301F1500S1000
X-.099F7000S0
X-.301F1500S1000
X-.299F7000S0
X-.301F1500S1000
X-.199F7000S0
X-.4F1500S1000
X-7.1F7000S0
X-1.201F1500S1000
X-.299F7000S0
X-1.101F1500S1000
X-6.299F7000S0
X-.401F1500S1000
X-21.8F7000S0
X-.5F1500S1000
X-.1F7000S0
X-.299F1500S1000
X-.301F7000S0
X-.3F1500S1000
X-.1F7000S0
X-.299F1500S1000
X-.301F7000S0
X-.3F1500S1000
X-.2F7000S0
X-.4F1500S1000
X-7F7000S0
X-1.299F1500S1000
X-.301F7000S0
X-1.1F1500S1000
X-6.3F7000S0
X-.4F1500S1000
X-5.2F7000S0
X-.3F1500S1000
X-3.7F7000S0
X-.5F1500S1000
X-.1F7000S0
X-.3F1500S1000
X-.4F7000S0
X-.2F1500S1000
X-.1F7000S0
X-.4F1500S1000
X-.1F7000S0
X-.4F1500S1000
X-.2F7000S0
X-.5F1500S1000
X-7F7000S0
X-1.2F1500S1000
X-.3F7000S0
X-1F1500S1000
X-6.5F7000S0
X-.3F1500S1000
X-.625F7000S0
X.1Y.1
X.625
X.2F1500S1000
X6.5F7000S0
X1.1F1500S1000
X.2F7000S0
X1.2F1500S1000
X5.1F7000S0
X.2F1500S1000
X1.8F7000S0
X.5F1500S1000
X.1F7000S0
X.4F1500S1000
X.2F7000S0
X.7F1500S1000
X.2F7000S0
X.3F1500S1000
X.1F7000S0
X.6F1500S1000
X3.7F7000S0
X.1F1500S1000
X5.5F7000S0
X.3F1500S1000
X6.3F7000S0
X1.1F1500S1000
X.301F7000S0
X1.299F1500S1000
X5F7000S0
X.201F1500S1000
X1.799F7000S0
X.4F1500S1000
X.2F7000S0
X.3F1500S1000
X.301F7000S0
X.699F1500S1000
X.301F7000S0
X.799F1500S1000
X22F7000S0
X.3F1500S1000
X6.3F7000S0
X1.101F1500S1000
X.299F7000S0
X1.3F1500S1000
X5F7000S0
X.2F1500S1000
X1.8F7000S0
X.5F1500S1000
X.1F7000S0
X.301F1500S1000
X.299F7000S0
X.701F1500S1000
X.299F7000S0
X.8F1500S1000
X3.8F7000S0
X.101F1500S1000
X5.5F7000S0
X.199F1500S1000
X6.501F7000S0
X1.1F1500S1000
X.2F7000S0
X1.3F1500S1000
X5.1F7000S0
X.1F1500S1000
X1.8F7000S0
X.5F1500S1000
X.1F7000S0
X.4F1500S1000
X.2F7000S0
X.8F1500S1000
X.2F7000S0
X.2F1500S1000
X.2F7000S0
X.5F1500S1000
X22.1F7000S0
X.2F1500S1000
X6.4F7000S0
X1.1F1500S1000
X.3F7000S0
X1.2F1500S1000
X5.1F7000S0
X.2F1500S1000
X1.8F7000S0
X.4F1500S1000
X.2F7000S0
X.3F1500S1000
X.3F7000S0
X.7F1500S1000
X.3F7000S0
X.8F1500S1000
X3.8F7000S0
X.1F1500S1000
X5.5F7000S0
X.2F1500S1000
X6.5F7000S0
X1.1F1500S1000
X.2F7000S0
X1.2F1500S1000
X5.2F7000S0
X.1F1500S1000
X1.8F7000S0
X.5F1500S1000
X.1F7000S0
X.4F1500S1000
X.2F7000S0
X.7F1500S1000
X.2F7000S0
X.3F1500S1000
X.2F7000S0
X.5F1500S1000
X21.8F7000S0
X.3F1500S1000
X6.4F7000S0
X1.2F1500S1000
X.2F7000S0
X1.3F1500S1000
X5.1F7000S0
X.1F1500S1000
X1.8F7000S0
X.5F1500S1000
X.1F7000S0
X.399F1500S1000
X.201F7000S0
X.799F1500S1000
X.201F7000S0
X.299F1500S1000
X.1F7000S0
X.5F1500S1000
X3.701F7000S0
X.2F1500S1000
X5.399F7000S0
X.2F1500S1000
X6.5F7000S0
X1.101F1500S1000
X.199F7000S0
X1.2F1500S1000
X5.201F7000S0
X.099F1500S1000
X1.901F7000S0
X.4F1500S1000
X.199F7000S0
X.301F1500S1000
X.199F7000S0
X.7F1500S1000
X.3F7000S0
X.2F1500S1000
X.201F7000S0
X.5F1500S1000
X.625F7000S0
Y.1
X-.625
X-.6F1500S1000
X-.101F7000S0
X-.2F1500S1000
X-.199F7000S0
X-.801F1500S1000
X-.199F7000S0
X-1F1500S1000
X-1.7F7000S0
X-.3F1500S1000
X-5.101F7000S0
X-1.099F1500S1000
X-.3F7000S0
X-1.101F1500S1000
X-6.399F7000S0
X-.2F1500S1000
X-5.6F7000S0
X-.1F1500S1000
X-3.701F7000S0
X-.5F1500S1000
X-.199F7000S0
X-.2F1500S1000
X-.201F7000S0
X-.9F1500S1000
X-.199F7000S0
X-.3F1500S1000
X-.1F7000S0
X-.4F1500S1000
X-1.8F7000S0
X-.3F1500S1000
X-5F7000S0
X-1.3F1500S1000
X-.2F7000S0
X-1.1F1500S1000
X-6.5F7000S0
X-.2F1500S1000
X-21.9F7000S0
X-.6F1500S1000
X-.1F7000S0
X-.2F1500S1000
X-.2F7000S0
X-.9F1500S1000
X-.2F7000S0
X-.3F1500S1000
X-.1F7000S0
X-.5F1500S1000
X-1.7F7000S0
X-.3F1500S1000
X-5.1F7000S0
X-1.2F1500S1000
X-.2F7000S0
X-1.1F1500S1000
X-6.5F7000S0
X-.2F1500S1000
X-5.4F7000S0
X-.2F1500S1000
X-3.7F7000S0
X-.6F1500S1000
X-.1F7000S0
X-.2F1500S1000
X-.2F7000S0
X-.8F1500S1000
X-.3F7000S0
X-.3F1500S1000
X-.1F7000S0
X-.4F1500S1000
X-1.9F7000S0
X-.2F1500S1000
X-5F7000S0
X-1.3F1500S1000
X-.3F7000S0
X-1.1F1500S1000
X-6.4F7000S0
X-.2F1500S1000
X-22.1F7000S0
X-.5F1500S1000
X-.2F7000S0
X-.2F1500S1000
X-.2F7000S0
X-.9F1500S1000
X-.1F7000S0
X-.4F1500S1000
X-.1F7000S0
X-.4F1500S1000
X-1.8F7000S0
X-.3F1500S1000
X-5.1F7000S0
X-1.2F1500S1000
X-.2F7000S0
X-1.2F1500S1000
X-6.401F7000S0
X-.1F1500S1000
X-5.5F7000S0
X-.2F1500S1000
X-3.7F7000S0
X-.6F1500S1000
X-.099F7000S0
X-.201F1500S1000
X-.299F7000S0
X-.701F1500S1000
X-.299F7000S0
X-.301F1500S1000
X-.1F7000S0
X-.4F1500S1000
X-1.8F7000S0
X-.3F1500S1000
X-5.099F7000S0
X-1.201F1500S1000
X-.2F7000S0
X-1.2F1500S1000
X-6.399F7000S0
X-.201F1500S1000
X-21.9F7000S0
X-.5F1500S1000
X-.2F7000S0
X-.199F1500S1000
X-.201F7000S0
X-.799F1500S1000
X-.301F7000S0
X-.3F1500S1000
X-.1F7000S0
X-.4F1500S1000
X-1.8F7000S0
X-.3F1500S1000
X-5.1F7000S0
X-1.199F1500S1000
X-.201F7000S0
X-1.2F1500S1000
X-6.3F7000S0
X-.3F1500S1000
X-5.5F7000S0
X-.2F1500S1000
X-3.6F7000S0
X-.6F1500S1000
X-.1F7000S0
X-.2F1500S1000
X-.2F7000S0
X-.9F1500S1000
X-.1F7000S0
X-.3F1500S1000
X-.2F7000S0
X-.4F1500S1000
X-1.8F7000S0
X-.3F1500S1000
X-5.1F7000S0
X-1.2F1500S1000
X-.2F7000S0
X-1.1F1500S1000
X-6.5F7000S0
X-.1F1500S1000
X-.625F7000S0
Y.1
X.625
X.2F1500S1000
X6.4F7000S0
X1.1F1500S1000
X.3F7000S0
X.3F1500S1000
X.1F7000S0
X.7F1500S1000
X5F7000S0
X.4F1500S1000
X1.7F7000S0
X.5F1500S1000
X.2F7000S0
X.2F1500S1000
X.2F7000S0
X.9F1500S1000
X.2F7000S0
X.2F1500S1000
X.1F7000S0
X.3F1500S1000
X.1F7000S0
X.3F1500S1000
X3.6F7000S0
X.1F1500S1000
X5.6F7000S0
X.2F1500S1000
X6.4F7000S0
X1.1F1500S1000
X.201F7000S0
X1.199F1500S1000
X5F7000S0
X.4F1500S1000
X1.901F7000S0
X.399F1500S1000
X.101F7000S0
X.199F1500S1000
X.2F7000S0
X.8F1500S1000
X.301F7000S0
X.199F1500S1000
X.1F7000S0
X.4F1500S1000
X.1F7000S0
X.201F1500S1000
X21.899F7000S0
X.2F1500S1000
X6.3F7000S0
X1.2F1500S1000
X.2F7000S0
X1.3F1500S1000
X4.901F7000S0
X.399F1500S1000
X1.8F7000S0
X.5F1500S1000
X.1F7000S0
X.201F1500S1000
X.199F7000S0
X.801F1500S1000
X.299F7000S0
X.1F1500S1000
X.2F7000S0
X.401F1500S1000
X.099F7000S0
X.2F1500S1000
X3.6F7000S0
X.101F1500S1000
X5.599F7000S0
X.1F1500S1000
X6.501F7000S0
X1.1F1500S1000
X.2F7000S0
X.4F1500S1000
X.1F7000S0
X.7F1500S1000
X5F7000S0
X.4F1500S1000
X1.8F7000S0
X.5F1500S1000
X.1F7000S0
X.2F1500S1000
X.2F7000S0
X.9F1500S1000
X.3F7000S0
X.1F1500S1000
X.2F7000S0
X.3F1500S1000
X.1F7000S0
X.2F1500S1000
X22.1F7000S0
X.2F1500S1000
X6.3F7000S0
X1.2F1500S1000
X.2F7000S0
X.3F1500S1000
X.1F7000S0
X.8F1500S1000
X5F7000S0
X.4F1500S1000
X1.8F7000S0
X.5F1500S1000
X.1F7000S0
X.2F1500S1000
X.2F7000S0
X.8F1500S1000
X.3F7000S0
X.2F1500S1000
X.2F7000S0
X.3F1500S1000
X.1F7000S0
X.2F1500S1000
X3.6F7000S0
X.1F1500S1000
X5.6F7000S0
X.1F1500S1000
X6.4F7000S0
X1.2F1500S1000
X.2F7000S0
X.4F1500S1000
X.1F7000S0
X.7F1500S1000
X5F7000S0
X.4F1500S1000
X1.8F7000S0
X.5F1500S1000
X.1F7000S0
X.3F1500S1000
X.1F7000S0
X.9F1500S1000
X.1F7000S0
X.3F1500S1000
X.1F7000S0
X.7F1500S1000
X21.9F7000S0
X.1F1500S1000
X6.4F7000S0
X1.2F1500S1000
X.2F7000S0
X1.3F1500S1000
X4.9F7000S0
X.4F1500S1000
X1.8F7000S0
X.5F1500S1000
X.1F7000S0
X.299F1500S1000
X.1F7000S0
X.9F1500S1000
X.201F7000S0
X.2F1500S1000
X.199F7000S0
X.301F1500S1000
X.099F7000S0
X.201F1500S1000
X3.6F7000S0
X.1F1500S1000
X5.6F7000S0
X.2F1500S1000
X6.399F7000S0
X1.101F1500S1000
X.3F7000S0
X1.099F1500S1000
X5F7000S0
X.5F1500S1000
X1.8F7000S0
X.401F1500S1000
X.099F7000S0
X.301F1500S1000
X.1F7000S0
X.9F1500S1000
X.199F7000S0
X.2F1500S1000
X.101F7000S0
X.699F1500S1000
X.625F7000S0
Y.1
X-.625
X-1F1500S1000
X-.199F7000S0
X-1.2F1500S1000
X-.101F7000S0
X-.5F1500S1000
X-.099F7000S0
X-.1F1500S1000
X-1.601F7000S0
X-.5F1500S1000
X-5F7000S0
X-.7F1500S1000
X-.099F7000S0
X-.401F1500S1000
X-.199F7000S0
X-1.101F1500S1000
X-12.199F7000S0
X-.1F1500S1000
X-3.6F7000S0
X-.201F1500S1000
X-.099F7000S0
X-.301F1500S1000
X-.199F7000S0
X-.2F1500S1000
X-.201F7000S0
X-1.299F1500S1000
X-.1F7000S0
X-.4F1500S1000
X-.1F7000S0
X-.2F1500S1000
X-1.5F7000S0
X-.5F1500S1000
X-5F7000S0
X-.8F1500S1000
X-.1F7000S0
X-.3F1500S1000
X-.2F7000S0
X-.8F1500S1000
X-.1F7000S0
X-.2F1500S1000
X-6.4F7000S0
X-.2F1500S1000
X-21.9F7000S0
X-.2F1500S1000
X-.1F7000S0
X-.4F1500S1000
X-.1F7000S0
X-.2F1500S1000
X-.2F7000S0
X-1.3F1500S1000
X-.1F7000S0
X-.4F1500S1000
X-.2F7000S0
X-.1F1500S1000
X-1.6F7000S0
X-.4F1500S1000
X-5.1F7000S0
X-.7F1500S1000
X-.1F7000S0
X-.3F1500S1000
X-.2F7000S0
X-1.1F1500S1000
X-6.5F7000S0
X-.1F1500S1000
X-5.6F7000S0
X-.1F1500S1000
X-3.6F7000S0
X-.7F1500S1000
X-.2F7000S0
X-.1F1500S1000
X-.2F7000S0
X-1.3F1500S1000
X-.1F7000S0
X-.4F1500S1000
X-.1F7000S0
X-.2F1500S1000
X-1.5F7000S0
X-.6F1500S1000
X-4.9F7000S0
X-.7F1500S1000
X-.2F7000S0
X-.3F1500S1000
X-.1F7000S0
X-1F1500S1000
X-.1F7000S0
X-.1F1500S1000
X-6.4F7000S0
X-.2F1500S1000
X-22.101F7000S0
X-.199F1500S1000
X-.1F7000S0
X-.3F1500S1000
X-.2F7000S0
X-.2F1500S1000
X-.2F7000S0
X-1.3F1500S1000
X-.1F7000S0
X-.4F1500S1000
X-.1F7000S0
X-.2F1500S1000
X-1.6F7000S0
X-.4F1500S1000
X-5.1F7000S0
X-.6F1500S1000
X-.2F7000S0
X-.3F1500S1000
X-.2F7000S0
X-.8F1500S1000
X-.1F7000S0
X-.2F1500S1000
X-6.401F7000S0
X-.2F1500S1000
X-5.599F7000S0
X-.101F1500S1000
X-3.6F7000S0
X-.6F1500S1000
X-.199F7000S0
X-.201F1500S1000
X-.2F7000S0
X-1.3F1500S1000
X-.1F7000S0
X-.4F1500S1000
X-.1F7000S0
X-.199F1500S1000
X-1.5F7000S0
X-.5F1500S1000
X-5F7000S0
X-.701F1500S1000
X-.2F7000S0
X-.2F1500S1000
X-.3F7000S0
X-1F1500S1000
X-6.5F7000S0
X-.2F1500S1000
X-21.899F7000S0
X-.6F1500S1000
X-.2F7000S0
X-.199F1500S1000
X-.201F7000S0
X-1.2F1500S1000
X-.2F7000S0
X-.399F1500S1000
X-.101F7000S0
X-.2F1500S1000
X-1.5F7000S0
X-.6F1500S1000
X-4.9F7000S0
X-.699F1500S1000
X-.201F7000S0
X-.299F1500S1000
X-.1F7000S0
X-1.101F1500S1000
X-6.5F7000S0
X-.2F1500S1000
X-5.6F7000S0
X-.1F1500S1000
X-3.6F7000S0
X-.7F1500S1000
X-.1F7000S0
X-.3F1500S1000
X-.1F7000S0
X-1.3F1500S1000
X-.1F7000S0
X-.4F1500S1000
X-.1F7000S0
X-.1F1500S1000
X-1.6F7000S0
X-.5F1500S1000
X-5F7000S0
X-.7F1500S1000
X-.1F7000S0
X-.3F1500S1000
X-.3F7000S0
X-1.1F1500S1000
X-6.4F7000S0
X-.2F1500S1000
X-.625F7000S0
Y.1
X.625
X.2F1500S1000
X6.7F7000S0
X.8F1500S1000
X.3F7000S0
X.2F1500S1000
X.1F7000S0
X.7F1500S1000
X5F7000S0
X.6F1500S1000
X1.5F7000S0
X.2F1500S1000
X.2F7000S0
X.3F1500S1000
X.1F7000S0
X1.3F1500S1000
X.2F7000S0
X.2F1500S1000
X.1F7000S0
X.7F1500S1000
X9.5F7000S0
X.1F1500S1000
X6.601F7000S0
X.9F1500S1000
X.1F7000S0
X.299F1500S1000
X.201F7000S0
X.699F1500S1000
X4.9F7000S0
X.6F1500S1000
X1.5F7000S0
X.301F1500S1000
X.099F7000S0
X.3F1500S1000
X.101F7000S0
X1.399F1500S1000
X.101F7000S0
X.199F1500S1000
X.1F7000S0
X.701F1500S1000
X22F7000S0
X.099F1500S1000
X6.7F7000S0
X.9F1500S1000
X.2F7000S0
X.2F1500S1000
X.2F7000S0
X.701F1500S1000
X4.899F7000S0
X.7F1500S1000
X1.401F7000S0
X.699F1500S1000
X.2F7000S0
X1.3F1500S1000
X.1F7000S0
X.201F1500S1000
X.099F7000S0
X.7F1500S1000
X9.4F7000S0
X.2F1500S1000
X6.601F7000S0
X.9F1500S1000
X.1F7000S0
X.4F1500S1000
X.1F7000S0
X.6F1500S1000
X5F7000S0
X.6F1500S1000
X1.5F7000S0
X.2F1500S1000
X.2F7000S0
X.3F1500S1000
X.1F7000S0
X1.4F1500S1000
X.1F7000S0
X.2F1500S1000
X.2F7000S0
X.7F1500S1000
X22F7000S0
X.2F1500S1000
X6.7F7000S0
X.9F1500S1000
X.2F7000S0
X.2F1500S1000
X.2F7000S0
X.6F1500S1000
X5F7000S0
X.6F1500S1000
X1.5F7000S0
X.2F1500S1000
X.1F7000S0
X.4F1500S1000
X.1F7000S0
X1.3F1500S1000
X.2F7000S0
X.2F1500S1000
X.1F7000S0
X.7F1500S1000
X9.4F7000S0
X.2F1500S1000
X6.6F7000S0
X.8F1500S1000
X.2F7000S0
X.4F1500S1000
X.1F7000S0
X.6F1500S1000
X5F7000S0
X.5F1500S1000
X1.7F7000S0
X.2F1500S1000
X.1F7000S0
X.3F1500S1000
X.1F7000S0
X1.4F1500S1000
X.1F7000S0
X.2F1500S1000
X.1F7000S0
X.7F1500S1000
X21.9F7000S0
X.2F1500S1000
X6.7F7000S0
X.9F1500S1000
X.3F7000S0
X.9F1500S1000
X5F7000S0
X.7F1500S1000
X1.4F7000S0
X.2F1500S1000
X.2F7000S0
X.3F1500S1000
X.1F7000S0
X1.299F1500S1000
X.201F7000S0
X.2F1500S1000
X.199F7000S0
X.701F1500S1000
X9.299F7000S0
X.201F1500S1000
X6.599F7000S0
X.901F1500S1000
X.2F7000S0
X.3F1500S1000
X.099F7000S0
X.601F1500S1000
X5F7000S0
X.5F1500S1000
X1.7F7000S0
X.199F1500S1000
X.101F7000S0
X1.8F1500S1000
X.099F7000S0
X.2F1500S1000
X.101F7000S0
X.699F1500S1000
X.625F7000S0
Y.1
X-.625
X-.699F1500S1000
X-.101F7000S0
X-.599F1500S1000
X-.5F7000S0
X-.601F1500S1000
X-.099F7000S0
X-.701F1500S1000
X-1.5F7000S0
X-.599F1500S1000
X-4.901F7000S0
X-.7F1500S1000
X-.599F7000S0
X-1.1F1500S1000
X-6.4F7000S0
X-.1F1500S1000
X-9.5F7000S0
X-.601F1500S1000
X-.199F7000S0
X-.6F1500S1000
X-.6F7000S0
X-.5F1500S1000
X-.1F7000S0
X-.7F1500S1000
X-1.4F7000S0
X-.7F1500S1000
X-5F7000S0
X-.7F1500S1000
X-.6F7000S0
X-1F1500S1000
X-6.4F7000S0
X-.2F1500S1000
X-22F7000S0
X-.7F1500S1000
X-.1F7000S0
X-.6F1500S1000
X-.6F7000S0
X-.5F1500S1000
X-.1F7000S0
X-.2F1500S1000
X-.1F7000S0
X-.4F1500S1000
X-1.5F7000S0
X-.6F1500S1000
X-5F7000S0
X-.7F1500S1000
X-.6F7000S0
X-1F1500S1000
X-6.4F7000S0
X-.2F1500S1000
X-9.4F7000S0
X-.6F1500S1000
X-.2F7000S0
X-.7F1500S1000
X-.5F7000S0
X-.5F1500S1000
X-.1F7000S0
X-.3F1500S1000
X-.1F7000S0
X-.4F1500S1000
X-1.3F7000S0
X-.7F1500S1000
X-5F7000S0
X-.7F1500S1000
X-.6F7000S0
X-1F1500S1000
X-6.5F7000S0
X-.1F1500S1000
X-22.2F7000S0
X-.6F1500S1000
X-.2F7000S0
X-.6F1500S1000
X-.6F7000S0
X-.5F1500S1000
X-.1F7000S0
X-.2F1500S1000
X-.1F7000S0
X-.4F1500S1000
X-1.5F7000S0
X-.6F1500S1000
X-5F7000S0
X-.7F1500S1000
X-.5F7000S0
X-1.1F1500S1000
X-6.401F7000S0
X-.199F1500S1000
X-9.401F7000S0
X-.699F1500S1000
X-.1F7000S0
X-.601F1500S1000
X-.6F7000S0
X-.4F1500S1000
X-.199F7000S0
X-.301F1500S1000
X-.1F7000S0
X-.299F1500S1000
X-1.4F7000S0
X-.701F1500S1000
X-4.899F7000S0
X-.701F1500S1000
X-.699F7000S0
X-1.1F1500S1000
X-6.3F7000S0
X-.2F1500S1000
X-22F7000S0
X-.601F1500S1000
X-.199F7000S0
X-.7F1500S1000
X-.5F7000S0
X-.4F1500S1000
X-.201F7000S0
X-.799F1500S1000
X-1.301F7000S0
X-.699F1500S1000
X-4.9F7000S0
X-.7F1500S1000
X-.701F7000S0
X-1.099F1500S1000
X-6.3F7000S0
X-.101F1500S1000
X-9.5F7000S0
X-.7F1500S1000
X-.099F7000S0
X-.6F1500S1000
X-.601F7000S0
X-.5F1500S1000
X-.099F7000S0
X-.3F1500S1000
X-.101F7000S0
X-.299F1500S1000
X-1.5F7000S0
X-.7F1500S1000
X-4.9F7000S0
X-.6F1500S1000
X-.599F7000S0
X-1.1F1500S1000
X-6.4F7000S0
X-.2F1500S1000
X-.625F7000S0
Y.1
X.625
X.1F1500S1000
X6.4F7000S0
X1.1F1500S1000
X.6F7000S0
X.699F1500S1000
X5.001F7000S0
X.6F1500S1000
X1.4F7000S0
X.399F1500S1000
X.201F7000S0
X.2F1500S1000
X.099F7000S0
X.401F1500S1000
X.7F7000S0
X.6F1500S1000
X.099F7000S0
X.7F1500S1000
X9.5F7000S0
X.1F1500S1000
X6.199F7000S0
X1.2F1500S1000
X.701F7000S0
X.7F1500S1000
X4.9F7000S0
X.699F1500S1000
X1.301F7000S0
X.4F1500S1000
X.2F7000S0
X.199F1500S1000
X.201F7000S0
X.4F1500S1000
X.7F7000S0
X.5F1500S1000
X.099F7000S0
X.201F1500S1000
X.2F7000S0
X.3F1500S1000
X22F7000S0
X.1F1500S1000
X6.4F7000S0
X1.1F1500S1000
X.699F7000S0
X.6F1500S1000
X5F7000S0
X.601F1500S1000
X1.399F7000S0
X.4F1500S1000
X.201F7000S0
X.2F1500S1000
X.099F7000S0
X.5F1500S1000
X.701F7000S0
X.399F1500S1000
X.201F7000S0
X.199F1500S1000
X.201F7000S0
X.299F1500S1000
X9.401F7000S0
X.199F1500S1000
X6.301F7000S0
X1.1F1500S1000
X.6F7000S0
X.7F1500S1000
X5F7000S0
X.7F1500S1000
X1.4F7000S0
X.4F1500S1000
X.1F7000S0
X.2F1500S1000
X.1F7000S0
X.5F1500S1000
X.7F7000S0
X.5F1500S1000
X.2F7000S0
X.2F1500S1000
X.1F7000S0
X.3F1500S1000
X22.2F7000S0
X.2F1500S1000
X6.2F7000S0
X1.1F1500S1000
X.8F7000S0
X.6F1500S1000
X5F7000S0
X.7F1500S1000
X1.3F7000S0
X.4F1500S1000
X.2F7000S0
X.2F1500S1000
X.1F7000S0
X.5F1500S1000
X.6F7000S0
X.5F1500S1000
X.2F7000S0
X.2F1500S1000
X.2F7000S0
X.3F1500S1000
X9.4F7000S0
X.2F1500S1000
X6.3F7000S0
X1.1F1500S1000
X.7F7000S0
X.6F1500S1000
X5F7000S0
X.6F1500S1000
X1.4F7000S0
X.5F1500S1000
X.1F7000S0
X.2F1500S1000
X.1F7000S0
X.4F1500S1000
X.7F7000S0
X.6F1500S1000
X.2F7000S0
X.6F1500S1000
X22F7000S0
X.2F1500S1000
X6.3F7000S0
X1.1F1500S1000
X.7F7000S0
X.6F1500S1000
X5F7000S0
X.7F1500S1000
X1.3F7000S0
X.5F1500S1000
X.1F7000S0
X.2F1500S1000
X.1F7000S0
X.5F1500S1000
X.7F7000S0
X.5F1500S1000
X.099F7000S0
X.201F1500S1000
X.2F7000S0
X.3F1500S1000
X15.899F7000S0
X1.101F1500S1000
X.699F7000S0
X.7F1500S1000
X5F7000S0
X.601F1500S1000
X1.3F7000S0
X.5F1500S1000
X.099F7000S0
X.3F1500S1000
X.101F7000S0
X.399F1500S1000
X.601F7000S0
X.599F1500S1000
X.101F7000S0
X.3F1500S1000
X.099F7000S0
X.3F1500S1000
X.625F7000S0
X.101Y.1
X-.625
X-.3F1500S1000
X-.7F7000S0
X-.401F1500S1000
X-.799F7000S0
X-.201F1500S1000
X-.799F7000S0
X-.3F1500S1000
X-1.401F7000S0
X-.5F1500S1000
X-2.399F7000S0
X-.101F1500S1000
X-2.799F7000S0
X-.401F1500S1000
X-.8F7000S0
X-1F1500S1000
X-15.799F7000S0
X-.301F1500S1000
X-.699F7000S0
X-.4F1500S1000
X-.801F7000S0
X-.199F1500S1000
X-.7F7000S0
X-.3F1500S1000
X-1.5F7000S0
X-.6F1500S1000
X-5.1F7000S0
X-.5F1500S1000
X-.8F7000S0
X-1.1F1500S1000
X-28.3F7000S0
X-.3F1500S1000
X-.7F7000S0
X-.4F1500S1000
X-.8F7000S0
X-.2F1500S1000
X-.7F7000S0
X-.4F1500S1000
X-1.4F7000S0
X-.6F1500S1000
X-2.3F7000S0
X-.1F1500S1000
X-2.8F7000S0
X-.4F1500S1000
X-.8F7000S0
X-1F1500S1000
X-15.8F7000S0
X-.3F1500S1000
X-.7F7000S0
X-.4F1500S1000
X-.8F7000S0
X-.3F1500S1000
X-.6F7000S0
X-.4F1500S1000
X-1.4F7000S0
X-.5F1500S1000
X-2.4F7000S0
X-.1F1500S1000
X-2.7F7000S0
X-.5F1500S1000
X-.9F7000S0
X-1F1500S1000
X-28.5F7000S0
X-.3F1500S1000
X-.7F7000S0
X-.4F1500S1000
X-.8F7000S0
X-.2F1500S1000
X-.7F7000S0
X-.4F1500S1000
X-1.4F7000S0
X-.5F1500S1000
X-2.4F7000S0
X-.1F1500S1000
X-2.8F7000S0
X-.4F1500S1000
X-.9F7000S0
X-1F1500S1000
X-15.701F7000S0
X-.299F1500S1000
X-.701F7000S0
X-.399F1500S1000
X-.801F7000S0
X-.199F1500S1000
X-.701F7000S0
X-.4F1500S1000
X-1.399F7000S0
X-.5F1500S1000
X-2.4F7000S0
X-.1F1500S1000
X-2.701F7000S0
X-.5F1500S1000
X-.9F7000S0
X-1F1500S1000
X-28.299F7000S0
X-.3F1500S1000
X-.7F7000S0
X-.4F1500S1000
X-.8F7000S0
X-.2F1500S1000
X-.8F7000S0
X-.3F1500S1000
X-1.4F7000S0
X-.5F1500S1000
X-2.4F7000S0
X-.2F1500S1000
X-2.8F7000S0
X-.299F1500S1000
X-.901F7000S0
X-1F1500S1000
X-15.8F7000S0
X-.2F1500S1000
X-.8F7000S0
X-.3F1500S1000
X-.8F7000S0
X-.2F1500S1000
X-.7F7000S0
X-.4F1500S1000
X-1.4F7000S0
X-.6F1500S1000
X-2.3F7000S0
X-.1F1500S1000
X-2.7F7000S0
X-.5F1500S1000
X-.9F7000S0
X-.9F1500S1000
X-.625F7000S0
Y.1
X.625
X.8F1500S1000
X1.1F7000S0
X.3F1500S1000
X2.7F7000S0
X.3F1500S1000
X2.3F7000S0
X.4F1500S1000
X1.5F7000S0
X.2F1500S1000
X.9F7000S0
X.1F1500S1000
X.1F7000S0
X.8F1500S1000
X.1F7000S0
X.2F1500S1000
X.9F7000S0
X.1F1500S1000
X15.8F7000S0
X1F1500S1000
X1F7000S0
X.2F1500S1000
X2.8F7000S0
X.3F1500S1000
X2.299F7000S0
X.4F1500S1000
X1.6F7000S0
X.2F1500S1000
X.8F7000S0
X.2F1500S1000
X.101F7000S0
X.699F1500S1000
X.1F7000S0
X.201F1500S1000
X.899F7000S0
X.2F1500S1000
X28.3F7000S0
X1F1500S1000
X1F7000S0
X.3F1500S1000
X2.7F7000S0
X.3F1500S1000
X2.301F7000S0
X.399F1500S1000
X1.5F7000S0
X.201F1500S1000
X.9F7000S0
X.199F1500S1000
X.1F7000S0
X1F1500S1000
X.9F7000S0
X.2F1500S1000
X15.801F7000S0
X.9F1500S1000
X1F7000S0
X.2F1500S1000
X2.8F7000S0
X.3F1500S1000
X2.3F7000S0
X.4F1500S1000
X1.6F7000S0
X.1F1500S1000
X1.2F7000S0
X.7F1500S1000
X.1F7000S0
X.2F1500S1000
X.9F7000S0
X.2F1500S1000
X28.5F7000S0
X1F1500S1000
X1F7000S0
X.3F1500S1000
X2.7F7000S0
X.2F1500S1000
X2.4F7000S0
X.4F1500S1000
X1.5F7000S0
X.2F1500S1000
X1.1F7000S0
X.8F1500S1000
X.1F7000S0
X.2F1500S1000
X.9F7000S0
X.2F1500S1000
X15.8F7000S0
X.9F1500S1000
X1F7000S0
X.2F1500S1000
X2.8F7000S0
X.3F1500S1000
X2.3F7000S0
X.4F1500S1000
X1.6F7000S0
X.1F1500S1000
X1.2F7000S0
X.6F1500S1000
X.2F7000S0
X.1F1500S1000
X1F7000S0
X.2F1500S1000
X28.4F7000S0
X.9F1500S1000
X1F7000S0
X.3F1500S1000
X2.7F7000S0
X.2F1500S1000
X2.4F7000S0
X.4F1500S1000
X1.6F7000S0
X.1F1500S1000
X1.2F7000S0
X1F1500S1000
X.899F7000S0
X.201F1500S1000
X15.799F7000S0
X.901F1500S1000
X1F7000S0
X.2F1500S1000
X2.8F7000S0
X.3F1500S1000
X2.299F7000S0
X.5F1500S1000
X1.401F7000S0
X.2F1500S1000
X1F7000S0
X.1F1500S1000
X.099F7000S0
X.7F1500S1000
X.101F7000S0
X.1F1500S1000
X1F7000S0
X.2F1500S1000
X.625F7000S0
X-1.3Y.1
X-.625
X-.801F1500S1000
X-2.899F7000S0
X-.3F1500S1000
X-2.301F7000S0
X-.399F1500S1000
X-4.101F7000S0
X-.8F1500S1000
X-7.799F7000S0
X-.1F1500S1000
X-.101F7000S0
X-.099F1500S1000
X-9.001F7000S0
X-1F1500S1000
X-2.699F7000S0
X-.3F1500S1000
X-2.3F7000S0
X-.5F1500S1000
X-3.9F7000S0
X-1F1500S1000
X-7.9F7000S0
X-.1F1500S1000
X-21.6F7000S0
X-.9F1500S1000
X-2.8F7000S0
X-.3F1500S1000
X-2.4F7000S0
X-.4F1500S1000
X-3.9F7000S0
X-1F1500S1000
X-7.9F7000S0
X-.1F1500S1000
X-9.1F7000S0
X-.8F1500S1000
X-2.8F7000S0
X-.3F1500S1000
X-2.4F7000S0
X-.4F1500S1000
X-2.7F7000S0
X-.1F1500S1000
X-1.1F7000S0
X-1F1500S1000
X-7.9F7000S0
X-.1F1500S1000
X-21.8F7000S0
X-.8F1500S1000
X-2.9F7000S0
X-.3F1500S1000
X-2.3F7000S0
X-.5F1500S1000
X-3.9F7000S0
X-.9F1500S1000
X-8F7000S0
X-.1F1500S1000
X-7.701F7000S0
X-.1F1500S1000
X-1.299F7000S0
X-.8F1500S1000
X-2.801F7000S0
X-.299F1500S1000
X-2.4F7000S0
X-.401F1500S1000
X-2.699F7000S0
X-.1F1500S1000
X-1.201F7000S0
X-.9F1500S1000
X-7.7F7000S0
X-.099F1500S1000
X-.1F7000S0
X-.101F1500S1000
X-20.299F7000S0
X-.1F1500S1000
X-1.201F7000S0
X-.799F1500S1000
X-2.9F7000S0
X-.301F1500S1000
X-2.399F7000S0
X-.4F1500S1000
X-3.9F7000S0
X-1.001F1500S1000
X-7.699F7000S0
X-.101F1500S1000
X-.1F7000S0
X-.1F1500S1000
X-9.1F7000S0
X-.799F1500S1000
X-2.8F7000S0
X-.301F1500S1000
X-2.399F7000S0
X-.4F1500S1000
X-2.699F7000S0
X-.101F1500S1000
X-1.2F7000S0
X-.8F1500S1000
X-7.999F7000S0
X-.1F1500S1000
X-.625F7000S0
X-.1Y.1
X.625
X.4F1500S1000
X7.799F7000S0
X.8F1500S1000
X3.901F7000S0
X.599F1500S1000
X2.401F7000S0
X.099F1500S1000
X2.8F7000S0
X.9F1500S1000
X9F7000S0
X.4F1500S1000
X7.799F7000S0
X.8F1500S1000
X4F7000S0
X.499F1500S1000
X2.4F7000S0
X.101F1500S1000
X3F7000S0
X.799F1500S1000
X21.5F7000S0
X.4F1500S1000
X7.801F7000S0
X.899F1500S1000
X3.9F7000S0
X.5F1500S1000
X2.301F7000S0
X.199F1500S1000
X2.9F7000S0
X.801F1500S1000
X9F7000S0
X.399F1500S1000
X7.801F7000S0
X.9F1500S1000
X3.9F7000S0
X.5F1500S1000
X2.4F7000S0
X.1F1500S1000
X3F7000S0
X.8F1500S1000
X21.7F7000S0
X.4F1500S1000
X7.8F7000S0
X.8F1500S1000
X3.9F7000S0
X.6F1500S1000
X2.3F7000S0
X.2F1500S1000
X2.9F7000S0
X.9F1500S1000
X8.9F7000S0
X.4F1500S1000
X7.8F7000S0
X.9F1500S1000
X3.9F7000S0
X.5F1500S1000
X2.4F7000S0
X.1F1500S1000
X2.9F7000S0
X.8F1500S1000
X21.6F7000S0
X.4F1500S1000
X7.8F7000S0
X.9F1500S1000
X3.9F7000S0
X.5F1500S1000
X2.4F7000S0
X.1F1500S1000
X2.899F7000S0
X.9F1500S1000
X9.001F7000S0
X.3F1500S1000
X7.799F7000S0
X.8F1500S1000
X4F7000S0
X.5F1500S1000
X2.401F7000S0
X.099F1500S1000
X3F7000S0
X.7F1500S1000
X.625F7000S0
Y.1
X-.625
X-.7F1500S1000
X-5.5F7000S0
X-.599F1500S1000
X-3.8F7000S0
X-.8F1500S1000
X-7.9F7000S0
X-.401F1500S1000
X-8.999F7000S0
X-.801F1500S1000
X-5.299F7000S0
X-.7F1500S1000
X-3.8F7000S0
X-.9F1500S1000
X-7.8F7000S0
X-.5F1500S1000
X-21.5F7000S0
X-.8F1500S1000
X-5.3F7000S0
X-.7F1500S1000
X-3.8F7000S0
X-.9F1500S1000
X-7.8F7000S0
X-.5F1500S1000
X-8.9F7000S0
X-.8F1500S1000
X-5.3F7000S0
X-.7F1500S1000
X-3.8F7000S0
X-.9F1500S1000
X-7.8F7000S0
X-.5F1500S1000
X-21.7F7000S0
X-.7F1500S1000
X-5.4F7000S0
X-.7F1500S1000
X-3.8F7000S0
X-.9F1500S1000
X-7.7F7000S0
X-.5F1500S1000
X-9F7000S0
X-.7F1500S1000
X-5.5F7000S0
X-.6F1500S1000
X-3.9F7000S0
X-.7F1500S1000
X-7.9F7000S0
X-.4F1500S1000
X-21.6F7000S0
X-.699F1500S1000
X-5.401F7000S0
X-.699F1500S1000
X-3.801F7000S0
X-.8F1500S1000
X-7.9F7000S0
X-.4F1500S1000
X-9.1F7000S0
X-.7F1500S1000
X-5.4F7000S0
X-.6F1500S1000
X-3.9F7000S0
X-.8F1500S1000
X-7.8F7000S0
X-.4F1500S1000
X-.625F7000S0
X-.1Y.1
X.625
X.5F1500S1000
X7.901F7000S0
X.699F1500S1000
X3.8F7000S0
X.801F1500S1000
X5.399F7000S0
X.6F1500S1000
X9F7000S0
X.499F1500S1000
X7.9F7000S0
X.801F1500S1000
X3.8F7000S0
X.599F1500S1000
X5.501F7000S0
X.6F1500S1000
X21.699F7000S0
X.4F1500S1000
X7.901F7000S0
X.799F1500S1000
X3.8F7000S0
X.7F1500S1000
X5.4F7000S0
X.6F1500S1000
X9F7000S0
X.5F1500S1000
X7.901F7000S0
X.8F1500S1000
X3.8F7000S0
X.7F1500S1000
X5.4F7000S0
X.6F1500S1000
X21.8F7000S0
X.5F1500S1000
X7.9F7000S0
X.7F1500S1000
X3.9F7000S0
X.6F1500S1000
X5.5F7000S0
X.6F1500S1000
X9F7000S0
X.5F1500S1000
X7.9F7000S0
X.8F1500S1000
X3.8F7000S0
X.7F1500S1000
X5.4F7000S0
X.6F1500S1000
X21.6F7000S0
X.5F1500S1000
X7.9F7000S0
X.8F1500S1000
X3.8F7000S0
X.7F1500S1000
X5.4F7000S0
X.6F1500S1000
X9.099F7000S0
X.401F1500S1000
X8F7000S0
X.7F1500S1000
X3.8F7000S0
X.7F1500S1000
X5.399F7000S0
X.7F1500S1000
X.625F7000S0
X-.099Y.1
X-.625
X-.401F1500S1000
X-5.599F7000S0
X-.7F1500S1000
X-3.901F7000S0
X-.599F1500S1000
X-8F7000S0
X-.5F1500S1000
X-.201F7000S0
X-.2F1500S1000
X-8.699F7000S0
X-.3F1500S1000
X-5.6F7000S0
X-.7F1500S1000
X-3.8F7000S0
X-.7F1500S1000
X-8.1F7000S0
X-.4F1500S1000
X-.2F7000S0
X-.2F1500S1000
X-21.3F7000S0
X-.3F1500S1000
X-5.6F7000S0
X-.7F1500S1000
X-3.8F7000S0
X-.7F1500S1000
X-8F7000S0
X-.4F1500S1000
X-.3F7000S0
X-.2F1500S1000
X-8.6F7000S0
X-.5F1500S1000
X-5.5F7000S0
X-.7F1500S1000
X-3.8F7000S0
X-.7F1500S1000
X-8F7000S0
X-.5F1500S1000
X-.2F7000S0
X-.2F1500S1000
X-21.5F7000S0
X-.3F1500S1000
X-5.6F7000S0
X-.7F1500S1000
X-3.8F7000S0
X-.7F1500S1000
X-7.9F7000S0
X-.601F1500S1000
X-.2F7000S0
X-.199F1500S1000
X-8.601F7000S0
X-.5F1500S1000
X-5.6F7000S0
X-.6F1500S1000
X-3.9F7000S0
X-.6F1500S1000
X-8F7000S0
X-.5F1500S1000
X-.199F7000S0
X-.201F1500S1000
X-21.199F7000S0
X-.499F1500S1000
X-5.5F7000S0
X-.7F1500S1000
X-3.9F7000S0
X-.6F1500S1000
X-8F7000S0
X-.5F1500S1000
X-.201F7000S0
X-.2F1500S1000
X-8.599F7000S0
X-.4F1500S1000
X-5.599F7000S0
X-.701F1500S1000
X-3.9F7000S0
X-.599F1500S1000
X-8F7000S0
X-.5F1500S1000
X-.2F7000S0
X-.2F1500S1000
X-.625F7000S0
X-.1Y.1
X.625
X1F1500S1000
X8F7000S0
X.599F1500S1000
X4F7000S0
X.5F1500S1000
X5.7F7000S0
X.3F1500S1000
X8.601F7000S0
X.399F1500S1000
X.101F7000S0
X.5F1500S1000
X8F7000S0
X.399F1500S1000
X.101F7000S0
X.1F1500S1000
X4F7000S0
X.499F1500S1000
X5.701F7000S0
X.4F1500S1000
X21.1F7000S0
X.4F1500S1000
X.099F7000S0
X.5F1500S1000
X8.1F7000S0
X.301F1500S1000
X.099F7000S0
X.1F1500S1000
X3.9F7000S0
X.6F1500S1000
X5.701F7000S0
X.399F1500S1000
X8.5F7000S0
X.4F1500S1000
X.1F7000S0
X.5F1500S1000
X8.101F7000S0
X.5F1500S1000
X3.9F7000S0
X.6F1500S1000
X5.7F7000S0
X.3F1500S1000
X21.4F7000S0
X.3F1500S1000
X.2F7000S0
X.5F1500S1000
X8F7000S0
X.5F1500S1000
X4F7000S0
X.6F1500S1000
X5.6F7000S0
X.4F1500S1000
X8.6F7000S0
X.4F1500S1000
X.1F7000S0
X.4F1500S1000
X8.1F7000S0
X.5F1500S1000
X4F7000S0
X.6F1500S1000
X5.7F7000S0
X.3F1500S1000
X21.2F7000S0
X.4F1500S1000
X.1F7000S0
X.5F1500S1000
X8.1F7000S0
X.4F1500S1000
X4F7000S0
X.6F1500S1000
X5.7F7000S0
X.3F1500S1000
X8.6F7000S0
X.4F1500S1000
X.1F7000S0
X.5F1500S1000
X8.099F7000S0
X.5F1500S1000
X4F7000S0
X.5F1500S1000
X5.7F7000S0
X.401F1500S1000
X.625F7000S0
X-.101Y.1
X-.625
X-.3F1500S1000
X-5.7F7000S0
X-.5F1500S1000
X-4.3F7000S0
X-.2F1500S1000
X-8.099F7000S0
X-1F1500S1000
X-8.6F7000S0
X-.3F1500S1000
X-5.8F7000S0
X-.3F1500S1000
X-4.4F7000S0
X-.2F1500S1000
X-8.2F7000S0
X-.9F1500S1000
X-21.2F7000S0
X-.3F1500S1000
X-5.8F7000S0
X-.4F1500S1000
X-4.3F7000S0
X-.2F1500S1000
X-8.1F7000S0
X-1F1500S1000
X-8.6F7000S0
X-.3F1500S1000
X-5.8F7000S0
X-.4F1500S1000
X-4.3F7000S0
X-.2F1500S1000
X-8.1F7000S0
X-1F1500S1000
X-21.4F7000S0
X-.3F1500S1000
X-5.8F7000S0
X-.3F1500S1000
X-4.4F7000S0
X-.2F1500S1000
X-8.101F7000S0
X-1F1500S1000
X-8.6F7000S0
X-.299F1500S1000
X-5.701F7000S0
X-.5F1500S1000
X-4.299F7000S0
X-.201F1500S1000
X-8.099F7000S0
X-1F1500S1000
X-21.2F7000S0
X-.3F1500S1000
X-5.701F7000S0
X-.499F1500S1000
X-4.3F7000S0
X-.2F1500S1000
X-8.1F7000S0
X-1F1500S1000
X-8.6F7000S0
X-.3F1500S1000
X-5.8F7000S0
X-.4F1500S1000
X-4.3F7000S0
X-.2F1500S1000
X-8.1F7000S0
X-1F1500S1000
X-.625F7000S0
X-.1Y.1
X.625
X1.1F1500S1000
X12.7F7000S0
X.3F1500S1000
X5.8F7000S0
X.3F1500S1000
X8.6F7000S0
X1F1500S1000
X12.7F7000S0
X.3F1500S1000
X5.9F7000S0
X.1F1500S1000
X21.3F7000S0
X1F1500S1000
X12.7F7000S0
X.3F1500S1000
X5.8F7000S0
X.3F1500S1000
X8.5F7000S0
X1.1F1500S1000
X12.7F7000S0
X.3F1500S1000
X5.8F7000S0
X.3F1500S1000
X21.4F7000S0
X1F1500S1000
X12.6F7000S0
X.4F1500S1000
X5.7F7000S0
X.3F1500S1000
X8.6F7000S0
X1.1F1500S1000
X12.7F7000S0
X.3F1500S1000
X5.8F7000S0
X.3F1500S1000
X21.1F7000S0
X1.1F1500S1000
X12.7F7000S0
X.3F1500S1000
X5.8F7000S0
X.3F1500S1000
X8.6F7000S0
X1F1500S1000
X12.7F7000S0
X.3F1500S1000
X5.8F7000S0
X.299F1500S1000
X.625F7000S0
Y.1
X-.625
X-.299F1500S1000
X-5.8F7000S0
X-.2F1500S1000
X-12.8F7000S0
X-1F1500S1000
X-8.7F7000S0
X-.199F1500S1000
X-5.9F7000S0
X-.2F1500S1000
X-12.7F7000S0
X-1F1500S1000
X-21.3F7000S0
X-.2F1500S1000
X-5.9F7000S0
X-.1F1500S1000
X-12.8F7000S0
X-1F1500S1000
X-8.7F7000S0
X-.2F1500S1000
X-5.9F7000S0
X-.2F1500S1000
X-12.7F7000S0
X-1F1500S1000
X-21.5F7000S0
X-.2F1500S1000
X-5.8F7000S0
X-.2F1500S1000
X-12.8F7000S0
X-1F1500S1000
X-8.699F7000S0
X-.2F1500S1000
X-5.9F7000S0
X-.2F1500S1000
X-12.7F7000S0
X-1F1500S1000
X-21.3F7000S0
X-.2F1500S1000
X-5.9F7000S0
X-.2F1500S1000
X-12.7F7000S0
X-1F1500S1000
X-8.6F7000S0
X-.3F1500S1000
X-5.9F7000S0
X-.199F1500S1000
X-12.7F7000S0
X-1F1500S1000
X-.625F7000S0
Y.1
X.625
X1F1500S1000
X18.899F7000S0
X.1F1500S1000
X8.8F7000S0
X1F1500S1000
X18.7F7000S0
X.199F1500S1000
X21.401F7000S0
X1F1500S1000
X18.8F7000S0
X.1F1500S1000
X8.8F7000S0
X.9F1500S1000
X18.9F7000S0
X.2F1500S1000
X21.5F7000S0
X1F1500S1000
X18.7F7000S0
X.2F1500S1000
X8.7F7000S0
X1.1F1500S1000
X18.8F7000S0
X.2F1500S1000
X21.2F7000S0
X1F1500S1000
X18.899F7000S0
X.101F1500S1000
X8.799F7000S0
X1F1500S1000
X18.801F7000S0
X.199F1500S1000
X.625F7000S0
Y.1
X-.625
X-.199F1500S1000
X-18.7F7000S0
X-1.101F1500S1000
X-8.799F7000S0
X-.1F1500S1000
X-18.699F7000S0
X-1.1F1500S1000
X-21.3F7000S0
X-.2F1500S1000
X-18.8F7000S0
X-1F1500S1000
X-8.8F7000S0
X-.1F1500S1000
X-18.8F7000S0
X-1F1500S1000
X-21.6F7000S0
X-.1F1500S1000
X-18.7F7000S0
X-1.1F1500S1000
X-8.8F7000S0
X-.1F1500S1000
X-18.8F7000S0
X-1F1500S1000
X-21.401F7000S0
X-.1F1500S1000
X-18.799F7000S0
X-1F1500S1000
X-8.7F7000S0
X-.2F1500S1000
X-18.799F7000S0
X-1F1500S1000
X-.625F7000S0
X.1Y.1
X.625
X1F1500S1000
X18.7F7000S0
X.1F1500S1000
X3.5F7000S0
X.3F1500S1000
X5.1F7000S0
X1F1500S1000
X18.7F7000S0
X.1F1500S1000
X21.5F7000S0
X1F1500S1000
X18.7F7000S0
X.1F1500S1000
X3.5F7000S0
X.4F1500S1000
X5F7000S0
X1F1500S1000
X18.701F7000S0
X.1F1500S1000
X21.7F7000S0
X1F1500S1000
X18.7F7000S0
X.1F1500S1000
X3.5F7000S0
X.3F1500S1000
X5.1F7000S0
X1F1500S1000
X18.699F7000S0
X.101F1500S1000
X21.5F7000S0
X1F1500S1000
X18.699F7000S0
X.1F1500S1000
X3.5F7000S0
X.301F1500S1000
X5.1F7000S0
X1F1500S1000
X18.8F7000S0
X.099F1500S1000
X.625F7000S0
X-18.8Y.1
X-.625
X-1.099F1500S1000
X-5.001F7000S0
X-.4F1500S1000
X-22.199F7000S0
X-1.1F1500S1000
X-40.2F7000S0
X-1.1F1500S1000
X-4.4F7000S0
X-.2F1500S1000
X-.4F7000S0
X-.4F1500S1000
X-22.3F7000S0
X-1.101F1500S1000
X-40.3F7000S0
X-1.1F1500S1000
X-4.4F7000S0
X-.2F1500S1000
X-.4F7000S0
X-.4F1500S1000
X-22.2F7000S0
X-1.1F1500S1000
X-40.2F7000S0
X-1.1F1500S1000
X-5F7000S0
X-.4F1500S1000
X-22.2F7000S0
X-1.1F1500S1000
X-.625F7000S0
Y.1
X.625
X1.1F1500S1000
X22.2F7000S0
X.5F1500S1000
X.3F7000S0
X.2F1500S1000
X4.4F7000S0
X1.2F1500S1000
X40.1F7000S0
X1.101F1500S1000
X22.199F7000S0
X.5F1500S1000
X.301F7000S0
X.199F1500S1000
X4.401F7000S0
X1.099F1500S1000
X40.401F7000S0
X1.1F1500S1000
X22.2F7000S0
X.5F1500S1000
X.2F7000S0
X.3F1500S1000
X4.4F7000S0
X1.1F1500S1000
X40.2F7000S0
X1.1F1500S1000
X22.199F7000S0
X.4F1500S1000
X.401F7000S0
X.199F1500S1000
X4.401F7000S0
X1.099F1500S1000
X.625F7000S0
X2.101Y.1
X-.625
X-.101F1500S1000
X-2F7000S0
X-1.099F1500S1000
X-4.401F7000S0
X-.199F1500S1000
X-.301F7000S0
X-.5F1500S1000
X-20.099F7000S0
X-.2F1500S1000
X-1.9F7000S0
X-1.1F1500S1000
X-38.1F7000S0
X-.099F1500S1000
X-2F7000S0
X-1.1F1500S1000
X-4.4F7000S0
X-.3F1500S1000
X-.2F7000S0
X-.5F1500S1000
X-20.1F7000S0
X-.2F1500S1000
X-1.9F7000S0
X-1.1F1500S1000
X-38.3F7000S0
X-.101F1500S1000
X-2F7000S0
X-1.099F1500S1000
X-4.401F7000S0
X-.3F1500S1000
X-.2F7000S0
X-.5F1500S1000
X-20.099F7000S0
X-.201F1500S1000
X-1.899F7000S0
X-1F1500S1000
X-38.201F7000S0
X-.2F1500S1000
X-1.899F7000S0
X-1.101F1500S1000
X-4.3F7000S0
X-.399F1500S1000
X-.2F7000S0
X-.5F1500S1000
X-20.1F7000S0
X-.2F1500S1000
X-1.9F7000S0
X-1.1F1500S1000
X-.625F7000S0
Y.1
X.625
X1F1500S1000
X1.9F7000S0
X.4F1500S1000
X20F7000S0
X.5F1500S1000
X.2F7000S0
X.3F1500S1000
X4.399F7000S0
X1F1500S1000
X1.9F7000S0
X.401F1500S1000
X37.999F7000S0
X1.101F1500S1000
X1.799F7000S0
X.401F1500S1000
X20F7000S0
X.599F1500S1000
X.1F7000S0
X.301F1500S1000
X4.4F7000S0
X1F1500S1000
X2F7000S0
X.299F1500S1000
X38.101F7000S0
X1.1F1500S1000
X1.9F7000S0
X.4F1500S1000
X20F7000S0
X.6F1500S1000
X.1F7000S0
X.3F1500S1000
X4.4F7000S0
X1F1500S1000
X2F7000S0
X.3F1500S1000
X38F7000S0
X1F1500S1000
X2F7000S0
X.3F1500S1000
X19.999F7000S0
X.601F1500S1000
X.1F7000S0
X.299F1500S1000
X4.401F7000S0
X1.099F1500S1000
X1.8F7000S0
X.401F1500S1000
X.625F7000S0
X.099Y.1
X-.625
X-.5F1500S1000
X-2F7000S0
X-1F1500S1000
X-4.199F7000S0
X-1.101F1500S1000
X-19.999F7000S0
X-.5F1500S1000
X-1.9F7000S0
X-.9F1500S1000
X-38F7000S0
X-.4F1500S1000
X-2F7000S0
X-1F1500S1000
X-4.3F7000S0
X-1F1500S1000
X-20F7000S0
X-.5F1500S1000
X-1.9F7000S0
X-1F1500S1000
X-38.101F7000S0
X-.399F1500S1000
X-2F7000S0
X-.9F1500S1000
X-4.401F7000S0
X-1F1500S1000
X-20F7000S0
X-.5F1500S1000
X-1.9F7000S0
X-1F1500S1000
X-37.799F7000S0
X-.5F1500S1000
X-1.9F7000S0
X-1.1F1500S1000
X-4.2F7000S0
X-1.1F1500S1000
X-20F7000S0
X-.4F1500S1000
X-2.1F7000S0
X-.9F1500S1000
X-.625F7000S0
Y.1
X.625
X.6F1500S1000
X2.3F7000S0
X.6F1500S1000
X19.9F7000S0
X.999F1500S1000
X4.3F7000S0
X.7F1500S1000
X2.201F7000S0
X.5F1500S1000
X37.899F7000S0
X.6F1500S1000
X2.301F7000S0
X.599F1500S1000
X19.901F7000S0
X1F1500S1000
X4.3F7000S0
X.6F1500S1000
X2.299F7000S0
X.601F1500S1000
X37.9F7000S0
X.7F1500S1000
X2.3F7000S0
X.5F1500S1000
X20F7000S0
X1F1500S1000
X4.3F7000S0
X.6F1500S1000
X2.3F7000S0
X.6F1500S1000
X37.7F7000S0
X.7F1500S1000
X2.3F7000S0
X.6F1500S1000
X19.899F7000S0
X1F1500S1000
X4.3F7000S0
X.7F1500S1000
X2.201F7000S0
X.599F1500S1000
X.625F7000S0
X7.5Y.1
X-.625
X-.3F1500S1000
X-7.2F7000S0
X-.599F1500S1000
X-2.3F7000S0
X-.7F1500S1000
X-4.201F7000S0
X-1F1500S1000
X-12.399F7000S0
X-.4F1500S1000
X-7.1F7000S0
X-.6F1500S1000
X-2.3F7000S0
X-.7F1500S1000
X-30.2F7000S0
X-.4F1500S1000
X-7.1F7000S0
X-.6F1500S1000
X-2.4F7000S0
X-.6F1500S1000
X-4.2F7000S0
X-1F1500S1000
X-12.4F7000S0
X-.4F1500S1000
X-7.1F7000S0
X-.6F1500S1000
X-2.3F7000S0
X-.7F1500S1000
X-30.4F7000S0
X-.4F1500S1000
X-7.1F7000S0
X-.601F1500S1000
X-2.299F7000S0
X-.701F1500S1000
X-4.2F7000S0
X-1F1500S1000
X-12.4F7000S0
X-.4F1500S1000
X-7.2F7000S0
X-.4F1500S1000
X-2.4F7000S0
X-.7F1500S1000
X-30.199F7000S0
X-.399F1500S1000
X-7.101F7000S0
X-.5F1500S1000
X-2.4F7000S0
X-.7F1500S1000
X-4.1F7000S0
X-1.1F1500S1000
X-12.4F7000S0
X-.4F1500S1000
X-7.1F7000S0
X-.6F1500S1000
X-2.3F7000S0
X-.7F1500S1000
X-.625F7000S0
X-.1Y.1
X.625
X.7F1500S1000
X2.4F7000S0
X.6F1500S1000
X7F7000S0
X.5F1500S1000
X12.4F7000S0
X1F1500S1000
X4.2F7000S0
X.7F1500S1000
X2.3F7000S0
X.6F1500S1000
X7.101F7000S0
X.5F1500S1000
X30.099F7000S0
X.7F1500S1000
X2.3F7000S0
X.6F1500S1000
X7.1F7000S0
X.5F1500S1000
X12.3F7000S0
X1F1500S1000
X4.1F7000S0
X.701F1500S1000
X2.399F7000S0
X.601F1500S1000
X7F7000S0
X.6F1500S1000
X30.3F7000S0
X.7F1500S1000
X2.2F7000S0
X.6F1500S1000
X7.1F7000S0
X.6F1500S1000
X12.3F7000S0
X1F1500S1000
X4.1F7000S0
X.7F1500S1000
X2.4F7000S0
X.6F1500S1000
X7F7000S0
X.5F1500S1000
X30.1F7000S0
X.7F1500S1000
X2.4F7000S0
X.6F1500S1000
X7F7000S0
X.6F1500S1000
X12.4F7000S0
X.899F1500S1000
X4.201F7000S0
X.599F1500S1000
X2.401F7000S0
X.599F1500S1000
X7.101F7000S0
X.5F1500S1000
X.625F7000S0
X4.099Y.1
X-.625
X-.099F1500S1000
X-3.901F7000S0
X-.899F1500S1000
X-6.801F7000S0
X-.599F1500S1000
X-2.3F7000S0
X-.7F1500S1000
X-.701F7000S0
X-.299F1500S1000
X-3.201F7000S0
X-.699F1500S1000
X-8.5F7000S0
X-.1F1500S1000
X-3.9F7000S0
X-.9F1500S1000
X-6.8F7000S0
X-.6F1500S1000
X-2.4F7000S0
X-.7F1500S1000
X-.6F7000S0
X-.3F1500S1000
X-25F7000S0
X-.1F1500S1000
X-3.9F7000S0
X-.9F1500S1000
X-6.8F7000S0
X-.6F1500S1000
X-2.4F7000S0
X-.7F1500S1000
X-.6F7000S0
X-.3F1500S1000
X-3.3F7000S0
X-.7F1500S1000
X-8.4F7000S0
X-.1F1500S1000
X-3.9F7000S0
X-1F1500S1000
X-6.7F7000S0
X-.6F1500S1000
X-2.3F7000S0
X-.7F1500S1000
X-.8F7000S0
X-.2F1500S1000
X-25.2F7000S0
X-.1F1500S1000
X-3.9F7000S0
X-.9F1500S1000
X-6.8F7000S0
X-.601F1500S1000
X-2.399F7000S0
X-.601F1500S1000
X-.7F7000S0
X-.3F1500S1000
X-3.299F7000S0
X-.701F1500S1000
X-8.399F7000S0
X-.101F1500S1000
X-3.899F7000S0
X-1F1500S1000
X-6.8F7000S0
X-.5F1500S1000
X-2.3F7000S0
X-.7F1500S1000
X-.699F7000S0
X-.301F1500S1000
X-25F7000S0
X-.099F1500S1000
X-3.801F7000S0
X-1.099F1500S1000
X-6.799F7000S0
X-.401F1500S1000
X-2.4F7000S0
X-.699F1500S1000
X-.701F7000S0
X-.299F1500S1000
X-3.301F7000S0
X-.699F1500S1000
X-8.401F7000S0
X-.099F1500S1000
X-3.901F7000S0
X-.899F1500S1000
X-6.8F7000S0
X-.6F1500S1000
X-2.4F7000S0
X-.6F1500S1000
X-.7F7000S0
X-.4F1500S1000
X-.625F7000S0
Y.1
X.625
X.5F1500S1000
X.5F7000S0
X.8F1500S1000
X2.3F7000S0
X.6F1500S1000
X6.699F7000S0
X1.101F1500S1000
X3.699F7000S0
X.2F1500S1000
X8.401F7000S0
X.699F1500S1000
X3.301F7000S0
X.3F1500S1000
X.7F7000S0
X.699F1500S1000
X2.301F7000S0
X.599F1500S1000
X6.701F7000S0
X1.099F1500S1000
X3.801F7000S0
X.199F1500S1000
X24.801F7000S0
X.4F1500S1000
X.699F7000S0
X.7F1500S1000
X2.4F7000S0
X.5F1500S1000
X6.701F7000S0
X1.1F1500S1000
X3.699F7000S0
X.201F1500S1000
X8.399F7000S0
X.701F1500S1000
X3.199F7000S0
X.5F1500S1000
X.6F7000S0
X.701F1500S1000
X2.299F7000S0
X.601F1500S1000
X6.7F7000S0
X1.1F1500S1000
X3.7F7000S0
X.3F1500S1000
X25F7000S0
X.4F1500S1000
X.7F7000S0
X.7F1500S1000
X2.3F7000S0
X.5F1500S1000
X6.8F7000S0
X1.1F1500S1000
X3.7F7000S0
X.3F1500S1000
X8.3F7000S0
X.7F1500S1000
X3.2F7000S0
X.5F1500S1000
X.6F7000S0
X.7F1500S1000
X2.3F7000S0
X.6F1500S1000
X6.7F7000S0
X1.1F1500S1000
X3.7F7000S0
X.2F1500S1000
X24.9F7000S0
X.5F1500S1000
X.6F7000S0
X.7F1500S1000
X2.3F7000S0
X.6F1500S1000
X6.7F7000S0
X1.1F1500S1000
X3.7F7000S0
X.3F1500S1000
X8.3F7000S0
X.699F1500S1000
X3.201F7000S0
X.5F1500S1000
X.6F7000S0
X.7F1500S1000
X2.3F7000S0
X.599F1500S1000
X6.7F7000S0
X1.201F1500S1000
X3.599F7000S0
X.2F1500S1000
X.625F7000S0
X.401Y.1
X-.625
X-.7F1500S1000
X-3.401F7000S0
X-1.399F1500S1000
X-3.601F7000S0
X-.5F1500S1000
X-2.5F7000S0
X-.599F1500S1000
X-2.3F7000S0
X-.7F1500S1000
X-.401F7000S0
X-.699F1500S1000
X-3.101F7000S0
X-1F1500S1000
X-7.899F7000S0
X-.7F1500S1000
X-3.4F7000S0
X-1.3F1500S1000
X-3.7F7000S0
X-.4F1500S1000
X-2.5F7000S0
X-.6F1500S1000
X-2.2F7000S0
X-.8F1500S1000
X-.5F7000S0
X-.7F1500S1000
X-24.5F7000S0
X-.7F1500S1000
X-3.3F7000S0
X-1.4F1500S1000
X-3.7F7000S0
X-.5F1500S1000
X-2.4F7000S0
X-.6F1500S1000
X-2.3F7000S0
X-.8F1500S1000
X-.4F7000S0
X-.7F1500S1000
X-3.1F7000S0
X-.9F1500S1000
X-7.9F7000S0
X-.6F1500S1000
X-3.6F7000S0
X-1.2F1500S1000
X-3.7F7000S0
X-.4F1500S1000
X-2.5F7000S0
X-.6F1500S1000
X-2.3F7000S0
X-.7F1500S1000
X-.5F7000S0
X-.7F1500S1000
X-24.7F7000S0
X-.7F1500S1000
X-3.3F7000S0
X-1.3F1500S1000
X-3.801F7000S0
X-.399F1500S1000
X-2.5F7000S0
X-.601F1500S1000
X-2.199F7000S0
X-.801F1500S1000
X-.5F7000S0
X-.6F1500S1000
X-3.199F7000S0
X-.9F1500S1000
X-7.901F7000S0
X-.599F1500S1000
X-3.5F7000S0
X-1.301F1500S1000
X-3.699F7000S0
X-.401F1500S1000
X-2.599F7000S0
X-.5F1500S1000
X-2.301F7000S0
X-.699F1500S1000
X-.5F7000S0
X-.6F1500S1000
X-24.6F7000S0
X-.601F1500S1000
X-3.499F7000S0
X-1.3F1500S1000
X-3.7F7000S0
X-.4F1500S1000
X-2.5F7000S0
X-.5F1500S1000
X-2.401F7000S0
X-.699F1500S1000
X-.4F7000S0
X-.701F1500S1000
X-3.2F7000S0
X-.899F1500S1000
X-7.8F7000S0
X-.7F1500S1000
X-3.6F7000S0
X-1.2F1500S1000
X-3.7F7000S0
X-.5F1500S1000
X-2.4F7000S0
X-.6F1500S1000
X-2.3F7000S0
X-.7F1500S1000
X-.5F7000S0
X-.6F1500S1000
X-.625F7000S0
X-.1Y.1
X.625
X.8F1500S1000
X.3F7000S0
X.8F1500S1000
X2.4F7000S0
X.1F1500S1000
X.1F7000S0
X.1F1500S1000
X2.6F7000S0
X.599F1500S1000
X3.5F7000S0
X1.499F1500S1000
X3.3F7000S0
X.801F1500S1000
X7.8F7000S0
X1.099F1500S1000
X.101F7000S0
X.3F1500S1000
X.099F7000S0
X.5F1500S1000
X.101F7000S0
X.399F1500S1000
X1.5F7000S0
X.701F1500S1000
X.299F7000S0
X.8F1500S1000
X2.401F7000S0
X.099F1500S1000
X2.801F7000S0
X.6F1500S1000
X3.6F7000S0
X1.4F1500S1000
X3.299F7000S0
X.801F1500S1000
X24.5F7000S0
X.699F1500S1000
X.301F7000S0
X.799F1500S1000
X2.601F7000S0
X.1F1500S1000
X2.6F7000S0
X.599F1500S1000
X3.6F7000S0
X1.301F1500S1000
X3.4F7000S0
X.9F1500S1000
X7.6F7000S0
X1.1F1500S1000
X.099F7000S0
X.1F1500S1000
X.101F7000S0
X.2F1500S1000
X.099F7000S0
X.201F1500S1000
X.1F7000S0
X.799F1500S1000
X1.301F7000S0
X.8F1500S1000
X.299F7000S0
X.901F1500S1000
X2.4F7000S0
X.1F1500S1000
X.1F7000S0
X.2F1500S1000
X2.399F7000S0
X.601F1500S1000
X3.5F7000S0
X1.5F1500S1000
X3.3F7000S0
X.8F1500S1000
X24.6F7000S0
X.8F1500S1000
X.3F7000S0
X.8F1500S1000
X2.4F7000S0
X.1F1500S1000
X.2F7000S0
X.1F1500S1000
X2.4F7000S0
X.7F1500S1000
X3.6F7000S0
X1.3F1500S1000
X3.3F7000S0
X.9F1500S1000
X7.7F7000S0
X1.1F1500S1000
X.1F7000S0
X.2F1500S1000
X.1F7000S0
X.2F1500S1000
X.1F7000S0
X.9F1500S1000
X1.4F7000S0
X.8F1500S1000
X.3F7000S0
X.8F1500S1000
X2.3F7000S0
X.1F1500S1000
X.1F7000S0
X.2F1500S1000
X.1F7000S0
X.1F1500S1000
X2.4F7000S0
X.6F1500S1000
X3.5F7000S0
X1.5F1500S1000
X3.3F7000S0
X.8F1500S1000
X24.4F7000S0
X.8F1500S1000
X.3F7000S0
X.8F1500S1000
X2.6F7000S0
X.1F1500S1000
X2.6F7000S0
X.6F1500S1000
X3.5F7000S0
X1.4F1500S1000
X3.4F7000S0
X.8F1500S1000
X7.699F7000S0
X2.201F1500S1000
X.1F7000S0
X.299F1500S1000
X.101F7000S0
X.1F1500S1000
X1.4F7000S0
X.699F1500S1000
X.301F7000S0
X.899F1500S1000
X2.601F7000S0
X.1F1500S1000
X2.5F7000S0
X.599F1500S1000
X3.601F7000S0
X1.399F1500S1000
X3.301F7000S0
X.8F1500S1000
X.625F7000S0
X.099Y.1
X-.625
X-1F1500S1000
X-3.2F7000S0
X-1.5F1500S1000
X-3.399F7000S0
X-.8F1500S1000
X-5.2F7000S0
X-.8F1500S1000
X-.301F7000S0
X-.699F1500S1000
X-.801F7000S0
X-3.499F1500S1000
X-7.6F7000S0
X-.8F1500S1000
X-3.3F7000S0
X-1.5F1500S1000
X-3.5F7000S0
X-.7F1500S1000
X-5.3F7000S0
X-.8F1500S1000
X-.1F7000S0
X-.9F1500S1000
X-24.4F7000S0
X-.9F1500S1000
X-3.2F7000S0
X-1.5F1500S1000
X-3.5F7000S0
X-.6F1500S1000
X-5.4F7000S0
X-.7F1500S1000
X-.3F7000S0
X-.7F1500S1000
X-.8F7000S0
X-3.7F1500S1000
X-7.3F7000S0
X-1F1500S1000
X-3.2F7000S0
X-1.5F1500S1000
X-3.5F7000S0
X-.7F1500S1000
X-5.3F7000S0
X-.8F1500S1000
X-.1F7000S0
X-.9F1500S1000
X-24.6F7000S0
X-.8F1500S1000
X-3.3F7000S0
X-1.5F1500S1000
X-3.4F7000S0
X-.701F1500S1000
X-5.399F7000S0
X-.7F1500S1000
X-.2F7000S0
X-.9F1500S1000
X-.6F7000S0
X-3.701F1500S1000
X-7.399F7000S0
X-1F1500S1000
X-3.2F7000S0
X-1.5F1500S1000
X-3.5F7000S0
X-.7F1500S1000
X-5.201F7000S0
X-.799F1500S1000
X-.201F7000S0
X-.799F1500S1000
X-24.4F7000S0
X-1F1500S1000
X-3.2F7000S0
X-1.5F1500S1000
X-3.5F7000S0
X-.7F1500S1000
X-5.201F7000S0
X-.799F1500S1000
X-.2F7000S0
X-.8F1500S1000
X-.8F7000S0
X-3.6F1500S1000
X-7.5F7000S0
X-.9F1500S1000
X-3.2F7000S0
X-1.5F1500S1000
X-3.5F7000S0
X-.7F1500S1000
X-5.2F7000S0
X-.8F1500S1000
X-.3F7000S0
X-.7F1500S1000
X-.625F7000S0
X-.1Y.1
X.625
X.8F1500S1000
X.3F7000S0
X.7F1500S1000
X5.3F7000S0
X.8F1500S1000
X3.3F7000S0
X1.6F1500S1000
X3.1F7000S0
X1F1500S1000
X7.1F7000S0
X4.5F1500S1000
X.3F7000S0
X.799F1500S1000
X.2F7000S0
X.7F1500S1000
X5.2F7000S0
X.9F1500S1000
X3.3F7000S0
X1.7F1500S1000
X3F7000S0
X1.1F1500S1000
X24.4F7000S0
X.799F1500S1000
X.201F7000S0
X.7F1500S1000
X5.2F7000S0
X.899F1500S1000
X3.301F7000S0
X1.699F1500S1000
X3F7000S0
X1.101F1500S1000
X7F7000S0
X4.6F1500S1000
X.2F7000S0
X.8F1500S1000
X.2F7000S0
X.7F1500S1000
X5.3F7000S0
X.8F1500S1000
X3.3F7000S0
X1.6F1500S1000
X3.2F7000S0
X.9F1500S1000
X24.6F7000S0
X.8F1500S1000
X.2F7000S0
X.8F1500S1000
X5.2F7000S0
X.9F1500S1000
X3.3F7000S0
X1.6F1500S1000
X3.1F7000S0
X1.1F1500S1000
X6.8F7000S0
X4.7F1500S1000
X.2F7000S0
X.8F1500S1000
X.3F7000S0
X.7F1500S1000
X5.3F7000S0
X.8F1500S1000
X3.3F7000S0
X1.6F1500S1000
X3.2F7000S0
X.9F1500S1000
X24.4F7000S0
X.9F1500S1000
X.2F7000S0
X.7F1500S1000
X5.3F7000S0
X.8F1500S1000
X3.3F7000S0
X1.6F1500S1000
X3.2F7000S0
X.9F1500S1000
X7F7000S0
X4.599F1500S1000
X.301F7000S0
X.8F1500S1000
X.2F7000S0
X.699F1500S1000
X5.301F7000S0
X.899F1500S1000
X3.3F7000S0
X1.601F1500S1000
X3.099F7000S0
X1F1500S1000
X.625F7000S0
X-.099Y.1
X-.625
X-1F1500S1000
X-2.901F7000S0
X-1.799F1500S1000
X-3.201F7000S0
X-1F1500S1000
X-5.2F7000S0
X-.699F1500S1000
X-.301F7000S0
X-5.9F1500S1000
X-6.599F7000S0
X-1F1500S1000
X-3.1F7000S0
X-1.7F1500S1000
X-3.3F7000S0
X-.9F1500S1000
X-5.3F7000S0
X-.7F1500S1000
X-.1F7000S0
X-.9F1500S1000
X-24.4F7000S0
X-1F1500S1000
X-3F7000S0
X-1.7F1500S1000
X-3.2F7000S0
X-1F1500S1000
X-5.3F7000S0
X-.7F1500S1000
X-.2F7000S0
X-6F1500S1000
X-6.5F7000S0
X-1F1500S1000
X-3.1F7000S0
X-1.7F1500S1000
X-3.3F7000S0
X-.9F1500S1000
X-5.3F7000S0
X-.7F1500S1000
X-.1F7000S0
X-.9F1500S1000
X-24.5F7000S0
X-1F1500S1000
X-3.1F7000S0
X-1.7F1500S1000
X-3.3F7000S0
X-.9F1500S1000
X-5.301F7000S0
X-.599F1500S1000
X-.2F7000S0
X-6F1500S1000
X-6.6F7000S0
X-1.101F1500S1000
X-3F7000S0
X-1.699F1500S1000
X-3.2F7000S0
X-1F1500S1000
X-5.2F7000S0
X-.8F1500S1000
X-.2F7000S0
X-.7F1500S1000
X-24.4F7000S0
X-1F1500S1000
X-3.1F7000S0
X-1.7F1500S1000
X-3.2F7000S0
X-.9F1500S1000
X-5.4F7000S0
X-.7F1500S1000
X-.101F7000S0
X-6.099F1500S1000
X-6.6F7000S0
X-1F1500S1000
X-3F7000S0
X-1.7F1500S1000
X-3.3F7000S0
X-.9F1500S1000
X-5.3F7000S0
X-.7F1500S1000
X-.2F7000S0
X-.7F1500S1000
X-.625F7000S0
X-.1Y.1
X.625
X.8F1500S1000
X.2F7000S0
X.8F1500S1000
X5.1F7000S0
X1.1F1500S1000
X3.2F7000S0
X1.8F1500S1000
X2.9F7000S0
X1.1F1500S1000
X1.8F7000S0
X.2F1500S1000
X2.8F7000S0
X.799F1500S1000
X.601F7000S0
X6.3F1500S1000
X.2F7000S0
X.7F1500S1000
X5.3F7000S0
X1F1500S1000
X3.2F7000S0
X1.8F1500S1000
X2.9F7000S0
X1.1F1500S1000
X1.699F7000S0
X.201F1500S1000
X2.9F7000S0
X.799F1500S1000
X18.801F7000S0
X.799F1500S1000
X.101F7000S0
X.799F1500S1000
X5.201F7000S0
X1F1500S1000
X3.2F7000S0
X1.8F1500S1000
X3F7000S0
X1F1500S1000
X1.799F7000S0
X.1F1500S1000
X2.9F7000S0
X.801F1500S1000
X.699F7000S0
X6.201F1500S1000
X.2F7000S0
X.699F1500S1000
X5.301F7000S0
X1.1F1500S1000
X3.1F7000S0
X1.8F1500S1000
X3F7000S0
X1F1500S1000
X1.8F7000S0
X.2F1500S1000
X2.8F7000S0
X.8F1500S1000
X18.9F7000S0
X.8F1500S1000
X.2F7000S0
X.7F1500S1000
X5.2F7000S0
X1.1F1500S1000
X3.2F7000S0
X1.8F1500S1000
X2.9F7000S0
X1.1F1500S1000
X1.7F7000S0
X.2F1500S1000
X2.9F7000S0
X.7F1500S1000
X.6F7000S0
X6.4F1500S1000
X.2F7000S0
X.7F1500S1000
X5.3F7000S0
X1F1500S1000
X3.3F7000S0
X1.7F1500S1000
X2.9F7000S0
X1.2F1500S1000
X1.7F7000S0
X.2F1500S1000
X2.8F7000S0
X.8F1500S1000
X18.8F7000S0
X.7F1500S1000
X.2F7000S0
X.7F1500S1000
X5.3F7000S0
X1.1F1500S1000
X3.1F7000S0
X1.8F1500S1000
X2.9F7000S0
X1.1F1500S1000
X1.8F7000S0
X.2F1500S1000
X2.8F7000S0
X.7F1500S1000
X.599F7000S0
X6.4F1500S1000
X.2F7000S0
X.8F1500S1000
X5.101F7000S0
X1.099F1500S1000
X3.201F7000S0
X1.799F1500S1000
X2.901F7000S0
X1.2F1500S1000
X1.699F7000S0
X.101F1500S1000
X2.899F7000S0
X.801F1500S1000
X.625F7000S0
X.1Y.1
X-.625
X-1F1500S1000
X-2.6F7000S0
X-.4F1500S1000
X-1.6F7000S0
X-1.2F1500S1000
X-2.901F7000S0
X-1.799F1500S1000
X-3.201F7000S0
X-1.099F1500S1000
X-5.2F7000S0
X-3.401F1500S1000
X-.199F7000S0
X-.101F1500S1000
X-.599F7000S0
X-.1F1500S1000
X-.2F7000S0
X-.101F1500S1000
X-.1F7000S0
X-.099F1500S1000
X-.1F7000S0
X-2.5F1500S1000
X-.1F7000S0
X-1.101F1500S1000
X-2.599F7000S0
X-.4F1500S1000
X-1.6F7000S0
X-1.2F1500S1000
X-2.9F7000S0
X-1.8F1500S1000
X-3.1F7000S0
X-1.2F1500S1000
X-5.2F7000S0
X-.7F1500S1000
X-.2F7000S0
X-.8F1500S1000
X-18.6F7000S0
X-1F1500S1000
X-2.6F7000S0
X-.4F1500S1000
X-1.6F7000S0
X-1.2F1500S1000
X-2.9F7000S0
X-1.8F1500S1000
X-3.2F7000S0
X-1.1F1500S1000
X-5.2F7000S0
X-3.4F1500S1000
X-.5F7000S0
X-.1F1500S1000
X-.2F7000S0
X-.1F1500S1000
X-.1F7000S0
X-.1F1500S1000
X-.1F7000S0
X-.1F1500S1000
X-.1F7000S0
X-.1F1500S1000
X-.1F7000S0
X-2.6F1500S1000
X-.1F7000S0
X-1F1500S1000
X-2.7F7000S0
X-.3F1500S1000
X-1.7F7000S0
X-1.1F1500S1000
X-2.9F7000S0
X-1.8F1500S1000
X-3.1F7000S0
X-1.2F1500S1000
X-5.2F7000S0
X-.8F1500S1000
X-.1F7000S0
X-.8F1500S1000
X-18.9F7000S0
X-.9F1500S1000
X-2.7F7000S0
X-.3F1500S1000
X-1.6F7000S0
X-1.2F1500S1000
X-2.9F7000S0
X-1.7F1500S1000
X-3.2F7000S0
X-1.2F1500S1000
X-5.201F7000S0
X-3.199F1500S1000
X-.301F7000S0
X-.1F1500S1000
X-.199F7000S0
X-.1F1500S1000
X-.101F7000S0
X-.1F1500S1000
X-.199F7000S0
X-.1F1500S1000
X-.101F7000S0
X-.1F1500S1000
X-.099F7000S0
X-.1F1500S1000
X-.1F7000S0
X-2.601F1500S1000
X-.1F7000S0
X-.099F1500S1000
X-.1F7000S0
X-.9F1500S1000
X-2.6F7000S0
X-.4F1500S1000
X-1.7F7000S0
X-1.101F1500S1000
X-2.899F7000S0
X-1.8F1500S1000
X-3.1F7000S0
X-1.201F1500S1000
X-5.199F7000S0
X-.801F1500S1000
X-.1F7000S0
X-.799F1500S1000
X-18.701F7000S0
X-.9F1500S1000
X-2.6F7000S0
X-.4F1500S1000
X-1.6F7000S0
X-1.199F1500S1000
X-2.9F7000S0
X-1.8F1500S1000
X-3.101F7000S0
X-1.2F1500S1000
X-5.199F7000S0
X-3.301F1500S1000
X-.099F7000S0
X-.1F1500S1000
X-.2F7000S0
X-.101F1500S1000
X-.199F7000S0
X-.101F1500S1000
X-.2F7000S0
X-.099F1500S1000
X-.201F7000S0
X-.099F1500S1000
X-.101F7000S0
X-.099F1500S1000
X-.1F7000S0
X-2.601F1500S1000
X-.099F7000S0
X-1.101F1500S1000
X-2.5F7000S0
X-.399F1500S1000
X-1.7F7000S0
X-1.1F1500S1000
X-2.9F7000S0
X-1.9F1500S1000
X-3.1F7000S0
X-1.1F1500S1000
X-5.2F7000S0
X-.7F1500S1000
X-.2F7000S0
X-.8F1500S1000
X-.625F7000S0
Y.1
X.625
X.8F1500S1000
X.2F7000S0
X.7F1500S1000
X5.2F7000S0
X1.1F1500S1000
X3.2F7000S0
X1.8F1500S1000
X2.799F7000S0
X1.201F1500S1000
X1.599F7000S0
X.601F1500S1000
X2.399F7000S0
X3.101F1500S1000
X3.099F7000S0
X2.5F1500S1000
X5.3F7000S0
X1.2F1500S1000
X3.101F7000S0
X1.8F1500S1000
X2.799F7000S0
X1.3F1500S1000
X1.6F7000S0
X.5F1500S1000
X2.4F7000S0
X1.201F1500S1000
X18.399F7000S0
X1.701F1500S1000
X5.4F7000S0
X1.1F1500S1000
X3.1F7000S0
X1.8F1500S1000
X2.899F7000S0
X1.201F1500S1000
X1.5F7000S0
X.6F1500S1000
X2.4F7000S0
X3.199F1500S1000
X3.1F7000S0
X2.5F1500S1000
X5.201F7000S0
X1.2F1500S1000
X3.1F7000S0
X1.8F1500S1000
X2.8F7000S0
X1.3F1500S1000
X1.5F7000S0
X.6F1500S1000
X2.4F7000S0
X1.2F1500S1000
X18.6F7000S0
X.9F1500S1000
X.1F7000S0
X.7F1500S1000
X5.3F7000S0
X1.2F1500S1000
X3.1F7000S0
X1.8F1500S1000
X2.8F7000S0
X1.2F1500S1000
X1.7F7000S0
X.5F1500S1000
X2.4F7000S0
X3F1500S1000
X3.2F7000S0
X2.6F1500S1000
X5.2F7000S0
X1.1F1500S1000
X3.2F7000S0
X1.8F1500S1000
X2.8F7000S0
X1.3F1500S1000
X1.5F7000S0
X.6F1500S1000
X2.4F7000S0
X1.2F1500S1000
X18.4F7000S0
X1F1500S1000
X.1F7000S0
X.6F1500S1000
X5.3F7000S0
X1.2F1500S1000
X3.1F7000S0
X1.8F1500S1000
X2.8F7000S0
X1.3F1500S1000
X1.5F7000S0
X.6F1500S1000
X2.399F7000S0
X3F1500S1000
X3.201F7000S0
X2.6F1500S1000
X5.299F7000S0
X1.101F1500S1000
X3.1F7000S0
X1.9F1500S1000
X2.699F7000S0
X1.301F1500S1000
X1.6F7000S0
X.5F1500S1000
X2.4F7000S0
X1.199F1500S1000
X.625F7000S0
X.101Y.1
X-.625
X-1.401F1500S1000
X-2.299F7000S0
X-.6F1500S1000
X-1.5F7000S0
X-1.2F1500S1000
X-2.901F7000S0
X-1.799F1500S1000
X-3.201F7000S0
X-1.099F1500S1000
X-5.2F7000S0
X-2.1F1500S1000
X-4.201F7000S0
X-2.599F1500S1000
X-2.3F7000S0
X-.6F1500S1000
X-1.5F7000S0
X-1.2F1500S1000
X-2.9F7000S0
X-1.8F1500S1000
X-3.1F7000S0
X-1.2F1500S1000
X-5.2F7000S0
X-1.7F1500S1000
X-18.5F7000S0
X-1.3F1500S1000
X-2.3F7000S0
X-.6F1500S1000
X-1.5F7000S0
X-1.3F1500S1000
X-2.8F7000S0
X-1.9F1500S1000
X-3.1F7000S0
X-1.1F1500S1000
X-5.2F7000S0
X-2.1F1500S1000
X-4.3F7000S0
X-2.5F1500S1000
X-2.3F7000S0
X-.6F1500S1000
X-1.5F7000S0
X-1.3F1500S1000
X-2.8F7000S0
X-1.9F1500S1000
X-3.1F7000S0
X-1.1F1500S1000
X-5.3F7000S0
X-1.6F1500S1000
X-18.6F7000S0
X-1.4F1500S1000
X-2.3F7000S0
X-.6F1500S1000
X-1.5F7000S0
X-1.3F1500S1000
X-2.8F7000S0
X-1.8F1500S1000
X-3.1F7000S0
X-1.2F1500S1000
X-5.301F7000S0
X-1.9F1500S1000
X-4.199F7000S0
X-2.7F1500S1000
X-2.3F7000S0
X-.5F1500S1000
X-1.7F7000S0
X-1.201F1500S1000
X-2.799F7000S0
X-1.9F1500S1000
X-3.1F7000S0
X-1F1500S1000
X-5.4F7000S0
X-1.6F1500S1000
X-18.5F7000S0
X-1.3F1500S1000
X-2.301F7000S0
X-.5F1500S1000
X-1.699F7000S0
X-1.201F1500S1000
X-2.799F7000S0
X-1.901F1500S1000
X-3F7000S0
X-1.099F1500S1000
X-5.401F7000S0
X-1.899F1500S1000
X-4.301F7000S0
X-2.599F1500S1000
X-2.299F7000S0
X-.601F1500S1000
X-1.599F7000S0
X-1.2F1500S1000
X-2.799F7000S0
X-1.8F1500S1000
X-3.2F7000S0
X-1.1F1500S1000
X-4.9F7000S0
X-.1F1500S1000
X-.3F7000S0
X-1.6F1500S1000
X-.625F7000S0
Y.1
X.625
X1.6F1500S1000
X.2F7000S0
X.3F1500S1000
X4.8F7000S0
X1.1F1500S1000
X3.1F7000S0
X1.9F1500S1000
X2.9F7000S0
X1.1F1500S1000
X1.599F7000S0
X.601F1500S1000
X2.2F7000S0
X2.3F1500S1000
X5F7000S0
X1.8F1500S1000
X.099F7000S0
X.101F1500S1000
X5F7000S0
X1.099F1500S1000
X3F7000S0
X1.901F1500S1000
X2.799F7000S0
X1.3F1500S1000
X1.5F7000S0
X.6F1500S1000
X2.301F7000S0
X1.4F1500S1000
X18.4F7000S0
X1.6F1500S1000
X.299F7000S0
X.201F1500S1000
X4.799F7000S0
X1.201F1500S1000
X3F7000S0
X1.9F1500S1000
X2.899F7000S0
X1.101F1500S1000
X1.6F7000S0
X.6F1500S1000
X2.199F7000S0
X2.401F1500S1000
X4.9F7000S0
X2.099F1500S1000
X4.8F7000S0
X1.2F1500S1000
X3F7000S0
X1.9F1500S1000
X2.8F7000S0
X1.3F1500S1000
X1.5F7000S0
X.6F1500S1000
X2.3F7000S0
X1.4F1500S1000
X18.6F7000S0
X1.6F1500S1000
X.3F7000S0
X.1F1500S1000
X4.9F7000S0
X1.2F1500S1000
X3F7000S0
X1.9F1500S1000
X2.9F7000S0
X1.1F1500S1000
X1.6F7000S0
X.6F1500S1000
X2.2F7000S0
X2.3F1500S1000
X5F7000S0
X1.7F1500S1000
X.1F7000S0
X.3F1500S1000
X4.8F7000S0
X1.1F1500S1000
X3.1F7000S0
X1.9F1500S1000
X2.8F7000S0
X1.3F1500S1000
X1.5F7000S0
X.6F1500S1000
X2.2F7000S0
X1.5F1500S1000
X18.4F7000S0
X1.6F1500S1000
X.2F7000S0
X.3F1500S1000
X4.8F7000S0
X1.2F1500S1000
X3F7000S0
X1.9F1500S1000
X2.9F7000S0
X1.2F1500S1000
X1.5F7000S0
X.6F1500S1000
X2.3F7000S0
X2.3F1500S1000
X4.899F7000S0
X2.101F1500S1000
X4.8F7000S0
X1.2F1500S1000
X3F7000S0
X2F1500S1000
X2.699F7000S0
X1.2F1500S1000
X1.601F7000S0
X.699F1500S1000
X2.101F7000S0
X1.599F1500S1000
X.625F7000S0
Y.1
X-.625
X-1.599F1500S1000
X-2.2F7000S0
X-.5F1500S1000
X-1.701F7000S0
X-1.099F1500S1000
X-2.901F7000S0
X-1.899F1500S1000
X-3.101F7000S0
X-1F1500S1000
X-4.799F7000S0
X-1.901F1500S1000
X-5.599F7000S0
X-2F1500S1000
X-2.2F7000S0
X-.6F1500S1000
X-1.6F7000S0
X-1F1500S1000
X-3F7000S0
X-2F1500S1000
X-2.9F7000S0
X-1.2F1500S1000
X-4.7F7000S0
X-.4F1500S1000
X-.1F7000S0
X-1.7F1500S1000
X-18.3F7000S0
X-1.6F1500S1000
X-2.2F7000S0
X-.6F1500S1000
X-1.6F7000S0
X-1.1F1500S1000
X-2.9F7000S0
X-1.9F1500S1000
X-3.1F7000S0
X-1.1F1500S1000
X-4.7F7000S0
X-1.9F1500S1000
X-5.7F7000S0
X-1.9F1500S1000
X-2.2F7000S0
X-.6F1500S1000
X-1.6F7000S0
X-1F1500S1000
X-3F7000S0
X-2F1500S1000
X-2.9F7000S0
X-1.2F1500S1000
X-4.8F7000S0
X-.3F1500S1000
X-.2F7000S0
X-1.6F1500S1000
X-18.5F7000S0
X-1.6F1500S1000
X-2.2F7000S0
X-.6F1500S1000
X-1.6F7000S0
X-1.1F1500S1000
X-2.9F7000S0
X-1.9F1500S1000
X-3F7000S0
X-1.2F1500S1000
X-4.701F7000S0
X-1.799F1500S1000
X-5.6F7000S0
X-2.101F1500S1000
X-2.299F7000S0
X-.4F1500S1000
X-1.7F7000S0
X-1F1500S1000
X-3F7000S0
X-1.9F1500S1000
X-3F7000S0
X-1.1F1500S1000
X-4.9F7000S0
X-.301F1500S1000
X-.199F7000S0
X-1.5F1500S1000
X-18.4F7000S0
X-1.599F1500S1000
X-2.201F7000S0
X-.5F1500S1000
X-1.7F7000S0
X-1.099F1500S1000
X-2.901F7000S0
X-1.9F1500S1000
X-3F7000S0
X-1.1F1500S1000
X-4.799F7000S0
X-1.9F1500S1000
X-5.599F7000S0
X-2F1500S1000
X-2.201F7000S0
X-.6F1500S1000
X-1.6F7000S0
X-1.099F1500S1000
X-2.901F7000S0
X-1.899F1500S1000
X-3.101F7000S0
X-1.099F1500S1000
X-4.8F7000S0
X-.3F1500S1000
X-.2F7000S0
X-1.5F1500S1000
X-.625F7000S0
X-.1Y.1
X.625
X1.6F1500S1000
X.2F7000S0
X.5F1500S1000
X4.6F7000S0
X1.099F1500S1000
X3.101F7000S0
X1.899F1500S1000
X2.901F7000S0
X1F1500S1000
X1.699F7000S0
X.6F1500S1000
X2.1F7000S0
X1.8F1500S1000
X6.301F7000S0
X1.599F1500S1000
X4.6F7000S0
X1.2F1500S1000
X3F7000S0
X1.9F1500S1000
X2.9F7000S0
X1.099F1500S1000
X1.7F7000S0
X.5F1500S1000
X2.201F7000S0
X1.599F1500S1000
X18.401F7000S0
X1.5F1500S1000
X.199F7000S0
X.5F1500S1000
X4.6F7000S0
X1.101F1500S1000
X3.1F7000S0
X1.9F1500S1000
X2.899F7000S0
X1.101F1500S1000
X1.6F7000S0
X.6F1500S1000
X2.199F7000S0
X1.701F1500S1000
X6.4F7000S0
X1.6F1500S1000
X4.5F7000S0
X1.2F1500S1000
X2.9F7000S0
X2F1500S1000
X2.9F7000S0
X1.1F1500S1000
X1.6F7000S0
X.6F1500S1000
X2.1F7000S0
X1.7F1500S1000
X18.5F7000S0
X1.6F1500S1000
X.1F7000S0
X.6F1500S1000
X4.6F7000S0
X1.1F1500S1000
X3.1F7000S0
X1.9F1500S1000
X2.9F7000S0
X1.1F1500S1000
X1.6F7000S0
X.6F1500S1000
X2.1F7000S0
X1.7F1500S1000
X6.3F7000S0
X1.7F1500S1000
X4.6F7000S0
X1.1F1500S1000
X3.1F7000S0
X1.9F1500S1000
X2.9F7000S0
X1F1500S1000
X1.7F7000S0
X.6F1500S1000
X2.1F7000S0
X1.7F1500S1000
X18.4F7000S0
X1.5F1500S1000
X.1F7000S0
X.6F1500S1000
X4.6F7000S0
X1.2F1500S1000
X3F7000S0
X1.9F1500S1000
X2.9F7000S0
X1.1F1500S1000
X1.6F7000S0
X.6F1500S1000
X2.1F7000S0
X1.799F1500S1000
X6.301F7000S0
X1.599F1500S1000
X4.601F7000S0
X1.2F1500S1000
X3F7000S0
X2F1500S1000
X2.8F7000S0
X1.099F1500S1000
X1.601F7000S0
X.6F1500S1000
X2.2F7000S0
X1.599F1500S1000
X.625F7000S0
X.101Y.1
X-.625
X-1.7F1500S1000
X-2.101F7000S0
X-.699F1500S1000
X-1.7F7000S0
X-1F1500S1000
X-2.901F7000S0
X-1.899F1500S1000
X-3.101F7000S0
X-1.099F1500S1000
X-4.401F7000S0
X-1.399F1500S1000
X-7.101F7000S0
X-1.399F1500S1000
X-2.1F7000S0
X-.6F1500S1000
X-1.7F7000S0
X-1F1500S1000
X-2.9F7000S0
X-1.9F1500S1000
X-3F7000S0
X-1.2F1500S1000
X-4.5F7000S0
X-.7F1500S1000
X-.1F7000S0
X-1.2F1500S1000
X-.1F7000S0
X-.1F1500S1000
X-18.5F7000S0
X-1.7F1500S1000
X-2.1F7000S0
X-.6F1500S1000
X-1.7F7000S0
X-1F1500S1000
X-2.9F7000S0
X-1.9F1500S1000
X-3.1F7000S0
X-1.1F1500S1000
X-4.4F7000S0
X-1.5F1500S1000
X-6.9F7000S0
X-.1F1500S1000
X-.1F7000S0
X-1.3F1500S1000
X-.1F7000S0
X-.1F1500S1000
X-1.9F7000S0
X-.6F1500S1000
X-1.7F7000S0
X-1F1500S1000
X-2.9F7000S0
X-1.9F1500S1000
X-3F7000S0
X-1.2F1500S1000
X-4.5F7000S0
X-.7F1500S1000
X-.2F7000S0
X-1.1F1500S1000
X-.1F7000S0
X-.1F1500S1000
X-18.7F7000S0
X-1.7F1500S1000
X-2.1F7000S0
X-.6F1500S1000
X-1.7F7000S0
X-.9F1500S1000
X-3F7000S0
X-1.9F1500S1000
X-3F7000S0
X-1.2F1500S1000
X-4.4F7000S0
X-1.301F1500S1000
X-7.199F7000S0
X-1.4F1500S1000
X-2.1F7000S0
X-.5F1500S1000
X-1.7F7000S0
X-1.101F1500S1000
X-2.899F7000S0
X-1.9F1500S1000
X-3F7000S0
X-1.1F1500S1000
X-4.601F7000S0
X-.599F1500S1000
X-.3F7000S0
X-1F1500S1000
X-.101F7000S0
X-.099F1500S1000
X-.1F7000S0
X-.1F1500S1000
X-18.4F7000S0
X-1.6F1500S1000
X-2.201F7000S0
X-.599F1500S1000
X-1.6F7000S0
X-1F1500S1000
X-3F7000S0
X-1.9F1500S1000
X-3F7000S0
X-1.201F1500S1000
X-4.399F7000S0
X-1.4F1500S1000
X-7.1F7000S0
X-1.5F1500S1000
X-2F7000S0
X-.601F1500S1000
X-1.699F7000S0
X-1F1500S1000
X-2.9F7000S0
X-1.9F1500S1000
X-3.1F7000S0
X-1.1F1500S1000
X-4.5F7000S0
X-.7F1500S1000
X-.2F7000S0
X-1.1F1500S1000
X-.1F7000S0
X-.1F1500S1000
X-.625F7000S0
X.4Y.1
X.625
X.9F1500S1000
X.2F7000S0
X.7F1500S1000
X4.5F7000S0
X1.1F1500S1000
X3.1F7000S0
X1.9F1500S1000
X3F7000S0
X.9F1500S1000
X1.699F7000S0
X.5F1500S1000
X1.901F7000S0
X1.4F1500S1000
X7.6F7000S0
X1.5F1500S1000
X4.2F7000S0
X1F1500S1000
X3.1F7000S0
X1.9F1500S1000
X2.9F7000S0
X1F1500S1000
X1.799F7000S0
X.5F1500S1000
X2.101F7000S0
X1.8F1500S1000
X18.7F7000S0
X1F1500S1000
X.2F7000S0
X.8F1500S1000
X4.399F7000S0
X1.201F1500S1000
X3F7000S0
X1.9F1500S1000
X3F7000S0
X.899F1500S1000
X1.801F7000S0
X.5F1500S1000
X1.8F7000S0
X1.5F1500S1000
X7.7F7000S0
X1.3F1500S1000
X4.2F7000S0
X1F1500S1000
X3.1F7000S0
X1.9F1500S1000
X3F7000S0
X.9F1500S1000
X1.8F7000S0
X.5F1500S1000
X2.1F7000S0
X1.8F1500S1000
X18.9F7000S0
X1F1500S1000
X.2F7000S0
X.7F1500S1000
X4.5F7000S0
X1.1F1500S1000
X3.1F7000S0
X1.9F1500S1000
X3F7000S0
X.9F1500S1000
X1.7F7000S0
X.6F1500S1000
X1.8F7000S0
X1.3F1500S1000
X7.7F7000S0
X1.3F1500S1000
X4.3F7000S0
X1.1F1500S1000
X3F7000S0
X2F1500S1000
X3F7000S0
X.9F1500S1000
X1.8F7000S0
X.4F1500S1000
X2.2F7000S0
X1.7F1500S1000
X18.8F7000S0
X1F1500S1000
X.2F7000S0
X.8F1500S1000
X4.5F7000S0
X1F1500S1000
X3F7000S0
X2F1500S1000
X3F7000S0
X.9F1500S1000
X1.8F7000S0
X.5F1500S1000
X1.8F7000S0
X1.4F1500S1000
X7.7F7000S0
X1.399F1500S1000
X4.201F7000S0
X1.1F1500S1000
X3F7000S0
X2F1500S1000
X2.9F7000S0
X1F1500S1000
X1.7F7000S0
X.5F1500S1000
X2.099F7000S0
X1.701F1500S1000
X.625F7000S0
X.1Y.1
X-.625
X-1.801F1500S1000
X-2.299F7000S0
X-.3F1500S1000
X-1.8F7000S0
X-.9F1500S1000
X-3F7000S0
X-1.9F1500S1000
X-3.1F7000S0
X-1F1500S1000
X-4.1F7000S0
X-1.3F1500S1000
X-8.101F7000S0
X-1.299F1500S1000
X-1.8F7000S0
X-.3F1500S1000
X-2F7000S0
X-.7F1500S1000
X-3.1F7000S0
X-1.9F1500S1000
X-3.2F7000S0
X-.9F1500S1000
X-4.5F7000S0
X-1.9F1500S1000
X-.2F7000S0
X-.1F1500S1000
X-18.5F7000S0
X-1.9F1500S1000
X-2.2F7000S0
X-.3F1500S1000
X-1.9F7000S0
X-.8F1500S1000
X-3F7000S0
X-1.9F1500S1000
X-3.2F7000S0
X-.9F1500S1000
X-4.2F7000S0
X-1.2F1500S1000
X-8.2F7000S0
X-1.3F1500S1000
X-1.7F7000S0
X-.4F1500S1000
X-1.9F7000S0
X-.8F1500S1000
X-3F7000S0
X-1.9F1500S1000
X-3.1F7000S0
X-1.1F1500S1000
X-4.4F7000S0
X-1.9F1500S1000
X-19F7000S0
X-1.9F1500S1000
X-2.2F7000S0
X-.2F1500S1000
X-2F7000S0
X-.7F1500S1000
X-3.1F7000S0
X-1.9F1500S1000
X-3.2F7000S0
X-.9F1500S1000
X-4.1F7000S0
X-1.3F1500S1000
X-8.1F7000S0
X-1.301F1500S1000
X-1.799F7000S0
X-.4F1500S1000
X-1.801F7000S0
X-.899F1500S1000
X-3F7000S0
X-1.9F1500S1000
X-3.1F7000S0
X-1F1500S1000
X-4.5F7000S0
X-1.9F1500S1000
X-18.8F7000S0
X-1.901F1500S1000
X-2.199F7000S0
X-.301F1500S1000
X-1.799F7000S0
X-.9F1500S1000
X-3F7000S0
X-1.9F1500S1000
X-3.1F7000S0
X-1F1500S1000
X-4.101F7000S0
X-1.3F1500S1000
X-8.2F7000S0
X-1.3F1500S1000
X-1.7F7000S0
X-.399F1500S1000
X-1.8F7000S0
X-.9F1500S1000
X-3F7000S0
X-1.9F1500S1000
X-3.1F7000S0
X-1F1500S1000
X-4.5F7000S0
X-1.9F1500S1000
X-.2F7000S0
X-.1F1500S1000
X-.625F7000S0
X-.1Y.1
X.625
X.2F1500S1000
X.2F7000S0
X1.9F1500S1000
X4.6F7000S0
X.8F1500S1000
X3.2F7000S0
X1.9F1500S1000
X3.099F7000S0
X.7F1500S1000
X2F7000S0
X.201F1500S1000
X1.599F7000S0
X1.301F1500S1000
X8.6F7000S0
X1.299F1500S1000
X4F7000S0
X.8F1500S1000
X3.2F7000S0
X1.901F1500S1000
X3F7000S0
X.8F1500S1000
X2F7000S0
X.1F1500S1000
X2.299F7000S0
X2F1500S1000
X18.301F7000S0
X.199F1500S1000
X.201F7000S0
X2F1500S1000
X4.5F7000S0
X.799F1500S1000
X3.201F7000S0
X1.9F1500S1000
X3.1F7000S0
X.699F1500S1000
X1.901F7000S0
X.4F1500S1000
X1.699F7000S0
X1.201F1500S1000
X8.6F7000S0
X1.199F1500S1000
X4.001F7000S0
X.8F1500S1000
X3.2F7000S0
X1.9F1500S1000
X3.1F7000S0
X.7F1500S1000
X2F7000S0
X.2F1500S1000
X2.2F7000S0
X2F1500S1000
X18.5F7000S0
X.2F1500S1000
X.2F7000S0
X2F1500S1000
X4.4F7000S0
X.9F1500S1000
X3.1F7000S0
X2F1500S1000
X3F7000S0
X.8F1500S1000
X1.9F7000S0
X.3F1500S1000
X1.6F7000S0
X1.3F1500S1000
X8.5F7000S0
X1.3F1500S1000
X4.1F7000S0
X.8F1500S1000
X3.2F7000S0
X1.9F1500S1000
X3.1F7000S0
X.7F1500S1000
X2F7000S0
X.1F1500S1000
X2.3F7000S0
X1.9F1500S1000
X18.4F7000S0
X.3F1500S1000
X.1F7000S0
X2F1500S1000
X4.5F7000S0
X.8F1500S1000
X3.2F7000S0
X1.9F1500S1000
X3.1F7000S0
X.7F1500S1000
X2F7000S0
X.2F1500S1000
X1.699F7000S0
X1.201F1500S1000
X8.7F7000S0
X1.099F1500S1000
X4.101F7000S0
X.8F1500S1000
X3.2F7000S0
X2F1500S1000
X3F7000S0
X.8F1500S1000
X1.899F7000S0
X.2F1500S1000
X2.3F7000S0
X1.801F1500S1000
X.625F7000S0
X.1Y.1
X-.625
X-1.901F1500S1000
X-4.5F7000S0
X-.5F1500S1000
X-3.3F7000S0
X-1.799F1500S1000
X-3.3F7000S0
X-.8F1500S1000
X-3.9F7000S0
X-1.201F1500S1000
X-9F7000S0
X-1.199F1500S1000
X-3.8F7000S0
X-.5F1500S1000
X-3.2F7000S0
X-2F1500S1000
X-3.2F7000S0
X-.7F1500S1000
X-4.5F7000S0
X-1.9F1500S1000
X-.2F7000S0
X-.3F1500S1000
X-18.4F7000S0
X-1.8F1500S1000
X-4.6F7000S0
X-.5F1500S1000
X-3.2F7000S0
X-1.8F1500S1000
X-3.4F7000S0
X-.7F1500S1000
X-3.9F7000S0
X-1.3F1500S1000
X-8.9F7000S0
X-1.3F1500S1000
X-3.7F7000S0
X-.5F1500S1000
X-3.2F7000S0
X-2F1500S1000
X-3.2F7000S0
X-.7F1500S1000
X-4.6F7000S0
X-1.9F1500S1000
X-.1F7000S0
X-.3F1500S1000
X-18.5F7000S0
X-2F1500S1000
X-4.4F7000S0
X-.6F1500S1000
X-3.2F7000S0
X-1.8F1500S1000
X-3.3F7000S0
X-.701F1500S1000
X-3.899F7000S0
X-1.201F1500S1000
X-9F7000S0
X-1.199F1500S1000
X-3.9F7000S0
X-.401F1500S1000
X-3.299F7000S0
X-1.9F1500S1000
X-3.301F7000S0
X-.699F1500S1000
X-4.6F7000S0
X-1.9F1500S1000
X-.1F7000S0
X-.3F1500S1000
X-18.301F7000S0
X-2F1500S1000
X-4.5F7000S0
X-.399F1500S1000
X-3.3F7000S0
X-1.8F1500S1000
X-3.401F7000S0
X-.7F1500S1000
X-3.899F7000S0
X-1.101F1500S1000
X-9.099F7000S0
X-1.199F1500S1000
X-3.8F7000S0
X-.5F1500S1000
X-3.2F7000S0
X-2F1500S1000
X-3.201F7000S0
X-.699F1500S1000
X-4.6F7000S0
X-1.9F1500S1000
X-.1F7000S0
X-.4F1500S1000
X-.625F7000S0
Y.1
X.625
X2.4F1500S1000
X4.799F7000S0
X.301F1500S1000
X.1F7000S0
X.099F1500S1000
X3.301F7000S0
X1.999F1500S1000
X3.2F7000S0
X.101F1500S1000
X.1F7000S0
X.099F1500S1000
X3.7F7000S0
X1.101F1500S1000
X.1F7000S0
X.099F1500S1000
X9.301F7000S0
X.1F1500S1000
X.099F7000S0
X1F1500S1000
X3.801F7000S0
X.6F1500S1000
X3.4F7000S0
X1.8F1500S1000
X3.4F7000S0
X.199F1500S1000
X4.6F7000S0
X1.9F1500S1000
X18.301F7000S0
X2.4F1500S1000
X4.7F7000S0
X.4F1500S1000
X.1F7000S0
X.099F1500S1000
X3.301F7000S0
X1.799F1500S1000
X3.4F7000S0
X.1F1500S1000
X.101F7000S0
X.2F1500S1000
X3.599F7000S0
X1.201F1500S1000
X9.5F7000S0
X.1F1500S1000
X.1F7000S0
X1F1500S1000
X3.699F7000S0
X.601F1500S1000
X3.4F7000S0
X1.8F1500S1000
X3.4F7000S0
X.2F1500S1000
X4.7F7000S0
X1.9F1500S1000
X18.4F7000S0
X.4F1500S1000
X.1F7000S0
X1.9F1500S1000
X4.7F7000S0
X.4F1500S1000
X.1F7000S0
X.1F1500S1000
X3.4F7000S0
X1.8F1500S1000
X3.4F7000S0
X.2F1500S1000
X3.6F7000S0
X1.2F1500S1000
X9.6F7000S0
X1.1F1500S1000
X3.8F7000S0
X.5F1500S1000
X3.5F7000S0
X1.8F1500S1000
X3.4F7000S0
X.2F1500S1000
X4.6F7000S0
X1.9F1500S1000
X18.3F7000S0
X2.3F1500S1000
X4.8F7000S0
X.6F1500S1000
X3.3F7000S0
X1.9F1500S1000
X3.3F7000S0
X.1F1500S1000
X.1F7000S0
X.1F1500S1000
X3.7F7000S0
X1.2F1500S1000
X9.499F7000S0
X1.2F1500S1000
X3.8F7000S0
X.401F1500S1000
X3.5F7000S0
X1.9F1500S1000
X3.399F7000S0
X.101F1500S1000
X4.699F7000S0
X1.801F1500S1000
X.625F7000S0
Y.1
X-.625
X-1.801F1500S1000
X-8.3F7000S0
X-1.799F1500S1000
X-3.6F7000S0
X-.2F1500S1000
X-3.7F7000S0
X-1.1F1500S1000
X-10.101F7000S0
X-1.099F1500S1000
X-7.1F7000S0
X-1.8F1500S1000
X-3.7F7000S0
X-.1F1500S1000
X-5F7000S0
X-2.3F1500S1000
X-18.3F7000S0
X-1.9F1500S1000
X-8.2F7000S0
X-1.8F1500S1000
X-3.6F7000S0
X-.2F1500S1000
X-3.8F7000S0
X-1.1F1500S1000
X-10.1F7000S0
X-1.1F1500S1000
X-7F7000S0
X-1.8F1500S1000
X-3.7F7000S0
X-.1F1500S1000
X-5F7000S0
X-2.4F1500S1000
X-18.3F7000S0
X-2F1500S1000
X-8.2F7000S0
X-1.8F1500S1000
X-3.6F7000S0
X-.2F1500S1000
X-3.701F7000S0
X-1.1F1500S1000
X-10.099F7000S0
X-1.099F1500S1000
X-7.1F7000S0
X-1.8F1500S1000
X-3.7F7000S0
X-.101F1500S1000
X-5F7000S0
X-2.299F1500S1000
X-18.201F7000S0
X-2F1500S1000
X-8.199F7000S0
X-1.8F1500S1000
X-3.601F7000S0
X-.2F1500S1000
X-3.8F7000S0
X-1.099F1500S1000
X-10F7000S0
X-1.101F1500S1000
X-7.099F7000S0
X-1.8F1500S1000
X-3.8F7000S0
X-.101F1500S1000
X-4.899F7000S0
X-2.3F1500S1000
X-.625F7000S0
X-.1Y.1
X.625
X2.3F1500S1000
X8.8F7000S0
X1.8F1500S1000
X7F7000S0
X1.099F1500S1000
X10.4F7000S0
X1.1F1500S1000
X7.4F7000S0
X1.7F1500S1000
X8.299F7000S0
X2F1500S1000
X18.201F7000S0
X2.299F1500S1000
X8.801F7000S0
X1.699F1500S1000
X7.101F7000S0
X1.1F1500S1000
X10.299F7000S0
X1.201F1500S1000
X7.3F7000S0
X1.7F1500S1000
X8.3F7000S0
X2F1500S1000
X18.3F7000S0
X2.3F1500S1000
X8.9F7000S0
X1.7F1500S1000
X7F7000S0
X1.1F1500S1000
X10.4F7000S0
X1.1F1500S1000
X7.4F7000S0
X1.7F1500S1000
X8.4F7000S0
X1.8F1500S1000
X18.2F7000S0
X2.3F1500S1000
X8.9F7000S0
X1.7F1500S1000
X7.1F7000S0
X1.099F1500S1000
X10.301F7000S0
X1.099F1500S1000
X7.401F7000S0
X1.799F1500S1000
X8.299F7000S0
X1.901F1500S1000
X.625F7000S0
X-.1Y.1
X-.625
X-1.801F1500S1000
X-8.399F7000S0
X-1.601F1500S1000
X-7.299F7000S0
X-1.1F1500S1000
X-10.7F7000S0
X-1.1F1500S1000
X-6.9F7000S0
X-1.7F1500S1000
X-8.9F7000S0
X-2.3F1500S1000
X-18.2F7000S0
X-1.9F1500S1000
X-8.3F7000S0
X-1.6F1500S1000
X-7.5F7000S0
X-1F1500S1000
X-10.7F7000S0
X-1F1500S1000
X-6.9F7000S0
X-1.7F1500S1000
X-8.9F7000S0
X-2.3F1500S1000
X-18.3F7000S0
X-2F1500S1000
X-8.3F7000S0
X-1.7F1500S1000
X-7.2F7000S0
X-1.1F1500S1000
X-10.701F7000S0
X-1.099F1500S1000
X-6.901F7000S0
X-1.699F1500S1000
X-8.9F7000S0
X-2.2F1500S1000
X-18.3F7000S0
X-1.901F1500S1000
X-8.299F7000S0
X-1.7F1500S1000
X-7.2F7000S0
X-1.101F1500S1000
X-10.699F7000S0
X-1.1F1500S1000
X-6.9F7000S0
X-1.7F1500S1000
X-8.9F7000S0
X-2.2F1500S1000
X-.625F7000S0
X-.1Y.1
X.625
X1.4F1500S1000
X.3F7000S0
X.5F1500S1000
X9F7000S0
X1.7F1500S1000
X6.699F7000S0
X1.101F1500S1000
X11.099F7000S0
X.999F1500S1000
X7.201F7000S0
X1.5F1500S1000
X8.399F7000S0
X2F1500S1000
X18.201F7000S0
X1.299F1500S1000
X.301F7000S0
X.5F1500S1000
X9.099F7000S0
X1.6F1500S1000
X6.9F7000S0
X1.1F1500S1000
X10.9F7000S0
X1.1F1500S1000
X7.101F7000S0
X1.5F1500S1000
X8.5F7000S0
X1.9F1500S1000
X18.3F7000S0
X1.4F1500S1000
X.3F7000S0
X.5F1500S1000
X9.1F7000S0
X1.6F1500S1000
X6.7F7000S0
X1.1F1500S1000
X11F7000S0
X1F1500S1000
X7.2F7000S0
X1.6F1500S1000
X8.4F7000S0
X1.9F1500S1000
X18.2F7000S0
X1.5F1500S1000
X.2F7000S0
X.5F1500S1000
X9.1F7000S0
X1.6F1500S1000
X6.8F7000S0
X.999F1500S1000
X11F7000S0
X1.201F1500S1000
X7.099F7000S0
X1.601F1500S1000
X8.3F7000S0
X1.9F1500S1000
X.625F7000S0
X.1Y.1
X-.625
X-1.901F1500S1000
X-8.5F7000S0
X-1.399F1500S1000
X-7.2F7000S0
X-1F1500S1000
X-11.301F7000S0
X-1.099F1500S1000
X-6.6F7000S0
X-1.6F1500S1000
X-9.1F7000S0
X-.4F1500S1000
X-.4F7000S0
X-1.4F1500S1000
X-18.2F7000S0
X-1.8F1500S1000
X-8.5F7000S0
X-1.4F1500S1000
X-7.2F7000S0
X-1.1F1500S1000
X-11.3F7000S0
X-1F1500S1000
X-6.6F7000S0
X-1.6F1500S1000
X-9.1F7000S0
X-.5F1500S1000
X-.3F7000S0
X-1.4F1500S1000
X-18.3F7000S0
X-2F1500S1000
X-8.4F7000S0
X-1.4F1500S1000
X-1.701F7000S0
X-.099F1500S1000
X-5.2F7000S0
X-1.1F1500S1000
X-11.4F7000S0
X-1F1500S1000
X-6.701F7000S0
X-1.6F1500S1000
X-9.099F7000S0
X-.499F1500S1000
X-.2F7000S0
X-1.4F1500S1000
X-18.201F7000S0
X-2F1500S1000
X-8.399F7000S0
X-1.5F1500S1000
X-7.001F7000S0
X-1F1500S1000
X-11.5F7000S0
X-1F1500S1000
X-6.7F7000S0
X-1.5F1500S1000
X-1.8F7000S0
X-.099F1500S1000
X-7.2F7000S0
X-.4F1500S1000
X-.4F7000S0
X-1.3F1500S1000
X-.625F7000S0
X-.1Y.1
X.625
X1.5F1500S1000
X.1F7000S0
X.1F1500S1000
X.2F7000S0
X.3F1500S1000
X7.099F7000S0
X.401F1500S1000
X1.7F7000S0
X1.399F1500S1000
X6.5F7000S0
X1F1500S1000
X11.7F7000S0
X.099F1500S1000
X.1F7000S0
X1F1500S1000
X4.8F7000S0
X.5F1500S1000
X1.601F7000S0
X1.4F1500S1000
X8.399F7000S0
X1.9F1500S1000
X18.301F7000S0
X1.4F1500S1000
X.1F7000S0
X.099F1500S1000
X.301F7000S0
X.199F1500S1000
X7.1F7000S0
X.4F1500S1000
X1.7F7000S0
X1.4F1500S1000
X6.6F7000S0
X1F1500S1000
X11.8F7000S0
X1F1500S1000
X4.801F7000S0
X.5F1500S1000
X1.6F7000S0
X1.4F1500S1000
X8.4F7000S0
X2F1500S1000
X18.3F7000S0
X1.6F1500S1000
X.3F7000S0
X.3F1500S1000
X7.1F7000S0
X.4F1500S1000
X1.7F7000S0
X1.3F1500S1000
X6.6F7000S0
X1F1500S1000
X11.8F7000S0
X1F1500S1000
X4.9F7000S0
X.4F1500S1000
X1.7F7000S0
X1.4F1500S1000
X8.4F7000S0
X1.9F1500S1000
X18.2F7000S0
X1.5F1500S1000
X.1F7000S0
X.1F1500S1000
X.3F7000S0
X.2F1500S1000
X7.1F7000S0
X.4F1500S1000
X1.7F7000S0
X1.4F1500S1000
X6.5F7000S0
X1.1F1500S1000
X11.799F7000S0
X1F1500S1000
X4.8F7000S0
X.401F1500S1000
X1.7F7000S0
X1.399F1500S1000
X8.5F7000S0
X1.801F1500S1000
X.625F7000S0
Y.1
X-.625
X-1.801F1500S1000
X-8.599F7000S0
X-1.201F1500S1000
X-1.7F7000S0
X-.5F1500S1000
X-4.699F7000S0
X-1F1500S1000
X-12.1F7000S0
X-1.1F1500S1000
X-6.4F7000S0
X-1.2F1500S1000
X-1.7F7000S0
X-.6F1500S1000
X-7.5F7000S0
X-1.5F1500S1000
X-18.4F7000S0
X-1.9F1500S1000
X-8.5F7000S0
X-1.2F1500S1000
X-1.7F7000S0
X-.6F1500S1000
X-4.6F7000S0
X-1.1F1500S1000
X-12.2F7000S0
X-.9F1500S1000
X-6.4F7000S0
X-1.3F1500S1000
X-1.6F7000S0
X-.6F1500S1000
X-7.1F7000S0
X-.1F1500S1000
X-.3F7000S0
X-1.6F1500S1000
X-18.4F7000S0
X-1.9F1500S1000
X-8.6F7000S0
X-1.2F1500S1000
X-1.7F7000S0
X-.5F1500S1000
X-4.601F7000S0
X-1F1500S1000
X-12.1F7000S0
X-1.1F1500S1000
X-6.5F7000S0
X-1.3F1500S1000
X-1.6F7000S0
X-.6F1500S1000
X-7.099F7000S0
X-.1F1500S1000
X-.301F7000S0
X-1.5F1500S1000
X-18.3F7000S0
X-1.899F1500S1000
X-8.6F7000S0
X-1.201F1500S1000
X-1.7F7000S0
X-.599F1500S1000
X-4.5F7000S0
X-1.101F1500S1000
X-12.1F7000S0
X-1F1500S1000
X-6.5F7000S0
X-1.2F1500S1000
X-1.7F7000S0
X-.6F1500S1000
X-7.099F7000S0
X-.1F1500S1000
X-.2F7000S0
X-1.601F1500S1000
X-.625F7000S0
X-1.5Y.1
X.625
X.101F1500S1000
X1.399F7000S0
X1.5F1500S1000
X7.5F7000S0
X.6F1500S1000
X1.7F7000S0
X1F1500S1000
X6.5F7000S0
X1F1500S1000
X12.401F7000S0
X1F1500S1000
X4.5F7000S0
X.599F1500S1000
X1.7F7000S0
X1.1F1500S1000
X8.701F7000S0
X1.899F1500S1000
X18.3F7000S0
X1.6F1500S1000
X7.401F7000S0
X.599F1500S1000
X1.701F7000S0
X1.1F1500S1000
X6.5F7000S0
X1F1500S1000
X12.4F7000S0
X1.1F1500S1000
X4.299F7000S0
X.701F1500S1000
X1.7F7000S0
X1F1500S1000
X8.7F7000S0
X1.9F1500S1000
X17F7000S0
X.1F1500S1000
X1.5F7000S0
X1.4F1500S1000
X7.5F7000S0
X.6F1500S1000
X1.7F7000S0
X1.1F1500S1000
X6.3F7000S0
X1.1F1500S1000
X12.4F7000S0
X1F1500S1000
X4.5F7000S0
X.7F1500S1000
X1.7F7000S0
X1F1500S1000
X8.7F7000S0
X1.8F1500S1000
X18.5F7000S0
X1.4F1500S1000
X7.5F7000S0
X.7F1500S1000
X1.7F7000S0
X1F1500S1000
X6.4F7000S0
X1F1500S1000
X12.4F7000S0
X1.099F1500S1000
X4.401F7000S0
X.599F1500S1000
X1.7F7000S0
X1.101F1500S1000
X8.699F7000S0
X1.901F1500S1000
X.625F7000S0
X-.1Y.1
X-.625
X-1.7F1500S1000
X-8.901F7000S0
X-.899F1500S1000
X-1.7F7000S0
X-.8F1500S1000
X-4.301F7000S0
X-.899F1500S1000
X-12.6F7000S0
X-1.1F1500S1000
X-6.4F7000S0
X-.9F1500S1000
X-1.7F7000S0
X-.7F1500S1000
X-7.5F7000S0
X-1.5F1500S1000
X-18.4F7000S0
X-1.8F1500S1000
X-8.8F7000S0
X-.9F1500S1000
X-1.7F7000S0
X-.7F1500S1000
X-4.3F7000S0
X-1.1F1500S1000
X-12.7F7000S0
X-1F1500S1000
X-6.3F7000S0
X-.9F1500S1000
X-1.7F7000S0
X-.7F1500S1000
X-7.5F7000S0
X-1.5F1500S1000
X-18.6F7000S0
X-1.8F1500S1000
X-8.8F7000S0
X-.9F1500S1000
X-1.7F7000S0
X-.701F1500S1000
X-4.299F7000S0
X-1F1500S1000
X-12.701F7000S0
X-.899F1500S1000
X-6.5F7000S0
X-.9F1500S1000
X-1.701F7000S0
X-.699F1500S1000
X-7.4F7000S0
X-1.5F1500S1000
X-18.5F7000S0
X-1.699F1500S1000
X-8.9F7000S0
X-.901F1500S1000
X-1.7F7000S0
X-.699F1500S1000
X-4.4F7000S0
X-.901F1500S1000
X-12.699F7000S0
X-1F1500S1000
X-6.4F7000S0
X-.9F1500S1000
X-1.7F7000S0
X-.8F1500S1000
X-7.3F7000S0
X-1.6F1500S1000
X-.625F7000S0
X-.1Y.1
X.625
X1.6F1500S1000
X7.4F7000S0
X.7F1500S1000
X2F7000S0
X.4F1500S1000
X6.6F7000S0
X.9F1500S1000
X13F7000S0
X1F1500S1000
X4.2F7000S0
X.6F1500S1000
X2.1F7000S0
X.4F1500S1000
X9.1F7000S0
X1.6F1500S1000
X18.5F7000S0
X1.5F1500S1000
X7.4F7000S0
X.7F1500S1000
X2.099F7000S0
X.301F1500S1000
X6.6F7000S0
X.9F1500S1000
X13.1F7000S0
X1F1500S1000
X4.099F7000S0
X.701F1500S1000
X2F7000S0
X.4F1500S1000
X9.1F7000S0
X1.6F1500S1000
X18.7F7000S0
X1.5F1500S1000
X7.4F7000S0
X.7F1500S1000
X2.1F7000S0
X.3F1500S1000
X6.5F7000S0
X1F1500S1000
X13F7000S0
X.9F1500S1000
X4.3F7000S0
X.7F1500S1000
X1.9F7000S0
X.5F1500S1000
X9.1F7000S0
X1.6F1500S1000
X18.5F7000S0
X1.5F1500S1000
X7.5F7000S0
X.7F1500S1000
X2F7000S0
X.3F1500S1000
X6.6F7000S0
X.9F1500S1000
X13.1F7000S0
X.899F1500S1000
X4.201F7000S0
X.7F1500S1000
X2F7000S0
X.5F1500S1000
X8.899F7000S0
X1.801F1500S1000
X.625F7000S0
X-.101Y.1
X-.625
X-1.599F1500S1000
X-6.601F7000S0
X-.099F1500S1000
X-2.5F7000S0
X-.201F1500S1000
X-2.2F7000S0
X-.599F1500S1000
X-4.1F7000S0
X-.9F1500S1000
X-13.3F7000S0
X-1F1500S1000
X-3.8F7000S0
X-.1F1500S1000
X-2.7F7000S0
X-.1F1500S1000
X-2.1F7000S0
X-.6F1500S1000
X-7.5F7000S0
X-1.6F1500S1000
X-18.4F7000S0
X-1.6F1500S1000
X-6.6F7000S0
X-.1F1500S1000
X-2.5F7000S0
X-.2F1500S1000
X-2.2F7000S0
X-.6F1500S1000
X-4.2F7000S0
X-.9F1500S1000
X-13.3F7000S0
X-1F1500S1000
X-3.7F7000S0
X-.1F1500S1000
X-2.6F7000S0
X-.2F1500S1000
X-2.1F7000S0
X-.6F1500S1000
X-7.5F7000S0
X-1.5F1500S1000
X-18.7F7000S0
X-1.6F1500S1000
X-6.6F7000S0
X-.1F1500S1000
X-2.4F7000S0
X-.2F1500S1000
X-.1F7000S0
X-.1F1500S1000
X-2.1F7000S0
X-.601F1500S1000
X-4.099F7000S0
X-.901F1500S1000
X-13.299F7000S0
X-.901F1500S1000
X-3.8F7000S0
X-.1F1500S1000
X-2.6F7000S0
X-.199F1500S1000
X-2.201F7000S0
X-.6F1500S1000
X-7.5F7000S0
X-1.5F1500S1000
X-18.5F7000S0
X-1.599F1500S1000
X-6.6F7000S0
X-.1F1500S1000
X-2.4F7000S0
X-.201F1500S1000
X-.1F7000S0
X-.099F1500S1000
X-2.101F7000S0
X-.599F1500S1000
X-4.101F7000S0
X-.9F1500S1000
X-13.3F7000S0
X-1F1500S1000
X-3.699F7000S0
X-.101F1500S1000
X-.1F7000S0
X-.1F1500S1000
X-2.4F7000S0
X-.2F1500S1000
X-2.2F7000S0
X-.699F1500S1000
X-7.401F7000S0
X-1.599F1500S1000
X-.625F7000S0
X.099Y.1
X.625
X1.401F1500S1000
X7.599F7000S0
X.5F1500S1000
X4.8F7000S0
X.5F1500S1000
X3.5F7000S0
X.8F1500S1000
X13.8F7000S0
X.9F1500S1000
X3.9F7000S0
X.6F1500S1000
X4.8F7000S0
X.4F1500S1000
X6.5F7000S0
X1.5F1500S1000
X18.5F7000S0
X1.401F1500S1000
X7.599F7000S0
X.5F1500S1000
X4.901F7000S0
X.4F1500S1000
X3.5F7000S0
X.899F1500S1000
X13.701F7000S0
X1F1500S1000
X3.799F7000S0
X.5F1500S1000
X4.901F7000S0
X.5F1500S1000
X6.4F7000S0
X1.5F1500S1000
X18.7F7000S0
X1.4F1500S1000
X7.6F7000S0
X.5F1500S1000
X4.9F7000S0
X.4F1500S1000
X3.4F7000S0
X.9F1500S1000
X13.7F7000S0
X.9F1500S1000
X4F7000S0
X.5F1500S1000
X4.9F7000S0
X.5F1500S1000
X6.4F7000S0
X1.5F1500S1000
X18.5F7000S0
X1.5F1500S1000
X7.5F7000S0
X.5F1500S1000
X4.9F7000S0
X.5F1500S1000
X3.4F7000S0
X.9F1500S1000
X13.7F7000S0
X.899F1500S1000
X3.901F7000S0
X.5F1500S1000
X4.9F7000S0
X.5F1500S1000
X6.399F7000S0
X1.601F1500S1000
X.625F7000S0
X-.101Y.1
X-.625
X-1.5F1500S1000
X-6.399F7000S0
X-.5F1500S1000
X-4.801F7000S0
X-.5F1500S1000
X-3.899F7000S0
X-.901F1500S1000
X-13.999F7000S0
X-.8F1500S1000
X-3.4F7000S0
X-.4F1500S1000
X-5F7000S0
X-.3F1500S1000
X-7.7F7000S0
X-1.3F1500S1000
X-18.6F7000S0
X-1.4F1500S1000
X-6.5F7000S0
X-.6F1500S1000
X-4.8F7000S0
X-.4F1500S1000
X-4F7000S0
X-.9F1500S1000
X-13.9F7000S0
X-1F1500S1000
X-3.2F7000S0
X-.4F1500S1000
X-5F7000S0
X-.4F1500S1000
X-7.6F7000S0
X-1.4F1500S1000
X-18.7F7000S0
X-1.4F1500S1000
X-6.5F7000S0
X-.5F1500S1000
X-4.901F7000S0
X-.399F1500S1000
X-3.9F7000S0
X-.901F1500S1000
X-13.9F7000S0
X-.9F1500S1000
X-3.399F7000S0
X-.401F1500S1000
X-4.9F7000S0
X-.5F1500S1000
X-7.6F7000S0
X-1.4F1500S1000
X-18.6F7000S0
X-1.4F1500S1000
X-6.5F7000S0
X-.4F1500S1000
X-4.8F7000S0
X-.6F1500S1000
X-3.8F7000S0
X-.9F1500S1000
X-14F7000S0
X-.8F1500S1000
X-3.3F7000S0
X-.5F1500S1000
X-5F7000S0
X-.3F1500S1000
X-7.7F7000S0
X-1.4F1500S1000
X-.625F7000S0
X.1Y.1
X.625
X1.4F1500S1000
X7.6F7000S0
X.3F1500S1000
X4.9F7000S0
X.6F1500S1000
X3.1F7000S0
X.9F1500S1000
X14.2F7000S0
X.9F1500S1000
X3.8F7000S0
X.4F1500S1000
X4.9F7000S0
X.4F1500S1000
X6.5F7000S0
X1.4F1500S1000
X18.6F7000S0
X1.4F1500S1000
X7.7F7000S0
X.3F1500S1000
X5F7000S0
X.5F1500S1000
X3.2F7000S0
X.9F1500S1000
X14.2F7000S0
X.901F1500S1000
X3.7F7000S0
X.399F1500S1000
X4.801F7000S0
X.5F1500S1000
X6.6F7000S0
X1.3F1500S1000
X18.9F7000S0
X1.3F1500S1000
X7.7F7000S0
X.3F1500S1000
X4.9F7000S0
X.5F1500S1000
X3.2F7000S0
X.9F1500S1000
X14.1F7000S0
X1F1500S1000
X3.8F7000S0
X.4F1500S1000
X4.8F7000S0
X.5F1500S1000
X6.6F7000S0
X1.3F1500S1000
X18.7F7000S0
X1.3F1500S1000
X7.7F7000S0
X.3F1500S1000
X4.9F7000S0
X.6F1500S1000
X3.2F7000S0
X.8F1500S1000
X14.2F7000S0
X.899F1500S1000
X3.8F7000S0
X.401F1500S1000
X4.9F7000S0
X.5F1500S1000
X6.5F7000S0
X1.3F1500S1000
X.625F7000S0
Y.1
X-.625
X-1.2F1500S1000
X-6.5F7000S0
X-.701F1500S1000
X-8.799F7000S0
X-.901F1500S1000
X-14.499F7000S0
X-.9F1500S1000
X-3F7000S0
X-.6F1500S1000
X-12.8F7000S0
X-1.4F1500S1000
X-18.8F7000S0
X-1.1F1500S1000
X-6.601F7000S0
X-.599F1500S1000
X-8.901F7000S0
X-.899F1500S1000
X-14.5F7000S0
X-.9F1500S1000
X-2.9F7000S0
X-.6F1500S1000
X-12.9F7000S0
X-.301F1500S1000
X-.099F7000S0
X-1F1500S1000
X-18.8F7000S0
X-1.2F1500S1000
X-6.6F7000S0
X-.6F1500S1000
X-8.801F7000S0
X-.9F1500S1000
X-14.4F7000S0
X-1F1500S1000
X-3F7000S0
X-.6F1500S1000
X-12.9F7000S0
X-.3F1500S1000
X-.1F7000S0
X-.9F1500S1000
X-18.8F7000S0
X-1.2F1500S1000
X-6.5F7000S0
X-.6F1500S1000
X-8.9F7000S0
X-.8F1500S1000
X-14.5F7000S0
X-.9F1500S1000
X-3F7000S0
X-.6F1500S1000
X-12.9F7000S0
X-.3F1500S1000
X-.1F7000S0
X-.9F1500S1000
X-.625F7000S0
Y.1
X.625
X.8F1500S1000
X.2F7000S0
X.3F1500S1000
X12.9F7000S0
X.7F1500S1000
X2.8F7000S0
X.9F1500S1000
X14.6F7000S0
X.9F1500S1000
X8.7F7000S0
X.8F1500S1000
X6.5F7000S0
X1.1F1500S1000
X18.7F7000S0
X1F1500S1000
X.2F7000S0
X.2F1500S1000
X12.9F7000S0
X.7F1500S1000
X2.8F7000S0
X1F1500S1000
X14.601F7000S0
X.899F1500S1000
X8.701F7000S0
X.599F1500S1000
X6.601F7000S0
X1F1500S1000
X19.099F7000S0
X.901F1500S1000
X.099F7000S0
X.3F1500S1000
X12.801F7000S0
X.699F1500S1000
X2.901F7000S0
X.799F1500S1000
X14.701F7000S0
X.799F1500S1000
X8.8F7000S0
X.801F1500S1000
X6.5F7000S0
X1F1500S1000
X18.899F7000S0
X.8F1500S1000
X.2F7000S0
X.3F1500S1000
X12.801F7000S0
X.699F1500S1000
X2.901F7000S0
X.799F1500S1000
X14.7F7000S0
X1F1500S1000
X8.7F7000S0
X.701F1500S1000
X6.5F7000S0
X1.099F1500S1000
X.625F7000S0
X-.199Y.1
X-.625
X-.7F1500S1000
X-6.7F7000S0
X-.701F1500S1000
X-8.599F7000S0
X-.901F1500S1000
X-14.999F7000S0
X-.8F1500S1000
X-2.801F7000S0
X-.599F1500S1000
X-13.401F7000S0
X-.8F1500S1000
X-19F7000S0
X-.7F1500S1000
X-6.8F7000S0
X-.599F1500S1000
X-8.7F7000S0
X-.8F1500S1000
X-15.101F7000S0
X-.8F1500S1000
X-2.7F7000S0
X-.599F1500S1000
X-13.3F7000S0
X-1F1500S1000
X-19.101F7000S0
X-.699F1500S1000
X-6.7F7000S0
X-.8F1500S1000
X-8.401F7000S0
X-.9F1500S1000
X-15F7000S0
X-.9F1500S1000
X-2.7F7000S0
X-.8F1500S1000
X-13.2F7000S0
X-.9F1500S1000
X-19F7000S0
X-.7F1500S1000
X-6.7F7000S0
X-.7F1500S1000
X-8.6F7000S0
X-.9F1500S1000
X-14.9F7000S0
X-.9F1500S1000
X-2.8F7000S0
X-.6F1500S1000
X-13.3F7000S0
X-.9F1500S1000
X-.625F7000S0
X-.3Y.1
X.625
X1F1500S1000
X13.5F7000S0
X.6F1500S1000
X2.6F7000S0
X.9F1500S1000
X15.3F7000S0
X.8F1500S1000
X8.5F7000S0
X.6F1500S1000
X7.1F7000S0
X.1F1500S1000
X19F7000S0
X1F1500S1000
X13.5F7000S0
X.6F1500S1000
X2.7F7000S0
X.9F1500S1000
X15.2F7000S0
X.8F1500S1000
X8.501F7000S0
X.599F1500S1000
X7.3F7000S0
X.1F1500S1000
X19F7000S0
X1F1500S1000
X13.5F7000S0
X.5F1500S1000
X2.7F7000S0
X.8F1500S1000
X15.299F7000S0
X.901F1500S1000
X8.5F7000S0
X.599F1500S1000
X7F7000S0
X.101F1500S1000
X19.1F7000S0
X1F1500S1000
X13.5F7000S0
X.599F1500S1000
X2.7F7000S0
X.8F1500S1000
X15.201F7000S0
X.899F1500S1000
X8.5F7000S0
X.601F1500S1000
X.625F7000S0
X-.101Y.1
X-.625
X-.399F1500S1000
X-8.5F7000S0
X-.801F1500S1000
X-15.499F7000S0
X-.8F1500S1000
X-2.7F7000S0
X-.401F1500S1000
X-13.599F7000S0
X-1.101F1500S1000
X-26.1F7000S0
X-.5F1500S1000
X-8.599F7000S0
X-.801F1500S1000
X-15.5F7000S0
X-.8F1500S1000
X-2.599F7000S0
X-.401F1500S1000
X-13.7F7000S0
X-1F1500S1000
X-26.399F7000S0
X-.401F1500S1000
X-8.5F7000S0
X-.7F1500S1000
X-15.6F7000S0
X-.8F1500S1000
X-2.7F7000S0
X-.4F1500S1000
X-13.6F7000S0
X-1.1F1500S1000
X-26.2F7000S0
X-.4F1500S1000
X-8.5F7000S0
X-.8F1500S1000
X-15.5F7000S0
X-.9F1500S1000
X-2.6F7000S0
X-.5F1500S1000
X-13.6F7000S0
X-1F1500S1000
X-.625F7000S0
X-1.1Y.1
X.625
X2.1F1500S1000
X16.6F7000S0
X.9F1500S1000
X15.7F7000S0
X.8F1500S1000
X33.9F7000S0
X2.1F1500S1000
X16.7F7000S0
X.8F1500S1000
X15.8F7000S0
X.7F1500S1000
X34.001F7000S0
X2.199F1500S1000
X16.601F7000S0
X.7F1500S1000
X15.8F7000S0
X.899F1500S1000
X33.9F7000S0
X2.1F1500S1000
X16.601F7000S0
X.899F1500S1000
X15.701F7000S0
X.899F1500S1000
X.625F7000S0
X.101Y.1
X-.625
X-.901F1500S1000
X-15.9F7000S0
X-.9F1500S1000
X-16.5F7000S0
X-2.199F1500S1000
X-33.801F7000S0
X-.7F1500S1000
X-16.1F7000S0
X-.7F1500S1000
X-16.6F7000S0
X-2.2F1500S1000
X-33.7F7000S0
X-.8F1500S1000
X-16F7000S0
X-.8F1500S1000
X-16.7F7000S0
X-2F1500S1000
X-33.8F7000S0
X-.8F1500S1000
X-15.9F7000S0
X-.9F1500S1000
X-16.6F7000S0
X-2.1F1500S1000
X-.625F7000S0
Y.1
X.625
X2.1F1500S1000
X2.5F7000S0
X.4F1500S1000
X13.6F7000S0
X.8F1500S1000
X16.2F7000S0
X.8F1500S1000
X33.7F7000S0
X2.1F1500S1000
X2.5F7000S0
X.3F1500S1000
X13.7F7000S0
X.8F1500S1000
X16.1F7000S0
X.9F1500S1000
X33.701F7000S0
X2.199F1500S1000
X2.5F7000S0
X.3F1500S1000
X13.6F7000S0
X.8F1500S1000
X16.2F7000S0
X.8F1500S1000
X33.6F7000S0
X2.099F1500S1000
X2.6F7000S0
X.3F1500S1000
X13.6F7000S0
X.9F1500S1000
X16.101F7000S0
X.899F1500S1000
X.625F7000S0
X.101Y.1
X-.625
X-.801F1500S1000
X-16.5F7000S0
X-.8F1500S1000
X-13.4F7000S0
X-.5F1500S1000
X-2.4F7000S0
X-2.2F1500S1000
X-33.6F7000S0
X-.7F1500S1000
X-16.5F7000S0
X-.8F1500S1000
X-13.4F7000S0
X-.5F1500S1000
X-2.4F7000S0
X-2.2F1500S1000
X-33.4F7000S0
X-.8F1500S1000
X-16.6F7000S0
X-.8F1500S1000
X-13.4F7000S0
X-.6F1500S1000
X-2.4F7000S0
X-2F1500S1000
X-33.5F7000S0
X-.8F1500S1000
X-16.5F7000S0
X-.8F1500S1000
X-13.4F7000S0
X-.5F1500S1000
X-2.4F7000S0
X-2.2F1500S1000
X-.625F7000S0
Y.1
X.625
X2.2F1500S1000
X2.2F7000S0
X.7F1500S1000
X13.3F7000S0
X.8F1500S1000
X16.6F7000S0
X.9F1500S1000
X33.4F7000S0
X1.1F1500S1000
X.2F7000S0
X.8F1500S1000
X2.2F7000S0
X.6F1500S1000
X13.4F7000S0
X.8F1500S1000
X16.7F7000S0
X.8F1500S1000
X33.4F7000S0
X1.3F1500S1000
X.1F7000S0
X.9F1500S1000
X2.2F7000S0
X.6F1500S1000
X13.3F7000S0
X.8F1500S1000
X16.7F7000S0
X.8F1500S1000
X33.4F7000S0
X2.3F1500S1000
X2.1F7000S0
X.7F1500S1000
X13.3F7000S0
X.8F1500S1000
X16.7F7000S0
X.8F1500S1000
X.625F7000S0
X.1Y.1
X-.625
X-.8F1500S1000
X-16.9F7000S0
X-.8F1500S1000
X-13.2F7000S0
X-.7F1500S1000
X-2.1F7000S0
X-2.3F1500S1000
X-33.3F7000S0
X-.8F1500S1000
X-16.8F7000S0
X-.9F1500S1000
X-13.1F7000S0
X-.7F1500S1000
X-2.1F7000S0
X-1F1500S1000
X-.1F7000S0
X-1.2F1500S1000
X-33.4F7000S0
X-.7F1500S1000
X-17F7000S0
X-.7F1500S1000
X-13.4F7000S0
X-.7F1500S1000
X-2F7000S0
X-2.2F1500S1000
X-33.3F7000S0
X-.9F1500S1000
X-16.8F7000S0
X-.8F1500S1000
X-13.2F7000S0
X-.8F1500S1000
X-2F7000S0
X-.9F1500S1000
X-.1F7000S0
X-1.3F1500S1000
X-.625F7000S0
Y.1
X.625
X.3F1500S1000
X.1F7000S0
X2F1500S1000
X1.9F7000S0
X.8F1500S1000
X13.1F7000S0
X.8F1500S1000
X17.1F7000S0
X.8F1500S1000
X12.2F7000S0
X.2F1500S1000
X20.8F7000S0
X.3F1500S1000
X.1F7000S0
X1.8F1500S1000
X2F7000S0
X.8F1500S1000
X13.1F7000S0
X.8F1500S1000
X17.1F7000S0
X.8F1500S1000
X12.2F7000S0
X.2F1500S1000
X20.8F7000S0
X.4F1500S1000
X.2F7000S0
X1.8F1500S1000
X2F7000S0
X.7F1500S1000
X13.1F7000S0
X.8F1500S1000
X17.1F7000S0
X.7F1500S1000
X12.4F7000S0
X.2F1500S1000
X20.7F7000S0
X.3F1500S1000
X.1F7000S0
X1.9F1500S1000
X2F7000S0
X.8F1500S1000
X13.1F7000S0
X.8F1500S1000
X17.101F7000S0
X.699F1500S1000
X12.301F7000S0
X.199F1500S1000
X.625F7000S0
X.1Y.1
X-.625
X-.299F1500S1000
X-12.101F7000S0
X-.8F1500S1000
X-17.3F7000S0
X-.8F1500S1000
X-13F7000S0
X-.8F1500S1000
X-1.9F7000S0
X-2.4F1500S1000
X-20.6F7000S0
X-.4F1500S1000
X-12.1F7000S0
X-.7F1500S1000
X-17.4F7000S0
X-.8F1500S1000
X-13F7000S0
X-.7F1500S1000
X-2F7000S0
X-2.3F1500S1000
X-20.8F7000S0
X-.4F1500S1000
X-12F7000S0
X-.8F1500S1000
X-17.3F7000S0
X-.7F1500S1000
X-13.2F7000S0
X-.7F1500S1000
X-1.9F7000S0
X-2.3F1500S1000
X-20.7F7000S0
X-.3F1500S1000
X-12.1F7000S0
X-.8F1500S1000
X-17.3F7000S0
X-.8F1500S1000
X-13F7000S0
X-.9F1500S1000
X-1.8F7000S0
X-2.4F1500S1000
X-.625F7000S0
Y.1
X.625
X.8F1500S1000
X.1F7000S0
X1.5F1500S1000
X1.8F7000S0
X.9F1500S1000
X12.9F7000S0
X.8F1500S1000
X17.5F7000S0
X.8F1500S1000
X11.9F7000S0
X.4F1500S1000
X20.7F7000S0
X.7F1500S1000
X.1F7000S0
X1.5F1500S1000
X1.9F7000S0
X.8F1500S1000
X12.9F7000S0
X.8F1500S1000
X17.6F7000S0
X.7F1500S1000
X11.9F7000S0
X.5F1500S1000
X20.6F7000S0
X.9F1500S1000
X.1F7000S0
X1.5F1500S1000
X1.9F7000S0
X.8F1500S1000
X12.8F7000S0
X.8F1500S1000
X17.6F7000S0
X.8F1500S1000
X11.8F7000S0
X.5F1500S1000
X20.6F7000S0
X.8F1500S1000
X.1F7000S0
X1.5F1500S1000
X1.9F7000S0
X.8F1500S1000
X12.9F7000S0
X.8F1500S1000
X17.5F7000S0
X.801F1500S1000
X11.899F7000S0
X.4F1500S1000
X.625F7000S0
Y.1
X-.625
X-.5F1500S1000
X-11.7F7000S0
X-.8F1500S1000
X-17.7F7000S0
X-.8F1500S1000
X-11.5F7000S0
X-.1F1500S1000
X-1.2F7000S0
X-.8F1500S1000
X-1.9F7000S0
X-.3F1500S1000
X-.2F7000S0
X-.9F1500S1000
X-.3F7000S0
X-.7F1500S1000
X-20.5F7000S0
X-.6F1500S1000
X-11.8F7000S0
X-.7F1500S1000
X-17.8F7000S0
X-.8F1500S1000
X-11.4F7000S0
X-.2F1500S1000
X-1.1F7000S0
X-.8F1500S1000
X-1.9F7000S0
X-.4F1500S1000
X-.1F7000S0
X-.9F1500S1000
X-.2F7000S0
X-.9F1500S1000
X-20.6F7000S0
X-.6F1500S1000
X-11.6F7000S0
X-.8F1500S1000
X-17.8F7000S0
X-.8F1500S1000
X-11.5F7000S0
X-.2F1500S1000
X-1F7000S0
X-.9F1500S1000
X-1.8F7000S0
X-.4F1500S1000
X-.2F7000S0
X-.9F1500S1000
X-.2F7000S0
X-.7F1500S1000
X-20.7F7000S0
X-.5F1500S1000
X-11.7F7000S0
X-.8F1500S1000
X-17.7F7000S0
X-.9F1500S1000
X-11.5F7000S0
X-.1F1500S1000
X-1.1F7000S0
X-.8F1500S1000
X-1.9F7000S0
X-.3F1500S1000
X-.1F7000S0
X-1F1500S1000
X-.3F7000S0
X-.7F1500S1000
X-.625F7000S0
Y.1
X.625
X.8F1500S1000
X.2F7000S0
X.9F1500S1000
X.2F7000S0
X.3F1500S1000
X1.8F7000S0
X1F1500S1000
X1F7000S0
X.2F1500S1000
X11.3F7000S0
X.9F1500S1000
X17.9F7000S0
X.8F1500S1000
X11.5F7000S0
X.6F1500S1000
X20.7F7000S0
X.7F1500S1000
X.2F7000S0
X.9F1500S1000
X.2F7000S0
X.4F1500S1000
X1.8F7000S0
X.9F1500S1000
X.9F7000S0
X.4F1500S1000
X11.3F7000S0
X.8F1500S1000
X17.9F7000S0
X.8F1500S1000
X11.6F7000S0
X.5F1500S1000
X20.8F7000S0
X.8F1500S1000
X.2F7000S0
X.9F1500S1000
X.2F7000S0
X.4F1500S1000
X1.8F7000S0
X.9F1500S1000
X.9F7000S0
X.3F1500S1000
X11.3F7000S0
X.7F1500S1000
X18.1F7000S0
X.7F1500S1000
X11.7F7000S0
X.6F1500S1000
X20.5F7000S0
X.8F1500S1000
X.2F7000S0
X.9F1500S1000
X.2F7000S0
X.3F1500S1000
X1.9F7000S0
X.8F1500S1000
X1.1F7000S0
X.2F1500S1000
X11.4F7000S0
X.8F1500S1000
X17.9F7000S0
X.8F1500S1000
X11.6F7000S0
X.5F1500S1000
X.625F7000S0
Y.1
X-.625
X-.5F1500S1000
X-11.5F7000S0
X-.799F1500S1000
X-18.101F7000S0
X-.8F1500S1000
X-11.2F7000S0
X-.4F1500S1000
X-.9F7000S0
X-.9F1500S1000
X-.2F7000S0
X-.5F1500S1000
X-1.2F7000S0
X-2.4F1500S1000
X-20.6F7000S0
X-.5F1500S1000
X-11.5F7000S0
X-.8F1500S1000
X-18.2F7000S0
X-.8F1500S1000
X-11.1F7000S0
X-.4F1500S1000
X-.9F7000S0
X-1F1500S1000
X-.1F7000S0
X-.5F1500S1000
X-1.1F7000S0
X-2.6F1500S1000
X-20.6F7000S0
X-.6F1500S1000
X-11.5F7000S0
X-.7F1500S1000
X-18.2F7000S0
X-.7F1500S1000
X-11.3F7000S0
X-.4F1500S1000
X-.9F7000S0
X-1F1500S1000
X-.1F7000S0
X-.5F1500S1000
X-1.1F7000S0
X-2.4F1500S1000
X-20.7F7000S0
X-.6F1500S1000
X-11.4F7000S0
X-.8F1500S1000
X-18.1F7000S0
X-.9F1500S1000
X-11.1F7000S0
X-.4F1500S1000
X-.9F7000S0
X-1F1500S1000
X-.1F7000S0
X-.5F1500S1000
X-1.1F7000S0
X-2.5F1500S1000
X-.625F7000S0
Y.1
X.625
X2.5F1500S1000
X1.1F7000S0
X.6F1500S1000
X.1F7000S0
X.9F1500S1000
X.9F7000S0
X.4F1500S1000
X11.1F7000S0
X.8F1500S1000
X18.3F7000S0
X.8F1500S1000
X11.3F7000S0
X.6F1500S1000
X20.7F7000S0
X2.4F1500S1000
X1.1F7000S0
X.6F1500S1000
X.1F7000S0
X.9F1500S1000
X.9F7000S0
X.4F1500S1000
X11.2F7000S0
X.7F1500S1000
X18.3F7000S0
X.8F1500S1000
X11.3F7000S0
X.7F1500S1000
X20.7F7000S0
X2.5F1500S1000
X1.1F7000S0
X.5F1500S1000
X.2F7000S0
X.8F1500S1000
X.9F7000S0
X.5F1500S1000
X11F7000S0
X.8F1500S1000
X18.3F7000S0
X.8F1500S1000
X11.4F7000S0
X.7F1500S1000
X20.5F7000S0
X2.5F1500S1000
X1F7000S0
X.6F1500S1000
X.2F7000S0
X.8F1500S1000
X1F7000S0
X.4F1500S1000
X11.1F7000S0
X.8F1500S1000
X18.3F7000S0
X.7F1500S1000
X11.5F7000S0
X.5F1500S1000
X.625F7000S0
Y.1
X-.625
X-.6F1500S1000
X-11.199F7000S0
X-.801F1500S1000
X-18.5F7000S0
X-.8F1500S1000
X-9.1F7000S0
X-.3F1500S1000
X-1.6F7000S0
X-.4F1500S1000
X-1F7000S0
X-.7F1500S1000
X-.3F7000S0
X-.6F1500S1000
X-.9F7000S0
X-2.6F1500S1000
X-20.6F7000S0
X-.6F1500S1000
X-11.3F7000S0
X-.7F1500S1000
X-18.6F7000S0
X-.8F1500S1000
X-9F7000S0
X-.3F1500S1000
X-1.6F7000S0
X-.4F1500S1000
X-1F7000S0
X-.8F1500S1000
X-.1F7000S0
X-.7F1500S1000
X-.9F7000S0
X-2.7F1500S1000
X-20.7F7000S0
X-.6F1500S1000
X-11.2F7000S0
X-.8F1500S1000
X-18.5F7000S0
X-.8F1500S1000
X-9.1F7000S0
X-.3F1500S1000
X-1.5F7000S0
X-.6F1500S1000
X-.9F7000S0
X-.7F1500S1000
X-.2F7000S0
X-.7F1500S1000
X-.9F7000S0
X-2.5F1500S1000
X-20.6F7000S0
X-.7F1500S1000
X-11.2F7000S0
X-.8F1500S1000
X-18.5F7000S0
X-.8F1500S1000
X-9.1F7000S0
X-.3F1500S1000
X-1.6F7000S0
X-.4F1500S1000
X-1F7000S0
X-.7F1500S1000
X-.3F7000S0
X-.6F1500S1000
X-1F7000S0
X-2.5F1500S1000
X-.625F7000S0
Y.1
X.625
X2.6F1500S1000
X.9F7000S0
X.7F1500S1000
X.2F7000S0
X.5F1500S1000
X.6F7000S0
X.1F1500S1000
X.4F7000S0
X.9F1500S1000
X1.1F7000S0
X.5F1500S1000
X8.9F7000S0
X.8F1500S1000
X18.8F7000S0
X.7F1500S1000
X11F7000S0
X.7F1500S1000
X20.7F7000S0
X2.5F1500S1000
X.9F7000S0
X.7F1500S1000
X.2F7000S0
X.5F1500S1000
X.7F7000S0
X.1F1500S1000
X.4F7000S0
X.5F1500S1000
X.1F7000S0
X.1F1500S1000
X1.2F7000S0
X.5F1500S1000
X9F7000S0
X.7F1500S1000
X18.8F7000S0
X.7F1500S1000
X11.1F7000S0
X.6F1500S1000
X20.7F7000S0
X2.7F1500S1000
X.9F7000S0
X.7F1500S1000
X.2F7000S0
X.6F1500S1000
X.6F7000S0
X.1F1500S1000
X.3F7000S0
X.6F1500S1000
X.1F7000S0
X.1F1500S1000
X1.2F7000S0
X.5F1500S1000
X8.8F7000S0
X.8F1500S1000
X18.8F7000S0
X.8F1500S1000
X11.1F7000S0
X.6F1500S1000
X20.6F7000S0
X2.7F1500S1000
X.9F7000S0
X.6F1500S1000
X.2F7000S0
X.5F1500S1000
X1.1F7000S0
X.7F1500S1000
X.1F7000S0
X.1F1500S1000
X1.2F7000S0
X.4F1500S1000
X8.9F7000S0
X.8F1500S1000
X18.701F7000S0
X.799F1500S1000
X11F7000S0
X.7F1500S1000
X.625F7000S0
X-.1Y.1
X-.625
X-.6F1500S1000
X-10.9F7000S0
X-.8F1500S1000
X-18.9F7000S0
X-.8F1500S1000
X-8.7F7000S0
X-.6F1500S1000
X-1F7000S0
X-1F1500S1000
X-.3F7000S0
X-.2F1500S1000
X-.7F7000S0
X-.4F1500S1000
X-.2F7000S0
X-.6F1500S1000
X-.9F7000S0
X-2.7F1500S1000
X-20.7F7000S0
X-.6F1500S1000
X-11F7000S0
X-.7F1500S1000
X-19F7000S0
X-.8F1500S1000
X-8.7F7000S0
X-.5F1500S1000
X-1F7000S0
X-1F1500S1000
X-.3F7000S0
X-.2F1500S1000
X-.7F7000S0
X-.4F1500S1000
X-.2F7000S0
X-.6F1500S1000
X-.9F7000S0
X-2.7F1500S1000
X-20.9F7000S0
X-.5F1500S1000
X-10.9F7000S0
X-.8F1500S1000
X-19F7000S0
X-.8F1500S1000
X-8.7F7000S0
X-.6F1500S1000
X-1F7000S0
X-1F1500S1000
X-.3F7000S0
X-.2F1500S1000
X-.6F7000S0
X-.5F1500S1000
X-.2F7000S0
X-.6F1500S1000
X-.9F7000S0
X-2.6F1500S1000
X-20.8F7000S0
X-.5F1500S1000
X-11F7000S0
X-.8F1500S1000
X-18.9F7000S0
X-.8F1500S1000
X-8.7F7000S0
X-.6F1500S1000
X-1.1F7000S0
X-.9F1500S1000
X-.2F7000S0
X-.3F1500S1000
X-.7F7000S0
X-.4F1500S1000
X-.3F7000S0
X-.5F1500S1000
X-.9F7000S0
X-2.7F1500S1000
X-.625F7000S0
Y.1
X.625
X2F1500S1000
X.2F7000S0
X.5F1500S1000
X.8F7000S0
X1.3F1500S1000
X.2F7000S0
X2F1500S1000
X1F7000S0
X.6F1500S1000
X4.3F7000S0
X.2F1500S1000
X4.1F7000S0
X.8F1500S1000
X19.1F7000S0
X.8F1500S1000
X3.7F7000S0
X.2F1500S1000
X6.9F7000S0
X.6F1500S1000
X20.8F7000S0
X2F1500S1000
X.1F7000S0
X.5F1500S1000
X.9F7000S0
X1.2F1500S1000
X.2F7000S0
X2.1F1500S1000
X.9F7000S0
X.6F1500S1000
X4.3F7000S0
X.2F1500S1000
X4.1F7000S0
X.8F1500S1000
X19.1F7000S0
X.8F1500S1000
X3.7F7000S0
X.2F1500S1000
X6.9F7000S0
X.6F1500S1000
X20.8F7000S0
X2.2F1500S1000
X.1F7000S0
X.5F1500S1000
X.8F7000S0
X1.3F1500S1000
X.2F7000S0
X2.1F1500S1000
X.9F7000S0
X.5F1500S1000
X4.3F7000S0
X.3F1500S1000
X4.1F7000S0
X.7F1500S1000
X19.2F7000S0
X.7F1500S1000
X3.8F7000S0
X.2F1500S1000
X6.9F7000S0
X.6F1500S1000
X20.7F7000S0
X2.1F1500S1000
X.1F7000S0
X.5F1500S1000
X.8F7000S0
X1.3F1500S1000
X.2F7000S0
X2F1500S1000
X1F7000S0
X.5F1500S1000
X4.5F7000S0
X.1F1500S1000
X4.1F7000S0
X.8F1500S1000
X19.101F7000S0
X.799F1500S1000
X3.701F7000S0
X.299F1500S1000
X6.8F7000S0
X.6F1500S1000
X.625F7000S0
Y.1
X-.625
X-.699F1500S1000
X-6.701F7000S0
X-.4F1500S1000
X-3.6F7000S0
X-.7F1500S1000
X-19.3F7000S0
X-.8F1500S1000
X-3.9F7000S0
X-.3F1500S1000
X-4.4F7000S0
X-.5F1500S1000
X-.9F7000S0
X-2.3F1500S1000
X-.1F7000S0
X-1.2F1500S1000
X-.8F7000S0
X-.4F1500S1000
X-.3F7000S0
X-2F1500S1000
X-20.7F7000S0
X-.7F1500S1000
X-6.7F7000S0
X-.3F1500S1000
X-3.7F7000S0
X-.8F1500S1000
X-19.3F7000S0
X-.7F1500S1000
X-3.9F7000S0
X-.4F1500S1000
X-4.3F7000S0
X-.5F1500S1000
X-.9F7000S0
X-2.2F1500S1000
X-.2F7000S0
X-1.2F1500S1000
X-.9F7000S0
X-.4F1500S1000
X-.2F7000S0
X-2F1500S1000
X-20.9F7000S0
X-.7F1500S1000
X-6.7F7000S0
X-.3F1500S1000
X-3.6F7000S0
X-.8F1500S1000
X-19.3F7000S0
X-.7F1500S1000
X-4F7000S0
X-.4F1500S1000
X-4.2F7000S0
X-.6F1500S1000
X-.9F7000S0
X-2.2F1500S1000
X-.2F7000S0
X-1.2F1500S1000
X-.8F7000S0
X-.5F1500S1000
X-.2F7000S0
X-1.9F1500S1000
X-20.7F7000S0
X-.7F1500S1000
X-6.8F7000S0
X-.4F1500S1000
X-3.5F7000S0
X-.8F1500S1000
X-19.3F7000S0
X-.8F1500S1000
X-3.9F7000S0
X-.4F1500S1000
X-4.2F7000S0
X-.6F1500S1000
X-.9F7000S0
X-2.3F1500S1000
X-.1F7000S0
X-1.2F1500S1000
X-.8F7000S0
X-.5F1500S1000
X-.2F7000S0
X-2F1500S1000
X-.625F7000S0
Y.1
X.625
X2F1500S1000
X.2F7000S0
X.7F1500S1000
X.4F7000S0
X3.8F1500S1000
X.9F7000S0
X.5F1500S1000
X4.3F7000S0
X.4F1500S1000
X3.8F7000S0
X.8F1500S1000
X19.5F7000S0
X.7F1500S1000
X3.6F7000S0
X.4F1500S1000
X6.6F7000S0
X.7F1500S1000
X20.8F7000S0
X1.9F1500S1000
X.2F7000S0
X.7F1500S1000
X.4F7000S0
X3.8F1500S1000
X.9F7000S0
X.6F1500S1000
X4.2F7000S0
X.5F1500S1000
X3.8F7000S0
X.7F1500S1000
X19.6F7000S0
X.7F1500S1000
X3.5F7000S0
X.3F1500S1000
X6.7F7000S0
X.7F1500S1000
X20.8F7000S0
X2F1500S1000
X.3F7000S0
X.6F1500S1000
X.5F7000S0
X3.8F1500S1000
X.9F7000S0
X.5F1500S1000
X4.3F7000S0
X.4F1500S1000
X3.8F7000S0
X.8F1500S1000
X19.4F7000S0
X.8F1500S1000
X3.5F7000S0
X.4F1500S1000
X6.7F7000S0
X.7F1500S1000
X20.7F7000S0
X1.9F1500S1000
X.3F7000S0
X.7F1500S1000
X.5F7000S0
X3.7F1500S1000
X.9F7000S0
X.6F1500S1000
X4.3F7000S0
X.3F1500S1000
X3.8F7000S0
X.8F1500S1000
X19.5F7000S0
X.801F1500S1000
X3.399F7000S0
X.5F1500S1000
X6.7F7000S0
X.6F1500S1000
X.625F7000S0
Y.1
X-.625
X-.699F1500S1000
X-6.601F7000S0
X-.5F1500S1000
X-3.3F7000S0
X-.8F1500S1000
X-19.7F7000S0
X-.8F1500S1000
X-3.6F7000S0
X-.5F1500S1000
X-4.3F7000S0
