; LightBurn Pro 2.0.05
; GRBL-LPC device profile, absolute coords
; Bounds: X18.28 Y13.4 to X283.23 Y198.6
G00 G17 G40 G21 G54
G90
M4
; Image @ 1500 мм/мин, 100% power
M8
G0 X73.176Y63.499
; Layer C00
G91
G1 X.625F7000S0
X.1F1500S1000
X33.2F7000S0
X.1F1500S1000
X36.6F7000S0
X.1F1500S1000
X33.2F7000S0
X.1F1500S1000
X.625F7000S0
X107Y.1
X-.625
X-.4F1500S1000
X-36.4F7000S0
X-.3F1500S1000
X-33F7000S0
X-.3F1500S1000
X-36.4F7000S0
X-.4F1500S1000
X-32.9F7000S0
X-.4F1500S1000
X-36.3F7000S0
X-.4F1500S1000
X-33F7000S0
X-.3F1500S1000
X-36.4F7000S0
X-.3F1500S1000
X-.625F7000S0
X-.1Y.1
X.625
X.5F1500S1000
X36.2F7000S0
X.5F1500S1000
X32.9F7000S0
X.4F1500S1000
X36.3F7000S0
X.5F1500S1000
X32.8F7000S0
X.5F1500S1000
X36.2F7000S0
X.5F1500S1000
X32.9F7000S0
X.5F1500S1000
X36.2F7000S0
X.5F1500S1000
X.625F7000S0
X.2Y.1
X-.625
X-.7F1500S1000
X-36.1F7000S0
X-.6F1500S1000
X-32.7F7000S0
X-.6F1500S1000
X-36.1F7000S0
X-.7F1500S1000
X-32.6F7000S0
X-.7F1500S1000
X-36.1F7000S0
X-.6F1500S1000
X-32.7F7000S0
X-.7F1500S1000
X-36F7000S0
X-.7F1500S1000
X-.625F7000S0
X.2Y.1
X.625
X.5F1500S1000
X36.2F7000S0
X.5F1500S1000
X32.8F7000S0
X.5F1500S1000
X36.2F7000S0
X.5F1500S1000
X32.8F7000S0
X.6F1500S1000
X36.2F7000S0
X.5F1500S1000
X32.8F7000S0
X.5F1500S1000
X36.2F7000S0
X.5F1500S1000
X.625F7000S0
Y.1
X-.625
X-.4F1500S1000
X-36.3F7000S0
X-.4F1500S1000
X-32.9F7000S0
X-.4F1500S1000
X-36.3F7000S0
X-.5F1500S1000
X-32.9F7000S0
X-.4F1500S1000
X-36.3F7000S0
X-.4F1500S1000
X-32.9F7000S0
X-.4F1500S1000
X-36.3F7000S0
X-.4F1500S1000
X-.625F7000S0
Y.1
X.625
X.4F1500S1000
X36.3F7000S0
X.4F1500S1000
X33F7000S0
X.3F1500S1000
X36.4F7000S0
X.4F1500S1000
X32.9F7000S0
X.4F1500S1000
X36.3F7000S0
X.4F1500S1000
X33F7000S0
X.3F1500S1000
X36.4F7000S0
X.4F1500S1000
X.625F7000S0
Y.1
X-.625
X-.4F1500S1000
X-36.3F7000S0
X-.4F1500S1000
X-32.9F7000S0
X-.5F1500S1000
X-36.3F7000S0
X-.3F1500S1000
X-33F7000S0
X-.4F1500S1000
X-36.3F7000S0
X-.4F1500S1000
X-32.9F7000S0
X-.4F1500S1000
X-36.3F7000S0
X-.4F1500S1000
X-.625F7000S0
Y.1
X.625
X.4F1500S1000
X36.3F7000S0
X.4F1500S1000
X32.9F7000S0
X.4F1500S1000
X36.3F7000S0
X.4F1500S1000
X32.9F7000S0
X.5F1500S1000
X36.3F7000S0
X.4F1500S1000
X32.9F7000S0
X.4F1500S1000
X36.3F7000S0
X.4F1500S1000
X.625F7000S0
Y.1
X-.625
X-.3F1500S1000
X-36.4F7000S0
X-.3F1500S1000
X-33F7000S0
X-.5F1500S1000
X-36.3F7000S0
X-.3F1500S1000
X-33F7000S0
X-.4F1500S1000
X-36.3F7000S0
X-.4F1500S1000
X-32.9F7000S0
X-.4F1500S1000
X-36.3F7000S0
X-.4F1500S1000
X-.625F7000S0
Y.1
X.625
X.4F1500S1000
X36.3F7000S0
X.4F1500S1000
X32.9F7000S0
X.4F1500S1000
X36.4F7000S0
X.3F1500S1000
X33F7000S0
X.4F1500S1000
X36.3F7000S0
X.4F1500S1000
X33F7000S0
X.3F1500S1000
X36.4F7000S0
X.3F1500S1000
X.625F7000S0
Y.1
X-.625
X-.4F1500S1000
X-36.3F7000S0
X-.4F1500S1000
X-32.9F7000S0
X-.4F1500S1000
X-36.3F7000S0
X-.5F1500S1000
X-32.9F7000S0
X-.4F1500S1000
X-36.3F7000S0
X-.3F1500S1000
X-33F7000S0
X-.299F1500S1000
X-36.4F7000S0
X-.4F1500S1000
X-.625F7000S0
X.1Y.1
X.625
X.3F1500S1000
X36.3F7000S0
X.4F1500S1000
X32.9F7000S0
X.4F1500S1000
X36.3F7000S0
X.4F1500S1000
X33F7000S0
X.4F1500S1000
X36.2F7000S0
X.5F1500S1000
X33F7000S0
X.3F1500S1000
X36.4F7000S0
X.3F1500S1000
X.625F7000S0
Y.1
X-.625
X-.4F1500S1000
X-36.3F7000S0
X-.4F1500S1000
X-32.9F7000S0
X-.4F1500S1000
X-36.3F7000S0
X-.4F1500S1000
X-33F7000S0
X-.3F1500S1000
X-36.4F7000S0
X-.4F1500S1000
X-32.9F7000S0
X-.4F1500S1000
X-36.3F7000S0
X-.4F1500S1000
X-.625F7000S0
X-.1Y.1
X.625
X.4F1500S1000
X36.4F7000S0
X.4F1500S1000
X32.9F7000S0
X.4F1500S1000
X36.3F7000S0
X.4F1500S1000
X32.9F7000S0
X.5F1500S1000
X36.3F7000S0
X.4F1500S1000
X32.9F7000S0
X.4F1500S1000
X36.3F7000S0
X.4F1500S1000
X.625F7000S0
Y.1
X-.625
X-.4F1500S1000
X-36.3F7000S0
X-.4F1500S1000
X-32.9F7000S0
X-.5F1500S1000
X-36.3F7000S0
X-.4F1500S1000
X-32.9F7000S0
X-.4F1500S1000
X-36.3F7000S0
X-.4F1500S1000
X-32.901F7000S0
X-.399F1500S1000
X-36.3F7000S0
X-.4F1500S1000
X-.625F7000S0
X-.1Y.1
X.625
X.4F1500S1000
X36.299F7000S0
X.4F1500S1000
X33F7000S0
X.3F1500S1000
X36.4F7000S0
X.4F1500S1000
X32.9F7000S0
X.4F1500S1000
X36.3F7000S0
X.4F1500S1000
X33F7000S0
X.3F1500S1000
X36.4F7000S0
X.4F1500S1000
X.625F7000S0
X-.1Y.1
X-.625
X-.4F1500S1000
X-36.3F7000S0
X-.4F1500S1000
X-32.9F7000S0
X-.4F1500S1000
X-36.3F7000S0
X-.4F1500S1000
X-33F7000S0
X-.4F1500S1000
X-36.3F7000S0
X-.4F1500S1000
X-32.9F7000S0
X-.4F1500S1000
X-36.299F7000S0
X-.4F1500S1000
X-.625F7000S0
X-.099Y.1
X.625
X.5F1500S1000
X12.999F7000S0
X.1F1500S1000
X23.2F7000S0
X.4F1500S1000
X32.9F7000S0
X.4F1500S1000
X13.1F7000S0
X.1F1500S1000
X23.101F7000S0
X.4F1500S1000
X33F7000S0
X.3F1500S1000
X13.1F7000S0
X.1F1500S1000
X23.199F7000S0
X.4F1500S1000
X32.9F7000S0
X.4F1500S1000
X13.099F7000S0
X.1F1500S1000
X23.1F7000S0
X.401F1500S1000
X.625F7000S0
Y.1
X-.625
X-.5F1500S1000
X-.5F7000S0
X-.101F1500S1000
X-5.599F7000S0
X-1F1500S1000
X-15.701F7000S0
X-.299F1500S1000
X-13.1F7000S0
X-.4F1500S1000
X-.5F7000S0
X-.1F1500S1000
X-5.601F7000S0
X-1F1500S1000
X-25.699F7000S0
X-.399F1500S1000
X-.6F7000S0
X-.1F1500S1000
X-5.6F7000S0
X-.9F1500S1000
X-15.8F7000S0
X-.2F1500S1000
X-13.1F7000S0
X-.4F1500S1000
X-.6F7000S0
X-.101F1500S1000
X-5.599F7000S0
X-1F1500S1000
X-25.6F7000S0
X-.5F1500S1000
X-.6F7000S0
X-.1F1500S1000
X-5.5F7000S0
X-.9F1500S1000
X-15.801F7000S0
X-.3F1500S1000
X-13.1F7000S0
X-.4F1500S1000
X-.6F7000S0
X-.1F1500S1000
X-5.5F7000S0
X-1F1500S1000
X-25.7F7000S0
X-.4F1500S1000
X-.6F7000S0
X-.1F1500S1000
X-5.5F7000S0
X-1F1500S1000
X-15.8F7000S0
X-.2F1500S1000
X-13.1F7000S0
X-.4F1500S1000
X-.6F7000S0
X-.1F1500S1000
X-5.5F7000S0
X-1.1F1500S1000
X-.625F7000S0
X-.2Y.1
X.625
X1.5F1500S1000
X5.1F7000S0
X.6F1500S1000
X.2F7000S0
X.4F1500S1000
X13.1F7000S0
X.4F1500S1000
X15.4F7000S0
X1.5F1500S1000
X5.1F7000S0
X.601F1500S1000
X.199F7000S0
X.5F1500S1000
X25.5F7000S0
X1.4F1500S1000
X5.1F7000S0
X.6F1500S1000
X.3F7000S0
X.401F1500S1000
X13.099F7000S0
X.4F1500S1000
X15.4F7000S0
X1.4F1500S1000
X5.1F7000S0
X.6F1500S1000
X.3F7000S0
X.4F1500S1000
X25.5F7000S0
X1.5F1500S1000
X5.1F7000S0
X.5F1500S1000
X.3F7000S0
X.4F1500S1000
X13.1F7000S0
X.4F1500S1000
X15.4F7000S0
X1.5F1500S1000
X5.1F7000S0
X.6F1500S1000
X.2F7000S0
X.4F1500S1000
X25.6F7000S0
X1.5F1500S1000
X5F7000S0
X.6F1500S1000
X.2F7000S0
X.5F1500S1000
X13.1F7000S0
X.4F1500S1000
X15.4F7000S0
X1.5F1500S1000
X5F7000S0
X.6F1500S1000
X.3F7000S0
X.399F1500S1000
X.625F7000S0
X-.099Y.1
X-.625
X-1.3F1500S1000
X-4.8F7000S0
X-1.801F1500S1000
X-15.199F7000S0
X-.5F1500S1000
X-13.1F7000S0
X-1.4F1500S1000
X-4.7F7000S0
X-1.8F1500S1000
X-25.5F7000S0
X-1.3F1500S1000
X-4.8F7000S0
X-1.7F1500S1000
X-15.2F7000S0
X-.5F1500S1000
X-13.2F7000S0
X-1.3F1500S1000
X-4.8F7000S0
X-1.8F1500S1000
X-25.4F7000S0
X-1.3F1500S1000
X-4.8F7000S0
X-1.8F1500S1000
X-15.2F7000S0
X-.5F1500S1000
X-13.101F7000S0
X-1.399F1500S1000
X-4.701F7000S0
X-1.799F1500S1000
X-25.401F7000S0
X-1.4F1500S1000
X-4.799F7000S0
X-1.701F1500S1000
X-15.2F7000S0
X-.5F1500S1000
X-13.2F7000S0
X-1.3F1500S1000
X-4.8F7000S0
X-1.7F1500S1000
X-.625F7000S0
X-.1Y.1
X.625
X1.9F1500S1000
X4.6F7000S0
X1.4F1500S1000
X13.1F7000S0
X.7F1500S1000
X15F7000S0
X1.9F1500S1000
X4.6F7000S0
X1.4F1500S1000
X25.4F7000S0
X2F1500S1000
X4.5F7000S0
X1.5F1500S1000
X13.101F7000S0
X.599F1500S1000
X15.001F7000S0
X2F1500S1000
X4.5F7000S0
X1.5F1500S1000
X25.3F7000S0
X2F1500S1000
X4.6F7000S0
X1.4F1500S1000
X13.1F7000S0
X.8F1500S1000
X14.9F7000S0
X1.9F1500S1000
X4.6F7000S0
X1.4F1500S1000
X25.399F7000S0
X2F1500S1000
X4.5F7000S0
X1.4F1500S1000
X13.1F7000S0
X.7F1500S1000
X15F7000S0
X2F1500S1000
X4.5F7000S0
X1.5F1500S1000
X.625F7000S0
X-.1Y.1
X-.625
X-.801F1500S1000
X-.299F7000S0
X-.4F1500S1000
X-4.301F7000S0
X-.699F1500S1000
X-.801F7000S0
X-.599F1500S1000
X-14.901F7000S0
X-.799F1500S1000
X-13.1F7000S0
X-.8F1500S1000
X-.3F7000S0
X-.5F1500S1000
X-4.2F7000S0
X-.8F1500S1000
X-.7F7000S0
X-.7F1500S1000
X-25.4F7000S0
X-.699F1500S1000
X-.3F7000S0
X-.5F1500S1000
X-4.3F7000S0
X-.7F1500S1000
X-.7F7000S0
X-.7F1500S1000
X-14.8F7000S0
X-.9F1500S1000
X-13.1F7000S0
X-.7F1500S1000
X-.3F7000S0
X-.5F1500S1000
X-4.3F7000S0
X-.7F1500S1000
X-.7F7000S0
X-.7F1500S1000
X-25.4F7000S0
X-.699F1500S1000
X-.4F7000S0
X-.4F1500S1000
X-4.3F7000S0
X-.7F1500S1000
X-.8F7000S0
X-.6F1500S1000
X-14.901F7000S0
X-.8F1500S1000
X-13.1F7000S0
X-.7F1500S1000
X-.4F7000S0
X-.4F1500S1000
X-4.299F7000S0
X-.701F1500S1000
X-.799F7000S0
X-.701F1500S1000
X-25.4F7000S0
X-.7F1500S1000
X-.4F7000S0
X-.4F1500S1000
X-4.3F7000S0
X-.699F1500S1000
X-.701F7000S0
X-.699F1500S1000
X-14.801F7000S0
X-.8F1500S1000
X-13.2F7000S0
X-.7F1500S1000
X-.4F7000S0
X-.4F1500S1000
X-4.3F7000S0
X-.7F1500S1000
X-.7F7000S0
X-.7F1500S1000
X-.625F7000S0
Y.1
X.625
X.5F1500S1000
X1.1F7000S0
X.6F1500S1000
X4.1F7000S0
X.4F1500S1000
X.5F7000S0
X.7F1500S1000
X13.1F7000S0
X.8F1500S1000
X14.9F7000S0
X.5F1500S1000
X1.1F7000S0
X.6F1500S1000
X4.1F7000S0
X.5F1500S1000
X.4F7000S0
X.7F1500S1000
X25.4F7000S0
X.5F1500S1000
X1.1F7000S0
X.601F1500S1000
X4.199F7000S0
X.4F1500S1000
X.5F7000S0
X.6F1500S1000
X13.1F7000S0
X.9F1500S1000
X14.8F7000S0
X.5F1500S1000
X1.1F7000S0
X.6F1500S1000
X4.2F7000S0
X.4F1500S1000
X.5F7000S0
X.6F1500S1000
X25.4F7000S0
X.5F1500S1000
X1.1F7000S0
X.6F1500S1000
X4.2F7000S0
X.4F1500S1000
X.6F7000S0
X.6F1500S1000
X13.1F7000S0
X.8F1500S1000
X14.9F7000S0
X.5F1500S1000
X1.1F7000S0
X.6F1500S1000
X4.1F7000S0
X.4F1500S1000
X.6F7000S0
X.6F1500S1000
X25.4F7000S0
X.5F1500S1000
X1.1F7000S0
X.6F1500S1000
X4.1F7000S0
X.5F1500S1000
X.5F7000S0
X.6F1500S1000
X13.099F7000S0
X.9F1500S1000
X14.801F7000S0
X.5F1500S1000
X1.1F7000S0
X.599F1500S1000
X4.201F7000S0
X.4F1500S1000
X.6F7000S0
X.5F1500S1000
X.625F7000S0
Y.1
X-.625
X-.701F1500S1000
X-.599F7000S0
X-.3F1500S1000
X-4F7000S0
X-.5F1500S1000
X-.5F7000S0
X-.2F1500S1000
X-.8F7000S0
X-.3F1500S1000
X-14.7F7000S0
X-1.001F1500S1000
X-13.099F7000S0
X-.7F1500S1000
X-.6F7000S0
X-.3F1500S1000
X-4F7000S0
X-.5F1500S1000
X-.6F7000S0
X-.1F1500S1000
X-.8F7000S0
X-.3F1500S1000
X-25.4F7000S0
X-.699F1500S1000
X-.6F7000S0
X-.4F1500S1000
X-3.9F7000S0
X-.6F1500S1000
X-.4F7000S0
X-.1F1500S1000
X-.1F7000S0
X-.1F1500S1000
X-.7F7000S0
X-.4F1500S1000
X-14.7F7000S0
X-1F1500S1000
X-13F7000S0
X-.7F1500S1000
X-.7F7000S0
X-.3F1500S1000
X-4F7000S0
X-.5F1500S1000
X-.5F7000S0
X-.1F1500S1000
X-.9F7000S0
X-.3F1500S1000
X-25.4F7000S0
X-.7F1500S1000
X-.6F7000S0
X-.3F1500S1000
X-4F7000S0
X-.5F1500S1000
X-.5F7000S0
X-.1F1500S1000
X-.1F7000S0
X-.1F1500S1000
X-.7F7000S0
X-.4F1500S1000
X-14.601F7000S0
X-1F1500S1000
X-13.1F7000S0
X-.699F1500S1000
X-.601F7000S0
X-.3F1500S1000
X-4F7000S0
X-.5F1500S1000
X-.599F7000S0
X-.101F1500S1000
X-.8F7000S0
X-.4F1500S1000
X-25.3F7000S0
X-.7F1500S1000
X-.6F7000S0
X-.4F1500S1000
X-3.9F7000S0
X-.5F1500S1000
X-.5F7000S0
X-.1F1500S1000
X-.1F7000S0
X-.1F1500S1000
X-.7F7000S0
X-.399F1500S1000
X-14.701F7000S0
X-1F1500S1000
X-13.1F7000S0
X-.7F1500S1000
X-.5F7000S0
X-.4F1500S1000
X-4F7000S0
X-.5F1500S1000
X-.4F7000S0
X-.1F1500S1000
X-.1F7000S0
X-.1F1500S1000
X-.7F7000S0
X-.4F1500S1000
X-.625F7000S0
X-.1Y.1
X.625
X.4F1500S1000
X.7F7000S0
X.5F1500S1000
X.4F7000S0
X.5F1500S1000
X3.9F7000S0
X.4F1500S1000
X.3F7000S0
X1F1500S1000
X12.9F7000S0
X1.2F1500S1000
X14.5F7000S0
X.4F1500S1000
X.701F7000S0
X.6F1500S1000
X.299F7000S0
X.5F1500S1000
X3.9F7000S0
X.4F1500S1000
X.401F7000S0
X.799F1500S1000
X25.4F7000S0
X.301F1500S1000
X.799F7000S0
X.5F1500S1000
X.4F7000S0
X.5F1500S1000
X3.9F7000S0
X.3F1500S1000
X.4F7000S0
X.9F1500S1000
X13F7000S0
X1.1F1500S1000
X14.601F7000S0
X.3F1500S1000
X.8F7000S0
X.5F1500S1000
X.4F7000S0
X.5F1500S1000
X3.9F7000S0
X.3F1500S1000
X.4F7000S0
X.9F1500S1000
X25.3F7000S0
X.4F1500S1000
X.8F7000S0
X.4F1500S1000
X.4F7000S0
X.5F1500S1000
X3.9F7000S0
X.4F1500S1000
X.3F7000S0
X.9F1500S1000
X13F7000S0
X1.2F1500S1000
X14.5F7000S0
X.4F1500S1000
X.7F7000S0
X.5F1500S1000
X.4F7000S0
X.5F1500S1000
X3.9F7000S0
X.3F1500S1000
X.4F7000S0
X1F1500S1000
X25.2F7000S0
X.4F1500S1000
X.8F7000S0
X.5F1500S1000
X.4F7000S0
X.5F1500S1000
X3.9F7000S0
X.3F1500S1000
X.4F7000S0
X.9F1500S1000
X12.999F7000S0
X1.101F1500S1000
X14.6F7000S0
X.299F1500S1000
X.801F7000S0
X.5F1500S1000
X.4F7000S0
X.5F1500S1000
X3.9F7000S0
X.3F1500S1000
X.4F7000S0
X.9F1500S1000
X.625F7000S0
Y.1
X-.625
X-1.6F1500S1000
X-3.9F7000S0
X-.5F1500S1000
X-.3F7000S0
X-.6F1500S1000
X-.801F7000S0
X-.399F1500S1000
X-14.4F7000S0
X-1.3F1500S1000
X-13F7000S0
X-1.5F1500S1000
X-3.9F7000S0
X-.5F1500S1000
X-.3F7000S0
X-.6F1500S1000
X-.8F7000S0
X-.4F1500S1000
X-25.3F7000S0
X-1.5F1500S1000
X-4F7000S0
X-.401F1500S1000
X-.399F7000S0
X-.601F1500S1000
X-.799F7000S0
X-.4F1500S1000
X-14.4F7000S0
X-1.2F1500S1000
X-13F7000S0
X-1.6F1500S1000
X-3.9F7000S0
X-.4F1500S1000
X-.4F7000S0
X-.6F1500S1000
X-.801F7000S0
X-.399F1500S1000
X-25.3F7000S0
X-1.5F1500S1000
X-3.9F7000S0
X-.5F1500S1000
X-.3F7000S0
X-.601F1500S1000
X-.799F7000S0
X-.4F1500S1000
X-14.401F7000S0
X-1.3F1500S1000
X-13F7000S0
X-1.5F1500S1000
X-3.9F7000S0
X-.5F1500S1000
X-.3F7000S0
X-.6F1500S1000
X-.8F7000S0
X-.4F1500S1000
X-25.3F7000S0
X-1.6F1500S1000
X-3.8F7000S0
X-.5F1500S1000
X-.3F7000S0
X-.7F1500S1000
X-.7F7000S0
X-.4F1500S1000
X-14.5F7000S0
X-1.2F1500S1000
X-13F7000S0
X-1.6F1500S1000
X-3.9F7000S0
X-.4F1500S1000
X-.4F7000S0
X-.6F1500S1000
X-.7F7000S0
X-.4F1500S1000
X-.625F7000S0
Y.1
X.625
X.3F1500S1000
X1F7000S0
X.5F1500S1000
X.3F7000S0
X.5F1500S1000
X3.9F7000S0
X1.5F1500S1000
X12.9F7000S0
X1.4F1500S1000
X14.4F7000S0
X.3F1500S1000
X1F7000S0
X.5F1500S1000
X.301F7000S0
X.5F1500S1000
X3.899F7000S0
X1.5F1500S1000
X25.3F7000S0
X.3F1500S1000
X1.1F7000S0
X.4F1500S1000
X.4F7000S0
X.4F1500S1000
X3.9F7000S0
X1.5F1500S1000
X13F7000S0
X.6F1500S1000
X.1F7000S0
X.7F1500S1000
X14.301F7000S0
X.3F1500S1000
X1.1F7000S0
X.4F1500S1000
X.399F7000S0
X.401F1500S1000
X3.9F7000S0
X1.6F1500S1000
X25.2F7000S0
X.399F1500S1000
X1F7000S0
X.5F1500S1000
X.301F7000S0
X.5F1500S1000
X3.9F7000S0
X1.5F1500S1000
X12.9F7000S0
X1.399F1500S1000
X14.401F7000S0
X.3F1500S1000
X1F7000S0
X.5F1500S1000
X.4F7000S0
X.399F1500S1000
X3.901F7000S0
X1.5F1500S1000
X25.3F7000S0
X.299F1500S1000
X1F7000S0
X.5F1500S1000
X.401F7000S0
X.4F1500S1000
X4F7000S0
X1.4F1500S1000
X13F7000S0
X1.299F1500S1000
X14.401F7000S0
X.3F1500S1000
X1.099F7000S0
X.401F1500S1000
X.4F7000S0
X.399F1500S1000
X4F7000S0
X1.5F1500S1000
X.625F7000S0
Y.1
X-.625
X-1.5F1500S1000
X-3.899F7000S0
X-.4F1500S1000
X-.5F7000S0
X-.3F1500S1000
X-1.101F7000S0
X-.399F1500S1000
X-14.2F7000S0
X-.701F1500S1000
X-.2F7000S0
X-.599F1500S1000
X-13F7000S0
X-1.4F1500S1000
X-3.9F7000S0
X-.5F1500S1000
X-.401F7000S0
X-.299F1500S1000
X-1.201F7000S0
X-.299F1500S1000
X-25.3F7000S0
X-1.401F1500S1000
X-4F7000S0
X-.399F1500S1000
X-.4F7000S0
X-.4F1500S1000
X-1.1F7000S0
X-.3F1500S1000
X-14.401F7000S0
X-.599F1500S1000
X-.2F7000S0
X-.6F1500S1000
X-12.9F7000S0
X-1.4F1500S1000
X-4F7000S0
X-.5F1500S1000
X-.301F7000S0
X-.399F1500S1000
X-1.101F7000S0
X-.399F1500S1000
X-25.2F7000S0
X-1.5F1500S1000
X-4F7000S0
X-.401F1500S1000
X-.399F7000S0
X-.3F1500S1000
X-1.2F7000S0
X-.3F1500S1000
X-14.301F7000S0
X-.6F1500S1000
X-.2F7000S0
X-.7F1500S1000
X-12.9F7000S0
X-1.4F1500S1000
X-4F7000S0
X-.4F1500S1000
X-.4F7000S0
X-.3F1500S1000
X-1.2F7000S0
X-.3F1500S1000
X-25.3F7000S0
X-1.4F1500S1000
X-4F7000S0
X-.4F1500S1000
X-.4F7000S0
X-.3F1500S1000
X-1.2F7000S0
X-.3F1500S1000
X-14.3F7000S0
X-.7F1500S1000
X-.2F7000S0
X-.6F1500S1000
X-12.9F7000S0
X-1.4F1500S1000
X-4.1F7000S0
X-.3F1500S1000
X-.4F7000S0
X-.3F1500S1000
X-1.2F7000S0
X-.3F1500S1000
X-.625F7000S0
Y.1
X.625
X.2F1500S1000
X1.4F7000S0
X.2F1500S1000
X.4F7000S0
X.4F1500S1000
X4.9F7000S0
X.5F1500S1000
X12.8F7000S0
X.7F1500S1000
X.3F7000S0
X.6F1500S1000
X14.3F7000S0
X.2F1500S1000
X1.4F7000S0
X.2F1500S1000
X.4F7000S0
X.3F1500S1000
X5F7000S0
X.5F1500S1000
X25.3F7000S0
X.3F1500S1000
X1.4F7000S0
X.1F1500S1000
X.4F7000S0
X.5F1500S1000
X4.8F7000S0
X.5F1500S1000
X12.8F7000S0
X.7F1500S1000
X.3F7000S0
X.7F1500S1000
X14.201F7000S0
X.3F1500S1000
X1.399F7000S0
X.101F1500S1000
X.399F7000S0
X.5F1500S1000
X4.901F7000S0
X.5F1500S1000
X25.3F7000S0
X.2F1500S1000
X1.4F7000S0
X.1F1500S1000
X.5F7000S0
X.4F1500S1000
X4.9F7000S0
X.5F1500S1000
X12.799F7000S0
X.601F1500S1000
X.399F7000S0
X.701F1500S1000
X14.2F7000S0
X.2F1500S1000
X1.399F7000S0
X.201F1500S1000
X.4F7000S0
X.399F1500S1000
X4.901F7000S0
X.5F1500S1000
X25.3F7000S0
X.2F1500S1000
X1.5F7000S0
X.099F1500S1000
X.401F7000S0
X.4F1500S1000
X4.9F7000S0
X.5F1500S1000
X12.799F7000S0
X.701F1500S1000
X.299F7000S0
X.701F1500S1000
X14.2F7000S0
X.3F1500S1000
X1.4F7000S0
X.1F1500S1000
X.4F7000S0
X.5F1500S1000
X4.899F7000S0
X.5F1500S1000
X.625F7000S0
Y.1
X-.625
X-.5F1500S1000
X-5F7000S0
X-.399F1500S1000
X-1.9F7000S0
X-.3F1500S1000
X-14.101F7000S0
X-.699F1500S1000
X-.5F7000S0
X-.601F1500S1000
X-12.799F7000S0
X-.5F1500S1000
X-4.8F7000S0
X-.401F1500S1000
X-2.099F7000S0
X-.2F1500S1000
X-25.3F7000S0
X-.5F1500S1000
X-5F7000S0
X-.3F1500S1000
X-2F7000S0
X-.3F1500S1000
X-14.1F7000S0
X-.6F1500S1000
X-.5F7000S0
X-.7F1500S1000
X-12.7F7000S0
X-.5F1500S1000
X-5F7000S0
X-.3F1500S1000
X-2F7000S0
X-.3F1500S1000
X-25.2F7000S0
X-.5F1500S1000
X-5F7000S0
X-.401F1500S1000
X-1.899F7000S0
X-.3F1500S1000
X-14.201F7000S0
X-.6F1500S1000
X-.5F7000S0
X-.6F1500S1000
X-12.8F7000S0
X-.5F1500S1000
X-4.9F7000S0
X-.4F1500S1000
X-1.9F7000S0
X-.3F1500S1000
X-25.3F7000S0
X-.5F1500S1000
X-4.899F7000S0
X-.401F1500S1000
X-2F7000S0
X-.2F1500S1000
X-14.2F7000S0
X-.7F1500S1000
X-.4F7000S0
X-.7F1500S1000
X-12.7F7000S0
X-.5F1500S1000
X-4.9F7000S0
X-.4F1500S1000
X-2F7000S0
X-.3F1500S1000
X-.625F7000S0
Y.1
X.625
X.3F1500S1000
X2F7000S0
X.3F1500S1000
X5F7000S0
X.5F1500S1000
X12.7F7000S0
X.6F1500S1000
X.7F7000S0
X.6F1500S1000
X14F7000S0
X.3F1500S1000
X2F7000S0
X.401F1500S1000
X4.899F7000S0
X.5F1500S1000
X25.2F7000S0
X.4F1500S1000
X1.9F7000S0
X.4F1500S1000
X4.9F7000S0
X.5F1500S1000
X12.7F7000S0
X.7F1500S1000
X.6F7000S0
X.6F1500S1000
X14.001F7000S0
X.4F1500S1000
X2F7000S0
X.399F1500S1000
X4.901F7000S0
X.4F1500S1000
X25.199F7000S0
X.401F1500S1000
X2F7000S0
X.4F1500S1000
X4.9F7000S0
X.5F1500S1000
X12.6F7000S0
X.699F1500S1000
X.601F7000S0
X.7F1500S1000
X14F7000S0
X.3F1500S1000
X2F7000S0
X.399F1500S1000
X4.901F7000S0
X.5F1500S1000
X25.3F7000S0
X.2F1500S1000
X2F7000S0
X.5F1500S1000
X4.8F7000S0
X.5F1500S1000
X12.699F7000S0
X.6F1500S1000
X.701F7000S0
X.599F1500S1000
X14.101F7000S0
X.3F1500S1000
X2F7000S0
X.4F1500S1000
X4.899F7000S0
X.401F1500S1000
X.625F7000S0
Y.1
X-.625
X-.5F1500S1000
X-3.8F7000S0
X-.601F1500S1000
X-.399F7000S0
X-.5F1500S1000
X-1.9F7000S0
X-.401F1500S1000
X-13.899F7000S0
X-.601F1500S1000
X-.699F7000S0
X-.801F1500S1000
X-12.599F7000S0
X-.5F1500S1000
X-3.8F7000S0
X-.6F1500S1000
X-.5F7000S0
X-.4F1500S1000
X-2F7000S0
X-.3F1500S1000
X-25.3F7000S0
X-.4F1500S1000
X-3.8F7000S0
X-.601F1500S1000
X-.5F7000S0
X-.399F1500S1000
X-2F7000S0
X-.2F1500S1000
X-14F7000S0
X-.7F1500S1000
X-.8F7000S0
X-.6F1500S1000
X-12.7F7000S0
X-.4F1500S1000
X-3.9F7000S0
X-.6F1500S1000
X-.4F7000S0
X-.4F1500S1000
X-2F7000S0
X-.3F1500S1000
X-25.3F7000S0
X-.501F1500S1000
X-3.8F7000S0
X-.599F1500S1000
X-.5F7000S0
X-.401F1500S1000
X-1.899F7000S0
X-.301F1500S1000
X-14F7000S0
X-.6F1500S1000
X-.8F7000S0
X-.7F1500S1000
X-12.6F7000S0
X-.5F1500S1000
X-3.8F7000S0
X-.6F1500S1000
X-.4F7000S0
X-.5F1500S1000
X-1.9F7000S0
X-.4F1500S1000
X-25.2F7000S0
X-.5F1500S1000
X-3.8F7000S0
X-.6F1500S1000
X-.6F7000S0
X-.3F1500S1000
X-2F7000S0
X-.3F1500S1000
X-14F7000S0
X-.6F1500S1000
X-.7F7000S0
X-.7F1500S1000
X-12.7F7000S0
X-.4F1500S1000
X-3.8F7000S0
X-.6F1500S1000
X-.5F7000S0
X-.4F1500S1000
X-2F7000S0
X-.3F1500S1000
X-.625F7000S0
Y.1
X.625
X.3F1500S1000
X2F7000S0
X.3F1500S1000
X.4F7000S0
X1F1500S1000
X3.5F7000S0
X.5F1500S1000
X12.6F7000S0
X.7F1500S1000
X.8F7000S0
X.7F1500S1000
X13.9F7000S0
X.3F1500S1000
X2F7000S0
X.4F1500S1000
X.3F7000S0
X1F1500S1000
X3.5F7000S0
X.5F1500S1000
X25.4F7000S0
X.3F1500S1000
X2F7000S0
X.3F1500S1000
X.3F7000S0
X1F1500S1000
X3.6F7000S0
X.5F1500S1000
X12.6F7000S0
X.7F1500S1000
X.8F7000S0
X.6F1500S1000
X13.901F7000S0
X.4F1500S1000
X1.899F7000S0
X.5F1500S1000
X.201F7000S0
X1F1500S1000
X3.6F7000S0
X.5F1500S1000
X25.3F7000S0
X.3F1500S1000
X2F7000S0
X.3F1500S1000
X.299F7000S0
X1F1500S1000
X3.601F7000S0
X.5F1500S1000
X12.6F7000S0
X.7F1500S1000
X.8F7000S0
X.7F1500S1000
X13.9F7000S0
X.3F1500S1000
X2F7000S0
X.3F1500S1000
X.4F7000S0
X.9F1500S1000
X3.6F7000S0
X.5F1500S1000
X25.3F7000S0
X.3F1500S1000
X2.099F7000S0
X.401F1500S1000
X.2F7000S0
X1F1500S1000
X3.6F7000S0
X.4F1500S1000
X12.699F7000S0
X.6F1500S1000
X.9F7000S0
X.7F1500S1000
X13.901F7000S0
X.3F1500S1000
X1.9F7000S0
X.399F1500S1000
X.3F7000S0
X1F1500S1000
X3.601F7000S0
X.5F1500S1000
X.625F7000S0
Y.1
X-.625
X-.5F1500S1000
X-3.401F7000S0
X-1.799F1500S1000
X-2F7000S0
X-.3F1500S1000
X-13.901F7000S0
X-.7F1500S1000
X-.8F7000S0
X-.799F1500S1000
X-12.6F7000S0
X-.5F1500S1000
X-3.3F7000S0
X-1.9F1500S1000
X-2F7000S0
X-.2F1500S1000
X-25.4F7000S0
X-.5F1500S1000
X-3.4F7000S0
X-1.3F1500S1000
X-.101F7000S0
X-.399F1500S1000
X-2F7000S0
X-.3F1500S1000
X-13.801F7000S0
X-.699F1500S1000
X-1F7000S0
X-.6F1500S1000
X-12.6F7000S0
X-.5F1500S1000
X-3.4F7000S0
X-1.3F1500S1000
X-.1F7000S0
X-.4F1500S1000
X-2F7000S0
X-.401F1500S1000
X-25.199F7000S0
X-.5F1500S1000
X-3.4F7000S0
X-1.901F1500S1000
X-1.899F7000S0
X-.4F1500S1000
X-13.801F7000S0
X-.7F1500S1000
X-.9F7000S0
X-.7F1500S1000
X-12.6F7000S0
X-.5F1500S1000
X-3.3F7000S0
X-1.9F1500S1000
X-1.9F7000S0
X-.4F1500S1000
X-25.3F7000S0
X-.5F1500S1000
X-3.4F7000S0
X-1.3F1500S1000
X-.1F7000S0
X-.4F1500S1000
X-2F7000S0
X-.3F1500S1000
X-13.8F7000S0
X-.7F1500S1000
X-.9F7000S0
X-.7F1500S1000
X-12.6F7000S0
X-.5F1500S1000
X-3.4F7000S0
X-1.3F1500S1000
X-.1F7000S0
X-.4F1500S1000
X-2F7000S0
X-.3F1500S1000
X-.625F7000S0
X.1Y.1
X.625
X.2F1500S1000
X2F7000S0
X1.1F1500S1000
X.1F7000S0
X.8F1500S1000
X3.1F7000S0
X.5F1500S1000
X12.6F7000S0
X.7F1500S1000
X1.1F7000S0
X.6F1500S1000
X13.9F7000S0
X.3F1500S1000
X1.9F7000S0
X1.1F1500S1000
X.1F7000S0
X.8F1500S1000
X3.1F7000S0
X.5F1500S1000
X25.5F7000S0
X.3F1500S1000
X1.9F7000S0
X1.2F1500S1000
X.1F7000S0
X.8F1500S1000
X3F7000S0
X.6F1500S1000
X12.6F7000S0
X.6F1500S1000
X1.1F7000S0
X.7F1500S1000
X13.801F7000S0
X.3F1500S1000
X1.899F7000S0
X1.201F1500S1000
X.1F7000S0
X.8F1500S1000
X3.1F7000S0
X.5F1500S1000
X25.4F7000S0
X.3F1500S1000
X2F7000S0
X1F1500S1000
X.099F7000S0
X.201F1500S1000
X.1F7000S0
X.6F1500S1000
X3.099F7000S0
X.5F1500S1000
X12.601F7000S0
X.7F1500S1000
X1.1F7000S0
X.599F1500S1000
X13.901F7000S0
X.2F1500S1000
X2F7000S0
X1.1F1500S1000
X.1F7000S0
X.8F1500S1000
X3.1F7000S0
X.5F1500S1000
X25.5F7000S0
X.299F1500S1000
X1.901F7000S0
X1F1500S1000
X.099F7000S0
X.101F1500S1000
X.1F7000S0
X.7F1500S1000
X3.099F7000S0
X.601F1500S1000
X12.6F7000S0
X.599F1500S1000
X1.101F7000S0
X.7F1500S1000
X13.8F7000S0
X.3F1500S1000
X1.9F7000S0
X1.1F1500S1000
X.099F7000S0
X.2F1500S1000
X.101F7000S0
X.6F1500S1000
X3.099F7000S0
X.5F1500S1000
X.625F7000S0
X-.099Y.1
X-.625
X-.5F1500S1000
X-2.901F7000S0
X-.599F1500S1000
X-.901F7000S0
X-.699F1500S1000
X-1.801F7000S0
X-.399F1500S1000
X-13.8F7000S0
X-.601F1500S1000
X-1.2F7000S0
X-.699F1500S1000
X-12.601F7000S0
X-.599F1500S1000
X-2.901F7000S0
X-.5F1500S1000
X-.899F7000S0
X-.7F1500S1000
X-1.8F7000S0
X-.4F1500S1000
X-25.5F7000S0
X-.6F1500S1000
X-2.9F7000S0
X-.5F1500S1000
X-1F7000S0
X-.701F1500S1000
X-1.799F7000S0
X-.3F1500S1000
X-13.7F7000S0
X-.8F1500S1000
X-1.2F7000S0
X-.6F1500S1000
X-12.601F7000S0
X-.599F1500S1000
X-2.901F7000S0
X-.599F1500S1000
X-.6F7000S0
X-.1F1500S1000
X-.201F7000S0
X-.699F1500S1000
X-1.801F7000S0
X-.399F1500S1000
X-25.5F7000S0
X-.5F1500S1000
X-2.9F7000S0
X-.6F1500S1000
X-.9F7000S0
X-.701F1500S1000
X-1.799F7000S0
X-.4F1500S1000
X-13.801F7000S0
X-.6F1500S1000
X-1.2F7000S0
X-.7F1500S1000
X-12.6F7000S0
X-.6F1500S1000
X-2.8F7000S0
X-.6F1500S1000
X-.9F7000S0
X-.8F1500S1000
X-1.7F7000S0
X-.4F1500S1000
X-25.5F7000S0
X-.6F1500S1000
X-2.9F7000S0
X-.5F1500S1000
X-.699F7000S0
X-.101F1500S1000
X-.2F7000S0
X-.699F1500S1000
X-1.701F7000S0
X-.4F1500S1000
X-13.8F7000S0
X-.7F1500S1000
X-1.2F7000S0
X-.6F1500S1000
X-12.7F7000S0
X-.5F1500S1000
X-2.9F7000S0
X-.5F1500S1000
X-.8F7000S0
X-.1F1500S1000
X-.1F7000S0
X-.7F1500S1000
X-1.8F7000S0
X-.3F1500S1000
X-.625F7000S0
Y.1
X.625
X.4F1500S1000
X1.7F7000S0
X.6F1500S1000
X1.2F7000S0
X.5F1500S1000
X2.7F7000S0
X.6F1500S1000
X12.6F7000S0
X.7F1500S1000
X1.3F7000S0
X.7F1500S1000
X13.7F7000S0
X.5F1500S1000
X1.6F7000S0
X.6F1500S1000
X1.2F7000S0
X.5F1500S1000
X2.7F7000S0
X.6F1500S1000
X25.6F7000S0
X.5F1500S1000
X1.6F7000S0
X.6F1500S1000
X1.3F7000S0
X.4F1500S1000
X2.7F7000S0
X.6F1500S1000
X12.7F7000S0
X.6F1500S1000
X1.3F7000S0
X.7F1500S1000
X13.701F7000S0
X.5F1500S1000
X1.6F7000S0
X.7F1500S1000
X1.2F7000S0
X.4F1500S1000
X2.799F7000S0
X.5F1500S1000
X25.701F7000S0
X.4F1500S1000
X1.6F7000S0
X.799F1500S1000
X1.101F7000S0
X.399F1500S1000
X2.801F7000S0
X.6F1500S1000
X12.599F7000S0
X.601F1500S1000
X1.399F7000S0
X.601F1500S1000
X13.8F7000S0
X.4F1500S1000
X1.6F7000S0
X.7F1500S1000
X1.2F7000S0
X.5F1500S1000
X2.699F7000S0
X.601F1500S1000
X25.6F7000S0
X.5F1500S1000
X1.599F7000S0
X.601F1500S1000
X1.3F7000S0
X.4F1500S1000
X2.699F7000S0
X.601F1500S1000
X12.7F7000S0
X.6F1500S1000
X1.299F7000S0
X.8F1500S1000
X13.601F7000S0
X.5F1500S1000
X1.599F7000S0
X.701F1500S1000
X1.2F7000S0
X.399F1500S1000
X2.801F7000S0
X.6F1500S1000
X.625F7000S0
X-.1Y.1
X-.625
X-.601F1500S1000
X-2.599F7000S0
X-.401F1500S1000
X-1.399F7000S0
X-.7F1500S1000
X-1.401F7000S0
X-.5F1500S1000
X-13.799F7000S0
X-.6F1500S1000
X-1.5F7000S0
X-.601F1500S1000
X-12.599F7000S0
X-.7F1500S1000
X-2.5F7000S0
X-.401F1500S1000
X-1.399F7000S0
X-.7F1500S1000
X-1.401F7000S0
X-.499F1500S1000
X-25.7F7000S0
X-.7F1500S1000
X-2.6F7000S0
X-.4F1500S1000
X-1.401F7000S0
X-.699F1500S1000
X-1.4F7000S0
X-.5F1500S1000
X-13.7F7000S0
X-.701F1500S1000
X-1.399F7000S0
X-.601F1500S1000
X-12.699F7000S0
X-.6F1500S1000
X-2.6F7000S0
X-.4F1500S1000
X-1.4F7000S0
X-.7F1500S1000
X-1.4F7000S0
X-.5F1500S1000
X-25.701F7000S0
X-.599F1500S1000
X-2.6F7000S0
X-.4F1500S1000
X-1.5F7000S0
X-.6F1500S1000
X-1.4F7000S0
X-.5F1500S1000
X-13.701F7000S0
X-.7F1500S1000
X-1.5F7000S0
X-.6F1500S1000
X-12.6F7000S0
X-.7F1500S1000
X-2.5F7000S0
X-.4F1500S1000
X-1.4F7000S0
X-.7F1500S1000
X-1.4F7000S0
X-.5F1500S1000
X-25.8F7000S0
X-.6F1500S1000
X-2.6F7000S0
X-.4F1500S1000
X-1.4F7000S0
X-.6F1500S1000
X-1.4F7000S0
X-.5F1500S1000
X-13.8F7000S0
X-.6F1500S1000
X-1.5F7000S0
X-.6F1500S1000
X-12.6F7000S0
X-.7F1500S1000
X-2.6F7000S0
X-.4F1500S1000
X-1.4F7000S0
X-.6F1500S1000
X-1.5F7000S0
X-.4F1500S1000
X-.625F7000S0
Y.1
X.625
X.6F1500S1000
X1.2F7000S0
X.6F1500S1000
X1.6F7000S0
X.3F1500S1000
X2.4F7000S0
X.8F1500S1000
X12.6F7000S0
X.6F1500S1000
X1.6F7000S0
X.7F1500S1000
X13.7F7000S0
X.6F1500S1000
X1.2F7000S0
X.6F1500S1000
X1.6F7000S0
X.4F1500S1000
X2.3F7000S0
X.9F1500S1000
X25.8F7000S0
X.5F1500S1000
X1.2F7000S0
X.7F1500S1000
X1.5F7000S0
X.4F1500S1000
X2.4F7000S0
X.7F1500S1000
X12.7F7000S0
X.6F1500S1000
X1.6F7000S0
X.6F1500S1000
X13.8F7000S0
X.5F1500S1000
X1.201F7000S0
X.7F1500S1000
X1.599F7000S0
X.301F1500S1000
X2.4F7000S0
X.7F1500S1000
X25.9F7000S0
X.5F1500S1000
X1.199F7000S0
X.701F1500S1000
X1.6F7000S0
X.3F1500S1000
X2.399F7000S0
X.801F1500S1000
X12.6F7000S0
X.7F1500S1000
X1.5F7000S0
X.6F1500S1000
X13.799F7000S0
X.601F1500S1000
X1.1F7000S0
X.7F1500S1000
X1.599F7000S0
X.301F1500S1000
X2.4F7000S0
X.799F1500S1000
X25.901F7000S0
X.5F1500S1000
X1.2F7000S0
X.6F1500S1000
X1.6F7000S0
X.4F1500S1000
X2.299F7000S0
X.801F1500S1000
X12.599F7000S0
X.701F1500S1000
X1.6F7000S0
X.599F1500S1000
X13.801F7000S0
X.5F1500S1000
X1.199F7000S0
X.7F1500S1000
X1.601F7000S0
X.3F1500S1000
X2.399F7000S0
X.7F1500S1000
X.625F7000S0
Y.1
X-.625
X-.899F1500S1000
X-2.2F7000S0
X-.3F1500S1000
X-1.7F7000S0
X-.7F1500S1000
X-.901F7000S0
X-.699F1500S1000
X-13.7F7000S0
X-.7F1500S1000
X-1.701F7000S0
X-.6F1500S1000
X-12.699F7000S0
X-.9F1500S1000
X-2F7000S0
X-.4F1500S1000
X-1.8F7000S0
X-.601F1500S1000
X-.899F7000S0
X-.7F1500S1000
X-26F7000S0
X-.901F1500S1000
X-2.199F7000S0
X-.301F1500S1000
X-1.699F7000S0
X-.7F1500S1000
X-.9F7000S0
X-.6F1500S1000
X-13.8F7000S0
X-.6F1500S1000
X-1.701F7000S0
X-.699F1500S1000
X-12.6F7000S0
X-.9F1500S1000
X-2.2F7000S0
X-.3F1500S1000
X-1.7F7000S0
X-.7F1500S1000
X-.9F7000S0
X-.7F1500S1000
X-25.9F7000S0
X-.901F1500S1000
X-2.199F7000S0
X-.301F1500S1000
X-1.699F7000S0
X-.7F1500S1000
X-.9F7000S0
X-.701F1500S1000
X-13.7F7000S0
X-.7F1500S1000
X-1.6F7000S0
X-.7F1500S1000
X-12.7F7000S0
X-.8F1500S1000
X-2.2F7000S0
X-.3F1500S1000
X-1.8F7000S0
X-.6F1500S1000
X-.9F7000S0
X-.7F1500S1000
X-26F7000S0
X-.9F1500S1000
X-2.1F7000S0
X-.3F1500S1000
X-1.8F7000S0
X-.7F1500S1000
X-.9F7000S0
X-.6F1500S1000
X-13.8F7000S0
X-.6F1500S1000
X-1.7F7000S0
X-.6F1500S1000
X-12.7F7000S0
X-.9F1500S1000
X-2.2F7000S0
X-.3F1500S1000
X-1.7F7000S0
X-.7F1500S1000
X-.9F7000S0
X-.6F1500S1000
X-.625F7000S0
X.1Y.1
X.625
X.7F1500S1000
X.1F7000S0
X.1F1500S1000
X.2F7000S0
X.9F1500S1000
X1.9F7000S0
X.3F1500S1000
X1.7F7000S0
X1.2F1500S1000
X12.6F7000S0
X.7F1500S1000
X1.8F7000S0
X.7F1500S1000
X13.9F7000S0
X.6F1500S1000
X.101F7000S0
X.099F1500S1000
X.2F7000S0
X.9F1500S1000
X1.9F7000S0
X.3F1500S1000
X1.7F7000S0
X.1F1500S1000
X.1F7000S0
X1F1500S1000
X26.3F7000S0
X.6F1500S1000
X.1F7000S0
X.1F1500S1000
X.201F7000S0
X.099F1500S1000
X.1F7000S0
X.801F1500S1000
X1.799F7000S0
X.3F1500S1000
X1.7F7000S0
X.1F1500S1000
X.1F7000S0
X1F1500S1000
X12.7F7000S0
X.6F1500S1000
X1.9F7000S0
X.6F1500S1000
X13.901F7000S0
X.6F1500S1000
X.1F7000S0
X.1F1500S1000
X.1F7000S0
X.1F1500S1000
X.1F7000S0
X.9F1500S1000
X1.8F7000S0
X.3F1500S1000
X1.7F7000S0
X.1F1500S1000
X.1F7000S0
X1F1500S1000
X26.299F7000S0
X.8F1500S1000
X.1F7000S0
X.1F1500S1000
X.1F7000S0
X.9F1500S1000
X1.9F7000S0
X.3F1500S1000
X1.7F7000S0
X.1F1500S1000
X.1F7000S0
X.9F1500S1000
X12.8F7000S0
X.6F1500S1000
X1.8F7000S0
X.7F1500S1000
X13.8F7000S0
X.8F1500S1000
X.1F7000S0
X.1F1500S1000
X.1F7000S0
X.9F1500S1000
X1.9F7000S0
X.3F1500S1000
X1.7F7000S0
X1.2F1500S1000
X26.3F7000S0
X.7F1500S1000
X.1F7000S0
X.1F1500S1000
X.1F7000S0
X.1F1500S1000
X.1F7000S0
X.8F1500S1000
X1.8F7000S0
X.3F1500S1000
X1.8F7000S0
X1.1F1500S1000
X12.699F7000S0
X.6F1500S1000
X1.9F7000S0
X.601F1500S1000
X13.899F7000S0
X.701F1500S1000
X.1F7000S0
X.1F1500S1000
X.099F7000S0
X.101F1500S1000
X.1F7000S0
X.799F1500S1000
X1.801F7000S0
X.3F1500S1000
X1.8F7000S0
X.099F1500S1000
X.101F7000S0
X.899F1500S1000
X.625F7000S0
X-.199Y.1
X-.625
X-1.301F1500S1000
X-1.299F7000S0
X-.4F1500S1000
X-1.9F7000S0
X-1.8F1500S1000
X-13.9F7000S0
X-.701F1500S1000
X-1.9F7000S0
X-.699F1500S1000
X-12.8F7000S0
X-1.3F1500S1000
X-1.3F7000S0
X-.4F1500S1000
X-1.9F7000S0
X-1.8F1500S1000
X-26.6F7000S0
X-1.4F1500S1000
X-1.3F7000S0
X-.3F1500S1000
X-1.9F7000S0
X-1.9F1500S1000
X-13.9F7000S0
X-.6F1500S1000
X-2F7000S0
X-.7F1500S1000
X-12.7F7000S0
X-1.401F1500S1000
X-1.299F7000S0
X-.3F1500S1000
X-2F7000S0
X-1.8F1500S1000
X-26.601F7000S0
X-1.299F1500S1000
X-1.3F7000S0
X-.401F1500S1000
X-1.899F7000S0
X-1.8F1500S1000
X-13.901F7000S0
X-.7F1500S1000
X-1.9F7000S0
X-.7F1500S1000
X-12.8F7000S0
X-1.299F1500S1000
X-1.3F7000S0
X-.4F1500S1000
X-1.9F7000S0
X-1.8F1500S1000
X-26.6F7000S0
X-1.3F1500S1000
X-1.3F7000S0
X-.399F1500S1000
X-1.901F7000S0
X-1.8F1500S1000
X-14F7000S0
X-.6F1500S1000
X-2F7000S0
X-.6F1500S1000
X-12.8F7000S0
X-1.3F1500S1000
X-1.4F7000S0
X-.3F1500S1000
X-1.9F7000S0
X-1.8F1500S1000
X-.625F7000S0
X.1Y.1
X.625
X1.6F1500S1000
X1.9F7000S0
X2.9F1500S1000
X12.9F7000S0
X.7F1500S1000
X2F7000S0
X.7F1500S1000
X14.101F7000S0
X1.5F1500S1000
X1.899F7000S0
X2.9F1500S1000
X27F7000S0
X1.5F1500S1000
X2F7000S0
X2.8F1500S1000
X12.901F7000S0
X.699F1500S1000
X2.1F7000S0
X.6F1500S1000
X14.101F7000S0
X1.5F1500S1000
X2F7000S0
X2.9F1500S1000
X26.9F7000S0
X1.6F1500S1000
X2F7000S0
X2.8F1500S1000
X12.9F7000S0
X.7F1500S1000
X2F7000S0
X.8F1500S1000
X13.9F7000S0
X1.6F1500S1000
X2F7000S0
X2.8F1500S1000
X27F7000S0
X1.6F1500S1000
X1.9F7000S0
X2.8F1500S1000
X13F7000S0
X.699F1500S1000
X2.101F7000S0
X.5F1500S1000
X14.1F7000S0
X1.6F1500S1000
X1.9F7000S0
X2.8F1500S1000
X.625F7000S0
X-.2Y.1
X-.625
X-2.6F1500S1000
X-2F7000S0
X-1.4F1500S1000
X-14F7000S0
X-.8F1500S1000
X-2.2F7000S0
X-.6F1500S1000
X-13.2F7000S0
X-2.5F1500S1000
X-2F7000S0
X-1.5F1500S1000
X-27.3F7000S0
X-2.5F1500S1000
X-2F7000S0
X-1.5F1500S1000
X-14.1F7000S0
X-.6F1500S1000
X-2.2F7000S0
X-.6F1500S1000
X-13.2F7000S0
X-2.5F1500S1000
X-2F7000S0
X-1.5F1500S1000
X-27.3F7000S0
X-2.6F1500S1000
X-2F7000S0
X-1.399F1500S1000
X-14.101F7000S0
X-.6F1500S1000
X-2.2F7000S0
X-.6F1500S1000
X-13.2F7000S0
X-2.6F1500S1000
X-2F7000S0
X-1.5F1500S1000
X-27.299F7000S0
X-2.5F1500S1000
X-2F7000S0
X-1.5F1500S1000
X-14F7000S0
X-.7F1500S1000
X-2.2F7000S0
X-.7F1500S1000
X-13.1F7000S0
X-2.5F1500S1000
X-2F7000S0
X-1.5F1500S1000
X-.625F7000S0
Y.1
X.625
X1.5F1500S1000
X2F7000S0
X2.2F1500S1000
X13.4F7000S0
X.7F1500S1000
X2.3F7000S0
X.6F1500S1000
X14F7000S0
X1.499F1500S1000
X2F7000S0
X2.2F1500S1000
X27.6F7000S0
X1.5F1500S1000
X2F7000S0
X2.3F1500S1000
X13.4F7000S0
X.6F1500S1000
X2.3F7000S0
X.7F1500S1000
X13.9F7000S0
X1.5F1500S1000
X2F7000S0
X2.301F1500S1000
X27.5F7000S0
X1.6F1500S1000
X2F7000S0
X2.2F1500S1000
X13.399F7000S0
X.7F1500S1000
X2.299F7000S0
X.601F1500S1000
X14F7000S0
X1.5F1500S1000
X2F7000S0
X2F1500S1000
X.1F7000S0
X.1F1500S1000
X27.6F7000S0
X1.5F1500S1000
X2F7000S0
X2.2F1500S1000
X13.5F7000S0
X.699F1500S1000
X2.2F7000S0
X.701F1500S1000
X13.9F7000S0
X1.6F1500S1000
X1.9F7000S0
X2.3F1500S1000
X.625F7000S0
X-.7Y.1
X-.625
X-.1F1500S1000
X-.101F7000S0
X-1.399F1500S1000
X-2F7000S0
X-.801F1500S1000
X-.099F7000S0
X-.701F1500S1000
X-13.7F7000S0
X-.699F1500S1000
X-2.5F7000S0
X-.601F1500S1000
X-14.099F7000S0
X-.1F1500S1000
X-.1F7000S0
X-1.3F1500S1000
X-1.901F7000S0
X-1.699F1500S1000
X-28.2F7000S0
X-.1F1500S1000
X-.1F7000S0
X-1.3F1500S1000
X-2F7000S0
X-.8F1500S1000
X-.1F7000S0
X-.7F1500S1000
X-13.8F7000S0
X-.6F1500S1000
X-2.5F7000S0
X-.7F1500S1000
X-14F7000S0
X-.1F1500S1000
X-.1F7000S0
X-1.3F1500S1000
X-2F7000S0
X-1.7F1500S1000
X-28.1F7000S0
X-.2F1500S1000
X-.1F7000S0
X-1.3F1500S1000
X-1.9F7000S0
X-.8F1500S1000
X-.1F7000S0
X-.2F1500S1000
X-.1F7000S0
X-.5F1500S1000
X-13.801F7000S0
X-.599F1500S1000
X-2.401F7000S0
X-.7F1500S1000
X-14F7000S0
X-.2F1500S1000
X-.1F7000S0
X-1.3F1500S1000
X-1.9F7000S0
X-1F1500S1000
X-.1F7000S0
X-.6F1500S1000
X-28.1F7000S0
X-.2F1500S1000
X-.1F7000S0
X-1.299F1500S1000
X-2F7000S0
X-.701F1500S1000
X-.1F7000S0
X-.799F1500S1000
X-13.801F7000S0
X-.6F1500S1000
X-2.5F7000S0
X-.6F1500S1000
X-14F7000S0
X-.1F1500S1000
X-.1F7000S0
X-1.4F1500S1000
X-2F7000S0
X-1.6F1500S1000
X-.625F7000S0
X-.1Y.1
X.625
X.3F1500S1000
X.8F7000S0
X.6F1500S1000
X1.9F7000S0
X1F1500S1000
X14.6F7000S0
X.7F1500S1000
X2.5F7000S0
X.7F1500S1000
X13.6F7000S0
X.3F1500S1000
X.801F7000S0
X.599F1500S1000
X1.9F7000S0
X1F1500S1000
X.2F7000S0
X.1F1500S1000
X28.4F7000S0
X.3F1500S1000
X.9F7000S0
X.5F1500S1000
X2F7000S0
X.9F1500S1000
X.2F7000S0
X.101F1500S1000
X14.299F7000S0
X.701F1500S1000
X2.599F7000S0
X.6F1500S1000
X13.601F7000S0
X.3F1500S1000
X.9F7000S0
X.5F1500S1000
X2F7000S0
X.9F1500S1000
X.2F7000S0
X.1F1500S1000
X28.4F7000S0
X.4F1500S1000
X.8F7000S0
X.6F1500S1000
X1.9F7000S0
X1F1500S1000
X14.6F7000S0
X.6F1500S1000
X2.6F7000S0
X.7F1500S1000
X13.6F7000S0
X.3F1500S1000
X.8F7000S0
X.6F1500S1000
X1.9F7000S0
X1F1500S1000
X28.7F7000S0
X.299F1500S1000
X.901F7000S0
X.5F1500S1000
X1.9F7000S0
X1F1500S1000
X.199F7000S0
X.101F1500S1000
X14.299F7000S0
X.701F1500S1000
X2.6F7000S0
X.599F1500S1000
X13.601F7000S0
X.3F1500S1000
X.9F7000S0
X.5F1500S1000
X2F7000S0
X1F1500S1000
X.625F7000S0
X-.2Y.1
X-.625
X-.9F1500S1000
X-1.8F7000S0
X-.401F1500S1000
X-1.099F7000S0
X-.3F1500S1000
X-13.401F7000S0
X-.799F1500S1000
X-2.701F7000S0
X-.6F1500S1000
X-14.699F7000S0
X-.9F1500S1000
X-1.8F7000S0
X-.4F1500S1000
X-1.2F7000S0
X-.2F1500S1000
X-28.8F7000S0
X-.901F1500S1000
X-1.899F7000S0
X-.4F1500S1000
X-1.1F7000S0
X-.3F1500S1000
X-13.5F7000S0
X-.6F1500S1000
X-2.701F7000S0
X-.699F1500S1000
X-14.6F7000S0
X-.9F1500S1000
X-1.9F7000S0
X-.4F1500S1000
X-1.1F7000S0
X-.3F1500S1000
X-28.8F7000S0
X-.9F1500S1000
X-1.8F7000S0
X-.4F1500S1000
X-1.1F7000S0
X-.3F1500S1000
X-13.501F7000S0
X-.7F1500S1000
X-2.7F7000S0
X-.6F1500S1000
X-14.7F7000S0
X-.9F1500S1000
X-1.8F7000S0
X-.5F1500S1000
X-1F7000S0
X-.3F1500S1000
X-28.9F7000S0
X-.8F1500S1000
X-1.9F7000S0
X-.4F1500S1000
X-1.1F7000S0
X-.3F1500S1000
X-13.5F7000S0
X-.6F1500S1000
X-2.7F7000S0
X-.7F1500S1000
X-14.7F7000S0
X-.8F1500S1000
X-1.9F7000S0
X-.4F1500S1000
X-1.1F7000S0
X-.3F1500S1000
X-.625F7000S0
Y.1
X.625
X.3F1500S1000
X1.2F7000S0
X.4F1500S1000
X1.7F7000S0
X.9F1500S1000
X14.7F7000S0
X.6F1500S1000
X2.9F7000S0
X.6F1500S1000
X13.4F7000S0
X.3F1500S1000
X1.3F7000S0
X.3F1500S1000
X1.7F7000S0
X.9F1500S1000
X28.8F7000S0
X.3F1500S1000
X1.3F7000S0
X.3F1500S1000
X1.7F7000S0
X.901F1500S1000
X14.699F7000S0
X.7F1500S1000
X2.8F7000S0
X.7F1500S1000
X13.301F7000S0
X.3F1500S1000
X1.3F7000S0
X.3F1500S1000
X1.7F7000S0
X.9F1500S1000
X28.799F7000S0
X.4F1500S1000
X1.3F7000S0
X.3F1500S1000
X1.7F7000S0
X.8F1500S1000
X14.7F7000S0
X.7F1500S1000
X2.8F7000S0
X.7F1500S1000
X13.4F7000S0
X.3F1500S1000
X1.3F7000S0
X.3F1500S1000
X1.7F7000S0
X.8F1500S1000
X28.9F7000S0
X.3F1500S1000
X1.3F7000S0
X.3F1500S1000
X1.7F7000S0
X.9F1500S1000
X14.699F7000S0
X.6F1500S1000
X2.9F7000S0
X.601F1500S1000
X13.399F7000S0
X.301F1500S1000
X1.3F7000S0
X.3F1500S1000
X1.7F7000S0
X.899F1500S1000
X.625F7000S0
X.301Y.1
X-.625
X-1.301F1500S1000
X-1.5F7000S0
X-.299F1500S1000
X-1.4F7000S0
X-.301F1500S1000
X-13.299F7000S0
X-.6F1500S1000
X-2.9F7000S0
X-.8F1500S1000
X-14.3F7000S0
X-1.3F1500S1000
X-1.6F7000S0
X-.2F1500S1000
X-1.5F7000S0
X-.2F1500S1000
X-28.5F7000S0
X-1.3F1500S1000
X-1.6F7000S0
X-.3F1500S1000
X-1.4F7000S0
X-.3F1500S1000
X-13.2F7000S0
X-.7F1500S1000
X-3F7000S0
X-.6F1500S1000
X-14.3F7000S0
X-1.3F1500S1000
X-1.6F7000S0
X-.3F1500S1000
X-1.4F7000S0
X-.3F1500S1000
X-28.4F7000S0
X-1.4F1500S1000
X-1.6F7000S0
X-.3F1500S1000
X-1.3F7000S0
X-.3F1500S1000
X-13.301F7000S0
X-.6F1500S1000
X-3F7000S0
X-.7F1500S1000
X-14.2F7000S0
X-1.399F1500S1000
X-1.601F7000S0
X-.3F1500S1000
X-1.3F7000S0
X-.299F1500S1000
X-28.5F7000S0
X-1.3F1500S1000
X-1.6F7000S0
X-.3F1500S1000
X-1.399F7000S0
X-.301F1500S1000
X-13.2F7000S0
X-.7F1500S1000
X-2.9F7000S0
X-.7F1500S1000
X-14.3F7000S0
X-1.3F1500S1000
X-1.6F7000S0
X-.3F1500S1000
X-1.4F7000S0
X-.3F1500S1000
X-.625F7000S0
X-.1Y.1
X.625
X.4F1500S1000
X1.5F7000S0
X.2F1500S1000
X1.5F7000S0
X1.8F1500S1000
X13.9F7000S0
X.6F1500S1000
X3F7000S0
X.7F1500S1000
X13.101F7000S0
X.4F1500S1000
X1.399F7000S0
X.4F1500S1000
X1.4F7000S0
X1.7F1500S1000
X28.1F7000S0
X.3F1500S1000
X1.5F7000S0
X.3F1500S1000
X1.4F7000S0
X1.8F1500S1000
X13.9F7000S0
X.7F1500S1000
X3F7000S0
X.6F1500S1000
X13.201F7000S0
X.3F1500S1000
X1.5F7000S0
X.3F1500S1000
X1.4F7000S0
X1.8F1500S1000
X28F7000S0
X.3F1500S1000
X1.5F7000S0
X.4F1500S1000
X1.4F7000S0
X1.8F1500S1000
X13.8F7000S0
X.7F1500S1000
X3.1F7000S0
X.6F1500S1000
X13.1F7000S0
X.399F1500S1000
X1.401F7000S0
X.4F1500S1000
X1.4F7000S0
X1.799F1500S1000
X28F7000S0
X.3F1500S1000
X1.5F7000S0
X.3F1500S1000
X1.4F7000S0
X1.8F1500S1000
X13.9F7000S0
X.599F1500S1000
X3.101F7000S0
X.7F1500S1000
X13.1F7000S0
X.3F1500S1000
X1.5F7000S0
X.299F1500S1000
X1.401F7000S0
X1.8F1500S1000
X.625F7000S0
X.2Y.1
X-.625
X-2.2F1500S1000
X-1.1F7000S0
X-.3F1500S1000
X-1.6F7000S0
X-.4F1500S1000
X-13F7000S0
X-.6F1500S1000
X-3.101F7000S0
X-.799F1500S1000
X-13.6F7000S0
X-2.3F1500S1000
X-.9F7000S0
X-.5F1500S1000
X-1.4F7000S0
X-.5F1500S1000
X-27.7F7000S0
X-2.3F1500S1000
X-1.1F7000S0
X-.3F1500S1000
X-1.6F7000S0
X-.3F1500S1000
X-13F7000S0
X-.7F1500S1000
X-3.2F7000S0
X-.6F1500S1000
X-13.7F7000S0
X-2.1F1500S1000
X-1.2F7000S0
X-.3F1500S1000
X-1.6F7000S0
X-.3F1500S1000
X-27.9F7000S0
X-2.099F1500S1000
X-1.1F7000S0
X-.4F1500S1000
X-1.5F7000S0
X-.4F1500S1000
X-13F7000S0
X-.7F1500S1000
X-3.1F7000S0
X-.699F1500S1000
X-13.701F7000S0
X-2.1F1500S1000
X-1.1F7000S0
X-.4F1500S1000
X-1.5F7000S0
X-.4F1500S1000
X-27.799F7000S0
X-2.2F1500S1000
X-1F7000S0
X-.399F1500S1000
X-1.5F7000S0
X-.4F1500S1000
X-13.001F7000S0
X-.7F1500S1000
X-3.2F7000S0
X-.6F1500S1000
X-13.7F7000S0
X-2.2F1500S1000
X-1F7000S0
X-.5F1500S1000
X-1.5F7000S0
X-.3F1500S1000
X-.625F7000S0
X-.1Y.1
X.625
X.4F1500S1000
X1.6F7000S0
X.6F1500S1000
X.6F7000S0
X1.4F1500S1000
X.4F7000S0
X.1F1500S1000
X.1F7000S0
X.6F1500S1000
X13.4F7000S0
X.7F1500S1000
X3.3F7000S0
X.6F1500S1000
X12.901F7000S0
X.399F1500S1000
X1.601F7000S0
X.6F1500S1000
X.599F7000S0
X1.401F1500S1000
X.599F7000S0
X.6F1500S1000
X27.6F7000S0
X.4F1500S1000
X1.5F7000S0
X.7F1500S1000
X.5F7000S0
X1.4F1500S1000
X.6F7000S0
X.601F1500S1000
X13.5F7000S0
X.599F1500S1000
X3.3F7000S0
X.7F1500S1000
X12.901F7000S0
X.4F1500S1000
X1.6F7000S0
X.6F1500S1000
X.5F7000S0
X1.4F1500S1000
X.6F7000S0
X.6F1500S1000
X27.6F7000S0
X.4F1500S1000
X1.6F7000S0
X.6F1500S1000
X.5F7000S0
X1.4F1500S1000
X.6F7000S0
X.6F1500S1000
X13.5F7000S0
X.7F1500S1000
X3.3F7000S0
X.6F1500S1000
X12.899F7000S0
X.4F1500S1000
X1.6F7000S0
X.6F1500S1000
X.5F7000S0
X1.5F1500S1000
X.5F7000S0
X.6F1500S1000
X27.7F7000S0
X.4F1500S1000
X1.5F7000S0
X.699F1500S1000
X.5F7000S0
X1.401F1500S1000
X.599F7000S0
X.601F1500S1000
X13.5F7000S0
X.6F1500S1000
X3.299F7000S0
X.701F1500S1000
X12.9F7000S0
X.4F1500S1000
X1.6F7000S0
X.6F1500S1000
X.5F7000S0
X1.4F1500S1000
X.6F7000S0
X.599F1500S1000
X.625F7000S0
Y.1
X-.625
X-.399F1500S1000
X-.9F7000S0
X-2.399F1500S1000
X-1.7F7000S0
X-.3F1500S1000
X-12.9F7000S0
X-.6F1500S1000
X-3.4F7000S0
X-.701F1500S1000
X-13.399F7000S0
X-.4F1500S1000
X-.9F7000S0
X-2.4F1500S1000
X-1.7F7000S0
X-.3F1500S1000
X-27.5F7000S0
X-.5F1500S1000
X-.9F7000S0
X-2.5F1500S1000
X-1.599F7000S0
X-.4F1500S1000
X-12.7F7000S0
X-.801F1500S1000
X-3.399F7000S0
X-.601F1500S1000
X-13.299F7000S0
X-.6F1500S1000
X-.9F7000S0
X-2.4F1500S1000
X-1.6F7000S0
X-.4F1500S1000
X-27.6F7000S0
X-.4F1500S1000
X-.9F7000S0
X-2.401F1500S1000
X-1.699F7000S0
X-.3F1500S1000
X-12.901F7000S0
X-.599F1500S1000
X-3.401F7000S0
X-.7F1500S1000
X-13.399F7000S0
X-.4F1500S1000
X-.9F7000S0
X-2.4F1500S1000
X-1.7F7000S0
X-.3F1500S1000
X-27.6F7000S0
X-.4F1500S1000
X-.9F7000S0
X-2.499F1500S1000
X-1.601F7000S0
X-.399F1500S1000
X-12.801F7000S0
X-.7F1500S1000
X-3.4F7000S0
X-.6F1500S1000
X-13.4F7000S0
X-.4F1500S1000
X-.9F7000S0
X-2.5F1500S1000
X-1.6F7000S0
X-.4F1500S1000
X-.625F7000S0
Y.1
X.625
X.4F1500S1000
X1.6F7000S0
X2.4F1500S1000
X.5F7000S0
X.3F1500S1000
X.3F7000S0
X.4F1500S1000
X13.2F7000S0
X.7F1500S1000
X3.5F7000S0
X.7F1500S1000
X12.701F7000S0
X.299F1500S1000
X1.701F7000S0
X2.399F1500S1000
X.5F7000S0
X.3F1500S1000
X.3F7000S0
X.4F1500S1000
X27.5F7000S0
X.3F1500S1000
X1.7F7000S0
X2.3F1500S1000
X.5F7000S0
X.3F1500S1000
X.4F7000S0
X.3F1500S1000
X13.3F7000S0
X.6F1500S1000
X3.5F7000S0
X.7F1500S1000
X12.8F7000S0
X.301F1500S1000
X1.699F7000S0
X2.301F1500S1000
X.5F7000S0
X.4F1500S1000
X.299F7000S0
X.301F1500S1000
X27.5F7000S0
X.3F1500S1000
X1.7F7000S0
X2.3F1500S1000
X.6F7000S0
X.299F1500S1000
X.301F7000S0
X.4F1500S1000
X13.2F7000S0
X.599F1500S1000
X3.601F7000S0
X.6F1500S1000
X12.799F7000S0
X.3F1500S1000
X1.699F7000S0
X2.401F1500S1000
X.5F7000S0
X.3F1500S1000
X.299F7000S0
X.401F1500S1000
X27.5F7000S0
X.3F1500S1000
X1.6F7000S0
X2.4F1500S1000
X.5F7000S0
X.299F1500S1000
X.401F7000S0
X.4F1500S1000
X13.199F7000S0
X.601F1500S1000
X3.5F7000S0
X.8F1500S1000
X12.7F7000S0
X.399F1500S1000
X1.601F7000S0
X2.3F1500S1000
X.5F7000S0
X.399F1500S1000
X.301F7000S0
X.399F1500S1000
X.625F7000S0
Y.1
X-.625
X-.299F1500S1000
X-.3F7000S0
X-.601F1500S1000
X-.5F7000S0
X-2.199F1500S1000
X-1.7F7000S0
X-.3F1500S1000
X-12.801F7000S0
X-.599F1500S1000
X-3.701F7000S0
X-.6F1500S1000
X-13.099F7000S0
X-.301F1500S1000
X-.299F7000S0
X-.6F1500S1000
X-.5F7000S0
X-2.2F1500S1000
X-1.7F7000S0
X-.3F1500S1000
X-27.401F7000S0
X-.399F1500S1000
X-.2F7000S0
X-.6F1500S1000
X-.5F7000S0
X-2.2F1500S1000
X-1.7F7000S0
X-.401F1500S1000
X-12.699F7000S0
X-.7F1500S1000
X-3.601F7000S0
X-.599F1500S1000
X-13.1F7000S0
X-.4F1500S1000
X-.3F7000S0
X-.601F1500S1000
X-.5F7000S0
X-2.099F1500S1000
X-1.8F7000S0
X-.3F1500S1000
X-27.4F7000S0
X-.3F1500S1000
X-.3F7000S0
X-.6F1500S1000
X-.5F7000S0
X-2.201F1500S1000
X-1.699F7000S0
X-.301F1500S1000
X-12.7F7000S0
X-.7F1500S1000
X-3.7F7000S0
X-.6F1500S1000
X-13.1F7000S0
X-.3F1500S1000
X-.3F7000S0
X-.6F1500S1000
X-.5F7000S0
X-2.2F1500S1000
X-1.8F7000S0
X-.2F1500S1000
X-27.4F7000S0
X-.3F1500S1000
X-.3F7000S0
X-.6F1500S1000
X-.5F7000S0
X-2.3F1500S1000
X-1.7F7000S0
X-.3F1500S1000
X-12.7F7000S0
X-.6F1500S1000
X-3.7F7000S0
X-.7F1500S1000
X-13F7000S0
X-.3F1500S1000
X-.3F7000S0
X-.6F1500S1000
X-.5F7000S0
X-2.3F1500S1000
X-1.7F7000S0
X-.3F1500S1000
X-.625F7000S0
Y.1
X.625
X.3F1500S1000
X1.7F7000S0
X2.2F1500S1000
X.6F7000S0
X.7F1500S1000
X.3F7000S0
X.3F1500S1000
X12.9F7000S0
X.6F1500S1000
X3.8F7000S0
X.7F1500S1000
X12.6F7000S0
X.4F1500S1000
X1.6F7000S0
X2.2F1500S1000
X.6F7000S0
X.7F1500S1000
X.3F7000S0
X.3F1500S1000
X27.3F7000S0
X.3F1500S1000
X1.6F7000S0
X2.3F1500S1000
X.6F7000S0
X.6F1500S1000
X.3F7000S0
X.3F1500S1000
X12.9F7000S0
X.7F1500S1000
X3.8F7000S0
X.6F1500S1000
X12.7F7000S0
X.201F1500S1000
X1.7F7000S0
X2.3F1500S1000
X.6F7000S0
X.6F1500S1000
X.3F7000S0
X.4F1500S1000
X27.2F7000S0
X.3F1500S1000
X1.7F7000S0
X2.199F1500S1000
X.701F7000S0
X.6F1500S1000
X.199F7000S0
X.401F1500S1000
X12.8F7000S0
X.7F1500S1000
X3.8F7000S0
X.6F1500S1000
X12.699F7000S0
X.301F1500S1000
X1.699F7000S0
X2.201F1500S1000
X.7F7000S0
X.599F1500S1000
X.201F7000S0
X.4F1500S1000
X27.3F7000S0
X.3F1500S1000
X1.6F7000S0
X2.3F1500S1000
X.7F7000S0
X.5F1500S1000
X.3F7000S0
X.3F1500S1000
X12.899F7000S0
X.6F1500S1000
X3.9F7000S0
X.7F1500S1000
X12.601F7000S0
X.3F1500S1000
X1.7F7000S0
X2.199F1500S1000
X.7F7000S0
X.5F1500S1000
X.3F7000S0
X.301F1500S1000
X.625F7000S0
X.199Y.1
X-.625
X-.399F1500S1000
X-.5F7000S0
X-.101F1500S1000
X-1F7000S0
X-2.3F1500S1000
X-1.7F7000S0
X-.199F1500S1000
X-12.601F7000S0
X-.599F1500S1000
X-3.901F7000S0
X-.799F1500S1000
X-12.6F7000S0
X-.4F1500S1000
X-.5F7000S0
X-.1F1500S1000
X-1F7000S0
X-2.3F1500S1000
X-1.6F7000S0
X-.3F1500S1000
X-27.2F7000S0
X-.4F1500S1000
X-.301F7000S0
X-.099F1500S1000
X-1.2F7000S0
X-2.201F1500S1000
X-1.599F7000S0
X-.401F1500S1000
X-12.5F7000S0
X-.699F1500S1000
X-3.9F7000S0
X-.7F1500S1000
X-12.701F7000S0
X-.399F1500S1000
X-.4F7000S0
X-.201F1500S1000
X-1F7000S0
X-2.199F1500S1000
X-1.7F7000S0
X-.3F1500S1000
X-27.2F7000S0
X-.3F1500S1000
X-.4F7000S0
X-.2F1500S1000
X-1.1F7000S0
X-2.2F1500S1000
X-1.6F7000S0
X-.3F1500S1000
X-12.601F7000S0
X-.7F1500S1000
X-3.9F7000S0
X-.7F1500S1000
X-12.599F7000S0
X-.4F1500S1000
X-.4F7000S0
X-.3F1500S1000
X-1F7000S0
X-2.2F1500S1000
X-1.699F7000S0
X-.201F1500S1000
X-27.1F7000S0
X-.5F1500S1000
X-.3F7000S0
X-.3F1500S1000
X-1F7000S0
X-2.199F1500S1000
X-1.701F7000S0
X-.299F1500S1000
X-12.601F7000S0
X-.6F1500S1000
X-3.9F7000S0
X-.7F1500S1000
X-12.7F7000S0
X-.4F1500S1000
X-.3F7000S0
X-.2F1500S1000
X-1.1F7000S0
X-2.2F1500S1000
X-1.6F7000S0
X-.4F1500S1000
X-.625F7000S0
X.1Y.1
X.625
X.2F1500S1000
X1.6F7000S0
X.7F1500S1000
X.5F7000S0
X.1F1500S1000
X.2F7000S0
X.8F1500S1000
X1.7F7000S0
X.3F1500S1000
X12.6F7000S0
X.7F1500S1000
X4F7000S0
X.7F1500S1000
X12.601F7000S0
X.199F1500S1000
X1.6F7000S0
X.701F1500S1000
X.5F7000S0
X.099F1500S1000
X.2F7000S0
X.8F1500S1000
X1.7F7000S0
X.4F1500S1000
X27.1F7000S0
X.3F1500S1000
X1.6F7000S0
X.6F1500S1000
X.5F7000S0
X.1F1500S1000
X.2F7000S0
X.8F1500S1000
X1.7F7000S0
X.401F1500S1000
X12.599F7000S0
X.6F1500S1000
X4.1F7000S0
X.6F1500S1000
X12.601F7000S0
X.3F1500S1000
X1.6F7000S0
X.7F1500S1000
X.7F7000S0
X.8F1500S1000
X1.7F7000S0
X.4F1500S1000
X27.2F7000S0
X.2F1500S1000
X1.6F7000S0
X.799F1500S1000
X.601F7000S0
X.8F1500S1000
X1.8F7000S0
X.299F1500S1000
X12.601F7000S0
X.7F1500S1000
X4.1F7000S0
X.599F1500S1000
X12.601F7000S0
X.2F1500S1000
X1.6F7000S0
X.8F1500S1000
X.6F7000S0
X.9F1500S1000
X1.7F7000S0
X.3F1500S1000
X27.2F7000S0
X.2F1500S1000
X1.7F7000S0
X.699F1500S1000
X.701F7000S0
X.799F1500S1000
X1.801F7000S0
X.3F1500S1000
X12.6F7000S0
X.599F1500S1000
X4.101F7000S0
X.7F1500S1000
X12.5F7000S0
X.3F1500S1000
X1.599F7000S0
X.701F1500S1000
X.7F7000S0
X.8F1500S1000
X1.799F7000S0
X.3F1500S1000
X.625F7000S0
Y.1
X-.625
X-.3F1500S1000
X-1.799F7000S0
X-.701F1500S1000
X-.899F7000S0
X-.7F1500S1000
X-1.401F7000S0
X-.299F1500S1000
X-12.6F7000S0
X-.601F1500S1000
X-4.299F7000S0
X-.6F1500S1000
X-12.5F7000S0
X-.4F1500S1000
X-1.701F7000S0
X-.699F1500S1000
X-.9F7000S0
X-.7F1500S1000
X-1.5F7000S0
X-.201F1500S1000
X-27.299F7000S0
X-.201F1500S1000
X-1.899F7000S0
X-.601F1500S1000
X-1F7000S0
X-.599F1500S1000
X-1.5F7000S0
X-.2F1500S1000
X-12.701F7000S0
X-.599F1500S1000
X-4.2F7000S0
X-.701F1500S1000
X-12.5F7000S0
X-.299F1500S1000
X-1.8F7000S0
X-.6F1500S1000
X-1F7000S0
X-.6F1500S1000
X-1.6F7000S0
X-.2F1500S1000
X-27.2F7000S0
X-.3F1500S1000
X-1.8F7000S0
X-.7F1500S1000
X-.901F7000S0
X-.699F1500S1000
X-1.5F7000S0
X-.2F1500S1000
X-12.601F7000S0
X-.6F1500S1000
X-4.2F7000S0
X-.7F1500S1000
X-12.5F7000S0
X-.3F1500S1000
X-1.8F7000S0
X-.7F1500S1000
X-.9F7000S0
X-.7F1500S1000
X-1.5F7000S0
X-.2F1500S1000
X-27.2F7000S0
X-.4F1500S1000
X-1.8F7000S0
X-.599F1500S1000
X-.901F7000S0
X-.7F1500S1000
X-1.5F7000S0
X-.2F1500S1000
X-12.7F7000S0
X-.5F1500S1000
X-4.3F7000S0
X-.6F1500S1000
X-12.6F7000S0
X-.3F1500S1000
X-1.8F7000S0
X-.6F1500S1000
X-1F7000S0
X-.6F1500S1000
X-1.5F7000S0
X-.2F1500S1000
X-.625F7000S0
Y.1
X.625
X.2F1500S1000
X1.4F7000S0
X.6F1500S1000
X1.2F7000S0
X.6F1500S1000
X1.8F7000S0
X.2F1500S1000
X12.5F7000S0
X.7F1500S1000
X4.2F7000S0
X.7F1500S1000
X12.6F7000S0
X.301F1500S1000
X1.299F7000S0
X.6F1500S1000
X1.2F7000S0
X.6F1500S1000
X1.8F7000S0
X.3F1500S1000
X27.301F7000S0
X.199F1500S1000
X1.4F7000S0
X.6F1500S1000
X1.2F7000S0
X.5F1500S1000
X1.8F7000S0
X.3F1500S1000
X12.4F7000S0
X.7F1500S1000
X4.3F7000S0
X.7F1500S1000
X12.601F7000S0
X.2F1500S1000
X1.4F7000S0
X.6F1500S1000
X1.2F7000S0
X.5F1500S1000
X1.8F7000S0
X.3F1500S1000
X27.299F7000S0
X.2F1500S1000
X1.4F7000S0
X.6F1500S1000
X1.2F7000S0
X.5F1500S1000
X1.8F7000S0
X.3F1500S1000
X12.5F7000S0
X.6F1500S1000
X4.4F7000S0
X.7F1500S1000
X12.5F7000S0
X.3F1500S1000
X1.3F7000S0
X.6F1500S1000
X1.3F7000S0
X.5F1500S1000
X1.8F7000S0
X.2F1500S1000
X27.3F7000S0
X.3F1500S1000
X1.4F7000S0
X.6F1500S1000
X1.2F7000S0
X.5F1500S1000
X1.8F7000S0
X.3F1500S1000
X12.5F7000S0
X.699F1500S1000
X4.201F7000S0
X.6F1500S1000
X12.699F7000S0
X.201F1500S1000
X1.4F7000S0
X.6F1500S1000
X1.2F7000S0
X.5F1500S1000
X1.8F7000S0
X.299F1500S1000
X.625F7000S0
Y.1
X-.625
X-.299F1500S1000
X-1.8F7000S0
X-.401F1500S1000
X-1.399F7000S0
X-.601F1500S1000
X-1.199F7000S0
X-.2F1500S1000
X-12.601F7000S0
X-.699F1500S1000
X-4.4F7000S0
X-.7F1500S1000
X-12.4F7000S0
X-.3F1500S1000
X-1.8F7000S0
X-.4F1500S1000
X-1.4F7000S0
X-.6F1500S1000
X-1.2F7000S0
X-.3F1500S1000
X-27.4F7000S0
X-.201F1500S1000
X-1.799F7000S0
X-.5F1500S1000
X-1.4F7000S0
X-.6F1500S1000
X-1.201F7000S0
X-.199F1500S1000
X-12.6F7000S0
X-.7F1500S1000
X-4.4F7000S0
X-.6F1500S1000
X-12.5F7000S0
X-.199F1500S1000
X-1.9F7000S0
X-.4F1500S1000
X-1.4F7000S0
X-.6F1500S1000
X-1.2F7000S0
X-.2F1500S1000
X-27.4F7000S0
X-.3F1500S1000
X-1.9F7000S0
X-.3F1500S1000
X-1.4F7000S0
X-.6F1500S1000
X-1.2F7000S0
X-.3F1500S1000
X-12.601F7000S0
X-.599F1500S1000
X-4.401F7000S0
X-.7F1500S1000
X-12.399F7000S0
X-.3F1500S1000
X-1.8F7000S0
X-.5F1500S1000
X-1.3F7000S0
X-.6F1500S1000
X-1.2F7000S0
X-.3F1500S1000
X-27.3F7000S0
X-.3F1500S1000
X-1.9F7000S0
X-.3F1500S1000
X-1.4F7000S0
X-.6F1500S1000
X-1.2F7000S0
X-.3F1500S1000
X-12.6F7000S0
X-.6F1500S1000
X-4.5F7000S0
X-.7F1500S1000
X-12.4F7000S0
X-.2F1500S1000
X-1.9F7000S0
X-.3F1500S1000
X-1.5F7000S0
X-.6F1500S1000
X-1.2F7000S0
X-.3F1500S1000
X-.625F7000S0
X.2Y.1
X.625
X.3F1500S1000
X.8F7000S0
X.8F1500S1000
X1.5F7000S0
X.4F1500S1000
X1.8F7000S0
X.2F1500S1000
X12.4F7000S0
X.7F1500S1000
X4.5F7000S0
X.7F1500S1000
X12.5F7000S0
X.4F1500S1000
X.801F7000S0
X.099F1500S1000
X.1F7000S0
X.6F1500S1000
X1.5F7000S0
X.4F1500S1000
X1.8F7000S0
X.2F1500S1000
X27.4F7000S0
X.5F1500S1000
X.799F7000S0
X.701F1500S1000
X1.5F7000S0
X.399F1500S1000
X1.8F7000S0
X.301F1500S1000
X12.399F7000S0
X.601F1500S1000
X4.599F7000S0
X.6F1500S1000
X12.601F7000S0
X.4F1500S1000
X.8F7000S0
X.7F1500S1000
X1.5F7000S0
X.4F1500S1000
X1.8F7000S0
X.3F1500S1000
X27.5F7000S0
X.3F1500S1000
X.8F7000S0
X.8F1500S1000
X1.5F7000S0
X.3F1500S1000
X1.9F7000S0
X.2F1500S1000
X12.4F7000S0
X.7F1500S1000
X4.5F7000S0
X.6F1500S1000
X12.7F7000S0
X.3F1500S1000
X.8F7000S0
X.8F1500S1000
X1.5F7000S0
X.3F1500S1000
X1.9F7000S0
X.2F1500S1000
X27.5F7000S0
X.4F1500S1000
X.8F7000S0
X.8F1500S1000
X1.4F7000S0
X.4F1500S1000
X1.9F7000S0
X.2F1500S1000
X12.4F7000S0
X.6F1500S1000
X4.5F7000S0
X.699F1500S1000
X12.701F7000S0
X.299F1500S1000
X.801F7000S0
X.8F1500S1000
X1.399F7000S0
X.401F1500S1000
X1.9F7000S0
X.199F1500S1000
X.625F7000S0
Y.1
X-.625
X-.299F1500S1000
X-1.8F7000S0
X-.3F1500S1000
X-1.601F7000S0
X-1.799F1500S1000
X-12.6F7000S0
X-.7F1500S1000
X-4.7F7000S0
X-.601F1500S1000
X-12.299F7000S0
X-.3F1500S1000
X-1.8F7000S0
X-.3F1500S1000
X-1.7F7000S0
X-1.7F1500S1000
X-27.6F7000S0
X-.2F1500S1000
X-1.8F7000S0
X-.4F1500S1000
X-1.6F7000S0
X-1.8F1500S1000
X-12.6F7000S0
X-.6F1500S1000
X-4.7F7000S0
X-.7F1500S1000
X-12.3F7000S0
X-.2F1500S1000
X-1.8F7000S0
X-.4F1500S1000
X-1.6F7000S0
X-1.8F1500S1000
X-27.5F7000S0
X-.3F1500S1000
X-1.7F7000S0
X-.4F1500S1000
X-1.6F7000S0
X-1.8F1500S1000
X-12.601F7000S0
X-.699F1500S1000
X-4.701F7000S0
X-.6F1500S1000
X-12.299F7000S0
X-.301F1500S1000
X-1.8F7000S0
X-.299F1500S1000
X-1.6F7000S0
X-1.801F1500S1000
X-27.5F7000S0
X-.3F1500S1000
X-1.799F7000S0
X-.301F1500S1000
X-1.699F7000S0
X-1.7F1500S1000
X-12.701F7000S0
X-.6F1500S1000
X-4.7F7000S0
X-.6F1500S1000
X-12.399F7000S0
X-.2F1500S1000
X-1.8F7000S0
X-.4F1500S1000
X-1.6F7000S0
X-1.799F1500S1000
X-.624F7000S0
X-.1Y.1
X.625
X1.9F1500S1000
X1.6F7000S0
X.4F1500S1000
X1.701F7000S0
X.299F1500S1000
X12.3F7000S0
X.6F1500S1000
X4.8F7000S0
X.7F1500S1000
X12.4F7000S0
X1.901F1500S1000
X1.699F7000S0
X.301F1500S1000
X1.799F7000S0
X.2F1500S1000
X27.5F7000S0
X1.799F1500S1000
X1.701F7000S0
X.299F1500S1000
X1.8F7000S0
X.2F1500S1000
X12.3F7000S0
X.7F1500S1000
X4.8F7000S0
X.6F1500S1000
X12.401F7000S0
X1.9F1500S1000
X1.7F7000S0
X.3F1500S1000
X1.8F7000S0
X.2F1500S1000
X27.5F7000S0
X1.8F1500S1000
X1.7F7000S0
X.3F1500S1000
X1.8F7000S0
X.3F1500S1000
X12.3F7000S0
X.6F1500S1000
X4.8F7000S0
X.8F1500S1000
X12.3F7000S0
X1.9F1500S1000
X1.6F7000S0
X.5F1500S1000
X1.6F7000S0
X.3F1500S1000
X27.4F7000S0
X1.9F1500S1000
X1.7F7000S0
X.3F1500S1000
X1.8F7000S0
X.2F1500S1000
X12.299F7000S0
X.801F1500S1000
X4.699F7000S0
X.601F1500S1000
X12.5F7000S0
X1.8F1500S1000
X1.7F7000S0
X.399F1500S1000
X1.701F7000S0
X.2F1500S1000
X.625F7000S0
Y.1
X-.625
X-.3F1500S1000
X-1.601F7000S0
X-.399F1500S1000
X-1.7F7000S0
X-2F1500S1000
X-12.1F7000S0
X-.801F1500S1000
X-4.9F7000S0
X-.6F1500S1000
X-12.299F7000S0
X-.3F1500S1000
X-1.6F7000S0
X-.4F1500S1000
X-1.7F7000S0
X-2F1500S1000
X-27.4F7000S0
X-.2F1500S1000
X-1.7F7000S0
X-.4F1500S1000
X-1.6F7000S0
X-2F1500S1000
X-12.3F7000S0
X-.6F1500S1000
X-4.9F7000S0
X-.7F1500S1000
X-12.3F7000S0
X-.2F1500S1000
X-1.7F7000S0
X-.4F1500S1000
X-1.7F7000S0
X-1.9F1500S1000
X-27.4F7000S0
X-.3F1500S1000
X-1.6F7000S0
X-.4F1500S1000
X-1.7F7000S0
X-2F1500S1000
X-12.201F7000S0
X-.7F1500S1000
X-4.9F7000S0
X-.6F1500S1000
X-12.3F7000S0
X-.299F1500S1000
X-1.6F7000S0
X-.4F1500S1000
X-1.701F7000S0
X-2F1500S1000
X-27.299F7000S0
X-.3F1500S1000
X-1.6F7000S0
X-.4F1500S1000
X-1.699F7000S0
X-2F1500S1000
X-12.201F7000S0
X-.7F1500S1000
X-4.9F7000S0
X-.7F1500S1000
X-12.3F7000S0
X-.199F1500S1000
X-1.7F7000S0
X-.401F1500S1000
X-1.599F7000S0
X-2F1500S1000
X-.625F7000S0
X-.201Y.1
X.625
X2.1F1500S1000
X1.7F7000S0
X.5F1500S1000
X1.5F7000S0
X.3F1500S1000
X12.3F7000S0
X.6F1500S1000
X5.1F7000S0
X.601F1500S1000
X12F7000S0
X2.1F1500S1000
X1.799F7000S0
X.4F1500S1000
X1.5F7000S0
X.301F1500S1000
X27.199F7000S0
X2.099F1500S1000
X1.801F7000S0
X.5F1500S1000
X1.5F7000S0
X.199F1500S1000
X12.3F7000S0
X.699F1500S1000
X5F7000S0
X.701F1500S1000
X12F7000S0
X2F1500S1000
X1.8F7000S0
X.5F1500S1000
X1.5F7000S0
X.2F1500S1000
X27.3F7000S0
X2.1F1500S1000
X1.7F7000S0
X.5F1500S1000
X1.5F7000S0
X.2F1500S1000
X12.3F7000S0
X.7F1500S1000
X5F7000S0
X.7F1500S1000
X12F7000S0
X2.1F1500S1000
X1.7F7000S0
X.5F1500S1000
X1.5F7000S0
X.3F1500S1000
X27.2F7000S0
X2.1F1500S1000
X1.8F7000S0
X.5F1500S1000
X1.5F7000S0
X.2F1500S1000
X12.3F7000S0
X.599F1500S1000
X5.101F7000S0
X.6F1500S1000
X12.1F7000S0
X2F1500S1000
X1.8F7000S0
X.5F1500S1000
X1.5F7000S0
X.2F1500S1000
X.625F7000S0
Y.1
X-.625
X-.301F1500S1000
X-1.399F7000S0
X-.5F1500S1000
X-1.7F7000S0
X-.901F1500S1000
X-.099F7000S0
X-.1F1500S1000
X-.1F7000S0
X-.1F1500S1000
X-.101F7000S0
X-.899F1500S1000
X-11.8F7000S0
X-.6F1500S1000
X-5.201F7000S0
X-.699F1500S1000
X-12.2F7000S0
X-.3F1500S1000
X-1.4F7000S0
X-.5F1500S1000
X-1.8F7000S0
X-.8F1500S1000
X-.1F7000S0
X-.1F1500S1000
X-.1F7000S0
X-.1F1500S1000
X-.1F7000S0
X-.9F1500S1000
X-27.2F7000S0
X-.3F1500S1000
X-1.3F7000S0
X-.6F1500S1000
X-1.7F7000S0
X-.8F1500S1000
X-.1F7000S0
X-.1F1500S1000
X-.1F7000S0
X-.2F1500S1000
X-.1F7000S0
X-.8F1500S1000
X-11.8F7000S0
X-.7F1500S1000
X-5.1F7000S0
X-.7F1500S1000
X-12.3F7000S0
X-.3F1500S1000
X-1.4F7000S0
X-.5F1500S1000
X-1.7F7000S0
X-.9F1500S1000
X-.1F7000S0
X-.2F1500S1000
X-.1F7000S0
X-.9F1500S1000
X-27.2F7000S0
X-.3F1500S1000
X-1.4F7000S0
X-.5F1500S1000
X-1.8F7000S0
X-.7F1500S1000
X-.1F7000S0
X-.1F1500S1000
X-.1F7000S0
X-.1F1500S1000
X-.1F7000S0
X-1F1500S1000
X-11.8F7000S0
X-.601F1500S1000
X-5.199F7000S0
X-.6F1500S1000
X-12.301F7000S0
X-.299F1500S1000
X-1.4F7000S0
X-.5F1500S1000
X-1.801F7000S0
X-.799F1500S1000
X-.101F7000S0
X-.1F1500S1000
X-.099F7000S0
X-.1F1500S1000
X-.1F7000S0
X-.9F1500S1000
X-27.1F7000S0
X-.4F1500S1000
X-1.301F7000S0
X-.5F1500S1000
X-1.799F7000S0
X-.8F1500S1000
X-.1F7000S0
X-.2F1500S1000
X-.101F7000S0
X-1F1500S1000
X-11.799F7000S0
X-.7F1500S1000
X-5.099F7000S0
X-.7F1500S1000
X-12.3F7000S0
X-.3F1500S1000
X-1.3F7000S0
X-.6F1500S1000
X-1.7F7000S0
X-.8F1500S1000
X-.1F7000S0
X-.2F1500S1000
X-.1F7000S0
X-1F1500S1000
X-.625F7000S0
X-.2Y.1
X.625
X.7F1500S1000
X1F7000S0
X.6F1500S1000
X1.8F7000S0
X.7F1500S1000
X1F7000S0
X.099F1500S1000
X.101F7000S0
X.3F1500S1000
X.099F7000S0
X.101F1500S1000
X12.1F7000S0
X.599F1500S1000
X5.2F7000S0
X.701F1500S1000
X11.6F7000S0
X.6F1500S1000
X1.099F7000S0
X.601F1500S1000
X1.8F7000S0
X.699F1500S1000
X1.101F7000S0
X.399F1500S1000
X.101F7000S0
X.1F1500S1000
X26.9F7000S0
X.6F1500S1000
X1F7000S0
X.699F1500S1000
X1.801F7000S0
X.6F1500S1000
X1.099F7000S0
X.5F1500S1000
X.1F7000S0
X.101F1500S1000
X12F7000S0
X.6F1500S1000
X5.299F7000S0
X.601F1500S1000
X11.7F7000S0
X.6F1500S1000
X1.1F7000S0
X.6F1500S1000
X1.8F7000S0
X.6F1500S1000
X1.1F7000S0
X.6F1500S1000
X26.9F7000S0
X.6F1500S1000
X1.1F7000S0
X.6F1500S1000
X1.8F7000S0
X.7F1500S1000
X1.1F7000S0
X.5F1500S1000
X.1F7000S0
X.1F1500S1000
X11.9F7000S0
X.7F1500S1000
X5.3F7000S0
X.6F1500S1000
X11.6F7000S0
X.6F1500S1000
X1.1F7000S0
X.6F1500S1000
X1.8F7000S0
X.7F1500S1000
X1F7000S0
X.1F1500S1000
X.1F7000S0
X.4F1500S1000
X.1F7000S0
X.1F1500S1000
X26.8F7000S0
X.6F1500S1000
X1F7000S0
X.7F1500S1000
X1.8F7000S0
X.6F1500S1000
X1.1F7000S0
X.6F1500S1000
X.1F7000S0
X.1F1500S1000
X11.9F7000S0
X.699F1500S1000
X5.201F7000S0
X.7F1500S1000
X11.599F7000S0
X.701F1500S1000
X1F7000S0
X.6F1500S1000
X1.8F7000S0
X.6F1500S1000
X1.1F7000S0
X.699F1500S1000
X.625F7000S0
X.301Y.1
X-.625
X-1.1F1500S1000
X-.9F7000S0
X-.801F1500S1000
X-1.699F7000S0
X-.5F1500S1000
X-1.301F7000S0
X-.5F1500S1000
X-11.5F7000S0
X-.699F1500S1000
X-5.5F7000S0
X-.6F1500S1000
X-11.6F7000S0
X-1.1F1500S1000
X-.9F7000S0
X-.8F1500S1000
X-1.8F7000S0
X-.4F1500S1000
X-1.4F7000S0
X-.4F1500S1000
X-26.5F7000S0
X-1.2F1500S1000
X-.8F7000S0
X-.8F1500S1000
X-1.7F7000S0
X-.6F1500S1000
X-1.3F7000S0
X-.5F1500S1000
X-11.5F7000S0
X-.7F1500S1000
X-5.4F7000S0
X-.6F1500S1000
X-11.7F7000S0
X-1.1F1500S1000
X-.8F7000S0
X-.9F1500S1000
X-1.7F7000S0
X-.5F1500S1000
X-1.3F7000S0
X-.5F1500S1000
X-26.5F7000S0
X-1.1F1500S1000
X-.9F7000S0
X-.9F1500S1000
X-1.5F7000S0
X-.7F1500S1000
X-1.2F7000S0
X-.6F1500S1000
X-11.5F7000S0
X-.7F1500S1000
X-5.3F7000S0
X-.7F1500S1000
X-11.6F7000S0
X-1.1F1500S1000
X-.9F7000S0
X-.9F1500S1000
X-1.6F7000S0
X-.6F1500S1000
X-1.3F7000S0
X-.5F1500S1000
X-26.4F7000S0
X-1.2F1500S1000
X-.8F7000S0
X-.9F1500S1000
X-1.7F7000S0
X-.5F1500S1000
X-1.3F7000S0
X-.5F1500S1000
X-11.5F7000S0
X-.7F1500S1000
X-5.4F7000S0
X-.7F1500S1000
X-11.5F7000S0
X-1.2F1500S1000
X-.8F7000S0
X-.9F1500S1000
X-1.7F7000S0
X-.5F1500S1000
X-1.3F7000S0
X-.5F1500S1000
X-.625F7000S0
Y.1
X.625
X.4F1500S1000
X.6F7000S0
X.2F1500S1000
X.6F7000S0
X.5F1500S1000
X1.7F7000S0
X.9F1500S1000
X.6F7000S0
X1.5F1500S1000
X11.4F7000S0
X.6F1500S1000
X5.6F7000S0
X.6F1500S1000
X11.5F7000S0
X.4F1500S1000
X.6F7000S0
X.2F1500S1000
X.6F7000S0
X.5F1500S1000
X1.7F7000S0
X1F1500S1000
X.6F7000S0
X1.4F1500S1000
X26.3F7000S0
X.4F1500S1000
X.6F7000S0
X.2F1500S1000
X.7F7000S0
X.5F1500S1000
X1.6F7000S0
X1F1500S1000
X.6F7000S0
X1.4F1500S1000
X11.4F7000S0
X.7F1500S1000
X5.5F7000S0
X.7F1500S1000
X11.4F7000S0
X.5F1500S1000
X.5F7000S0
X.2F1500S1000
X.7F7000S0
X.5F1500S1000
X1.6F7000S0
X1F1500S1000
X.6F7000S0
X1.4F1500S1000
X26.4F7000S0
X.4F1500S1000
X.6F7000S0
X.1F1500S1000
X.7F7000S0
X.6F1500S1000
X1.6F7000S0
X1F1500S1000
X.5F7000S0
X1.4F1500S1000
X11.5F7000S0
X.6F1500S1000
X5.6F7000S0
X.6F1500S1000
X11.5F7000S0
X.4F1500S1000
X.6F7000S0
X.2F1500S1000
X.6F7000S0
X.5F1500S1000
X1.7F7000S0
X1F1500S1000
X.5F7000S0
X1.5F1500S1000
X26.3F7000S0
X.4F1500S1000
X.6F7000S0
X.2F1500S1000
X.6F7000S0
X.6F1500S1000
X1.6F7000S0
X1F1500S1000
X.6F7000S0
X1.4F1500S1000
X11.5F7000S0
X.6F1500S1000
X5.5F7000S0
X.6F1500S1000
X11.5F7000S0
X.5F1500S1000
X.5F7000S0
X.2F1500S1000
X.7F7000S0
X.6F1500S1000
X1.5F7000S0
X1F1500S1000
X.599F7000S0
X1.401F1500S1000
X.625F7000S0
X.099Y.1
X-.625
X-3.099F1500S1000
X-1.6F7000S0
X-.5F1500S1000
X-.5F7000S0
X-.4F1500S1000
X-.6F7000S0
X-.4F1500S1000
X-11.401F7000S0
X-.599F1500S1000
X-5.6F7000S0
X-.7F1500S1000
X-11.3F7000S0
X-3.1F1500S1000
X-1.6F7000S0
X-.5F1500S1000
X-.5F7000S0
X-.5F1500S1000
X-.6F7000S0
X-.4F1500S1000
X-26.1F7000S0
X-3.2F1500S1000
X-1.6F7000S0
X-.5F1500S1000
X-.5F7000S0
X-.4F1500S1000
X-.6F7000S0
X-.4F1500S1000
X-11.2F7000S0
X-.8F1500S1000
X-5.6F7000S0
X-.7F1500S1000
X-11.3F7000S0
X-3.1F1500S1000
X-1.6F7000S0
X-.5F1500S1000
X-.5F7000S0
X-.4F1500S1000
X-.6F7000S0
X-.4F1500S1000
X-26.2F7000S0
X-3.1F1500S1000
X-1.6F7000S0
X-.5F1500S1000
X-.5F7000S0
X-.4F1500S1000
X-.6F7000S0
X-.4F1500S1000
X-11.4F7000S0
X-.6F1500S1000
X-5.7F7000S0
X-.6F1500S1000
X-11.3F7000S0
X-3.1F1500S1000
X-1.6F7000S0
X-.5F1500S1000
X-.5F7000S0
X-.5F1500S1000
X-.6F7000S0
X-.3F1500S1000
X-26.2F7000S0
X-3.2F1500S1000
X-1.6F7000S0
X-.5F1500S1000
X-.4F7000S0
X-.5F1500S1000
X-.6F7000S0
X-.4F1500S1000
X-11.3F7000S0
X-.7F1500S1000
X-5.6F7000S0
X-.6F1500S1000
X-11.3F7000S0
X-3.2F1500S1000
X-1.6F7000S0
X-.5F1500S1000
X-.4F7000S0
X-.5F1500S1000
X-.6F7000S0
X-.4F1500S1000
X-.625F7000S0
X-.1Y.1
X.625
X.4F1500S1000
X.7F7000S0
X.5F1500S1000
X.4F7000S0
X.6F1500S1000
X1.4F7000S0
X3.4F1500S1000
X11.1F7000S0
X.7F1500S1000
X5.7F7000S0
X.7F1500S1000
X11.1F7000S0
X.4F1500S1000
X.7F7000S0
X.5F1500S1000
X.4F7000S0
X.6F1500S1000
X1.4F7000S0
X3.4F1500S1000
X26F7000S0
X.3F1500S1000
X.8F7000S0
X.4F1500S1000
X.5F7000S0
X.5F1500S1000
X1.4F7000S0
X3.4F1500S1000
X11.1F7000S0
X.7F1500S1000
X5.7F7000S0
X.7F1500S1000
X11.2F7000S0
X.4F1500S1000
X.7F7000S0
X.5F1500S1000
X.4F7000S0
X.5F1500S1000
X1.4F7000S0
X3.4F1500S1000
X26.1F7000S0
X.3F1500S1000
X.7F7000S0
X.5F1500S1000
X.5F7000S0
X.4F1500S1000
X1.5F7000S0
X3.3F1500S1000
X11.2F7000S0
X.6F1500S1000
X5.8F7000S0
X.6F1500S1000
X11.3F7000S0
X.3F1500S1000
X.7F7000S0
X.5F1500S1000
X.4F7000S0
X.6F1500S1000
X1.4F7000S0
X3.4F1500S1000
X26F7000S0
X.3F1500S1000
X.7F7000S0
X.5F1500S1000
X.4F7000S0
X.6F1500S1000
X1.4F7000S0
X3.4F1500S1000
X11.099F7000S0
X.701F1500S1000
X5.7F7000S0
X.8F1500S1000
X11.1F7000S0
X.4F1500S1000
X.7F7000S0
X.5F1500S1000
X.4F7000S0
X.5F1500S1000
X1.5F7000S0
X3.3F1500S1000
X.625F7000S0
X.1Y.1
X-.625
X-.4F1500S1000
X-.9F7000S0
X-2.3F1500S1000
X-1.2F7000S0
X-.5F1500S1000
X-.7F7000S0
X-.1F1500S1000
X-1F7000S0
X-.4F1500S1000
X-11F7000S0
X-.6F1500S1000
X-6F7000S0
X-.601F1500S1000
X-10.999F7000S0
X-.4F1500S1000
X-.9F7000S0
X-2.3F1500S1000
X-1.3F7000S0
X-.5F1500S1000
X-.5F7000S0
X-.2F1500S1000
X-1F7000S0
X-.4F1500S1000
X-25.9F7000S0
X-.3F1500S1000
X-1F7000S0
X-2.2F1500S1000
X-1.3F7000S0
X-.5F1500S1000
X-.5F7000S0
X-.2F1500S1000
X-1.1F7000S0
X-.3F1500S1000
X-11.1F7000S0
X-.6F1500S1000
X-5.9F7000S0
X-.7F1500S1000
X-11F7000S0
X-.4F1500S1000
X-.9F7000S0
X-2.3F1500S1000
X-1.2F7000S0
X-.6F1500S1000
X-.4F7000S0
X-.2F1500S1000
X-1F7000S0
X-.4F1500S1000
X-25.9F7000S0
X-.4F1500S1000
X-.9F7000S0
X-2.3F1500S1000
X-1.2F7000S0
X-.6F1500S1000
X-.5F7000S0
X-.1F1500S1000
X-1.1F7000S0
X-.4F1500S1000
X-11F7000S0
X-.6F1500S1000
X-6F7000S0
X-.6F1500S1000
X-11F7000S0
X-.4F1500S1000
X-1F7000S0
X-2.2F1500S1000
X-1.3F7000S0
X-.5F1500S1000
X-.5F7000S0
X-.1F1500S1000
X-1.1F7000S0
X-.4F1500S1000
X-25.9F7000S0
X-.3F1500S1000
X-1F7000S0
X-2.3F1500S1000
X-1.2F7000S0
X-.6F1500S1000
X-.4F7000S0
X-.1F1500S1000
X-1.1F7000S0
X-.4F1500S1000
X-11.1F7000S0
X-.6F1500S1000
X-5.9F7000S0
X-.7F1500S1000
X-11F7000S0
X-.3F1500S1000
X-1F7000S0
X-2.3F1500S1000
X-1.2F7000S0
X-.6F1500S1000
X-.4F7000S0
X-.1F1500S1000
X-1.1F7000S0
X-.4F1500S1000
X-.625F7000S0
Y.1
X.625
X.3F1500S1000
X1.7F7000S0
X.7F1500S1000
X1F7000S0
X.6F1500S1000
X.3F7000S0
X.1F1500S1000
X.1F7000S0
X1.3F1500S1000
X1F7000S0
X.3F1500S1000
X11F7000S0
X.6F1500S1000
X6.1F7000S0
X.6F1500S1000
X11F7000S0
X.3F1500S1000
X1.7F7000S0
X.7F1500S1000
X1F7000S0
X.7F1500S1000
X.2F7000S0
X.1F1500S1000
X.2F7000S0
X1.2F1500S1000
X1.1F7000S0
X.2F1500S1000
X25.9F7000S0
X.3F1500S1000
X1.8F7000S0
X.6F1500S1000
X1F7000S0
X.7F1500S1000
X.1F7000S0
X.1F1500S1000
X.2F7000S0
X1.3F1500S1000
X1.1F7000S0
X.3F1500S1000
X10.9F7000S0
X.7F1500S1000
X6F7000S0
X.7F1500S1000
X10.9F7000S0
X.3F1500S1000
X1.8F7000S0
X.6F1500S1000
X1F7000S0
X.7F1500S1000
X.1F7000S0
X.1F1500S1000
X.2F7000S0
X1.3F1500S1000
X1.1F7000S0
X.3F1500S1000
X25.8F7000S0
X.4F1500S1000
X1.7F7000S0
X.7F1500S1000
X1F7000S0
X.7F1500S1000
X.2F7000S0
X.1F1500S1000
X.1F7000S0
X1.2F1500S1000
X1.1F7000S0
X.3F1500S1000
X10.9F7000S0
X.7F1500S1000
X6.1F7000S0
X.6F1500S1000
X10.9F7000S0
X.5F1500S1000
X1.6F7000S0
X.7F1500S1000
X1F7000S0
X.7F1500S1000
X.1F7000S0
X.1F1500S1000
X.2F7000S0
X1.3F1500S1000
X1F7000S0
X.4F1500S1000
X25.8F7000S0
X.4F1500S1000
X1.6F7000S0
X.7F1500S1000
X1F7000S0
X.8F1500S1000
X.2F7000S0
X.1F1500S1000
X.1F7000S0
X1.2F1500S1000
X1.1F7000S0
X.3F1500S1000
X10.9F7000S0
X.6F1500S1000
X6.1F7000S0
X.7F1500S1000
X10.9F7000S0
X.4F1500S1000
X1.7F7000S0
X.6F1500S1000
X1F7000S0
X.8F1500S1000
X.2F7000S0
X.1F1500S1000
X.1F7000S0
X1.2F1500S1000
X1.1F7000S0
X.3F1500S1000
X.625F7000S0
X.1Y.1
X-.625
X-.4F1500S1000
X-1.1F7000S0
X-.9F1500S1000
X-.8F7000S0
X-.9F1500S1000
X-.6F7000S0
X-.8F1500S1000
X-1.8F7000S0
X-.3F1500S1000
X-10.9F7000S0
X-.6F1500S1000
X-6.1F7000S0
X-.8F1500S1000
X-10.8F7000S0
X-.3F1500S1000
X-1.2F7000S0
X-.8F1500S1000
X-.9F7000S0
X-.9F1500S1000
X-.6F7000S0
X-.8F1500S1000
X-1.7F7000S0
X-.3F1500S1000
X-25.8F7000S0
X-.3F1500S1000
X-1.2F7000S0
X-.9F1500S1000
X-.8F7000S0
X-.9F1500S1000
X-.6F7000S0
X-.8F1500S1000
X-1.7F7000S0
X-.4F1500S1000
X-10.8F7000S0
X-.7F1500S1000
X-6.2F7000S0
X-.6F1500S1000
X-10.8F7000S0
X-.4F1500S1000
X-1.1F7000S0
X-.9F1500S1000
X-.8F7000S0
X-.9F1500S1000
X-.6F7000S0
X-.8F1500S1000
X-1.7F7000S0
X-.4F1500S1000
X-25.8F7000S0
X-.3F1500S1000
X-1.2F7000S0
X-.8F1500S1000
X-.9F7000S0
X-.8F1500S1000
X-.7F7000S0
X-.7F1500S1000
X-1.8F7000S0
X-.3F1500S1000
X-10.9F7000S0
X-.6F1500S1000
X-6.2F7000S0
X-.7F1500S1000
X-10.8F7000S0
X-.3F1500S1000
X-1.2F7000S0
X-.9F1500S1000
X-.8F7000S0
X-.8F1500S1000
X-.7F7000S0
X-.7F1500S1000
X-1.8F7000S0
X-.3F1500S1000
X-25.8F7000S0
X-.3F1500S1000
X-1.2F7000S0
X-1F1500S1000
X-.8F7000S0
X-.8F1500S1000
X-.6F7000S0
X-.8F1500S1000
X-1.7F7000S0
X-.3F1500S1000
X-11F7000S0
X-.6F1500S1000
X-6.1F7000S0
X-.7F1500S1000
X-10.8F7000S0
X-.3F1500S1000
X-1.2F7000S0
X-1F1500S1000
X-.8F7000S0
X-.8F1500S1000
X-.6F7000S0
X-.8F1500S1000
X-1.7F7000S0
X-.3F1500S1000
X-.625F7000S0
Y.1
X.625
X.2F1500S1000
X1.8F7000S0
X2.1F1500S1000
X1.1F7000S0
X.8F1500S1000
X1.2F7000S0
X.3F1500S1000
X10.7F7000S0
X.7F1500S1000
X6.3F7000S0
X.6F1500S1000
X10.9F7000S0
X.2F1500S1000
X1.8F7000S0
X2.1F1500S1000
X1.1F7000S0
X.8F1500S1000
X1.3F7000S0
X.2F1500S1000
X25.8F7000S0
X.3F1500S1000
X1.8F7000S0
X2.2F1500S1000
X.9F7000S0
X.8F1500S1000
X1.3F7000S0
X.2F1500S1000
X10.8F7000S0
X.6F1500S1000
X6.3F7000S0
X.6F1500S1000
X10.9F7000S0
X.3F1500S1000
X1.8F7000S0
X2.2F1500S1000
X.9F7000S0
X.8F1500S1000
X1.3F7000S0
X.3F1500S1000
X25.7F7000S0
X.4F1500S1000
X1.8F7000S0
X2.1F1500S1000
X1.1F7000S0
X.7F1500S1000
X1.2F7000S0
X.3F1500S1000
X10.7F7000S0
X.7F1500S1000
X6.3F7000S0
X.6F1500S1000
X10.8F7000S0
X.3F1500S1000
X1.8F7000S0
X2.2F1500S1000
X1F7000S0
X.8F1500S1000
X1.2F7000S0
X.3F1500S1000
X25.8F7000S0
X.3F1500S1000
X1.8F7000S0
X2.2F1500S1000
X1F7000S0
X.7F1500S1000
X1.3F7000S0
X.3F1500S1000
X10.7F7000S0
X.6F1500S1000
X6.3F7000S0
X.7F1500S1000
X10.8F7000S0
X.299F1500S1000
X1.801F7000S0
X2.199F1500S1000
X1F7000S0
X.701F1500S1000
X1.299F7000S0
X.301F1500S1000
X.625F7000S0
Y.1
X-.625
X-.301F1500S1000
X-1.299F7000S0
X-.701F1500S1000
X-1.099F7000S0
X-2.1F1500S1000
X-1.801F7000S0
X-.299F1500S1000
X-10.8F7000S0
X-.6F1500S1000
X-6.5F7000S0
X-.6F1500S1000
X-10.6F7000S0
X-.3F1500S1000
X-1.3F7000S0
X-.7F1500S1000
X-1.1F7000S0
X-2.2F1500S1000
X-1.7F7000S0
X-.3F1500S1000
X-25.7F7000S0
X-.3F1500S1000
X-1.3F7000S0
X-.6F1500S1000
X-1.3F7000S0
X-2F1500S1000
X-1.8F7000S0
X-.4F1500S1000
X-10.7F7000S0
X-.7F1500S1000
X-6.4F7000S0
X-.7F1500S1000
X-10.6F7000S0
X-.2F1500S1000
X-1.3F7000S0
X-.7F1500S1000
X-1.2F7000S0
X-2.1F1500S1000
X-1.8F7000S0
X-.3F1500S1000
X-25.7F7000S0
X-.3F1500S1000
X-1.3F7000S0
X-.6F1500S1000
X-1.2F7000S0
X-2.1F1500S1000
X-1.9F7000S0
X-.2F1500S1000
X-10.8F7000S0
X-.6F1500S1000
X-6.4F7000S0
X-.7F1500S1000
X-10.6F7000S0
X-.3F1500S1000
X-1.3F7000S0
X-.6F1500S1000
X-1.2F7000S0
X-2.1F1500S1000
X-1.9F7000S0
X-.2F1500S1000
X-25.7F7000S0
X-.3F1500S1000
X-1.3F7000S0
X-.7F1500S1000
X-1.2F7000S0
X-2F1500S1000
X-1.8F7000S0
X-.3F1500S1000
X-10.8F7000S0
X-.7F1500S1000
X-6.4F7000S0
X-.6F1500S1000
X-10.6F7000S0
X-.3F1500S1000
X-1.3F7000S0
X-.7F1500S1000
X-1.2F7000S0
X-2.1F1500S1000
X-1.7F7000S0
X-.3F1500S1000
X-.625F7000S0
Y.1
X.625
X.2F1500S1000
X1.9F7000S0
X1.9F1500S1000
X.6F7000S0
X.2F1500S1000
X.6F7000S0
X.6F1500S1000
X1.3F7000S0
X.3F1500S1000
X10.5F7000S0
X.7F1500S1000
X6.5F7000S0
X.7F1500S1000
X10.7F7000S0
X.2F1500S1000
X1.8F7000S0
X2F1500S1000
X.5F7000S0
X.3F1500S1000
X.7F7000S0
X.5F1500S1000
X1.3F7000S0
X.3F1500S1000
X25.7F7000S0
X.3F1500S1000
X1.8F7000S0
X2F1500S1000
X.5F7000S0
X.2F1500S1000
X.6F7000S0
X.6F1500S1000
X1.4F7000S0
X.3F1500S1000
X10.4F7000S0
X.7F1500S1000
X6.5F7000S0
X.7F1500S1000
X10.7F7000S0
X.3F1500S1000
X1.8F7000S0
X2F1500S1000
X.6F7000S0
X.1F1500S1000
X.6F7000S0
X.6F1500S1000
X1.4F7000S0
X.2F1500S1000
X25.7F7000S0
X.4F1500S1000
X1.7F7000S0
X2F1500S1000
X.6F7000S0
X.1F1500S1000
X.7F7000S0
X.6F1500S1000
X1.3F7000S0
X.3F1500S1000
X10.5F7000S0
X.6F1500S1000
X6.6F7000S0
X.7F1500S1000
X10.6F7000S0
X.4F1500S1000
X1.7F7000S0
X2F1500S1000
X.6F7000S0
X.1F1500S1000
X.7F7000S0
X.6F1500S1000
X1.3F7000S0
X.3F1500S1000
X25.7F7000S0
X.2F1500S1000
X1.9F7000S0
X2F1500S1000
X.5F7000S0
X.2F1500S1000
X.7F7000S0
X.5F1500S1000
X1.4F7000S0
X.3F1500S1000
X10.4F7000S0
X.8F1500S1000
X6.4F7000S0
X.7F1500S1000
X10.7F7000S0
X.3F1500S1000
X1.9F7000S0
X1.9F1500S1000
X.6F7000S0
X.1F1500S1000
X.7F7000S0
X.5F1500S1000
X1.4F7000S0
X.3F1500S1000
X.625F7000S0
Y.1
X-.625
X-.3F1500S1000
X-1.4F7000S0
X-.5F1500S1000
X-.5F7000S0
X-.3F1500S1000
X-.7F7000S0
X-1.9F1500S1000
X-1.9F7000S0
X-.2F1500S1000
X-10.6F7000S0
X-.7F1500S1000
X-6.6F7000S0
X-.7F1500S1000
X-10.4F7000S0
X-.3F1500S1000
X-1.4F7000S0
X-.5F1500S1000
X-.5F7000S0
X-.4F1500S1000
X-.7F7000S0
X-1.9F1500S1000
X-1.7F7000S0
X-.3F1500S1000
X-25.7F7000S0
X-.3F1500S1000
X-1.3F7000S0
X-.5F1500S1000
X-.6F7000S0
X-.3F1500S1000
X-.6F7000S0
X-2F1500S1000
X-1.8F7000S0
X-.2F1500S1000
X-10.7F7000S0
X-.7F1500S1000
X-6.6F7000S0
X-.6F1500S1000
X-10.5F7000S0
X-.3F1500S1000
X-1.3F7000S0
X-.5F1500S1000
X-.6F7000S0
X-.3F1500S1000
X-.6F7000S0
X-1.9F1500S1000
X-1.8F7000S0
X-.4F1500S1000
X-25.6F7000S0
X-.3F1500S1000
X-1.4F7000S0
X-.5F1500S1000
X-.5F7000S0
X-.3F1500S1000
X-.7F7000S0
X-1.9F1500S1000
X-1.8F7000S0
X-.3F1500S1000
X-10.7F7000S0
X-.6F1500S1000
X-6.6F7000S0
X-.7F1500S1000
X-10.4F7000S0
X-.3F1500S1000
X-1.4F7000S0
X-.5F1500S1000
X-.5F7000S0
X-.4F1500S1000
X-.6F7000S0
X-1.9F1500S1000
X-1.8F7000S0
X-.3F1500S1000
X-25.6F7000S0
X-.4F1500S1000
X-1.3F7000S0
X-.5F1500S1000
X-.6F7000S0
X-.3F1500S1000
X-.7F7000S0
X-1.9F1500S1000
X-1.7F7000S0
X-.3F1500S1000
X-10.7F7000S0
X-.7F1500S1000
X-6.6F7000S0
X-.7F1500S1000
X-10.3F7000S0
X-.4F1500S1000
X-1.3F7000S0
X-.5F1500S1000
X-.6F7000S0
X-.3F1500S1000
X-.7F7000S0
X-1.9F1500S1000
X-1.7F7000S0
X-.3F1500S1000
X-.625F7000S0
Y.1
X.625
X.2F1500S1000
X1.8F7000S0
X1.8F1500S1000
X.9F7000S0
X.2F1500S1000
X.6F7000S0
X.5F1500S1000
X1.3F7000S0
X.3F1500S1000
X10.4F7000S0
X.7F1500S1000
X6.7F7000S0
X.7F1500S1000
X10.6F7000S0
X.2F1500S1000
X1.8F7000S0
X1.9F1500S1000
X.9F7000S0
X.1F1500S1000
X.6F7000S0
X.5F1500S1000
X1.3F7000S0
X.4F1500S1000
X25.7F7000S0
X.1F1500S1000
X1.8F7000S0
X1.9F1500S1000
X.9F7000S0
X.2F1500S1000
X.5F7000S0
X.5F1500S1000
X1.4F7000S0
X.3F1500S1000
X10.4F7000S0
X.6F1500S1000
X6.8F7000S0
X.6F1500S1000
X10.7F7000S0
X.2F1500S1000
X1.7F7000S0
X1.9F1500S1000
X.8F7000S0
X.3F1500S1000
X.5F7000S0
X.5F1500S1000
X1.4F7000S0
X.3F1500S1000
X25.7F7000S0
X.2F1500S1000
X1.8F7000S0
X1.8F1500S1000
X.9F7000S0
X.2F1500S1000
X.6F7000S0
X.5F1500S1000
X1.3F7000S0
X.3F1500S1000
X10.4F7000S0
X.6F1500S1000
X6.8F7000S0
X.6F1500S1000
X10.7F7000S0
X.3F1500S1000
X1.7F7000S0
X1.8F1500S1000
X1F7000S0
X.1F1500S1000
X.6F7000S0
X.5F1500S1000
X1.3F7000S0
X.3F1500S1000
X25.8F7000S0
X.2F1500S1000
X1.7F7000S0
X1.9F1500S1000
X.9F7000S0
X.1F1500S1000
X.6F7000S0
X.6F1500S1000
X1.3F7000S0
X.3F1500S1000
X10.4F7000S0
X.6F1500S1000
X6.7F7000S0
X.8F1500S1000
X10.6F7000S0
X.2F1500S1000
X1.7F7000S0
X1.9F1500S1000
X.9F7000S0
X.2F1500S1000
X.5F7000S0
X.5F1500S1000
X1.4F7000S0
X.3F1500S1000
X.625F7000S0
Y.1
X-.625
X-.3F1500S1000
X-1.4F7000S0
X-.5F1500S1000
X-1.6F7000S0
X-.5F1500S1000
X-.8F7000S0
X-.6F1500S1000
X-1.7F7000S0
X-.2F1500S1000
X-10.6F7000S0
X-.7F1500S1000
X-6.9F7000S0
X-.6F1500S1000
X-10.3F7000S0
X-.3F1500S1000
X-1.4F7000S0
X-.5F1500S1000
X-1.7F7000S0
X-.4F1500S1000
X-.8F7000S0
X-.7F1500S1000
X-1.6F7000S0
X-.2F1500S1000
X-25.8F7000S0
X-.3F1500S1000
X-1.3F7000S0
X-.5F1500S1000
X-1.7F7000S0
X-.4F1500S1000
X-.9F7000S0
X-.6F1500S1000
X-1.6F7000S0
X-.3F1500S1000
X-10.6F7000S0
X-.6F1500S1000
X-6.9F7000S0
X-.7F1500S1000
X-10.3F7000S0
X-.3F1500S1000
X-1.3F7000S0
X-.5F1500S1000
X-1.7F7000S0
X-.4F1500S1000
X-.9F7000S0
X-.6F1500S1000
X-1.6F7000S0
X-.3F1500S1000
X-25.7F7000S0
X-.3F1500S1000
X-1.4F7000S0
X-.5F1500S1000
X-1.6F7000S0
X-.5F1500S1000
X-.9F7000S0
X-.5F1500S1000
X-1.8F7000S0
X-.1F1500S1000
X-10.6F7000S0
X-.7F1500S1000
X-6.9F7000S0
X-.6F1500S1000
X-10.3F7000S0
X-.3F1500S1000
X-1.4F7000S0
X-.5F1500S1000
X-1.7F7000S0
X-.4F1500S1000
X-.9F7000S0
X-.6F1500S1000
X-1.6F7000S0
X-.2F1500S1000
X-25.7F7000S0
X-.4F1500S1000
X-1.3F7000S0
X-.5F1500S1000
X-1.7F7000S0
X-.4F1500S1000
X-.9F7000S0
X-.6F1500S1000
X-1.7F7000S0
X-.1F1500S1000
X-10.7F7000S0
X-.6F1500S1000
X-6.9F7000S0
X-.6F1500S1000
X-10.4F7000S0
X-.3F1500S1000
X-1.3F7000S0
X-.5F1500S1000
X-1.7F7000S0
X-.4F1500S1000
X-.9F7000S0
X-.6F1500S1000
X-1.6F7000S0
X-.3F1500S1000
X-.625F7000S0
X.1Y.1
X.625
X.1F1500S1000
X1.6F7000S0
X.6F1500S1000
X1.1F7000S0
X.3F1500S1000
X1.7F7000S0
X.5F1500S1000
X1.3F7000S0
X.4F1500S1000
X10.2F7000S0
X.6F1500S1000
X7F7000S0
X.7F1500S1000
X10.6F7000S0
X.2F1500S1000
X1.5F7000S0
X.6F1500S1000
X1.1F7000S0
X.3F1500S1000
X1.7F7000S0
X.5F1500S1000
X1.3F7000S0
X.4F1500S1000
X25.7F7000S0
X.2F1500S1000
X1.5F7000S0
X.7F1500S1000
X1F7000S0
X.3F1500S1000
X1.7F7000S0
X.5F1500S1000
X1.4F7000S0
X.3F1500S1000
X10.2F7000S0
X.7F1500S1000
X7F7000S0
X.6F1500S1000
X10.6F7000S0
X.2F1500S1000
X1.6F7000S0
X.5F1500S1000
X1.1F7000S0
X.3F1500S1000
X1.7F7000S0
X.6F1500S1000
X1.3F7000S0
X.3F1500S1000
X25.7F7000S0
X.3F1500S1000
X1.5F7000S0
X.6F1500S1000
X1.1F7000S0
X.2F1500S1000
X1.8F7000S0
X.5F1500S1000
X1.3F7000S0
X.3F1500S1000
X10.3F7000S0
X.6F1500S1000
X7F7000S0
X.8F1500S1000
X10.4F7000S0
X.2F1500S1000
X1.6F7000S0
X.7F1500S1000
X1F7000S0
X.2F1500S1000
X1.8F7000S0
X.5F1500S1000
X1.3F7000S0
X.3F1500S1000
X25.8F7000S0
X.2F1500S1000
X1.5F7000S0
X.7F1500S1000
X1F7000S0
X.3F1500S1000
X1.7F7000S0
X.5F1500S1000
X1.3F7000S0
X.4F1500S1000
X10.2F7000S0
X.8F1500S1000
X6.9F7000S0
X.6F1500S1000
X10.6F7000S0
X.2F1500S1000
X1.6F7000S0
X.6F1500S1000
X1F7000S0
X.3F1500S1000
X1.8F7000S0
X.5F1500S1000
X1.3F7000S0
X.3F1500S1000
X.625F7000S0
Y.1
X-.625
X-.4F1500S1000
X-1.2F7000S0
X-.6F1500S1000
X-1.7F7000S0
X-.2F1500S1000
X-1.2F7000S0
X-.6F1500S1000
X-1.4F7000S0
X-.3F1500S1000
X-10.4F7000S0
X-.8F1500S1000
X-7.1F7000S0
X-.6F1500S1000
X-10.2F7000S0
X-.4F1500S1000
X-1.2F7000S0
X-.6F1500S1000
X-1.7F7000S0
X-.2F1500S1000
X-1.2F7000S0
X-.7F1500S1000
X-1.3F7000S0
X-.3F1500S1000
X-25.8F7000S0
X-.3F1500S1000
X-1.3F7000S0
X-.5F1500S1000
X-1.8F7000S0
X-.2F1500S1000
X-1.1F7000S0
X-.7F1500S1000
X-1.4F7000S0
X-.2F1500S1000
X-10.6F7000S0
X-.6F1500S1000
X-7.1F7000S0
X-.7F1500S1000
X-10.2F7000S0
X-.4F1500S1000
X-1.2F7000S0
X-.5F1500S1000
X-1.8F7000S0
X-.2F1500S1000
X-1.2F7000S0
X-.6F1500S1000
X-1.4F7000S0
X-.2F1500S1000
X-25.8F7000S0
X-.4F1500S1000
X-1.2F7000S0
X-.6F1500S1000
X-1.7F7000S0
X-.2F1500S1000
X-1.2F7000S0
X-.7F1500S1000
X-1.3F7000S0
X-.3F1500S1000
X-10.5F7000S0
X-.7F1500S1000
X-7.1F7000S0
X-.6F1500S1000
X-10.2F7000S0
X-.4F1500S1000
X-1.2F7000S0
X-.6F1500S1000
X-1.7F7000S0
X-.3F1500S1000
X-1.1F7000S0
X-.7F1500S1000
X-1.3F7000S0
X-.3F1500S1000
X-25.7F7000S0
X-.4F1500S1000
X-1.2F7000S0
X-.6F1500S1000
X-1.7F7000S0
X-.4F1500S1000
X-1F7000S0
X-.7F1500S1000
X-1.3F7000S0
X-.3F1500S1000
X-10.5F7000S0
X-.7F1500S1000
X-7.1F7000S0
X-.7F1500S1000
X-10.2F7000S0
X-.3F1500S1000
X-1.2F7000S0
X-.6F1500S1000
X-1.7F7000S0
X-.4F1500S1000
X-1F7000S0
X-.7F1500S1000
X-1.4F7000S0
X-.2F1500S1000
X-.625F7000S0
Y.1
X.625
X.4F1500S1000
X1.1F7000S0
X.7F1500S1000
X1.2F7000S0
X.3F1500S1000
X1.6F7000S0
X.7F1500S1000
X1.1F7000S0
X.4F1500S1000
X10.2F7000S0
X.6F1500S1000
X7.3F7000S0
X.6F1500S1000
X10.6F7000S0
X.3F1500S1000
X1.1F7000S0
X.7F1500S1000
X1.2F7000S0
X.3F1500S1000
X1.6F7000S0
X.7F1500S1000
X1.1F7000S0
X.4F1500S1000
X25.9F7000S0
X.3F1500S1000
X1.1F7000S0
X.7F1500S1000
X1.3F7000S0
X.2F1500S1000
X1.7F7000S0
X.7F1500S1000
X1.1F7000S0
X.3F1500S1000
X10.2F7000S0
X.6F1500S1000
X7.3F7000S0
X.7F1500S1000
X10.5F7000S0
X.3F1500S1000
X1.2F7000S0
X.6F1500S1000
X1.2F7000S0
X.3F1500S1000
X1.7F7000S0
X.7F1500S1000
X1.1F7000S0
X.3F1500S1000
X25.9F7000S0
X.3F1500S1000
X1.2F7000S0
X.7F1500S1000
X1.2F7000S0
X.2F1500S1000
X1.7F7000S0
X.7F1500S1000
X1.1F7000S0
X.4F1500S1000
X10.2F7000S0
X.6F1500S1000
X7.2F7000S0
X.7F1500S1000
X10.5F7000S0
X.4F1500S1000
X1.1F7000S0
X.6F1500S1000
X1.3F7000S0
X.2F1500S1000
X1.7F7000S0
X.8F1500S1000
X1F7000S0
X.4F1500S1000
X25.9F7000S0
X.3F1500S1000
X1.1F7000S0
X.7F1500S1000
X1.3F7000S0
X.2F1500S1000
X1.7F7000S0
X.7F1500S1000
X1.1F7000S0
X.3F1500S1000
X10.2F7000S0
X.6F1500S1000
X7.3F7000S0
X.6F1500S1000
X10.6F7000S0
X.3F1500S1000
X1.2F7000S0
X.6F1500S1000
X1.3F7000S0
X.2F1500S1000
X1.7F7000S0
X.7F1500S1000
X1.1F7000S0
X.3F1500S1000
X.625F7000S0
Y.1
X-.625
X-.4F1500S1000
X-.9F7000S0
X-.9F1500S1000
X-1.6F7000S0
X-.2F1500S1000
X-1.4F7000S0
X-.8F1500S1000
X-.8F7000S0
X-.3F1500S1000
X-10.6F7000S0
X-.6F1500S1000
X-7.4F7000S0
X-.7F1500S1000
X-10.1F7000S0
X-.4F1500S1000
X-1F7000S0
X-.8F1500S1000
X-1.6F7000S0
X-.2F1500S1000
X-1.4F7000S0
X-.8F1500S1000
X-.9F7000S0
X-.3F1500S1000
X-26F7000S0
X-.4F1500S1000
X-.9F7000S0
X-.8F1500S1000
X-1.7F7000S0
X-.2F1500S1000
X-1.3F7000S0
X-.8F1500S1000
X-.8F7000S0
X-.4F1500S1000
X-10.5F7000S0
X-.7F1500S1000
X-7.4F7000S0
X-.7F1500S1000
X-10.1F7000S0
X-.4F1500S1000
X-.9F7000S0
X-.8F1500S1000
X-1.7F7000S0
X-.2F1500S1000
X-1.4F7000S0
X-.7F1500S1000
X-.9F7000S0
X-.3F1500S1000
X-26F7000S0
X-.5F1500S1000
X-.9F7000S0
X-.8F1500S1000
X-1.6F7000S0
X-.2F1500S1000
X-1.4F7000S0
X-.7F1500S1000
X-1F7000S0
X-.3F1500S1000
X-10.5F7000S0
X-.6F1500S1000
X-7.4F7000S0
X-.7F1500S1000
X-10.1F7000S0
X-.4F1500S1000
X-1F7000S0
X-.8F1500S1000
X-1.6F7000S0
X-.2F1500S1000
X-1.4F7000S0
X-.8F1500S1000
X-.9F7000S0
X-.3F1500S1000
X-25.9F7000S0
X-.5F1500S1000
X-.9F7000S0
X-.8F1500S1000
X-1.6F7000S0
X-.2F1500S1000
X-1.4F7000S0
X-.8F1500S1000
X-.9F7000S0
X-.3F1500S1000
X-10.5F7000S0
X-.7F1500S1000
X-7.4F7000S0
X-.6F1500S1000
X-10.2F7000S0
X-.4F1500S1000
X-.9F7000S0
X-.8F1500S1000
X-1.6F7000S0
X-.3F1500S1000
X-1.3F7000S0
X-.8F1500S1000
X-.8F7000S0
X-.5F1500S1000
X-.625F7000S0
X.1Y.1
X.625
X.5F1500S1000
X.2F7000S0
X1.2F1500S1000
X1.5F7000S0
X.2F1500S1000
X1.5F7000S0
X1F1500S1000
X.7F7000S0
X.4F1500S1000
X10.2F7000S0
X.7F1500S1000
X7.5F7000S0
X.6F1500S1000
X10.6F7000S0
X.4F1500S1000
X.1F7000S0
X1.4F1500S1000
X1.3F7000S0
X.3F1500S1000
X1.4F7000S0
X1.1F1500S1000
X.7F7000S0
X.5F1500S1000
X26.1F7000S0
X.5F1500S1000
X.1F7000S0
X1.3F1500S1000
X1.3F7000S0
X.3F1500S1000
X1.5F7000S0
X1F1500S1000
X.7F7000S0
X.5F1500S1000
X10.1F7000S0
X.7F1500S1000
X7.5F7000S0
X.6F1500S1000
X10.6F7000S0
X.8F1500S1000
X.1F7000S0
X1F1500S1000
X1.4F7000S0
X.2F1500S1000
X1.5F7000S0
X1.1F1500S1000
X.7F7000S0
X.4F1500S1000
X26.1F7000S0
X.8F1500S1000
X.1F7000S0
X1F1500S1000
X1.5F7000S0
X.2F1500S1000
X1.5F7000S0
X1F1500S1000
X.7F7000S0
X.4F1500S1000
X10.2F7000S0
X.6F1500S1000
X7.6F7000S0
X.7F1500S1000
X10.4F7000S0
X.8F1500S1000
X.1F7000S0
X1F1500S1000
X1.5F7000S0
X.2F1500S1000
X1.4F7000S0
X1.1F1500S1000
X.7F7000S0
X.4F1500S1000
X26.2F7000S0
X1.9F1500S1000
X1.3F7000S0
X.3F1500S1000
X1.5F7000S0
X1F1500S1000
X.8F7000S0
X.4F1500S1000
X10.1F7000S0
X.8F1500S1000
X7.5F7000S0
X.6F1500S1000
X10.5F7000S0
X1.9F1500S1000
X1.4F7000S0
X.2F1500S1000
X1.5F7000S0
X1F1500S1000
X.8F7000S0
X.4F1500S1000
X.625F7000S0
X-.1Y.1
X-.625
X-.5F1500S1000
X-.4F7000S0
X-1.3F1500S1000
X-1.3F7000S0
X-.3F1500S1000
X-1.5F7000S0
X-.4F1500S1000
X-.1F7000S0
X-1.2F1500S1000
X-10.5F7000S0
X-.7F1500S1000
X-7.7F7000S0
X-.6F1500S1000
X-10.2F7000S0
X-.5F1500S1000
X-.5F7000S0
X-1.2F1500S1000
X-1.3F7000S0
X-.3F1500S1000
X-1.5F7000S0
X-.4F1500S1000
X-.1F7000S0
X-1.2F1500S1000
X-26.4F7000S0
X-.4F1500S1000
X-.6F7000S0
X-1.1F1500S1000
X-1.4F7000S0
X-.3F1500S1000
X-1.4F7000S0
X-.5F1500S1000
X-.1F7000S0
X-1.2F1500S1000
X-10.5F7000S0
X-.7F1500S1000
X-7.6F7000S0
X-.6F1500S1000
X-10.3F7000S0
X-.5F1500S1000
X-.5F7000S0
X-1.1F1500S1000
X-1.4F7000S0
X-.3F1500S1000
X-1.4F7000S0
X-.5F1500S1000
X-.1F7000S0
X-1.2F1500S1000
X-26.3F7000S0
X-.5F1500S1000
X-.5F7000S0
X-1.2F1500S1000
X-1.3F7000S0
X-.3F1500S1000
X-1.5F7000S0
X-.4F1500S1000
X-.1F7000S0
X-1.2F1500S1000
X-10.6F7000S0
X-.6F1500S1000
X-7.7F7000S0
X-.6F1500S1000
X-10.2F7000S0
X-.5F1500S1000
X-.6F7000S0
X-1.1F1500S1000
X-1.3F7000S0
X-.3F1500S1000
X-1.5F7000S0
X-.4F1500S1000
X-.1F7000S0
X-1.2F1500S1000
X-26.3F7000S0
X-.5F1500S1000
X-.6F7000S0
X-1.1F1500S1000
X-1.4F7000S0
X-.3F1500S1000
X-1.4F7000S0
X-.4F1500S1000
X-.1F7000S0
X-1.2F1500S1000
X-10.6F7000S0
X-.7F1500S1000
X-7.6F7000S0
X-.7F1500S1000
X-10.2F7000S0
X-.4F1500S1000
X-.6F7000S0
X-1.1F1500S1000
X-1.4F7000S0
X-.3F1500S1000
X-1.4F7000S0
X-.4F1500S1000
X-.2F7000S0
X-1.2F1500S1000
X-.625F7000S0
X.2Y.1
X.625
X.9F1500S1000
X.3F7000S0
X.4F1500S1000
X1.4F7000S0
X.4F1500S1000
X1.2F7000S0
X2.1F1500S1000
X10.3F7000S0
X.6F1500S1000
X7.8F7000S0
X.6F1500S1000
X10.7F7000S0
X.9F1500S1000
X.3F7000S0
X.4F1500S1000
X1.4F7000S0
X.4F1500S1000
X1.2F7000S0
X2.1F1500S1000
X26.7F7000S0
X.8F1500S1000
X.3F7000S0
X.4F1500S1000
X1.4F7000S0
X.4F1500S1000
X1.2F7000S0
X2.1F1500S1000
X10.3F7000S0
X.7F1500S1000
X7.7F7000S0
X.7F1500S1000
X10.7F7000S0
X.8F1500S1000
X.3F7000S0
X.4F1500S1000
X1.4F7000S0
X.4F1500S1000
X1.2F7000S0
X2.1F1500S1000
X26.7F7000S0
X.8F1500S1000
X.4F7000S0
X.4F1500S1000
X1.4F7000S0
X.3F1500S1000
X1.3F7000S0
X2F1500S1000
X10.4F7000S0
X.6F1500S1000
X7.8F7000S0
X.6F1500S1000
X10.7F7000S0
X.9F1500S1000
X.3F7000S0
X.4F1500S1000
X1.4F7000S0
X.3F1500S1000
X1.3F7000S0
X2.1F1500S1000
X26.7F7000S0
X.8F1500S1000
X.3F7000S0
X.4F1500S1000
X1.4F7000S0
X.4F1500S1000
X1.2F7000S0
X2.1F1500S1000
X10.4F7000S0
X.6F1500S1000
X7.7F7000S0
X.599F1500S1000
X10.801F7000S0
X.8F1500S1000
X.3F7000S0
X.5F1500S1000
X1.4F7000S0
X.3F1500S1000
X1.2F7000S0
X2.1F1500S1000
X.625F7000S0
X-.2Y.1
X-.625
X-2F1500S1000
X-1F7000S0
X-.4F1500S1000
X-1.4F7000S0
X-.5F1500S1000
X-.6F7000S0
X-.1F1500S1000
X-11.1F7000S0
X-.6F1500S1000
X-7.8F7000S0
X-.7F1500S1000
X-10.5F7000S0
X-2F1500S1000
X-1F7000S0
X-.5F1500S1000
X-1.4F7000S0
X-.4F1500S1000
X-.7F7000S0
X-.1F1500S1000
X-27.2F7000S0
X-2F1500S1000
X-1.1F7000S0
X-.4F1500S1000
X-1.4F7000S0
X-.4F1500S1000
X-.7F7000S0
X-.1F1500S1000
X-10.9F7000S0
X-.7F1500S1000
X-7.9F7000S0
X-.7F1500S1000
X-10.5F7000S0
X-1.9F1500S1000
X-1.1F7000S0
X-.4F1500S1000
X-1.4F7000S0
X-.4F1500S1000
X-.7F7000S0
X-.1F1500S1000
X-27.3F7000S0
X-2F1500S1000
X-1F7000S0
X-.4F1500S1000
X-1.5F7000S0
X-.4F1500S1000
X-.6F7000S0
X-.2F1500S1000
X-10.9F7000S0
X-.7F1500S1000
X-7.9F7000S0
X-.6F1500S1000
X-10.5F7000S0
X-2F1500S1000
X-1F7000S0
X-.4F1500S1000
X-1.5F7000S0
X-.4F1500S1000
X-.6F7000S0
X-.2F1500S1000
X-27.2F7000S0
X-2F1500S1000
X-1.1F7000S0
X-.4F1500S1000
X-1.4F7000S0
X-.4F1500S1000
X-.7F7000S0
X-.1F1500S1000
X-11F7000S0
X-.6F1500S1000
X-7.9F7000S0
X-.7F1500S1000
X-10.4F7000S0
X-2F1500S1000
X-1.1F7000S0
X-.5F1500S1000
X-1.3F7000S0
X-.4F1500S1000
X-.7F7000S0
X-.1F1500S1000
X-.625F7000S0
X.8Y.1
X.625
X.4F1500S1000
X1.4F7000S0
X.5F1500S1000
X.8F7000S0
X2.1F1500S1000
X10.5F7000S0
X.7F1500S1000
X7.9F7000S0
X.7F1500S1000
X11.7F7000S0
X.4F1500S1000
X1.4F7000S0
X.6F1500S1000
X.7F7000S0
X2.1F1500S1000
X28.2F7000S0
X.3F1500S1000
X1.4F7000S0
X.6F1500S1000
X.7F7000S0
X2.1F1500S1000
X10.5F7000S0
X.7F1500S1000
X8F7000S0
X.6F1500S1000
X11.8F7000S0
X.3F1500S1000
X1.4F7000S0
X.6F1500S1000
X.7F7000S0
X2.1F1500S1000
X28.2F7000S0
X.4F1500S1000
X1.4F7000S0
X.5F1500S1000
X.8F7000S0
X2F1500S1000
X10.6F7000S0
X.6F1500S1000
X8F7000S0
X.7F1500S1000
X11.7F7000S0
X.4F1500S1000
X1.4F7000S0
X.6F1500S1000
X.7F7000S0
X2.1F1500S1000
X28.2F7000S0
X.3F1500S1000
X1.4F7000S0
X.6F1500S1000
X.7F7000S0
X2.1F1500S1000
X10.5F7000S0
X.599F1500S1000
X8.101F7000S0
X.7F1500S1000
X11.699F7000S0
X.401F1500S1000
X1.3F7000S0
X.6F1500S1000
X.699F7000S0
X2.101F1500S1000
X.625F7000S0
X-.101Y.1
X-.625
X-3.299F1500S1000
X-1.3F7000S0
X-.401F1500S1000
X-11.599F7000S0
X-.7F1500S1000
X-8.201F7000S0
X-.699F1500S1000
X-10.5F7000S0
X-3.3F1500S1000
X-1.4F7000S0
X-.3F1500S1000
X-28.3F7000S0
X-3.4F1500S1000
X-1.3F7000S0
X-.3F1500S1000
X-11.8F7000S0
X-.6F1500S1000
X-8.1F7000S0
X-.7F1500S1000
X-10.5F7000S0
X-3.4F1500S1000
X-1.3F7000S0
X-.4F1500S1000
X-28.3F7000S0
X-3.3F1500S1000
X-1.4F7000S0
X-.3F1500S1000
X-11.7F7000S0
X-.6F1500S1000
X-8.2F7000S0
X-.6F1500S1000
X-10.6F7000S0
X-3.3F1500S1000
X-1.4F7000S0
X-.3F1500S1000
X-28.3F7000S0
X-3.4F1500S1000
X-1.3F7000S0
X-.3F1500S1000
X-11.7F7000S0
X-.7F1500S1000
X-8.1F7000S0
X-.7F1500S1000
X-10.5F7000S0
X-3.4F1500S1000
X-1.3F7000S0
X-.3F1500S1000
X-.625F7000S0
Y.1
X.625
X.3F1500S1000
X1.3F7000S0
X2.5F1500S1000
X.2F7000S0
X.7F1500S1000
X10.5F7000S0
X.6F1500S1000
X8.3F7000S0
X.6F1500S1000
X11.7F7000S0
X.3F1500S1000
X1.3F7000S0
X2.5F1500S1000
X.3F7000S0
X.6F1500S1000
X28.3F7000S0
X.3F1500S1000
X1.3F7000S0
X2.6F1500S1000
X.2F7000S0
X.7F1500S1000
X10.4F7000S0
X.7F1500S1000
X8.2F7000S0
X.7F1500S1000
X11.6F7000S0
X.3F1500S1000
X1.3F7000S0
X2.6F1500S1000
X.2F7000S0
X.7F1500S1000
X28.2F7000S0
X.4F1500S1000
X1.2F7000S0
X2.7F1500S1000
X.1F7000S0
X.7F1500S1000
X10.4F7000S0
X.7F1500S1000
X8.3F7000S0
X.6F1500S1000
X11.7F7000S0
X.3F1500S1000
X1.3F7000S0
X2.5F1500S1000
X.2F7000S0
X.7F1500S1000
X28.3F7000S0
X.4F1500S1000
X1.2F7000S0
X2.6F1500S1000
X.2F7000S0
X.7F1500S1000
X10.4F7000S0
X.6F1500S1000
X8.3F7000S0
X.7F1500S1000
X11.599F7000S0
X.401F1500S1000
X1.2F7000S0
X2.6F1500S1000
X.2F7000S0
X.7F1500S1000
X.625F7000S0
X.1Y.1
X-.625
X-.5F1500S1000
X-.701F7000S0
X-2.5F1500S1000
X-1.099F7000S0
X-.401F1500S1000
X-11.599F7000S0
X-.6F1500S1000
X-8.301F7000S0
X-.799F1500S1000
X-10.3F7000S0
X-.4F1500S1000
X-.7F7000S0
X-2.5F1500S1000
X-1.2F7000S0
X-.3F1500S1000
X-28.2F7000S0
X-.6F1500S1000
X-.6F7000S0
X-2.5F1500S1000
X-1.1F7000S0
X-.3F1500S1000
X-11.6F7000S0
X-.7F1500S1000
X-8.4F7000S0
X-.6F1500S1000
X-10.3F7000S0
X-.5F1500S1000
X-.7F7000S0
X-2.5F1500S1000
X-1.1F7000S0
X-.4F1500S1000
X-28.1F7000S0
X-.6F1500S1000
X-.6F7000S0
X-2.5F1500S1000
X-1.1F7000S0
X-.4F1500S1000
X-11.6F7000S0
X-.6F1500S1000
X-8.4F7000S0
X-.7F1500S1000
X-10.3F7000S0
X-.5F1500S1000
X-.6F7000S0
X-2.5F1500S1000
X-1.1F7000S0
X-.4F1500S1000
X-28.2F7000S0
X-.6F1500S1000
X-.5F7000S0
X-2.5F1500S1000
X-1.2F7000S0
X-.3F1500S1000
X-11.6F7000S0
X-.7F1500S1000
X-8.3F7000S0
X-.7F1500S1000
X-10.4F7000S0
X-.5F1500S1000
X-.5F7000S0
X-2.5F1500S1000
X-1.2F7000S0
X-.3F1500S1000
X-.625F7000S0
Y.1
X.625
X.4F1500S1000
X1F7000S0
X2.4F1500S1000
X.9F7000S0
X.4F1500S1000
X10.2F7000S0
X.7F1500S1000
X8.5F7000S0
X.6F1500S1000
X11.6F7000S0
X.4F1500S1000
X1F7000S0
X2.5F1500S1000
X.8F7000S0
X.4F1500S1000
X28.2F7000S0
X.4F1500S1000
X1F7000S0
X2.5F1500S1000
X.8F7000S0
X.4F1500S1000
X10.3F7000S0
X.6F1500S1000
X8.5F7000S0
X.7F1500S1000
X11.5F7000S0
X.4F1500S1000
X1F7000S0
X2.5F1500S1000
X.8F7000S0
X.4F1500S1000
X28.3F7000S0
X.4F1500S1000
X.9F7000S0
X2.5F1500S1000
X.9F7000S0
X.4F1500S1000
X10.2F7000S0
X.7F1500S1000
X8.5F7000S0
X.6F1500S1000
X11.6F7000S0
X.4F1500S1000
X.9F7000S0
X2.5F1500S1000
X.9F7000S0
X.4F1500S1000
X28.2F7000S0
X.4F1500S1000
X1F7000S0
X2.5F1500S1000
X.8F7000S0
X.4F1500S1000
X10.3F7000S0
X.6F1500S1000
X8.5F7000S0
X.7F1500S1000
X11.6F7000S0
X.3F1500S1000
X1F7000S0
X2.5F1500S1000
X.8F7000S0
X.5F1500S1000
X.625F7000S0
X-.1Y.1
X-.625
X-.3F1500S1000
X-1.1F7000S0
X-.9F1500S1000
X-.9F7000S0
X-.6F1500S1000
X-.7F7000S0
X-.5F1500S1000
X-11.601F7000S0
X-.599F1500S1000
X-8.7F7000S0
X-.6F1500S1000
X-10.2F7000S0
X-.3F1500S1000
X-1.1F7000S0
X-.8F1500S1000
X-1.1F7000S0
X-.5F1500S1000
X-.8F7000S0
X-.4F1500S1000
X-28.3F7000S0
X-.3F1500S1000
X-1.1F7000S0
X-.9F1500S1000
X-1F7000S0
X-.6F1500S1000
X-.6F7000S0
X-.1F1500S1000
X-.1F7000S0
X-.4F1500S1000
X-11.5F7000S0
X-.7F1500S1000
X-8.6F7000S0
X-.7F1500S1000
X-10.1F7000S0
X-.4F1500S1000
X-1.1F7000S0
X-.8F1500S1000
X-1F7000S0
X-.6F1500S1000
X-.7F7000S0
X-.5F1500S1000
X-28.2F7000S0
X-.4F1500S1000
X-1.1F7000S0
X-.9F1500S1000
X-.9F7000S0
X-.6F1500S1000
X-.7F7000S0
X-.5F1500S1000
X-11.6F7000S0
X-.6F1500S1000
X-8.6F7000S0
X-.7F1500S1000
X-10.1F7000S0
X-.4F1500S1000
X-1.1F7000S0
X-.9F1500S1000
X-.9F7000S0
X-.7F1500S1000
X-.6F7000S0
X-.5F1500S1000
X-28.4F7000S0
X-.3F1500S1000
X-1F7000S0
X-.9F1500S1000
X-1F7000S0
X-.6F1500S1000
X-.8F7000S0
X-.4F1500S1000
X-11.5F7000S0
X-.7F1500S1000
X-8.6F7000S0
X-.6F1500S1000
X-10.2F7000S0
X-.3F1500S1000
X-1.1F7000S0
X-1F1500S1000
X-.9F7000S0
X-.5F1500S1000
X-.9F7000S0
X-.4F1500S1000
X-.625F7000S0
Y.1
X.625
X.8F1500S1000
X.1F7000S0
X.8F1500S1000
X1.1F7000S0
X.8F1500S1000
X1.2F7000S0
X.3F1500S1000
X10.1F7000S0
X.7F1500S1000
X8.7F7000S0
X.7F1500S1000
X11.4F7000S0
X.8F1500S1000
X.1F7000S0
X.8F1500S1000
X1.2F7000S0
X.7F1500S1000
X1.2F7000S0
X.3F1500S1000
X28.2F7000S0
X.7F1500S1000
X.1F7000S0
X.9F1500S1000
X1.2F7000S0
X.7F1500S1000
X1.2F7000S0
X.3F1500S1000
X10.1F7000S0
X.7F1500S1000
X8.7F7000S0
X.7F1500S1000
X11.4F7000S0
X.7F1500S1000
X.1F7000S0
X.9F1500S1000
X1.2F7000S0
X.7F1500S1000
X1.2F7000S0
X.3F1500S1000
X28.3F7000S0
X.8F1500S1000
X.1F7000S0
X.7F1500S1000
X1.2F7000S0
X.7F1500S1000
X1.2F7000S0
X.4F1500S1000
X10.1F7000S0
X.6F1500S1000
X8.8F7000S0
X.7F1500S1000
X11.4F7000S0
X.7F1500S1000
X.1F7000S0
X.2F1500S1000
X.1F7000S0
X.5F1500S1000
X1.2F7000S0
X.8F1500S1000
X1.2F7000S0
X.3F1500S1000
X28.2F7000S0
X.8F1500S1000
X.1F7000S0
X.8F1500S1000
X1.2F7000S0
X.7F1500S1000
X1.2F7000S0
X.4F1500S1000
X10F7000S0
X.8F1500S1000
X8.7F7000S0
X.6F1500S1000
X11.399F7000S0
X.8F1500S1000
X.1F7000S0
X.8F1500S1000
X1.3F7000S0
X.6F1500S1000
X1.2F7000S0
X.4F1500S1000
X.625F7000S0
Y.1
X-.625
X-.4F1500S1000
X-1.3F7000S0
X-.5F1500S1000
X-1.4F7000S0
X-1.7F1500S1000
X-11.2F7000S0
X-.7F1500S1000
X-8.8F7000S0
X-.7F1500S1000
X-10.1F7000S0
X-.3F1500S1000
X-1.3F7000S0
X-.5F1500S1000
X-1.4F7000S0
X-1.7F1500S1000
X-28.1F7000S0
X-.3F1500S1000
X-1.3F7000S0
X-.6F1500S1000
X-1.4F7000S0
X-1.7F1500S1000
X-11.1F7000S0
X-.8F1500S1000
X-8.8F7000S0
X-.7F1500S1000
X-10.1F7000S0
X-.3F1500S1000
X-1.2F7000S0
X-.6F1500S1000
X-1.4F7000S0
X-1.8F1500S1000
X-27.9F7000S0
X-.4F1500S1000
X-1.3F7000S0
X-.5F1500S1000
X-1.4F7000S0
X-1.8F1500S1000
X-11.2F7000S0
X-.6F1500S1000
X-8.9F7000S0
X-.6F1500S1000
X-10.1F7000S0
X-.3F1500S1000
X-1.3F7000S0
X-.5F1500S1000
X-1.4F7000S0
X-1.8F1500S1000
X-28F7000S0
X-.3F1500S1000
X-1.3F7000S0
X-.5F1500S1000
X-1.4F7000S0
X-1.9F1500S1000
X-11.1F7000S0
X-.7F1500S1000
X-8.8F7000S0
X-.7F1500S1000
X-10F7000S0
X-.3F1500S1000
X-1.3F7000S0
X-.6F1500S1000
X-1.3F7000S0
X-1.9F1500S1000
X-.625F7000S0
X-.1Y.1
X.625
X1.9F1500S1000
X1.5F7000S0
X.4F1500S1000
X1.4F7000S0
X.2F1500S1000
X10.1F7000S0
X.6F1500S1000
X9F7000S0
X.7F1500S1000
X10.9F7000S0
X1.9F1500S1000
X1.5F7000S0
X.4F1500S1000
X1.4F7000S0
X.3F1500S1000
X27.9F7000S0
X1.8F1500S1000
X1.6F7000S0
X.4F1500S1000
X1.3F7000S0
X.4F1500S1000
X9.9F7000S0
X.7F1500S1000
X9F7000S0
X.6F1500S1000
X11F7000S0
X1.8F1500S1000
X1.6F7000S0
X.4F1500S1000
X1.3F7000S0
X.3F1500S1000
X27.9F7000S0
X1.8F1500S1000
X1.6F7000S0
X.4F1500S1000
X1.3F7000S0
X.4F1500S1000
X10F7000S0
X.6F1500S1000
X9F7000S0
X.6F1500S1000
X11F7000S0
X1.9F1500S1000
X1.5F7000S0
X.4F1500S1000
X1.4F7000S0
X.3F1500S1000
X27.9F7000S0
X1.8F1500S1000
X1.6F7000S0
X.4F1500S1000
X1.3F7000S0
X.3F1500S1000
X10.1F7000S0
X.6F1500S1000
X8.9F7000S0
X.8F1500S1000
X10.9F7000S0
X1.8F1500S1000
X1.6F7000S0
X.4F1500S1000
X1.3F7000S0
X.3F1500S1000
X.625F7000S0
X.1Y.1
X-.625
X-.4F1500S1000
X-1.3F7000S0
X-.5F1500S1000
X-1.5F7000S0
X-2F1500S1000
X-10.7F7000S0
X-.7F1500S1000
X-9.1F7000S0
X-.6F1500S1000
X-10F7000S0
X-.3F1500S1000
X-1.3F7000S0
X-.5F1500S1000
X-1.5F7000S0
X-2F1500S1000
X-27.8F7000S0
X-.3F1500S1000
X-1.3F7000S0
X-.4F1500S1000
X-1.6F7000S0
X-2F1500S1000
X-10.7F7000S0
X-.6F1500S1000
X-9.1F7000S0
X-.7F1500S1000
X-9.9F7000S0
X-.4F1500S1000
X-1.3F7000S0
X-.4F1500S1000
X-1.6F7000S0
X-2F1500S1000
X-27.6F7000S0
X-.4F1500S1000
X-1.4F7000S0
X-.4F1500S1000
X-1.5F7000S0
X-2F1500S1000
X-10.7F7000S0
X-.7F1500S1000
X-9.1F7000S0
X-.6F1500S1000
X-10F7000S0
X-.3F1500S1000
X-1.4F7000S0
X-.4F1500S1000
X-1.5F7000S0
X-2F1500S1000
X-27.7F7000S0
X-.3F1500S1000
X-1.4F7000S0
X-.4F1500S1000
X-1.6F7000S0
X-1.9F1500S1000
X-10.8F7000S0
X-.6F1500S1000
X-9.1F7000S0
X-.7F1500S1000
X-9.9F7000S0
X-.4F1500S1000
X-1.3F7000S0
X-.4F1500S1000
X-1.6F7000S0
X-2F1500S1000
X-.625F7000S0
X-.1Y.1
X.625
X.5F1500S1000
X.8F7000S0
X.8F1500S1000
X1.6F7000S0
X.3F1500S1000
X1.4F7000S0
X.3F1500S1000
X10F7000S0
X.6F1500S1000
X9.2F7000S0
X.7F1500S1000
X10.5F7000S0
X.5F1500S1000
X.8F7000S0
X.8F1500S1000
X1.7F7000S0
X.3F1500S1000
X1.3F7000S0
X.3F1500S1000
X27.6F7000S0
X.6F1500S1000
X.8F7000S0
X.7F1500S1000
X1.7F7000S0
X.3F1500S1000
X1.3F7000S0
X.4F1500S1000
X9.9F7000S0
X.7F1500S1000
X9.2F7000S0
X.6F1500S1000
X10.5F7000S0
X.6F1500S1000
X.8F7000S0
X.7F1500S1000
X1.7F7000S0
X.3F1500S1000
X1.3F7000S0
X.4F1500S1000
X27.5F7000S0
X.6F1500S1000
X.8F7000S0
X.7F1500S1000
X1.7F7000S0
X.3F1500S1000
X1.4F7000S0
X.3F1500S1000
X10F7000S0
X.6F1500S1000
X9.2F7000S0
X.8F1500S1000
X10.4F7000S0
X.5F1500S1000
X.8F7000S0
X.8F1500S1000
X1.6F7000S0
X.4F1500S1000
X1.3F7000S0
X.4F1500S1000
X27.5F7000S0
X.5F1500S1000
X.9F7000S0
X.7F1500S1000
X1.7F7000S0
X.3F1500S1000
X1.3F7000S0
X.3F1500S1000
X10F7000S0
X.7F1500S1000
X9.2F7000S0
X.6F1500S1000
X10.5F7000S0
X.6F1500S1000
X.8F7000S0
X.7F1500S1000
X1.7F7000S0
X.3F1500S1000
X1.3F7000S0
X.4F1500S1000
X.625F7000S0
X-.1Y.1
X-.625
X-.3F1500S1000
X-1.3F7000S0
X-.3F1500S1000
X-1.7F7000S0
X-.6F1500S1000
X-1.1F7000S0
X-.5F1500S1000
X-10.2F7000S0
X-.7F1500S1000
X-9.4F7000S0
X-.7F1500S1000
X-9.9F7000S0
X-.3F1500S1000
X-1.3F7000S0
X-.3F1500S1000
X-1.7F7000S0
X-.6F1500S1000
X-1.1F7000S0
X-.5F1500S1000
X-27.6F7000S0
X-.2F1500S1000
X-1.3F7000S0
X-.4F1500S1000
X-1.7F7000S0
X-.5F1500S1000
X-1.1F7000S0
X-.5F1500S1000
X-10.4F7000S0
X-.6F1500S1000
X-9.4F7000S0
X-.6F1500S1000
X-10F7000S0
X-.3F1500S1000
X-1.2F7000S0
X-.4F1500S1000
X-1.7F7000S0
X-.5F1500S1000
X-1.2F7000S0
X-.5F1500S1000
X-27.5F7000S0
X-.3F1500S1000
X-1.3F7000S0
X-.3F1500S1000
X-1.7F7000S0
X-.6F1500S1000
X-1.1F7000S0
X-.5F1500S1000
X-10.3F7000S0
X-.7F1500S1000
X-9.3F7000S0
X-.7F1500S1000
X-9.9F7000S0
X-.3F1500S1000
X-1.3F7000S0
X-.3F1500S1000
X-1.7F7000S0
X-.6F1500S1000
X-1.1F7000S0
X-.5F1500S1000
X-27.5F7000S0
X-.3F1500S1000
X-1.3F7000S0
X-.4F1500S1000
X-1.7F7000S0
X-.5F1500S1000
X-1.1F7000S0
X-.5F1500S1000
X-10.3F7000S0
X-.7F1500S1000
X-9.4F7000S0
X-.6F1500S1000
X-9.9F7000S0
X-.3F1500S1000
X-1.3F7000S0
X-.4F1500S1000
X-1.7F7000S0
X-.5F1500S1000
X-1.1F7000S0
X-.5F1500S1000
X-.625F7000S0
X-.1Y.1
X.625
X.5F1500S1000
X1.2F7000S0
X.5F1500S1000
X1.7F7000S0
X.4F1500S1000
X1.2F7000S0
X.3F1500S1000
X9.9F7000S0
X.7F1500S1000
X9.5F7000S0
X.6F1500S1000
X10.2F7000S0
X.5F1500S1000
X1.2F7000S0
X.5F1500S1000
X1.7F7000S0
X.4F1500S1000
X1.2F7000S0
X.3F1500S1000
X27.5F7000S0
X.5F1500S1000
X1.2F7000S0
X.5F1500S1000
X1.7F7000S0
X.5F1500S1000
X1.2F7000S0
X.2F1500S1000
X10F7000S0
X.6F1500S1000
X9.6F7000S0
X.6F1500S1000
X10.1F7000S0
X.5F1500S1000
X1.2F7000S0
X.5F1500S1000
X1.7F7000S0
X.5F1500S1000
X1.2F7000S0
X.2F1500S1000
X27.6F7000S0
X.4F1500S1000
X1.3F7000S0
X.5F1500S1000
X1.6F7000S0
X.5F1500S1000
X1.2F7000S0
X.2F1500S1000
X10F7000S0
X.7F1500S1000
X9.5F7000S0
X.7F1500S1000
X10.1F7000S0
X.5F1500S1000
X1.2F7000S0
X.5F1500S1000
X1.7F7000S0
X.4F1500S1000
X1.2F7000S0
X.3F1500S1000
X27.5F7000S0
X.5F1500S1000
X1.2F7000S0
X.5F1500S1000
X1.8F7000S0
X.4F1500S1000
X1.2F7000S0
X.2F1500S1000
X9.9F7000S0
X.7F1500S1000
X9.5F7000S0
X.6F1500S1000
X10.2F7000S0
X.5F1500S1000
X1.2F7000S0
X.5F1500S1000
X1.7F7000S0
X.5F1500S1000
X1.2F7000S0
X.2F1500S1000
X.625F7000S0
Y.1
X-.625
X-.3F1500S1000
X-1.1F7000S0
X-.5F1500S1000
X-1.6F7000S0
X-.5F1500S1000
X-1.4F7000S0
X-.4F1500S1000
X-10.1F7000S0
X-.6F1500S1000
X-9.7F7000S0
X-.6F1500S1000
X-9.9F7000S0
X-.3F1500S1000
X-1.1F7000S0
X-.5F1500S1000
X-1.6F7000S0
X-.5F1500S1000
X-1.4F7000S0
X-.4F1500S1000
X-27.6F7000S0
X-.3F1500S1000
X-1F7000S0
X-.6F1500S1000
X-1.6F7000S0
X-.5F1500S1000
X-1.3F7000S0
X-.5F1500S1000
X-10F7000S0
X-.6F1500S1000
X-9.7F7000S0
X-.7F1500S1000
X-9.9F7000S0
X-.2F1500S1000
X-1.2F7000S0
X-.5F1500S1000
X-1.6F7000S0
X-.5F1500S1000
X-1.3F7000S0
X-.5F1500S1000
X-27.5F7000S0
X-.3F1500S1000
X-1.1F7000S0
X-.5F1500S1000
X-1.7F7000S0
X-.4F1500S1000
X-1.4F7000S0
X-.4F1500S1000
X-10.1F7000S0
X-.6F1500S1000
X-9.6F7000S0
X-.7F1500S1000
X-9.9F7000S0
X-.3F1500S1000
X-1.1F7000S0
X-.5F1500S1000
X-1.7F7000S0
X-.4F1500S1000
X-1.4F7000S0
X-.4F1500S1000
X-27.6F7000S0
X-.3F1500S1000
X-1F7000S0
X-.6F1500S1000
X-1.6F7000S0
X-.5F1500S1000
X-1.3F7000S0
X-.5F1500S1000
X-10F7000S0
X-.6F1500S1000
X-9.7F7000S0
X-.6F1500S1000
X-10F7000S0
X-.3F1500S1000
X-1F7000S0
X-.6F1500S1000
X-1.6F7000S0
X-.5F1500S1000
X-1.3F7000S0
X-.5F1500S1000
X-.625F7000S0
Y.1
X.625
X.5F1500S1000
X1.4F7000S0
X.4F1500S1000
X1.5F7000S0
X.8F1500S1000
X.8F7000S0
X.4F1500S1000
X9.9F7000S0
X.7F1500S1000
X9.7F7000S0
X.6F1500S1000
X10F7000S0
X.5F1500S1000
X1.4F7000S0
X.4F1500S1000
X1.6F7000S0
X.7F1500S1000
X.8F7000S0
X.4F1500S1000
X27.5F7000S0
X.5F1500S1000
X1.4F7000S0
X.5F1500S1000
X1.5F7000S0
X.7F1500S1000
X.8F7000S0
X.4F1500S1000
X9.9F7000S0
X.7F1500S1000
X9.7F7000S0
X.7F1500S1000
X9.9F7000S0
X.5F1500S1000
X1.4F7000S0
X.5F1500S1000
X1.5F7000S0
X.7F1500S1000
X.9F7000S0
X.3F1500S1000
X27.6F7000S0
X.4F1500S1000
X1.5F7000S0
X.5F1500S1000
X1.4F7000S0
X.8F1500S1000
X.8F7000S0
X.3F1500S1000
X10F7000S0
X.6F1500S1000
X9.8F7000S0
X.7F1500S1000
X10F7000S0
X.3F1500S1000
X1.5F7000S0
X.5F1500S1000
X1.4F7000S0
X.8F1500S1000
X.8F7000S0
X.4F1500S1000
X27.6F7000S0
X.4F1500S1000
X1.4F7000S0
X.5F1500S1000
X1.5F7000S0
X.7F1500S1000
X.8F7000S0
X.4F1500S1000
X9.9F7000S0
X.8F1500S1000
X9.7F7000S0
X.6F1500S1000
X10F7000S0
X.4F1500S1000
X1.4F7000S0
X.5F1500S1000
X1.5F7000S0
X.7F1500S1000
X.8F7000S0
X.4F1500S1000
X.625F7000S0
X.4Y.1
X-.625
X-2.4F1500S1000
X-1.4F7000S0
X-.5F1500S1000
X-1.5F7000S0
X-.3F1500S1000
X-9.9F7000S0
X-.7F1500S1000
X-9.9F7000S0
X-.6F1500S1000
X-9.6F7000S0
X-2.3F1500S1000
X-1.4F7000S0
X-.5F1500S1000
X-1.5F7000S0
X-.4F1500S1000
X-27.2F7000S0
X-.9F1500S1000
X-.1F7000S0
X-1.4F1500S1000
X-1.3F7000S0
X-.5F1500S1000
X-1.5F7000S0
X-.4F1500S1000
X-9.9F7000S0
X-.7F1500S1000
X-9.8F7000S0
X-.7F1500S1000
X-9.5F7000S0
X-.9F1500S1000
X-.1F7000S0
X-1.4F1500S1000
X-1.3F7000S0
X-.6F1500S1000
X-1.4F7000S0
X-.4F1500S1000
X-27.2F7000S0
X-2.4F1500S1000
X-1.4F7000S0
X-.5F1500S1000
X-1.5F7000S0
X-.3F1500S1000
X-10F7000S0
X-.6F1500S1000
X-9.9F7000S0
X-.6F1500S1000
X-9.5F7000S0
X-2.4F1500S1000
X-1.4F7000S0
X-.5F1500S1000
X-1.5F7000S0
X-.3F1500S1000
X-27.3F7000S0
X-1.2F1500S1000
X-.1F7000S0
X-1F1500S1000
X-1.4F7000S0
X-.5F1500S1000
X-1.5F7000S0
X-.3F1500S1000
X-10F7000S0
X-.7F1500S1000
X-9.8F7000S0
