; LightBurn Pro 2.0.05
; GRBL device profile, absolute coords
; Bounds: X0.82 Y1.75 to X302.54 Y211.61
G00 G17 G40 G21 G54
G90
M4
; Image @ 7500 мм/мин, 80% power
M8
G0 X23.178Y51.749
; Layer C00
G91
G0 X3.125
G1 X0.35F7500S800
G1 X3.29S0
G1 X0.28S800
G1 X19.53S0
G1 X0.49S800
G1 X6.37S0
G1 X0.63S800
G1 X3.36S0
G1 X2.38S800
G1 X5.46S0
G1 X1.26S800
G1 X3.92S0
G1 X0.7S800
G1 X1.54S0
G1 X0.98S800
G1 X1.12S0
G1 X2.17S800
G1 X84.07S0
G1 X0.49S800
G1 X5.6S0
G1 X0.21S800
G1 X0.49S0
G1 X0.7S800
G1 X0.49S0
G1 X0.49S800
G1 X5.6S0
G1 X0.77S800
G1 X0.98S0
G1 X0.7S800
G1 X7.28S0
G1 X0.49S800
G1 X0.98S0
G1 X0.7S800
G1 X8.47S0
G1 X0.28S800
G1 X3.64S0
G1 X0.84S800
G1 X1.54S0
G1 X0.84S800
G1 X3.22S0
G1 X0.42S800
G1 X2.17S0
G1 X0.63S800
G1 X2.73S0
G1 X0.77S800
G1 X0.21S0
G1 X1.4S800
G1 X0.84S0
G1 X0.49S800
G1 X10.71S0
G1 X0.56S800
G1 X2.52S0
G1 X0.49S800
G1 X3.5S0
G1 X0.7S800
G1 X2.45S0
G1 X0.21S800
G1 X0.77S0
G1 X0.42S800
G1 X0.77S0
G1 X1.19S800
G1 X0.56S0
G1 X0.7S800
G1 X0.21S0
G1 X1.26S800
G1 X0.98S0
G1 X0.49S800
G1 X10.43S0
G1 X0.42S800
G1 X3.22S0
G1 X0.49S800
G1 X6.37S0
G1 X0.14S800
G1 X1.26S0
G1 X0.28S800
G0 X3.125
G0 X-0.07Y0.07
G0 X-3.125
G1 X-0.21
G1 X-1.26S0
G1 X-0.14S800
G1 X-6.37S0
G1 X-0.49S800
G1 X-3.22S0
G1 X-0.42S800
G1 X-10.43S0
G1 X-0.49S800
G1 X-0.98S0
G1 X-1.26S800
G1 X-0.21S0
G1 X-0.7S800
G1 X-0.56S0
G1 X-1.19S800
G1 X-0.77S0
G1 X-0.42S800
G1 X-0.77S0
G1 X-0.21S800
G1 X-2.45S0
G1 X-0.7S800
G1 X-3.5S0
G1 X-0.56S800
G1 X-2.45S0
G1 X-0.56S800
G1 X-10.71S0
G1 X-0.49S800
G1 X-0.91S0
G1 X-1.33S800
G1 X-0.21S0
G1 X-0.63S800
G1 X-3.01S0
G1 X-0.49S800
G1 X-2.24S0
G1 X-0.42S800
G1 X-3.08S0
G1 X-0.84S800
G1 X-1.61S0
G1 X-0.77S800
G1 X-3.71S0
G1 X-0.21S800
G1 X-8.54S0
G1 X-0.7S800
G1 X-0.98S0
G1 X-0.49S800
G1 X-7.28S0
G1 X-0.7S800
G1 X-0.98S0
G1 X-0.77S800
G1 X-5.6S0
G1 X-0.49S800
G1 X-0.42S0
G1 X-0.77S800
G1 X-0.49S0
G1 X-0.14S800
G1 X-5.67S0
G1 X-0.49S800
G1 X-84.21S0
G1 X-2.17S800
G1 X-0.91S0
G1 X-1.26S800
G1 X-1.54S0
G1 X-0.7S800
G1 X-3.78S0
G1 X-1.19S800
G1 X-5.74S0
G1 X-2.1S800
G1 X-3.36S0
G1 X-0.7S800
G1 X-6.37S0
G1 X-0.49S800
G1 X-19.46S0
G1 X-0.28S800
G1 X-3.29S0
G1 X-0.35S800
G0 X-3.125
G0 Y0.07
G0 X3.125
G1 X0.28
G1 X3.43S0
G1 X0.21S800
G1 X19.6S0
G1 X0.42S800
G1 X6.23S0
G1 X0.77S800
G1 X3.36S0
G1 X2.17S800
G1 X5.74S0
G1 X1.12S800
G1 X3.92S0
G1 X0.63S800
G1 X1.47S0
G1 X1.26S800
G1 X0.98S0
G1 X2.17S800
G1 X84.14S0
G1 X0.49S800
G1 X5.6S0
G1 X0.21S800
G1 X0.49S0
G1 X0.7S800
G1 X0.56S0
G1 X0.42S800
G1 X5.6S0
G1 X0.77S800
G1 X0.91S0
G1 X0.77S800
G1 X7.28S0
G1 X0.49S800
G1 X0.98S0
G1 X0.7S800
G1 X8.54S0
G1 X0.21S800
G1 X3.64S0
G1 X0.77S800
G1 X1.68S0
G1 X0.77S800
G1 X3.15S0
G1 X0.49S800
G1 X2.17S0
G1 X0.49S800
G1 X2.94S0
G1 X0.7S800
G1 X0.21S0
G1 X1.33S800
G1 X0.98S0
G1 X0.35S800
G1 X10.78S0
G1 X0.56S800
G1 X2.45S0
G1 X0.63S800
G1 X3.43S0
G1 X0.7S800
G1 X2.45S0
G1 X0.21S800
G1 X0.77S0
G1 X0.42S800
G1 X0.77S0
G1 X1.19S800
G1 X0.56S0
G1 X0.7S800
G1 X0.21S0
G1 X1.26S800
G1 X0.98S0
G1 X0.49S800
G1 X10.43S0
G1 X0.42S800
G1 X3.15S0
G1 X0.56S800
G1 X6.37S0
G1 X0.14S800
G1 X1.26S0
G1 X0.28S800
G0 X3.125
G0 Y0.07
G0 X-3.125
G1 X-0.28
G1 X-1.26S0
G1 X-0.14S800
G1 X-6.37S0
G1 X-0.63S800
G1 X-3.08S0
G1 X-0.42S800
G1 X-10.5S0
G1 X-0.49S800
G1 X-0.91S0
G1 X-1.33S800
G1 X-0.14S0
G1 X-0.77S800
G1 X-0.49S0
G1 X-0.21S800
G1 X-0.07S0
G1 X-0.07S800
G1 X-0.07S0
G1 X-0.77S800
G1 X-0.77S0
G1 X-0.42S800
G1 X-0.84S0
G1 X-0.14S800
G1 X-1.26S0
G1 X-0.14S800
G1 X-0.98S0
G1 X-0.77S800
G1 X-3.5S0
G1 X-0.49S800
G1 X-2.52S0
G1 X-0.56S800
G1 X-10.71S0
G1 X-0.49S800
G1 X-0.84S0
G1 X-1.33S800
G1 X-0.28S0
G1 X-0.77S800
G1 X-0.14S0
G1 X-0.07S800
G1 X-0.07S0
G1 X-0.07S800
G1 X-0.07S0
G1 X-0.07S800
G1 X-0.07S0
G1 X-0.07S800
G1 X-0.07S0
G1 X-0.07S800
G1 X-0.07S0
G1 X-0.07S800
G1 X-0.07S0
G1 X-0.07S800
G1 X-0.07S0
G1 X-0.07S800
G1 X-0.07S0
G1 X-0.07S800
G1 X-0.14S0
G1 X-0.07S800
G1 X-0.07S0
G1 X-0.07S800
G1 X-0.07S0
G1 X-0.07S800
G1 X-1.05S0
G1 X-0.49S800
G1 X-2.17S0
G1 X-0.49S800
G1 X-3.15S0
G1 X-0.84S800
G1 X-1.61S0
G1 X-0.91S800
G1 X-0.07S0
G1 X-0.07S800
G1 X-3.36S0
G1 X-0.42S800
G1 X-8.33S0
G1 X-0.7S800
G1 X-0.98S0
G1 X-0.49S800
G1 X-7.28S0
G1 X-0.77S800
G1 X-0.98S0
G1 X-0.7S800
G1 X-5.6S0
G1 X-0.49S800
G1 X-0.63S0
G1 X-0.56S800
G1 X-0.49S0
G1 X-0.14S800
G1 X-5.67S0
G1 X-0.49S800
G1 X-83.93S0
G1 X-2.24S800
G1 X-0.07S0
G1 X-0.07S800
G1 X-0.91S0
G1 X-0.91S800
G1 X-0.07S0
G1 X-0.07S800
G1 X-1.54S0
G1 X-0.63S800
G1 X-4.06S0
G1 X-1.12S800
G1 X-3.43S0
G1 X-0.07S800
G1 X-0.14S0
G1 X-0.07S800
G1 X-0.14S0
G1 X-0.07S800
G1 X-0.07S0
G1 X-0.07S800
G1 X-0.07S0
G1 X-0.07S800
G1 X-1.4S0
G1 X-2.52S800
G1 X-3.15S0
G1 X-0.77S800
G1 X-6.23S0
G1 X-0.49S800
G1 X-1.33S0
G1 X-0.07S800
G1 X-4.9S0
G1 X-0.07S800
G1 X-7.91S0
G1 X-0.28S800
G1 X-1.61S0
G1 X-0.14S800
G1 X-6.93S0
G1 X-0.28S800
G0 X-3.125
G0 X-0.07Y0.07
G0 X3.125
G1 X0.35
G1 X6.93S0
G1 X0.14S800
G1 X1.54S0
G1 X0.35S800
G1 X7.84S0
G1 X0.14S800
G1 X4.76S0
G1 X0.21S800
G1 X1.47S0
G1 X0.42S800
G1 X6.37S0
G1 X0.63S800
G1 X3.01S0
G1 X2.87S800
G1 X1.05S0
G1 X0.98S800
G1 X3.29S0
G1 X1.19S800
G1 X4.13S0
G1 X0.7S800
G1 X1.54S0
G1 X0.91S800
G1 X1.05S0
G1 X2.45S800
G1 X83.65S0
G1 X0.49S800
G1 X5.6S0
G1 X0.21S800
G1 X0.49S0
G1 X0.49S800
G1 X0.7S0
G1 X0.49S800
G1 X5.6S0
G1 X0.77S800
G1 X0.98S0
G1 X0.63S800
G1 X7.35S0
G1 X0.49S800
G1 X0.98S0
G1 X0.7S800
G1 X8.33S0
G1 X0.49S800
G1 X3.15S0
G1 X1.19S800
G1 X1.54S0
G1 X0.91S800
G1 X3.15S0
G1 X0.42S800
G1 X2.31S0
G1 X0.63S800
G1 X0.77S0
G1 X2.73S800
G1 X0.14S0
G1 X1.47S800
G1 X0.84S0
G1 X0.42S800
G1 X10.78S0
G1 X0.63S800
G1 X2.38S0
G1 X0.56S800
G1 X3.5S0
G1 X0.63S800
G1 X0.98S0
G1 X0.21S800
G1 X1.26S0
G1 X0.21S800
G1 X0.77S0
G1 X0.42S800
G1 X0.84S0
G1 X0.63S800
G1 X0.28S0
G1 X0.21S800
G1 X0.56S0
G1 X0.7S800
G1 X0.14S0
G1 X1.33S800
G1 X0.91S0
G1 X0.49S800
G1 X10.5S0
G1 X0.42S800
G1 X3.01S0
G1 X0.63S800
G1 X6.44S0
G1 X0.14S800
G1 X1.19S0
G1 X0.28S800
G0 X3.125
G0 Y0.07
G0 X-3.125
G1 X-0.28
G1 X-1.19S0
G1 X-0.14S800
G1 X-6.44S0
G1 X-0.7S800
G1 X-2.94S0
G1 X-0.42S800
G1 X-10.57S0
G1 X-0.42S800
G1 X-0.91S0
G1 X-1.33S800
G1 X-0.14S0
G1 X-0.7S800
G1 X-0.56S0
G1 X-0.21S800
G1 X-0.28S0
G1 X-0.7S800
G1 X-0.77S0
G1 X-0.42S800
G1 X-0.77S0
G1 X-0.28S800
G1 X-1.19S0
G1 X-0.21S800
G1 X-0.91S0
G1 X-0.7S800
G1 X-3.5S0
G1 X-0.56S800
G1 X-2.38S0
G1 X-0.63S800
G1 X-10.71S0
G1 X-0.56S800
G1 X-0.77S0
G1 X-1.47S800
G1 X-0.21S0
G1 X-2.66S800
G1 X-0.77S0
G1 X-0.63S800
G1 X-2.31S0
G1 X-0.49S800
G1 X-3.15S0
G1 X-0.91S800
G1 X-1.54S0
G1 X-1.12S800
G1 X-3.22S0
G1 X-0.42S800
G1 X-8.26S0
G1 X-0.77S800
G1 X-0.98S0
G1 X-0.49S800
G1 X-7.35S0
G1 X-0.7S800
G1 X-0.91S0
G1 X-0.77S800
G1 X-5.53S0
G1 X-0.49S800
G1 X-0.77S0
G1 X-0.49S800
G1 X-0.49S0
G1 X-0.14S800
G1 X-5.67S0
G1 X-0.49S800
G1 X-83.51S0
G1 X-2.52S800
G1 X-0.91S0
G1 X-0.91S800
G1 X-1.54S0
G1 X-0.77S800
G1 X-4.13S0
G1 X-1.26S800
G1 X-3.36S0
G1 X-0.98S800
G1 X-0.98S0
G1 X-3.01S800
G1 X-2.8S0
G1 X-0.63S800
G1 X-6.51S0
G1 X-0.42S800
G1 X-1.47S0
G1 X-0.28S800
G1 X-4.55S0
G1 X-0.28S800
G1 X-7.84S0
G1 X-0.42S800
G1 X-1.47S0
G1 X-0.21S800
G1 X-6.93S0
G1 X-0.28S800
G0 X-3.125
G0 X-0.07Y0.07
G0 X3.125
G1 X0.28
G1 X3.43S0
G1 X0.07S800
G1 X3.57S0
G1 X0.14S800
G1 X1.33S0
G1 X0.49S800
G1 X7.91S0
G1 X0.28S800
G1 X2.31S0
G1 X0.07S800
G1 X2.17S0
G1 X0.28S800
G1 X1.47S0
G1 X0.49S800
G1 X4.27S0
G1 X0.07S800
G1 X2.17S0
G1 X0.91S800
G1 X2.45S0
G1 X3.29S800
G1 X0.7S0
G1 X0.77S800
G1 X0.07S0
G1 X0.07S800
G1 X3.43S0
G1 X1.61S800
G1 X3.92S0
G1 X0.77S800
G1 X1.61S0
G1 X0.7S800
G1 X1.19S0
G1 X2.45S800
G1 X83.3S0
G1 X0.49S800
G1 X5.6S0
G1 X0.21S800
G1 X0.49S0
G1 X0.49S800
G1 X0.7S0
G1 X0.49S800
G1 X5.6S0
G1 X0.7S800
G1 X1.05S0
G1 X0.56S800
G1 X7.42S0
G1 X0.49S800
G1 X0.98S0
G1 X0.7S800
G1 X8.33S0
G1 X0.42S800
G1 X3.15S0
G1 X1.05S800
G1 X1.68S0
G1 X0.91S800
G1 X3.08S0
G1 X0.49S800
G1 X2.38S0
G1 X0.7S800
G1 X1.4S0
G1 X1.19S800
G1 X0.14S0
G1 X0.63S800
G1 X0.28S0
G1 X1.4S800
G1 X0.84S0
G1 X0.42S800
G1 X10.85S0
G1 X0.56S800
G1 X2.38S0
G1 X0.56S800
G1 X3.5S0
G1 X0.77S800
G1 X0.84S0
G1 X0.21S800
G1 X1.19S0
G1 X0.21S800
G1 X0.84S0
G1 X0.35S800
G1 X0.84S0
G1 X0.63S800
G1 X0.35S0
G1 X0.21S800
G1 X0.56S0
G1 X0.7S800
G1 X0.14S0
G1 X1.33S800
G1 X0.84S0
G1 X0.49S800
G1 X10.57S0
G1 X0.42S800
G1 X2.94S0
G1 X0.63S800
G1 X6.51S0
G1 X0.07S800
G1 X1.19S0
G1 X0.35S800
G0 X3.125
G0 Y0.07
G0 X-3.125
G1 X-0.35
G1 X-7.84S0
G1 X-0.63S800
G1 X-2.87S0
G1 X-0.42S800
G1 X-10.64S0
G1 X-0.49S800
G1 X-0.77S0
G1 X-1.4S800
G1 X-0.07S0
G1 X-0.77S800
G1 X-1.12S0
G1 X-0.56S800
G1 X-0.91S0
G1 X-0.28S800
G1 X-0.91S0
G1 X-0.21S800
G1 X-1.12S0
G1 X-0.21S800
G1 X-0.84S0
G1 X-0.7S800
G1 X-3.57S0
G1 X-0.49S800
G1 X-2.45S0
G1 X-0.56S800
G1 X-10.78S0
G1 X-0.56S800
G1 X-0.77S0
G1 X-0.7S800
G1 X-0.14S0
G1 X-0.63S800
G1 X-0.21S0
G1 X-0.49S800
G1 X-0.49S0
G1 X-0.21S800
G1 X-2.17S0
G1 X-0.7S800
G1 X-2.45S0
G1 X-0.42S800
G1 X-3.15S0
G1 X-0.84S800
G1 X-1.82S0
G1 X-0.98S800
G1 X-3.08S0
G1 X-0.49S800
G1 X-8.26S0
G1 X-0.7S800
G1 X-0.98S0
G1 X-0.49S800
G1 X-7.49S0
G1 X-0.56S800
G1 X-0.91S0
G1 X-0.77S800
G1 X-5.6S0
G1 X-0.49S800
G1 X-0.7S0
G1 X-0.49S800
G1 X-0.49S0
G1 X-0.21S800
G1 X-5.6S0
G1 X-0.56S800
G1 X-82.88S0
G1 X-2.59S800
G1 X-1.26S0
G1 X-0.63S800
G1 X-1.68S0
G1 X-0.7S800
G1 X-3.78S0
G1 X-1.96S800
G1 X-1.05S0
G1 X-0.98S800
G1 X-1.96S0
G1 X-0.35S800
G1 X-0.35S0
G1 X-1.26S800
G1 X-0.98S0
G1 X-1.54S800
G1 X-2.03S0
G1 X-1.12S800
G1 X-1.96S0
G1 X-0.49S800
G1 X-4.13S0
G1 X-0.49S800
G1 X-1.54S0
G1 X-0.28S800
G1 X-1.96S0
G1 X-0.14S800
G1 X-2.31S0
G1 X-0.35S800
G1 X-7.98S0
G1 X-0.42S800
G1 X-1.33S0
G1 X-0.21S800
G1 X-2.1S0
G1 X-0.77S800
G1 X-0.35S0
G1 X-0.42S800
G1 X-3.43S0
G1 X-0.21S800
G0 X-3.125
G0 X-0.07Y0.07
G0 X3.125
G1 X0.28
G1 X3.43S0
G1 X0.42S800
G1 X0.28S0
G1 X1.05S800
G1 X1.89S0
G1 X0.21S800
G1 X1.19S0
G1 X0.49S800
G1 X8.12S0
G1 X0.35S800
G1 X2.24S0
G1 X0.21S800
G1 X1.82S0
G1 X0.35S800
G1 X1.54S0
G1 X0.49S800
G1 X4.13S0
G1 X0.7S800
G1 X1.89S0
G1 X1.05S800
G1 X1.96S0
G1 X1.4S800
G1 X1.26S0
G1 X1.26S800
G1 X0.21S0
G1 X0.35S800
G1 X1.82S0
G1 X1.19S800
G1 X0.98S0
G1 X2.24S800
G1 X3.64S0
G1 X0.77S800
G1 X1.61S0
G1 X0.63S800
G1 X1.26S0
G1 X2.73S800
G1 X82.6S0
G1 X0.56S800
G1 X5.6S0
G1 X0.21S800
G1 X0.49S0
G1 X0.49S800
G1 X0.77S0
G1 X0.42S800
G1 X5.6S0
G1 X0.7S800
G1 X1.05S0
G1 X0.49S800
G1 X7.42S0
G1 X0.56S800
G1 X0.98S0
G1 X0.7S800
G1 X8.26S0
G1 X0.56S800
G1 X2.94S0
G1 X0.98S800
G1 X1.89S0
G1 X0.77S800
G1 X3.15S0
G1 X0.49S800
G1 X2.45S0
G1 X0.63S800
G1 X2.31S0
G1 X0.14S800
G1 X0.49S0
G1 X0.49S800
G1 X0.21S0
G1 X0.56S800
G1 X0.21S0
G1 X0.7S800
G1 X0.84S0
G1 X0.49S800
G1 X10.85S0
G1 X0.49S800
G1 X2.45S0
G1 X0.56S800
G1 X3.5S0
G1 X0.7S800
G1 X0.84S0
G1 X0.21S800
G1 X1.05S0
G1 X0.21S800
G1 X0.98S0
G1 X0.21S800
G1 X1.05S0
G1 X0.49S800
G1 X1.19S0
G1 X2.17S800
G1 X0.77S0
G1 X0.42S800
G1 X10.71S0
G1 X0.42S800
G1 X2.8S0
G1 X0.7S800
G1 X7.84S0
G1 X0.28S800
G0 X3.125
G0 Y0.07
G0 X-3.125
G1 X-0.35
G1 X-7.91S0
G1 X-0.63S800
G1 X-2.73S0
G1 X-0.42S800
G1 X-10.71S0
G1 X-0.49S800
G1 X-0.7S0
G1 X-2.17S800
G1 X-1.26S0
G1 X-0.49S800
G1 X-0.98S0
G1 X-0.21S800
G1 X-0.98S0
G1 X-0.21S800
G1 X-1.05S0
G1 X-0.21S800
G1 X-0.77S0
G1 X-0.77S800
G1 X-3.5S0
G1 X-0.56S800
G1 X-2.38S0
G1 X-0.56S800
G1 X-10.85S0
G1 X-0.49S800
G1 X-0.84S0
G1 X-0.77S800
G1 X-0.14S0
G1 X-0.56S800
G1 X-0.21S0
G1 X-0.49S800
G1 X-0.49S0
G1 X-0.14S800
G1 X-2.31S0
G1 X-0.56S800
G1 X-2.59S0
G1 X-0.42S800
G1 X-1.96S0
G1 X-0.07S800
G1 X-1.12S0
G1 X-0.77S800
G1 X-1.96S0
G1 X-0.98S800
G1 X-2.94S0
G1 X-0.42S800
G1 X-8.4S0
G1 X-0.63S800
G1 X-0.98S0
G1 X-0.56S800
G1 X-7.42S0
G1 X-0.56S800
G1 X-0.98S0
G1 X-0.7S800
G1 X-5.6S0
G1 X-0.49S800
G1 X-0.7S0
G1 X-0.49S800
G1 X-0.49S0
G1 X-0.21S800
G1 X-5.6S0
G1 X-0.56S800
G1 X-81.97S0
G1 X-0.07S800
G1 X-0.14S0
G1 X-0.07S800
G1 X-0.07S0
G1 X-2.8S800
G1 X-1.12S0
G1 X-0.07S800
G1 X-0.07S0
G1 X-0.56S800
G1 X-0.07S0
G1 X-0.07S800
G1 X-1.61S0
G1 X-0.7S800
G1 X-3.43S0
G1 X-0.07S800
G1 X-0.21S0
G1 X-2.38S800
G1 X-0.63S0
G1 X-0.07S800
G1 X-0.14S0
G1 X-1.4S800
G1 X-1.68S0
G1 X-0.56S800
G1 X-0.07S0
G1 X-1.19S800
G1 X-1.4S0
G1 X-1.33S800
G1 X-1.96S0
G1 X-0.98S800
G1 X-1.89S0
G1 X-0.77S800
G1 X-4.06S0
G1 X-0.56S800
G1 X-1.61S0
G1 X-0.35S800
G1 X-1.68S0
G1 X-0.21S800
G1 X-2.17S0
G1 X-0.49S800
G1 X-8.19S0
G1 X-0.49S800
G1 X-1.12S0
G1 X-0.28S800
G1 X-1.82S0
G1 X-1.05S800
G1 X-0.21S0
G1 X-0.49S800
G1 X-3.5S0
G1 X-0.21S800
G0 X-3.125
G0 X-1.12Y0.07
G0 X3.125
G1 X0.07
G1 X0.98S0
G1 X0.21S800
G1 X3.5S0
G1 X0.56S800
G1 X0.07S0
G1 X0.49S800
G1 X0.07S0
G1 X0.07S800
G1 X0.84S0
G1 X0.21S800
G1 X1.26S0
G1 X0.35S800
G1 X1.12S0
G1 X0.42S800
G1 X8.33S0
G1 X0.56S800
G1 X2.17S0
G1 X0.14S800
G1 X1.61S0
G1 X0.35S800
G1 X1.61S0
G1 X0.56S800
G1 X4.06S0
G1 X0.98S800
G1 X1.82S0
G1 X0.77S800
G1 X2.03S0
G1 X0.77S800
G1 X0.07S0
G1 X0.07S800
G1 X0.07S0
G1 X0.07S800
G1 X0.07S0
G1 X0.07S800
G1 X1.61S0
G1 X1.96S800
G1 X0.07S0
G1 X0.14S800
G1 X0.07S0
G1 X0.07S800
G1 X0.07S0
G1 X0.07S800
G1 X0.07S0
G1 X0.07S800
G1 X0.07S0
G1 X0.07S800
G1 X0.07S0
G1 X0.07S800
G1 X0.07S0
G1 X0.07S800
G1 X0.07S0
G1 X0.14S800
G1 X0.07S0
G1 X1.96S800
G1 X0.07S0
G1 X0.14S800
G1 X0.07S0
G1 X0.07S800
G1 X0.07S0
G1 X3.01S800
G1 X0.07S0
G1 X0.07S800
G1 X0.07S0
G1 X0.07S800
G1 X3.01S0
G1 X0.7S800
G1 X1.61S0
G1 X0.07S800
G1 X0.07S0
G1 X0.56S800
G1 X1.19S0
G1 X3.08S800
G1 X0.07S0
G1 X0.07S800
G1 X81.62S0
G1 X0.7S800
G1 X3.43S0
G1 X0.21S800
G1 X1.96S0
G1 X0.21S800
G1 X0.49S0
G1 X0.49S800
G1 X0.7S0
G1 X0.56S800
G1 X5.53S0
G1 X0.63S800
G1 X1.12S0
G1 X0.42S800
G1 X7.42S0
G1 X0.63S800
G1 X0.98S0
G1 X0.63S800
G1 X8.33S0
G1 X0.49S800
G1 X2.8S0
G1 X0.98S800
G1 X2.1S0
G1 X0.7S800
G1 X1.12S0
G1 X0.28S800
G1 X1.82S0
G1 X0.42S800
G1 X2.59S0
G1 X0.56S800
G1 X2.94S0
G1 X2.17S800
G1 X0.91S0
G1 X0.49S800
G1 X10.78S0
G1 X0.56S800
G1 X2.38S0
G1 X0.63S800
G1 X3.43S0
G1 X0.77S800
G1 X0.77S0
G1 X0.21S800
G1 X1.05S0
G1 X0.14S800
G1 X1.05S0
G1 X0.21S800
G1 X0.98S0
G1 X0.49S800
G1 X1.26S0
G1 X0.56S800
G1 X0.14S0
G1 X1.4S800
G1 X0.77S0
G1 X0.49S800
G1 X10.71S0
G1 X0.42S800
G1 X2.73S0
G1 X0.56S800
G1 X7.98S0
G1 X0.28S800
G0 X3.125
G0 Y0.07
G0 X-3.125
G1 X-0.28
G1 X-8.05S0
G1 X-0.56S800
G1 X-2.66S0
G1 X-0.42S800
G1 X-10.78S0
G1 X-0.49S800
G1 X-0.7S0
G1 X-1.4S800
G1 X-0.21S0
G1 X-0.56S800
G1 X-1.26S0
G1 X-0.42S800
G1 X-0.98S0
G1 X-0.21S800
G1 X-1.05S0
G1 X-0.14S800
G1 X-1.05S0
G1 X-0.21S800
G1 X-0.77S0
G1 X-0.7S800
G1 X-3.43S0
G1 X-0.63S800
G1 X-2.45S0
G1 X-0.49S800
G1 X-10.85S0
G1 X-0.49S800
G1 X-0.91S0
G1 X-2.17S800
G1 X-2.94S0
G1 X-0.56S800
G1 X-2.59S0
G1 X-0.49S800
G1 X-1.75S0
G1 X-0.35S800
G1 X-1.05S0
G1 X-0.77S800
G1 X-2.1S0
G1 X-0.91S800
G1 X-2.8S0
G1 X-0.49S800
G1 X-8.4S0
G1 X-0.56S800
G1 X-0.98S0
G1 X-0.63S800
G1 X-5.46S0
G1 X-0.14S800
G1 X-1.82S0
G1 X-0.49S800
G1 X-1.12S0
G1 X-0.56S800
G1 X-5.6S0
G1 X-0.42S800
G1 X-0.77S0
G1 X-0.56S800
G1 X-0.49S0
G1 X-0.14S800
G1 X-1.96S0
G1 X-0.21S800
G1 X-3.43S0
G1 X-0.7S800
G1 X-81.34S0
G1 X-3.29S800
G1 X-1.05S0
G1 X-0.77S800
G1 X-1.75S0
G1 X-0.63S800
G1 X-2.94S0
G1 X-9.17S800
G1 X-2.17S0
G1 X-0.7S800
G1 X-2.03S0
G1 X-0.7S800
G1 X-1.75S0
G1 X-1.12S800
G1 X-3.99S0
G1 X-0.63S800
G1 X-1.68S0
G1 X-0.35S800
G1 X-1.47S0
G1 X-0.21S800
G1 X-2.03S0
G1 X-0.63S800
G1 X-8.54S0
G1 X-0.42S800
G1 X-0.98S0
G1 X-0.42S800
G1 X-1.05S0
G1 X-0.42S800
G1 X-0.98S0
G1 X-0.98S800
G1 X-3.64S0
G1 X-0.21S800
G1 X-0.77S0
G1 X-0.28S800
G0 X-3.125
G0 X0.07Y0.07
G0 X3.125
G1 X0.21
G1 X0.7S0
G1 X0.21S800
G1 X3.71S0
G1 X0.84S800
G1 X1.12S0
G1 X0.49S800
G1 X0.91S0
G1 X0.49S800
G1 X0.98S0
G1 X0.35S800
G1 X8.68S0
G1 X0.7S800
G1 X2.03S0
G1 X0.21S800
G1 X1.33S0
G1 X0.28S800
G1 X1.75S0
G1 X0.63S800
G1 X3.99S0
G1 X1.26S800
G1 X1.75S0
G1 X0.63S800
G1 X1.96S0
G1 X0.7S800
G1 X2.24S0
G1 X9.31S800
G1 X2.87S0
G1 X0.63S800
G1 X1.89S0
G1 X0.63S800
G1 X0.91S0
G1 X3.43S800
G1 X81.2S0
G1 X0.7S800
G1 X3.43S0
G1 X0.14S800
G1 X2.1S0
G1 X0.07S800
G1 X0.49S0
G1 X0.56S800
G1 X0.7S0
G1 X0.49S800
G1 X5.6S0
G1 X0.49S800
G1 X1.26S0
G1 X0.49S800
G1 X1.75S0
G1 X0.07S800
G1 X5.53S0
G1 X0.56S800
G1 X1.05S0
G1 X0.56S800
G1 X8.47S0
G1 X0.49S800
G1 X2.66S0
G1 X0.84S800
G1 X2.24S0
G1 X0.7S800
G1 X1.12S0
G1 X0.42S800
G1 X1.68S0
G1 X0.42S800
G1 X2.66S0
G1 X0.63S800
G1 X2.94S0
G1 X2.1S800
G1 X0.91S0
G1 X0.49S800
G1 X10.85S0
G1 X0.49S800
G1 X2.45S0
G1 X0.63S800
G1 X3.43S0
G1 X0.77S800
G1 X0.7S0
G1 X0.21S800
G1 X0.98S0
G1 X0.14S800
G1 X1.12S0
G1 X0.21S800
G1 X0.98S0
G1 X0.42S800
G1 X1.33S0
G1 X0.56S800
G1 X0.14S0
G1 X1.4S800
G1 X0.77S0
G1 X0.42S800
G1 X10.78S0
G1 X0.42S800
G1 X2.66S0
G1 X0.49S800
G1 X8.05S0
G1 X0.28S800
G0 X3.125
G0 Y0.07
G0 X-3.125
G1 X-0.28
G1 X-8.05S0
G1 X-0.56S800
G1 X-2.59S0
G1 X-0.42S800
G1 X-4.62S0
G1 X-0.14S800
G1 X-1.05S0
G1 X-0.14S800
G1 X-4.9S0
G1 X-0.42S800
G1 X-0.77S0
G1 X-1.33S800
G1 X-0.21S0
G1 X-0.56S800
G1 X-0.7S0
G1 X-0.14S800
G1 X-0.49S0
G1 X-0.28S800
G1 X-0.91S0
G1 X-0.35S800
G1 X-1.12S0
G1 X-0.07S800
G1 X-1.05S0
G1 X-0.21S800
G1 X-0.7S0
G1 X-0.7S800
G1 X-3.5S0
G1 X-0.56S800
G1 X-2.45S0
G1 X-0.49S800
G1 X-10.92S0
G1 X-0.49S800
G1 X-0.91S0
G1 X-2.1S800
G1 X-3.01S0
G1 X-0.49S800
G1 X-2.8S0
G1 X-0.35S800
G1 X-1.68S0
G1 X-0.42S800
G1 X-1.19S0
G1 X-0.7S800
G1 X-2.24S0
G1 X-0.84S800
G1 X-2.66S0
G1 X-0.49S800
G1 X-8.47S0
G1 X-0.49S800
G1 X-1.12S0
G1 X-0.56S800
G1 X-5.46S0
G1 X-0.14S800
G1 X-1.75S0
G1 X-0.49S800
G1 X-1.19S0
G1 X-0.49S800
G1 X-5.6S0
G1 X-0.49S800
G1 X-0.7S0
G1 X-0.56S800
G1 X-0.49S0
G1 X-0.14S800
G1 X-2.03S0
G1 X-0.14S800
G1 X-3.43S0
G1 X-0.7S800
G1 X-80.92S0
G1 X-3.78S800
G1 X-0.77S0
G1 X-0.42S800
G1 X-2.03S0
G1 X-0.56S800
G1 X-2.8S0
G1 X-3.43S800
G1 X-0.14S0
G1 X-1.96S800
G1 X-0.98S0
G1 X-3.15S800
G1 X-2.17S0
G1 X-0.7S800
G1 X-1.89S0
G1 X-0.63S800
G1 X-1.68S0
G1 X-1.33S800
G1 X-4.06S0
G1 X-0.63S800
G1 X-1.89S0
G1 X-0.14S800
G1 X-1.19S0
G1 X-0.28S800
G1 X-2.03S0
G1 X-0.7S800
G1 X-8.89S0
G1 X-0.28S800
G1 X-0.98S0
G1 X-0.35S800
G1 X-1.05S0
G1 X-0.49S800
G1 X-1.19S0
G1 X-0.7S800
G1 X-3.78S0
G1 X-0.21S800
G1 X-0.7S0
G1 X-0.14S800
G0 X-3.125
G0 X0.77Y0.07
G0 X3.125
G1 X0.21
G1 X3.78S0
G1 X0.63S800
G1 X1.4S0
G1 X0.42S800
G1 X2.31S0
G1 X0.28S800
G1 X9.03S0
G1 X0.7S800
G1 X2.17S0
G1 X0.77S800
G1 X0.49S0
G1 X0.07S800
G1 X1.96S0
G1 X0.7S800
G1 X2.1S0
G1 X0.21S800
G1 X2.03S0
G1 X1.12S800
G1 X1.68S0
G1 X0.7S800
G1 X1.68S0
G1 X0.7S800
G1 X0.98S0
G1 X3.92S800
G1 X2.52S0
G1 X0.84S800
G1 X0.35S0
G1 X3.5S800
G1 X2.73S0
G1 X0.56S800
G1 X2.87S0
G1 X4.13S800
G1 X80.71S0
G1 X0.7S800
G1 X3.43S0
G1 X0.14S800
G1 X1.96S0
G1 X0.21S800
G1 X0.42S0
G1 X0.63S800
G1 X0.77S0
G1 X0.49S800
G1 X5.46S0
G1 X0.56S800
G1 X1.26S0
G1 X0.49S800
G1 X1.68S0
G1 X0.21S800
G1 X5.46S0
G1 X0.49S800
G1 X1.12S0
G1 X0.49S800
G1 X8.4S0
G1 X0.56S800
G1 X2.59S0
G1 X0.77S800
G1 X2.38S0
G1 X0.7S800
G1 X1.19S0
G1 X0.42S800
G1 X1.68S0
G1 X0.35S800
G1 X2.8S0
G1 X0.49S800
G1 X3.01S0
G1 X2.17S800
G1 X0.91S0
G1 X0.49S800
G1 X10.85S0
G1 X0.56S800
G1 X2.38S0
G1 X0.56S800
G1 X3.43S0
G1 X0.77S800
G1 X0.7S0
G1 X0.21S800
G1 X2.24S0
G1 X0.42S800
G1 X0.84S0
G1 X0.14S800
G1 X0.56S0
G1 X0.21S800
G1 X0.7S0
G1 X0.56S800
G1 X0.14S0
G1 X1.4S800
G1 X0.7S0
G1 X0.49S800
G1 X4.83S0
G1 X0.14S800
G1 X1.05S0
G1 X0.21S800
G1 X4.62S0
G1 X0.42S800
G1 X1.12S0
G1 X0.07S800
G1 X1.33S0
G1 X0.49S800
G1 X8.12S0
G1 X0.28S800
G0 X3.125
G0 Y0.07
G0 X-3.125
G1 X-0.28
G1 X-8.19S0
G1 X-0.42S800
G1 X-1.26S0
G1 X-0.21S800
G1 X-1.05S0
G1 X-0.42S800
G1 X-4.69S0
G1 X-0.14S800
G1 X-1.05S0
G1 X-0.21S800
G1 X-4.83S0
G1 X-0.42S800
G1 X-0.84S0
G1 X-1.26S800
G1 X-0.21S0
G1 X-0.49S800
G1 X-0.7S0
G1 X-0.21S800
G1 X-1.54S0
G1 X-0.42S800
G1 X-2.17S0
G1 X-0.28S800
G1 X-0.63S0
G1 X-0.77S800
G1 X-1.33S0
G1 X-0.14S800
G1 X-2.03S0
G1 X-0.56S800
G1 X-2.38S0
G1 X-0.49S800
G1 X-10.92S0
G1 X-0.49S800
G1 X-0.91S0
G1 X-2.17S800
G1 X-3.01S0
G1 X-0.49S800
G1 X-2.8S0
G1 X-0.42S800
G1 X-1.61S0
G1 X-0.49S800
G1 X-1.12S0
G1 X-0.77S800
G1 X-2.45S0
G1 X-0.77S800
G1 X-0.7S0
G1 X-0.14S800
G1 X-1.61S0
G1 X-0.49S800
G1 X-8.47S0
G1 X-0.56S800
G1 X-1.12S0
G1 X-0.49S800
G1 X-5.46S0
G1 X-0.14S800
G1 X-1.75S0
G1 X-0.49S800
G1 X-1.19S0
G1 X-0.49S800
G1 X-5.6S0
G1 X-0.49S800
G1 X-0.7S0
G1 X-0.63S800
G1 X-0.42S0
G1 X-0.14S800
G1 X-1.96S0
G1 X-0.21S800
G1 X-3.43S0
G1 X-0.7S800
G1 X-80.57S0
G1 X-4.34S800
G1 X-2.66S0
G1 X-0.49S800
G1 X-2.66S0
G1 X-3.78S800
G1 X-0.28S0
G1 X-0.77S800
G1 X-2.73S0
G1 X-3.85S800
G1 X-0.98S0
G1 X-0.77S800
G1 X-0.7S0
G1 X-0.21S800
G1 X-0.56S0
G1 X-0.7S800
G1 X-1.82S0
G1 X-1.05S800
G1 X-1.96S0
G1 X-0.42S800
G1 X-1.96S0
G1 X-0.77S800
G1 X-1.96S0
G1 X-1.19S800
G1 X-2.24S0
G1 X-0.7S800
G1 X-9.24S0
G1 X-0.21S800
G1 X-2.17S0
G1 X-0.56S800
G1 X-1.47S0
G1 X-0.42S800
G1 X-3.92S0
G1 X-0.21S800
G0 X-3.125
G0 Y0.07
G0 X3.125
G1 X0.14
G1 X3.99S0
G1 X0.42S800
G1 X1.54S0
G1 X0.42S800
G1 X2.17S0
G1 X0.21S800
G1 X9.52S0
G1 X0.56S800
G1 X2.31S0
G1 X0.07S800
G1 X0.07S0
G1 X0.91S800
G1 X1.96S0
G1 X0.84S800
G1 X1.82S0
G1 X0.49S800
G1 X1.89S0
G1 X1.33S800
G1 X1.75S0
G1 X0.7S800
G1 X0.35S0
G1 X0.35S800
G1 X0.7S0
G1 X0.7S800
G1 X1.05S0
G1 X3.71S800
G1 X2.87S0
G1 X0.77S800
G1 X0.42S0
G1 X3.85S800
G1 X2.59S0
G1 X0.42S800
G1 X2.59S0
G1 X0.14S800
G1 X0.07S0
G1 X4.34S800
G1 X80.29S0
G1 X0.7S800
G1 X3.43S0
G1 X0.14S800
G1 X2.03S0
G1 X0.14S800
G1 X0.35S0
G1 X0.7S800
G1 X0.7S0
G1 X0.49S800
G1 X5.53S0
G1 X0.56S800
G1 X1.19S0
G1 X0.49S800
G1 X1.82S0
G1 X0.07S800
G1 X5.46S0
G1 X0.56S800
G1 X1.05S0
G1 X0.56S800
G1 X8.4S0
G1 X0.49S800
G1 X1.54S0
G1 X0.28S800
G1 X0.63S0
G1 X0.77S800
G1 X2.52S0
G1 X0.7S800
G1 X1.19S0
G1 X0.42S800
G1 X0.07S0
G1 X0.07S800
G1 X1.54S0
G1 X0.35S800
G1 X2.94S0
G1 X0.49S800
G1 X3.01S0
G1 X2.1S800
G1 X0.91S0
G1 X0.49S800
G1 X10.92S0
G1 X0.49S800
G1 X2.45S0
G1 X0.49S800
G1 X2.03S0
G1 X0.07S800
G1 X1.47S0
G1 X0.7S800
G1 X0.63S0
G1 X0.28S800
G1 X2.17S0
G1 X0.49S800
G1 X1.4S0
G1 X0.28S800
G1 X0.63S0
G1 X0.56S800
G1 X0.21S0
G1 X1.19S800
G1 X0.84S0
G1 X0.49S800
G1 X4.76S0
G1 X0.21S800
G1 X1.12S0
G1 X0.14S800
G1 X4.69S0
G1 X0.42S800
G1 X1.05S0
G1 X0.14S800
G1 X1.26S0
G1 X0.42S800
G1 X8.19S0
G1 X0.35S800
G0 X3.125
G0 X-0.07Y0.07
G0 X-3.125
G1 X-0.28
G1 X-8.26S0
G1 X-0.42S800
G1 X-1.12S0
G1 X-0.21S800
G1 X-1.05S0
G1 X-0.42S800
G1 X-4.69S0
G1 X-0.21S800
G1 X-1.12S0
G1 X-0.14S800
G1 X-4.76S0
G1 X-0.49S800
G1 X-0.91S0
G1 X-1.12S800
G1 X-0.21S0
G1 X-0.63S800
G1 X-0.63S0
G1 X-0.28S800
G1 X-1.33S0
G1 X-0.49S800
G1 X-2.1S0
G1 X-0.35S800
G1 X-0.56S0
G1 X-0.77S800
G1 X-3.57S0
G1 X-0.49S800
G1 X-2.38S0
G1 X-0.56S800
G1 X-10.92S0
G1 X-0.49S800
G1 X-0.91S0
G1 X-2.1S800
G1 X-3.01S0
G1 X-0.49S800
G1 X-2.94S0
G1 X-0.35S800
G1 X-1.47S0
G1 X-0.14S800
G1 X-0.21S0
G1 X-0.28S800
G1 X-1.19S0
G1 X-0.77S800
G1 X-2.52S0
G1 X-0.84S800
G1 X-0.63S0
G1 X-0.28S800
G1 X-1.4S0
G1 X-0.49S800
G1 X-8.4S0
G1 X-0.63S800
G1 X-1.05S0
G1 X-0.49S800
G1 X-7.28S0
G1 X-0.63S800
G1 X-1.12S0
G1 X-0.63S800
G1 X-5.46S0
G1 X-0.42S800
G1 X-0.77S0
G1 X-0.7S800
G1 X-0.35S0
G1 X-0.21S800
G1 X-1.96S0
G1 X-0.14S800
G1 X-3.43S0
G1 X-0.77S800
G1 X-79.94S0
G1 X-2.17S800
G1 X-0.14S0
G1 X-0.07S800
G1 X-0.14S0
G1 X-0.07S800
G1 X-0.14S0
G1 X-0.07S800
G1 X-0.14S0
G1 X-1.19S800
G1 X-0.07S0
G1 X-0.07S800
G1 X-2.94S0
G1 X-0.35S800
G1 X-2.52S0
G1 X-2.17S800
G1 X-0.07S0
G1 X-0.07S800
G1 X-0.14S0
G1 X-0.07S800
G1 X-0.07S0
G1 X-0.07S800
G1 X-0.14S0
G1 X-0.07S800
G1 X-0.14S0
G1 X-0.07S800
G1 X-0.14S0
G1 X-0.07S800
G1 X-0.14S0
G1 X-0.07S800
G1 X-0.14S0
G1 X-0.07S800
G1 X-0.14S0
G1 X-0.07S800
G1 X-0.7S0
G1 X-0.7S800
G1 X-3.01S0
G1 X-1.12S800
G1 X-0.07S0
G1 X-0.07S800
G1 X-0.14S0
G1 X-0.07S800
G1 X-0.14S0
G1 X-0.07S800
G1 X-0.14S0
G1 X-0.07S800
G1 X-0.14S0
G1 X-0.07S800
G1 X-0.14S0
G1 X-0.07S800
G1 X-0.07S0
G1 X-1.26S800
G1 X-1.33S0
G1 X-0.07S800
G1 X-0.14S0
G1 X-0.07S800
G1 X-0.63S0
G1 X-1.47S800
G1 X-1.82S0
G1 X-1.4S800
G1 X-0.07S0
G1 X-0.28S800
G1 X-1.54S0
G1 X-0.56S800
G1 X-1.68S0
G1 X-0.91S800
G1 X-1.75S0
G1 X-0.63S800
G1 X-0.07S0
G1 X-0.07S800
G1 X-2.73S0
G1 X-0.49S800
G1 X-9.73S0
G1 X-0.21S800
G1 X-2.1S0
G1 X-0.49S800
G1 X-1.61S0
G1 X-0.28S800
G0 X-3.125
G0 X-0.07Y0.07
G0 X3.125
G1 X0.28
G1 X1.75S0
G1 X0.49S800
G1 X1.96S0
G1 X0.21S800
G1 X9.87S0
G1 X0.49S800
G1 X2.94S0
G1 X0.49S800
G1 X1.75S0
G1 X1.12S800
G1 X1.4S0
G1 X0.63S800
G1 X1.47S0
G1 X1.89S800
G1 X1.82S0
G1 X1.54S800
G1 X2.17S0
G1 X1.12S800
G1 X1.47S0
G1 X0.91S800
G1 X0.77S0
G1 X0.14S800
G1 X2.17S0
G1 X0.77S800
G1 X2.73S0
G1 X2.1S800
G1 X2.45S0
G1 X0.28S800
G1 X3.08S0
G1 X0.98S800
G1 X1.19S0
G1 X1.96S800
G1 X79.8S0
G1 X0.77S800
G1 X3.43S0
G1 X0.14S800
G1 X2.03S0
G1 X0.14S800
G1 X0.42S0
G1 X0.63S800
G1 X0.7S0
G1 X0.49S800
G1 X5.46S0
G1 X0.63S800
G1 X1.05S0
G1 X0.63S800
G1 X7.35S0
G1 X0.49S800
G1 X0.98S0
G1 X0.7S800
G1 X8.4S0
G1 X0.42S800
G1 X1.26S0
G1 X0.35S800
G1 X0.56S0
G1 X0.91S800
G1 X2.66S0
G1 X0.77S800
G1 X1.12S0
G1 X0.35S800
G1 X0.21S0
G1 X0.21S800
G1 X1.33S0
G1 X0.42S800
G1 X2.94S0
G1 X0.49S800
G1 X3.08S0
G1 X2.03S800
G1 X0.91S0
G1 X0.56S800
G1 X10.85S0
G1 X0.56S800
G1 X2.38S0
G1 X0.56S800
G1 X3.5S0
G1 X0.77S800
G1 X0.56S0
G1 X0.42S800
G1 X2.03S0
G1 X0.49S800
G1 X1.26S0
G1 X0.35S800
G1 X0.63S0
G1 X0.56S800
G1 X0.21S0
G1 X1.12S800
G1 X0.98S0
G1 X0.49S800
G1 X4.69S0
G1 X0.14S800
G1 X1.19S0
G1 X0.14S800
G1 X4.76S0
G1 X0.42S800
G1 X1.05S0
G1 X0.14S800
G1 X1.12S0
G1 X0.49S800
G1 X8.19S0
G1 X0.35S800
G0 X3.125
G0 X-0.07Y0.07
G0 X-3.125
G1 X-0.28
G1 X-8.26S0
G1 X-0.42S800
G1 X-1.05S0
G1 X-0.21S800
G1 X-1.05S0
G1 X-0.42S800
G1 X-4.76S0
G1 X-0.14S800
G1 X-1.19S0
G1 X-0.14S800
G1 X-4.76S0
G1 X-0.49S800
G1 X-0.91S0
G1 X-1.12S800
G1 X-0.21S0
G1 X-0.56S800
G1 X-0.63S0
G1 X-0.42S800
G1 X-1.26S0
G1 X-0.42S800
G1 X-1.96S0
G1 X-0.49S800
G1 X-0.56S0
G1 X-0.7S800
G1 X-3.57S0
G1 X-0.49S800
G1 X-2.38S0
G1 X-0.56S800
G1 X-10.92S0
G1 X-0.56S800
G1 X-0.98S0
G1 X-1.96S800
G1 X-3.08S0
G1 X-0.42S800
G1 X-3.01S0
G1 X-0.42S800
G1 X-1.33S0
G1 X-0.21S800
G1 X-0.28S0
G1 X-0.28S800
G1 X-1.12S0
G1 X-0.84S800
G1 X-2.66S0
G1 X-0.98S800
G1 X-0.49S0
G1 X-0.42S800
G1 X-1.12S0
G1 X-0.49S800
G1 X-8.33S0
G1 X-0.7S800
G1 X-0.98S0
G1 X-0.56S800
G1 X-7.21S0
G1 X-0.7S800
G1 X-1.05S0
G1 X-0.63S800
G1 X-5.39S0
G1 X-0.56S800
G1 X-0.7S0
G1 X-0.7S800
G1 X-0.35S0
G1 X-0.14S800
G1 X-2.03S0
G1 X-0.14S800
G1 X-3.43S0
G1 X-0.77S800
G1 X-79.59S0
G1 X-2.03S800
G1 X-1.26S0
G1 X-0.84S800
G1 X-3.08S0
G1 X-0.28S800
G1 X-2.45S0
G1 X-2.24S800
G1 X-2.73S0
G1 X-0.77S800
G1 X-2.17S0
G1 X-0.28S800
G1 X-0.77S0
G1 X-0.77S800
G1 X-1.61S0
G1 X-0.98S800
G1 X-2.1S0
G1 X-1.54S800
G1 X-1.82S0
G1 X-2.03S800
G1 X-1.54S0
G1 X-0.7S800
G1 X-1.12S0
G1 X-1.19S800
G1 X-1.75S0
G1 X-0.35S800
G1 X-3.08S0
G1 X-0.42S800
G1 X-10.08S0
G1 X-0.21S800
G1 X-1.96S0
G1 X-0.49S800
G1 X-1.75S0
G1 X-0.14S800
G0 X-3.125
G0 Y0.07
G0 X3.125
G1 X0.14
G1 X1.82S0
G1 X0.42S800
G1 X1.89S0
G1 X0.21S800
G1 X10.22S0
G1 X0.42S800
G1 X3.15S0
G1 X0.21S800
G1 X1.82S0
G1 X1.26S800
G1 X0.91S0
G1 X0.7S800
G1 X1.47S0
G1 X2.31S800
G1 X1.75S0
G1 X1.61S800
G1 X1.96S0
G1 X0.77S800
G1 X1.89S0
G1 X0.63S800
G1 X0.84S0
G1 X0.28S800
G1 X0.35S0
G1 X0.07S800
G1 X1.89S0
G1 X0.56S800
G1 X3.29S0
G1 X1.89S800
G1 X2.59S0
G1 X0.14S800
G1 X3.15S0
G1 X1.12S800
G1 X0.77S0
G1 X2.24S800
G1 X79.38S0
G1 X0.77S800
G1 X3.43S0
G1 X0.14S800
G1 X1.96S0
G1 X0.21S800
G1 X0.35S0
G1 X0.7S800
G1 X0.77S0
G1 X0.42S800
G1 X5.46S0
G1 X0.63S800
G1 X1.05S0
G1 X0.63S800
G1 X7.35S0
G1 X0.42S800
G1 X0.98S0
G1 X0.77S800
G1 X8.33S0
G1 X0.49S800
G1 X0.98S0
G1 X0.49S800
G1 X0.49S0
G1 X0.91S800
G1 X2.8S0
G1 X0.77S800
G1 X1.19S0
G1 X0.35S800
G1 X0.21S0
G1 X0.21S800
G1 X1.33S0
G1 X0.35S800
G1 X3.08S0
G1 X0.49S800
G1 X3.01S0
G1 X1.89S800
G1 X1.05S0
G1 X0.56S800
G1 X10.92S0
G1 X0.56S800
G1 X2.38S0
G1 X0.49S800
G1 X3.57S0
G1 X0.7S800
G1 X0.56S0
G1 X0.56S800
G1 X1.89S0
G1 X0.42S800
G1 X1.26S0
G1 X0.42S800
G1 X0.56S0
G1 X0.63S800
G1 X0.21S0
G1 X1.12S800
G1 X0.91S0
G1 X0.49S800
G1 X4.69S0
G1 X0.14S800
G1 X1.19S0
G1 X0.21S800
G1 X4.76S0
G1 X0.42S800
G1 X1.12S0
G1 X0.07S800
G1 X1.05S0
G1 X0.49S800
G1 X8.26S0
G1 X0.28S800
G1 X17.64S0
G1 X0.28S800
G0 X3.125
G0 Y0.07
G0 X-3.125
G1 X-0.35
G1 X-17.64S0
G1 X-0.28S800
G1 X-8.26S0
G1 X-0.49S800
G1 X-2.17S0
G1 X-0.42S800
G1 X-4.76S0
G1 X-0.21S800
G1 X-1.19S0
G1 X-0.14S800
G1 X-4.69S0
G1 X-0.49S800
G1 X-0.91S0
G1 X-1.12S800
G1 X-0.28S0
G1 X-0.56S800
G1 X-0.49S0
G1 X-0.49S800
G1 X-1.26S0
G1 X-0.42S800
G1 X-1.82S0
G1 X-0.56S800
G1 X-0.56S0
G1 X-0.77S800
G1 X-3.57S0
G1 X-0.49S800
G1 X-2.31S0
G1 X-0.63S800
G1 X-10.92S0
G1 X-0.49S800
G1 X-1.12S0
G1 X-1.82S800
G1 X-3.08S0
G1 X-0.42S800
G1 X-3.08S0
G1 X-0.49S800
G1 X-1.26S0
G1 X-0.21S800
G1 X-0.28S0
G1 X-0.35S800
G1 X-1.05S0
G1 X-0.84S800
G1 X-2.94S0
G1 X-0.98S800
G1 X-0.42S0
G1 X-0.49S800
G1 X-0.91S0
G1 X-0.42S800
G1 X-8.33S0
G1 X-0.77S800
G1 X-0.91S0
G1 X-0.49S800
G1 X-7.35S0
G1 X-0.63S800
G1 X-1.05S0
G1 X-0.7S800
G1 X-5.39S0
G1 X-0.49S800
G1 X-0.7S0
G1 X-0.7S800
G1 X-2.52S0
G1 X-0.14S800
G1 X-3.43S0
G1 X-0.7S800
G1 X-79.24S0
G1 X-4.13S800
G1 X-3.15S0
G1 X-0.14S800
G1 X-2.59S0
G1 X-1.75S800
G1 X-5.32S0
G1 X-0.42S800
G1 X-0.28S0
G1 X-0.28S800
G1 X-0.14S0
G1 X-0.35S800
G1 X-0.91S0
G1 X-0.49S800
G1 X-2.1S0
G1 X-0.56S800
G1 X-1.82S0
G1 X-1.75S800
G1 X-1.68S0
G1 X-1.47S800
G1 X-0.28S0
G1 X-0.98S800
G1 X-1.26S0
G1 X-0.77S800
G1 X-0.56S0
G1 X-1.47S800
G1 X-4.13S0
G1 X-1.4S800
G1 X-7.28S0
G1 X-3.29S800
G1 X-1.89S0
G1 X-0.42S800
G1 X-6.37S0
G1 X-0.07S800
G0 X-3.125
G0 X-0.07Y0.07
G0 X3.125
G1 X0.14
G1 X6.37S0
G1 X0.42S800
G1 X1.82S0
G1 X3.64S800
G1 X7.07S0
G1 X1.54S800
G1 X3.92S0
G1 X1.47S800
G1 X0.35S0
G1 X0.91S800
G1 X1.26S0
G1 X0.98S800
G1 X0.42S0
G1 X1.47S800
G1 X1.75S0
G1 X1.68S800
G1 X1.75S0
G1 X0.42S800
G1 X2.17S0
G1 X0.56S800
G1 X0.98S0
G1 X0.7S800
G1 X0.21S0
G1 X0.49S800
G1 X5.6S0
G1 X1.68S800
G1 X2.52S0
G1 X0.35S800
G1 X0.07S0
G1 X0.07S800
G1 X2.87S0
G1 X4.06S800
G1 X79.03S0
G1 X0.77S800
G1 X3.43S0
G1 X0.14S800
G1 X2.45S0
G1 X0.77S800
G1 X0.7S0
G1 X0.49S800
G1 X5.46S0
G1 X0.63S800
G1 X1.05S0
G1 X0.56S800
G1 X7.35S0
G1 X0.49S800
G1 X0.98S0
G1 X0.7S800
G1 X8.33S0
G1 X0.49S800
G1 X0.7S0
G1 X0.56S800
G1 X0.42S0
G1 X1.05S800
G1 X2.94S0
G1 X0.91S800
G1 X1.05S0
G1 X0.28S800
G1 X0.35S0
G1 X0.28S800
G1 X1.19S0
G1 X0.49S800
G1 X3.08S0
G1 X0.49S800
G1 X2.94S0
G1 X1.82S800
G1 X0.21S0
G1 X0.07S800
G1 X0.91S0
G1 X0.49S800
G1 X10.99S0
G1 X0.56S800
G1 X2.38S0
G1 X0.42S800
G1 X3.64S0
G1 X0.77S800
G1 X0.49S0
G1 X0.63S800
G1 X1.75S0
G1 X0.42S800
G1 X1.19S0
G1 X0.49S800
G1 X0.49S0
G1 X0.63S800
G1 X0.21S0
G1 X1.12S800
G1 X0.91S0
G1 X0.56S800
G1 X4.62S0
G1 X0.21S800
G1 X1.12S0
G1 X0.21S800
G1 X4.83S0
G1 X0.42S800
G1 X2.17S0
G1 X0.49S800
G1 X8.26S0
G1 X0.21S800
G1 X17.57S0
G1 X0.42S800
G0 X3.125
G0 Y0.07
G0 X-3.125
G1 X-0.49
G1 X-17.5S0
G1 X-0.21S800
G1 X-8.33S0
G1 X-0.49S800
G1 X-2.1S0
G1 X-0.42S800
G1 X-4.83S0
G1 X-0.28S800
G1 X-1.12S0
G1 X-0.21S800
G1 X-4.62S0
G1 X-0.49S800
G1 X-0.84S0
G1 X-1.12S800
G1 X-0.35S0
G1 X-0.56S800
G1 X-0.49S0
G1 X-0.49S800
G1 X-1.19S0
G1 X-0.42S800
G1 X-1.68S0
G1 X-0.63S800
G1 X-0.56S0
G1 X-0.77S800
G1 X-3.57S0
G1 X-0.49S800
G1 X-2.38S0
G1 X-0.56S800
G1 X-10.92S0
G1 X-0.56S800
G1 X-0.84S0
G1 X-0.14S800
G1 X-0.21S0
G1 X-1.82S800
G1 X-2.87S0
G1 X-0.49S800
G1 X-3.15S0
G1 X-0.49S800
G1 X-1.26S0
G1 X-0.21S800
G1 X-0.35S0
G1 X-0.35S800
G1 X-0.98S0
G1 X-0.91S800
G1 X-3.15S0
G1 X-0.98S800
G1 X-0.35S0
G1 X-0.63S800
G1 X-0.56S0
G1 X-0.49S800
G1 X-8.4S0
G1 X-0.7S800
G1 X-0.84S0
G1 X-0.56S800
G1 X-7.35S0
G1 X-0.56S800
G1 X-1.05S0
G1 X-0.7S800
G1 X-5.32S0
G1 X-0.56S800
G1 X-0.77S0
G1 X-0.63S800
G1 X-2.52S0
G1 X-0.14S800
G1 X-3.5S0
G1 X-0.7S800
G1 X-78.54S0
G1 X-0.14S800
G1 X-0.07S0
G1 X-3.71S800
G1 X-0.07S0
G1 X-0.14S800
G1 X-0.07S0
G1 X-0.07S800
G1 X-2.8S0
G1 X-0.07S800
G1 X-0.07S0
G1 X-0.07S800
G1 X-0.07S0
G1 X-0.21S800
G1 X-0.07S0
G1 X-0.07S800
G1 X-2.45S0
G1 X-1.75S800
G1 X-5.88S0
G1 X-0.42S800
G1 X-0.28S0
G1 X-0.63S800
G1 X-0.98S0
G1 X-0.63S800
G1 X-2.24S0
G1 X-0.28S800
G1 X-1.61S0
G1 X-1.68S800
G1 X-1.68S0
G1 X-1.47S800
G1 X-0.77S0
G1 X-0.07S800
G1 X-0.07S0
G1 X-0.77S800
G1 X-1.33S0
G1 X-0.84S800
G1 X-0.07S0
G1 X-1.68S800
G1 X-3.36S0
G1 X-0.07S800
G1 X-0.07S0
G1 X-0.07S800
G1 X-0.07S0
G1 X-1.05S800
G1 X-0.07S0
G1 X-0.63S800
G1 X-7.14S0
G1 X-0.35S800
G1 X-0.07S0
G1 X-0.14S800
G1 X-0.07S0
G1 X-0.14S800
G1 X-0.07S0
G1 X-2.8S800
G1 X-1.82S0
G1 X-0.35S800
G1 X-6.37S0
G1 X-0.21S800
G0 X-3.125
G0 X-0.77Y0.07
G0 X3.125
G1 X0.98
G1 X6.3S0
G1 X0.35S800
G1 X1.89S0
G1 X0.07S800
G1 X1.05S0
G1 X0.07S800
G1 X0.14S0
G1 X0.07S800
G1 X0.14S0
G1 X0.07S800
G1 X0.07S0
G1 X0.07S800
G1 X0.07S0
G1 X0.07S800
G1 X0.07S0
G1 X0.07S800
G1 X0.07S0
G1 X0.07S800
G1 X0.14S0
G1 X0.07S800
G1 X0.14S0
G1 X0.07S800
G1 X8.26S0
G1 X0.49S800
G1 X0.49S0
G1 X1.19S800
G1 X0.07S0
G1 X0.14S800
G1 X3.01S0
G1 X2.38S800
G1 X1.82S0
G1 X0.07S800
G1 X1.4S0
G1 X1.47S800
G1 X1.68S0
G1 X1.75S800
G1 X3.85S0
G1 X0.7S800
G1 X1.12S0
G1 X0.35S800
G1 X0.49S0
G1 X0.28S800
G1 X3.5S0
G1 X0.28S800
G1 X2.45S0
G1 X1.68S800
G1 X2.59S0
G1 X0.56S800
G1 X0.07S0
G1 X0.21S800
G1 X0.07S0
G1 X0.21S800
G1 X0.07S0
G1 X0.14S800
G1 X2.52S0
G1 X0.07S800
G1 X0.07S0
G1 X0.07S800
G1 X0.07S0
G1 X0.07S800
G1 X0.14S0
G1 X0.07S800
G1 X0.28S0
G1 X2.87S800
G1 X78.33S0
G1 X0.77S800
G1 X3.43S0
G1 X0.14S800
G1 X2.45S0
G1 X0.77S800
G1 X0.63S0
G1 X0.56S800
G1 X5.39S0
G1 X0.7S800
G1 X0.98S0
G1 X0.63S800
G1 X7.35S0
G1 X0.56S800
G1 X0.84S0
G1 X0.7S800
G1 X8.4S0
G1 X1.61S800
G1 X0.07S0
G1 X1.19S800
G1 X3.22S0
G1 X0.91S800
G1 X1.05S0
G1 X0.28S800
G1 X1.82S0
G1 X0.49S800
G1 X3.29S0
G1 X0.42S800
G1 X2.94S0
G1 X1.68S800
G1 X0.28S0
G1 X0.21S800
G1 X0.77S0
G1 X0.56S800
G1 X10.99S0
G1 X0.56S800
G1 X0.56S0
G1 X0.07S800
G1 X1.68S0
G1 X0.49S800
G1 X3.57S0
G1 X0.77S800
G1 X0.56S0
G1 X0.7S800
G1 X1.61S0
G1 X0.42S800
G1 X1.12S0
G1 X0.56S800
G1 X0.42S0
G1 X0.56S800
G1 X0.35S0
G1 X1.19S800
G1 X0.77S0
G1 X0.49S800
G1 X4.62S0
G1 X0.28S800
G1 X1.12S0
G1 X0.21S800
G1 X4.9S0
G1 X0.42S800
G1 X2.17S0
G1 X0.42S800
G1 X8.26S0
G1 X0.28S800
G1 X17.43S0
G1 X0.49S800
G0 X3.125
G0 Y0.07
G0 X-3.125
G1 X-0.56
G1 X-17.43S0
G1 X-0.21S800
G1 X-8.26S0
G1 X-0.49S800
G1 X-2.1S0
G1 X-0.42S800
G1 X-4.9S0
G1 X-0.28S800
G1 X-1.12S0
G1 X-0.21S800
G1 X-4.62S0
G1 X-0.49S800
G1 X-0.77S0
G1 X-1.19S800
G1 X-0.35S0
G1 X-0.56S800
G1 X-0.42S0
G1 X-0.21S800
G1 X-0.07S0
G1 X-0.28S800
G1 X-1.19S0
G1 X-0.35S800
G1 X-1.54S0
G1 X-0.77S800
G1 X-0.49S0
G1 X-0.77S800
G1 X-3.57S0
G1 X-0.49S800
G1 X-1.68S0
G1 X-0.21S800
G1 X-0.49S0
G1 X-0.56S800
G1 X-10.99S0
G1 X-0.56S800
G1 X-0.77S0
G1 X-0.28S800
G1 X-0.21S0
G1 X-1.68S800
G1 X-2.94S0
G1 X-0.42S800
G1 X-3.29S0
G1 X-0.49S800
G1 X-1.82S0
G1 X-0.21S800
G1 X-1.05S0
G1 X-0.91S800
G1 X-3.36S0
G1 X-2.8S800
G1 X-8.47S0
G1 X-0.7S800
G1 X-0.84S0
G1 X-0.49S800
G1 X-7.42S0
G1 X-0.56S800
G1 X-0.98S0
G1 X-0.7S800
G1 X-5.39S0
G1 X-0.77S800
G1 X-0.42S0
G1 X-0.7S800
G1 X-2.52S0
G1 X-0.14S800
G1 X-3.43S0
G1 X-0.77S800
G1 X-78.12S0
G1 X-2.8S800
G1 X-3.57S0
G1 X-1.26S800
G1 X-2.45S0
G1 X-1.75S800
G1 X-2.52S0
G1 X-0.56S800
G1 X-3.43S0
G1 X-0.28S800
G1 X-0.42S0
G1 X-0.28S800
G1 X-1.26S0
G1 X-0.7S800
G1 X-3.71S0
G1 X-1.61S800
G1 X-1.82S0
G1 X-1.4S800
G1 X-3.57S0
G1 X-2.24S800
G1 X-2.8S0
G1 X-1.4S800
G1 X-0.63S0
G1 X-0.49S800
G1 X-12.81S0
G1 X-0.28S800
G1 X-6.37S0
G1 X-1.12S800
G0 X-3.125
G0 X-0.14Y0.07
G0 X3.125
G1 X1.26
G1 X6.3S0
G1 X0.28S800
G1 X12.95S0
G1 X0.49S800
G1 X0.7S0
G1 X1.4S800
G1 X2.66S0
G1 X2.1S800
G1 X3.78S0
G1 X1.47S800
G1 X1.75S0
G1 X1.68S800
G1 X3.57S0
G1 X0.7S800
G1 X1.33S0
G1 X0.21S800
G1 X0.42S0
G1 X0.21S800
G1 X3.43S0
G1 X0.77S800
G1 X2.45S0
G1 X1.82S800
G1 X2.59S0
G1 X0.98S800
G1 X3.71S0
G1 X2.8S800
G1 X78.05S0
G1 X0.7S800
G1 X3.43S0
G1 X0.14S800
G1 X2.45S0
G1 X0.77S800
G1 X0.56S0
G1 X0.56S800
G1 X5.46S0
G1 X0.7S800
G1 X0.98S0
G1 X0.56S800
G1 X7.42S0
G1 X0.56S800
G1 X0.7S0
G1 X0.77S800
G1 X8.47S0
G1 X2.66S800
G1 X3.5S0
G1 X0.91S800
G1 X0.98S0
G1 X0.21S800
G1 X1.89S0
G1 X0.42S800
G1 X3.36S0
G1 X0.42S800
G1 X2.94S0
G1 X1.68S800
G1 X0.21S0
G1 X0.28S800
G1 X0.84S0
G1 X0.56S800
G1 X10.99S0
G1 X0.56S800
G1 X0.49S0
G1 X0.14S800
G1 X1.61S0
G1 X0.56S800
G1 X3.57S0
G1 X0.77S800
G1 X0.49S0
G1 X0.77S800
G1 X1.54S0
G1 X0.35S800
G1 X1.12S0
G1 X0.28S800
G1 X0.14S0
G1 X0.28S800
G1 X0.28S0
G1 X0.56S800
G1 X0.35S0
G1 X1.26S800
G1 X0.7S0
G1 X0.49S800
G1 X4.62S0
G1 X0.28S800
G1 X1.12S0
G1 X0.21S800
G1 X4.97S0
G1 X0.42S800
G1 X2.1S0
G1 X0.42S800
G1 X8.33S0
G1 X0.21S800
G1 X17.43S0
G1 X0.49S800
G0 X3.125
G0 Y0.07
G0 X-3.125
G1 X-0.56
G1 X-17.43S0
G1 X-0.21S800
G1 X-8.26S0
G1 X-0.49S800
G1 X-2.03S0
G1 X-0.42S800
G1 X-4.97S0
G1 X-0.28S800
G1 X-1.05S0
G1 X-0.35S800
G1 X-4.55S0
G1 X-0.49S800
G1 X-0.7S0
G1 X-1.19S800
G1 X-0.42S0
G1 X-0.56S800
G1 X-0.35S0
G1 X-0.14S800
G1 X-0.21S0
G1 X-0.28S800
G1 X-1.12S0
G1 X-0.35S800
G1 X-1.54S0
G1 X-0.7S800
G1 X-0.49S0
G1 X-0.84S800
G1 X-3.57S0
G1 X-0.49S800
G1 X-1.68S0
G1 X-0.14S800
G1 X-0.56S0
G1 X-0.49S800
G1 X-10.99S0
G1 X-0.56S800
G1 X-0.84S0
G1 X-0.28S800
G1 X-0.28S0
G1 X-1.61S800
G1 X-2.94S0
G1 X-0.35S800
G1 X-3.43S0
G1 X-0.49S800
G1 X-1.82S0
G1 X-0.21S800
G1 X-0.98S0
G1 X-0.98S800
G1 X-3.5S0
G1 X-2.59S800
G1 X-8.47S0
G1 X-0.98S800
G1 X-0.49S0
G1 X-0.63S800
G1 X-7.35S0
G1 X-0.56S800
G1 X-0.98S0
G1 X-0.7S800
G1 X-5.46S0
G1 X-0.56S800
G1 X-0.77S0
G1 X-0.49S800
G1 X-2.52S0
G1 X-0.14S800
G1 X-3.5S0
G1 X-0.7S800
G1 X-77.91S0
G1 X-2.24S800
G1 X-0.56S0
G1 X-0.07S800
G1 X-1.82S0
G1 X-0.42S800
G1 X-1.54S0
G1 X-0.35S800
G1 X-2.87S0
G1 X-1.96S800
G1 X-2.52S0
G1 X-0.84S800
G1 X-5.53S0
G1 X-0.42S800
G1 X-3.85S0
G1 X-1.54S800
G1 X-1.96S0
G1 X-1.33S800
G1 X-4.06S0
G1 X-1.89S800
G1 X-2.52S0
G1 X-0.91S800
G1 X-0.21S0
G1 X-0.42S800
G1 X-0.77S0
G1 X-0.42S800
G1 X-13.02S0
G1 X-0.35S800
G1 X-6.23S0
G1 X-1.33S800
G0 X-3.125
G0 X-0.28Y0.07
G0 X3.125
G1 X0.91
G1 X0.49S0
G1 X0.21S800
G1 X6.23S0
G1 X0.35S800
G1 X5.6S0
G1 X0.28S800
G1 X7.21S0
G1 X0.42S800
G1 X0.77S0
G1 X0.42S800
G1 X0.42S0
G1 X0.77S800
G1 X3.57S0
G1 X0.49S800
G1 X4.41S0
G1 X1.33S800
G1 X2.03S0
G1 X1.4S800
G1 X3.85S0
G1 X0.35S800
G1 X3.64S0
G1 X3.71S800
G1 X1.68S0
G1 X2.03S800
G1 X4.62S0
G1 X0.84S800
G1 X1.33S0
G1 X0.07S800
G1 X0.91S0
G1 X1.96S800
G1 X77.84S0
G1 X0.7S800
G1 X3.5S0
G1 X0.14S800
G1 X2.45S0
G1 X0.56S800
G1 X0.77S0
G1 X0.63S800
G1 X5.39S0
G1 X0.7S800
G1 X0.98S0
G1 X0.49S800
G1 X7.42S0
G1 X2.03S800
G1 X8.47S0
G1 X2.52S800
G1 X3.64S0
G1 X0.91S800
G1 X1.05S0
G1 X0.21S800
G1 X1.82S0
G1 X0.42S800
G1 X3.5S0
G1 X0.35S800
G1 X2.94S0
G1 X1.61S800
G1 X0.28S0
G1 X0.28S800
G1 X0.91S0
G1 X0.49S800
G1 X10.99S0
G1 X0.56S800
G1 X0.42S0
G1 X0.21S800
G1 X1.75S0
G1 X0.42S800
G1 X0.63S0
G1 X0.14S800
G1 X2.87S0
G1 X0.77S800
G1 X0.49S0
G1 X0.77S800
G1 X1.47S0
G1 X0.28S800
G1 X1.12S0
G1 X0.35S800
G1 X0.21S0
G1 X0.14S800
G1 X0.28S0
G1 X0.56S800
G1 X0.42S0
G1 X1.26S800
G1 X0.7S0
G1 X0.49S800
G1 X4.48S0
G1 X0.35S800
G1 X1.12S0
G1 X0.21S800
G1 X5.04S0
G1 X0.49S800
G1 X1.96S0
G1 X0.42S800
G1 X8.33S0
G1 X0.21S800
G1 X17.36S0
G1 X0.56S800
G0 X3.125
G0 Y0.07
G0 X-3.125
G1 X-0.63
G1 X-17.29S0
G1 X-0.28S800
G1 X-8.26S0
G1 X-0.42S800
G1 X-1.96S0
G1 X-0.49S800
G1 X-5.04S0
G1 X-0.21S800
G1 X-1.19S0
G1 X-0.28S800
G1 X-4.48S0
G1 X-0.49S800
G1 X-0.7S0
G1 X-1.19S800
G1 X-0.56S0
G1 X-0.49S800
G1 X-0.21S0
G1 X-0.21S800
G1 X-0.28S0
G1 X-0.28S800
G1 X-1.12S0
G1 X-0.35S800
G1 X-1.4S0
G1 X-0.77S800
G1 X-0.49S0
G1 X-0.77S800
G1 X-2.87S0
G1 X-0.21S800
G1 X-0.49S0
G1 X-0.49S800
G1 X-1.75S0
G1 X-0.14S800
G1 X-0.49S0
G1 X-0.56S800
G1 X-10.99S0
G1 X-0.49S800
G1 X-0.91S0
G1 X-0.28S800
G1 X-0.35S0
G1 X-1.54S800
G1 X-2.87S0
G1 X-0.35S800
G1 X-3.57S0
G1 X-0.42S800
G1 X-1.82S0
G1 X-0.21S800
G1 X-0.98S0
G1 X-0.98S800
G1 X-3.71S0
G1 X-2.45S800
G1 X-8.47S0
G1 X-2.1S800
G1 X-7.35S0
G1 X-0.49S800
G1 X-0.98S0
G1 X-0.7S800
G1 X-5.46S0
G1 X-0.56S800
G1 X-0.77S0
G1 X-0.49S800
G1 X-2.59S0
G1 X-0.14S800
G1 X-3.43S0
G1 X-0.7S800
G1 X-77.7S0
G1 X-1.75S800
G1 X-1.26S0
G1 X-0.07S800
G1 X-0.91S0
G1 X-1.19S800
G1 X-4.41S0
G1 X-2.1S800
G1 X-1.75S0
G1 X-4.06S800
G1 X-3.5S0
G1 X-0.14S800
G1 X-3.92S0
G1 X-1.26S800
G1 X-2.1S0
G1 X-1.33S800
G1 X-4.62S0
G1 X-0.42S800
G1 X-3.43S0
G1 X-0.7S800
G1 X-0.56S0
G1 X-0.42S800
G1 X-0.84S0
G1 X-0.42S800
G1 X-7.07S0
G1 X-0.42S800
G1 X-5.67S0
G1 X-0.35S800
G1 X-6.16S0
G1 X-0.21S800
G1 X-0.56S0
G1 X-0.91S800
G0 X-3.125
G0 Y0.07
G0 X3.125
G1 X0.56
G1 X0.07S0
G1 X0.07S800
G1 X0.91S0
G1 X0.07S800
G1 X6.09S0
G1 X0.35S800
G1 X5.81S0
G1 X0.07S800
G1 X0.07S0
G1 X0.28S800
G1 X7S0
G1 X0.42S800
G1 X0.91S0
G1 X0.49S800
G1 X0.56S0
G1 X0.07S800
G1 X0.07S0
G1 X0.49S800
G1 X3.36S0
G1 X0.28S800
G1 X4.97S0
G1 X1.26S800
G1 X2.17S0
G1 X1.05S800
G1 X3.99S0
G1 X0.07S800
G1 X3.36S0
G1 X1.33S800
G1 X0.07S0
G1 X0.14S800
G1 X0.07S0
G1 X0.91S800
G1 X0.07S0
G1 X0.21S800
G1 X0.07S0
G1 X1.33S800
G1 X1.82S0
G1 X2.31S800
G1 X4.41S0
G1 X0.07S800
G1 X0.07S0
G1 X1.12S800
G1 X0.56S0
G1 X0.07S800
G1 X1.54S0
G1 X1.75S800
G1 X77.42S0
G1 X0.7S800
G1 X3.43S0
G1 X0.14S800
G1 X1.96S0
G1 X0.07S800
G1 X0.49S0
G1 X0.49S800
G1 X0.84S0
G1 X0.63S800
G1 X5.39S0
G1 X0.63S800
G1 X1.05S0
G1 X0.49S800
G1 X7.35S0
G1 X2.17S800
G1 X8.33S0
G1 X2.38S800
G1 X3.85S0
G1 X0.98S800
G1 X0.98S0
G1 X0.14S800
G1 X1.82S0
G1 X0.49S800
G1 X3.57S0
G1 X0.35S800
G1 X2.73S0
G1 X1.61S800
G1 X0.42S0
G1 X0.28S800
G1 X0.91S0
G1 X0.56S800
G1 X10.99S0
G1 X0.49S800
G1 X0.42S0
G1 X0.21S800
G1 X1.75S0
G1 X0.49S800
G1 X0.56S0
G1 X0.07S800
G1 X2.94S0
G1 X0.84S800
G1 X0.49S0
G1 X0.7S800
G1 X1.4S0
G1 X0.28S800
G1 X1.12S0
G1 X0.35S800
G1 X0.28S0
G1 X0.21S800
G1 X0.21S0
G1 X0.42S800
G1 X0.56S0
G1 X1.19S800
G1 X0.77S0
G1 X0.49S800
G1 X4.41S0
G1 X0.35S800
G1 X1.12S0
G1 X0.21S800
G1 X5.11S0
G1 X0.49S800
G1 X1.96S0
G1 X0.42S800
G1 X8.26S0
G1 X0.21S800
G1 X17.36S0
G1 X0.56S800
G0 X3.125
G0 Y0.07
G0 X-3.125
G1 X-0.63
G1 X-17.29S0
G1 X-0.28S800
G1 X-8.19S0
G1 X-0.42S800
G1 X-1.96S0
G1 X-0.42S800
G1 X-5.18S0
G1 X-0.21S800
G1 X-1.19S0
G1 X-0.28S800
G1 X-3.22S0
G1 X-0.14S800
G1 X-1.05S0
G1 X-0.56S800
G1 X-0.7S0
G1 X-1.19S800
G1 X-0.63S0
G1 X-0.42S800
G1 X-0.14S0
G1 X-0.14S800
G1 X-0.35S0
G1 X-0.35S800
G1 X-1.05S0
G1 X-0.42S800
G1 X-1.33S0
G1 X-0.7S800
G1 X-0.49S0
G1 X-0.77S800
G1 X-3.64S0
G1 X-0.49S800
G1 X-1.75S0
G1 X-0.14S800
G1 X-0.42S0
G1 X-0.56S800
G1 X-11.06S0
G1 X-0.49S800
G1 X-0.84S0
G1 X-0.42S800
G1 X-0.35S0
G1 X-1.82S800
G1 X-2.52S0
G1 X-0.28S800
G1 X-3.71S0
G1 X-0.42S800
G1 X-1.82S0
G1 X-0.14S800
G1 X-1.05S0
G1 X-0.91S800
G1 X-3.99S0
G1 X-2.24S800
G1 X-8.4S0
G1 X-2.17S800
G1 X-7.28S0
G1 X-0.49S800
G1 X-1.05S0
G1 X-0.7S800
G1 X-5.39S0
G1 X-0.63S800
G1 X-0.7S0
G1 X-0.49S800
G1 X-0.49S0
G1 X-0.14S800
G1 X-1.96S0
G1 X-0.14S800
G1 X-3.43S0
G1 X-0.63S800
G1 X-77.35S0
G1 X-1.54S800
G1 X-1.89S0
G1 X-0.07S800
G1 X-0.42S0
G1 X-0.98S800
G1 X-4.62S0
G1 X-2.45S800
G1 X-1.89S0
G1 X-0.98S800
G1 X-3.01S0
G1 X-0.28S800
G1 X-7.28S0
G1 X-0.77S800
G1 X-2.38S0
G1 X-1.19S800
G1 X-3.36S0
G1 X-0.14S800
G1 X-1.75S0
G1 X-0.21S800
G1 X-3.22S0
G1 X-0.35S800
G1 X-0.77S0
G1 X-0.63S800
G1 X-0.98S0
G1 X-0.49S800
G1 X-6.86S0
G1 X-0.14S800
G1 X-6.23S0
G1 X-0.28S800
G1 X-7.49S0
G1 X-0.28S800
G0 X-3.125
G0 Y0.07
G0 X3.125
G1 X0.14
G1 X7.63S0
G1 X0.28S800
G1 X6.23S0
G1 X0.21S800
G1 X6.72S0
G1 X0.63S800
G1 X0.98S0
G1 X0.7S800
G1 X0.77S0
G1 X0.21S800
G1 X3.22S0
G1 X0.21S800
G1 X1.68S0
G1 X0.28S800
G1 X3.36S0
G1 X1.19S800
G1 X2.45S0
G1 X0.7S800
G1 X7.14S0
G1 X0.21S800
G1 X3.22S0
G1 X0.98S800
G1 X1.89S0
G1 X2.52S800
G1 X4.76S0
G1 X1.19S800
G1 X2.17S0
G1 X1.47S800
G1 X77.07S0
G1 X0.7S800
G1 X5.46S0
G1 X0.21S800
G1 X0.42S0
G1 X0.49S800
G1 X0.77S0
G1 X0.56S800
G1 X5.46S0
G1 X0.7S800
G1 X1.05S0
G1 X0.49S800
G1 X7.28S0
G1 X2.17S800
G1 X8.33S0
G1 X2.24S800
G1 X4.06S0
G1 X0.98S800
G1 X1.05S0
G1 X0.07S800
G1 X1.75S0
G1 X0.42S800
G1 X3.78S0
G1 X0.42S800
G1 X0.77S0
G1 X0.21S800
G1 X1.26S0
G1 X1.89S800
G1 X0.35S0
G1 X0.42S800
G1 X0.91S0
G1 X0.56S800
G1 X10.99S0
G1 X0.56S800
G1 X0.42S0
G1 X0.14S800
G1 X1.82S0
G1 X0.42S800
G1 X3.64S0
G1 X0.84S800
G1 X0.42S0
G1 X0.7S800
G1 X1.26S0
G1 X0.42S800
G1 X1.05S0
G1 X0.42S800
G1 X0.42S0
G1 X0.56S800
G1 X0.7S0
G1 X1.19S800
G1 X0.77S0
G1 X0.49S800
G1 X0.98S0
G1 X0.21S800
G1 X3.22S0
G1 X0.28S800
G1 X1.12S0
G1 X0.28S800
G1 X5.18S0
G1 X0.42S800
G1 X1.96S0
G1 X0.42S800
G1 X8.19S0
G1 X0.21S800
G1 X17.36S0
G1 X0.56S800
G0 X3.125
G0 X0.07Y0.07
G0 X-3.125
G1 X-0.7
G1 X-17.22S0
G1 X-0.28S800
G1 X-8.26S0
G1 X-0.35S800
G1 X-1.96S0
G1 X-0.42S800
G1 X-5.18S0
G1 X-0.28S800
G1 X-1.19S0
G1 X-0.21S800
G1 X-3.22S0
G1 X-0.21S800
G1 X-0.98S0
G1 X-0.56S800
G1 X-0.7S0
G1 X-1.26S800
G1 X-0.63S0
G1 X-0.56S800
G1 X-0.49S0
G1 X-0.35S800
G1 X-0.98S0
G1 X-0.49S800
G1 X-1.26S0
G1 X-0.63S800
G1 X-0.49S0
G1 X-0.84S800
G1 X-3.57S0
G1 X-0.49S800
G1 X-1.75S0
G1 X-0.14S800
G1 X-0.49S0
G1 X-0.56S800
G1 X-10.92S0
G1 X-0.56S800
G1 X-0.91S0
G1 X-0.63S800
G1 X-0.21S0
G1 X-1.89S800
G1 X-1.19S0
G1 X-0.28S800
G1 X-0.77S0
G1 X-0.42S800
G1 X-3.78S0
G1 X-0.42S800
G1 X-1.68S0
G1 X-0.21S800
G1 X-0.98S0
G1 X-1.05S800
G1 X-4.13S0
G1 X-2.1S800
G1 X-8.26S0
G1 X-2.24S800
G1 X-7.28S0
G1 X-0.49S800
G1 X-1.05S0
G1 X-0.7S800
G1 X-5.53S0
G1 X-0.49S800
G1 X-0.7S0
G1 X-0.49S800
G1 X-0.49S0
G1 X-0.21S800
G1 X-5.46S0
G1 X-0.77S800
G1 X-76.86S0
G1 X-1.4S800
G1 X-2.38S0
G1 X-0.91S800
G1 X-4.83S0
G1 X-2.59S800
G1 X-2.1S0
G1 X-0.91S800
G1 X-3.29S0
G1 X-0.21S800
G1 X-7S0
G1 X-0.7S800
G1 X-2.38S0
G1 X-1.26S800
G1 X-3.36S0
G1 X-0.35S800
G1 X-1.75S0
G1 X-0.14S800
G1 X-3.15S0
G1 X-0.21S800
G1 X-0.77S0
G1 X-0.7S800
G1 X-1.05S0
G1 X-0.7S800
G1 X-6.58S0
G1 X-0.14S800
G1 X-6.44S0
G1 X-0.28S800
G1 X-7.56S0
G1 X-0.14S800
G0 X-3.125
G0 X2.03Y0.07
G0 X3.125
G1 X0.14
G1 X5.46S0
G1 X0.28S800
G1 X6.51S0
G1 X0.14S800
G1 X6.51S0
G1 X0.77S800
G1 X1.12S0
G1 X0.7S800
G1 X4.06S0
G1 X0.14S800
G1 X1.61S0
G1 X0.49S800
G1 X3.36S0
G1 X1.4S800
G1 X2.38S0
G1 X0.63S800
G1 X10.43S0
G1 X0.84S800
G1 X2.52S0
G1 X2.45S800
G1 X4.9S0
G1 X0.7S800
G1 X2.45S0
G1 X1.26S800
G1 X76.93S0
G1 X0.63S800
G1 X0.42S0
G1 X0.07S800
G1 X5.04S0
G1 X0.14S800
G1 X0.49S0
G1 X0.49S800
G1 X0.77S0
G1 X0.49S800
G1 X5.46S0
G1 X0.77S800
G1 X1.05S0
G1 X0.49S800
G1 X7.28S0
G1 X2.17S800
G1 X8.33S0
G1 X1.96S800
G1 X4.34S0
G1 X0.91S800
G1 X1.05S0
G1 X0.14S800
G1 X0.42S0
G1 X0.07S800
G1 X1.26S0
G1 X0.42S800
G1 X3.71S0
G1 X0.63S800
G1 X0.56S0
G1 X0.35S800
G1 X0.98S0
G1 X3.01S800
G1 X0.77S0
G1 X0.56S800
G1 X11.06S0
G1 X0.49S800
G1 X0.49S0
G1 X0.14S800
G1 X1.75S0
G1 X0.49S800
G1 X3.57S0
G1 X0.84S800
G1 X0.49S0
G1 X0.63S800
G1 X1.26S0
G1 X0.42S800
G1 X0.98S0
G1 X0.42S800
G1 X0.56S0
G1 X0.49S800
G1 X0.7S0
G1 X1.12S800
G1 X0.7S0
G1 X0.63S800
G1 X0.98S0
G1 X0.21S800
G1 X3.22S0
G1 X0.21S800
G1 X1.12S0
G1 X0.28S800
G1 X5.32S0
G1 X0.35S800
G1 X1.89S0
G1 X0.42S800
G1 X8.19S0
G1 X0.28S800
G1 X17.22S0
G1 X0.7S800
G0 X3.125
G0 X-0.07Y0.07
G0 X-3.125
G1 X-0.63
G1 X-17.29S0
G1 X-0.21S800
G1 X-8.26S0
G1 X-0.28S800
G1 X-1.96S0
G1 X-0.35S800
G1 X-5.32S0
G1 X-0.28S800
G1 X-1.12S0
G1 X-0.28S800
G1 X-2.45S0
G1 X-0.14S800
G1 X-0.56S0
G1 X-0.28S800
G1 X-0.84S0
G1 X-0.7S800
G1 X-0.77S0
G1 X-1.05S800
G1 X-0.7S0
G1 X-0.49S800
G1 X-0.56S0
G1 X-0.42S800
G1 X-1.05S0
G1 X-0.42S800
G1 X-1.19S0
G1 X-0.63S800
G1 X-0.42S0
G1 X-0.84S800
G1 X-3.57S0
G1 X-0.49S800
G1 X-1.82S0
G1 X-0.14S800
G1 X-0.42S0
G1 X-0.49S800
G1 X-11.06S0
G1 X-0.56S800
G1 X-0.84S0
G1 X-5.53S800
G1 X-3.71S0
G1 X-0.49S800
G1 X-1.12S0
G1 X-0.21S800
G1 X-1.47S0
G1 X-1.05S800
G1 X-4.41S0
G1 X-1.82S800
G1 X-8.33S0
G1 X-2.24S800
G1 X-7.21S0
G1 X-0.49S800
G1 X-1.12S0
G1 X-0.7S800
G1 X-5.46S0
G1 X-0.49S800
G1 X-0.7S0
G1 X-0.49S800
G1 X-0.56S0
G1 X-0.14S800
G1 X-4.97S0
G1 X-0.21S800
G1 X-0.35S0
G1 X-0.7S800
G1 X-76.72S0
G1 X-1.19S800
G1 X-2.66S0
G1 X-0.49S800
G1 X-4.83S0
G1 X-2.45S800
G1 X-2.87S0
G1 X-0.84S800
G1 X-3.78S0
G1 X-0.56S800
G1 X-5.95S0
G1 X-0.7S800
G1 X-2.31S0
G1 X-1.47S800
G1 X-0.98S0
G1 X-0.35S800
G1 X-1.96S0
G1 X-0.56S800
G1 X-5.81S0
G1 X-0.63S800
G1 X-1.19S0
G1 X-2.52S800
G1 X-0.63S0
G1 X-0.35S800
G1 X-4.97S0
G1 X-0.28S800
G1 X-5.25S0
G1 X-0.21S800
G1 X-5.32S0
G1 X-0.35S800
G0 X-3.125
G0 Y0.07
G0 X3.125
G1 X0.42
G1 X5.18S0
G1 X0.14S800
G1 X5.46S0
G1 X0.14S800
G1 X4.9S0
G1 X0.56S800
G1 X0.42S0
G1 X2.73S800
G1 X1.26S0
G1 X0.63S800
G1 X5.53S0
G1 X0.77S800
G1 X1.61S0
G1 X0.56S800
G1 X1.05S0
G1 X1.68S800
G1 X2.17S0
G1 X0.77S800
G1 X5.6S0
G1 X0.7S800
G1 X3.78S0
G1 X0.77S800
G1 X3.22S0
G1 X2.45S800
G1 X4.9S0
G1 X0.42S800
G1 X2.66S0
G1 X1.19S800
G1 X76.58S0
G1 X0.56S800
G1 X0.49S0
G1 X0.14S800
G1 X4.97S0
G1 X0.14S800
G1 X0.56S0
G1 X0.42S800
G1 X0.77S0
G1 X0.49S800
G1 X5.39S0
G1 X0.77S800
G1 X1.12S0
G1 X0.49S800
G1 X7.21S0
G1 X2.31S800
G1 X8.19S0
G1 X1.61S800
G1 X4.69S0
G1 X1.05S800
G1 X1.47S0
G1 X0.21S800
G1 X1.12S0
G1 X0.42S800
G1 X3.71S0
G1 X5.6S800
G1 X0.77S0
G1 X0.63S800
G1 X11.06S0
G1 X0.49S800
G1 X0.42S0
G1 X0.14S800
G1 X1.82S0
G1 X0.49S800
G1 X3.57S0
G1 X0.84S800
G1 X0.49S0
G1 X0.56S800
G1 X1.19S0
G1 X0.49S800
G1 X0.91S0
G1 X0.42S800
G1 X0.63S0
G1 X0.49S800
G1 X0.7S0
G1 X0.98S800
G1 X0.84S0
G1 X0.63S800
G1 X0.91S0
G1 X0.28S800
G1 X0.56S0
G1 X0.14S800
G1 X2.45S0
G1 X0.28S800
G1 X1.05S0
G1 X0.35S800
G1 X5.39S0
G1 X0.28S800
G1 X1.96S0
G1 X0.21S800
G1 X8.33S0
G1 X0.21S800
G1 X17.22S0
G1 X0.63S800
G0 X3.125
G0 Y0.07
G0 X-3.125
G1 X-0.7
G1 X-17.15S0
G1 X-0.28S800
G1 X-8.26S0
G1 X-0.21S800
G1 X-1.96S0
G1 X-0.28S800
G1 X-5.39S0
G1 X-0.35S800
G1 X-1.12S0
G1 X-0.28S800
G1 X-2.38S0
G1 X-0.14S800
G1 X-0.56S0
G1 X-0.28S800
G1 X-0.91S0
G1 X-0.7S800
G1 X-0.7S0
G1 X-1.12S800
G1 X-0.7S0
G1 X-0.42S800
G1 X-0.63S0
G1 X-0.42S800
G1 X-0.91S0
G1 X-0.56S800
G1 X-1.12S0
G1 X-0.56S800
G1 X-0.49S0
G1 X-0.77S800
G1 X-3.57S0
G1 X-0.49S800
G1 X-1.82S0
G1 X-0.14S800
G1 X-0.49S0
G1 X-0.49S800
G1 X-11.06S0
G1 X-0.56S800
G1 X-0.84S0
G1 X-5.6S800
G1 X-3.78S0
G1 X-0.35S800
G1 X-1.12S0
G1 X-0.21S800
G1 X-1.47S0
G1 X-1.12S800
G1 X-4.76S0
G1 X-1.47S800
G1 X-8.26S0
G1 X-2.24S800
G1 X-7.21S0
G1 X-0.63S800
G1 X-0.98S0
G1 X-0.77S800
G1 X-5.39S0
G1 X-0.49S800
G1 X-0.7S0
G1 X-0.56S800
G1 X-0.49S0
G1 X-0.14S800
G1 X-4.97S0
G1 X-0.14S800
G1 X-0.49S0
G1 X-0.63S800
G1 X-76.44S0
G1 X-1.12S800
G1 X-0.84S0
G1 X-0.07S800
G1 X-1.75S0
G1 X-0.42S800
G1 X-4.83S0
G1 X-2.38S800
G1 X-3.57S0
G1 X-0.84S800
G1 X-3.85S0
G1 X-0.56S800
G1 X-5.39S0
G1 X-0.7S800
G1 X-2.38S0
G1 X-1.26S800
G1 X-0.14S0
G1 X-0.21S800
G1 X-1.19S0
G1 X-0.63S800
G1 X-1.4S0
G1 X-0.91S800
G1 X-5.39S0
G1 X-0.56S800
G1 X-1.4S0
G1 X-2.8S800
G1 X-0.35S0
G1 X-0.7S800
G1 X-4.83S0
G1 X-0.07S800
G1 X-5.46S0
G1 X-0.21S800
G1 X-5.04S0
G1 X-0.49S800
G0 X-3.125
G0 Y0.07
G0 X3.125
G1 X0.56
G1 X4.9S0
G1 X0.21S800
G1 X10.29S0
G1 X0.98S800
G1 X0.07S0
G1 X1.61S800
G1 X0.21S0
G1 X0.07S800
G1 X0.14S0
G1 X0.07S800
G1 X2.38S0
G1 X0.42S800
G1 X2.59S0
G1 X1.05S800
G1 X1.75S0
G1 X0.98S800
G1 X1.19S0
G1 X0.7S800
G1 X1.75S0
G1 X1.26S800
G1 X1.61S0
G1 X0.21S800
G1 X0.56S0
G1 X0.63S800
G1 X5.04S0
G1 X0.7S800
G1 X3.92S0
G1 X0.7S800
G1 X3.99S0
G1 X2.31S800
G1 X4.83S0
G1 X0.42S800
G1 X1.61S0
G1 X0.28S800
G1 X0.7S0
G1 X1.19S800
G1 X76.37S0
G1 X0.56S800
G1 X0.49S0
G1 X0.14S800
G1 X2.87S0
G1 X0.14S800
G1 X1.96S0
G1 X0.14S800
G1 X0.49S0
G1 X0.49S800
G1 X0.77S0
G1 X0.49S800
G1 X5.39S0
G1 X0.7S800
G1 X1.05S0
G1 X0.63S800
G1 X7.14S0
G1 X2.31S800
G1 X8.26S0
G1 X1.19S800
G1 X5.04S0
G1 X1.05S800
G1 X1.54S0
G1 X0.21S800
G1 X1.12S0
G1 X0.35S800
G1 X3.78S0
G1 X5.6S800
G1 X0.84S0
G1 X0.63S800
G1 X10.99S0
G1 X0.49S800
G1 X0.49S0
G1 X0.14S800
G1 X1.82S0
G1 X0.49S800
G1 X3.57S0
G1 X0.84S800
G1 X0.49S0
G1 X0.49S800
G1 X1.05S0
G1 X0.56S800
G1 X0.91S0
G1 X0.49S800
G1 X0.63S0
G1 X0.42S800
G1 X0.77S0
G1 X0.98S800
G1 X0.77S0
G1 X0.7S800
G1 X0.84S0
G1 X0.35S800
G1 X0.49S0
G1 X0.21S800
G1 X2.38S0
G1 X0.28S800
G1 X1.05S0
G1 X0.42S800
G1 X5.39S0
G1 X0.28S800
G1 X1.96S0
G1 X0.21S800
G1 X8.26S0
G1 X0.21S800
G1 X17.22S0
G1 X0.63S800
G0 X3.125
G0 Y0.07
G0 X-3.125
G1 X-0.7
G1 X-17.15S0
G1 X-0.28S800
G1 X-8.19S0
G1 X-0.21S800
G1 X-1.96S0
G1 X-0.28S800
G1 X-5.39S0
G1 X-0.42S800
G1 X-1.05S0
G1 X-0.35S800
G1 X-2.31S0
G1 X-0.21S800
G1 X-0.49S0
G1 X-0.35S800
G1 X-0.84S0
G1 X-0.7S800
G1 X-0.7S0
G1 X-1.12S800
G1 X-0.7S0
G1 X-0.42S800
G1 X-0.7S0
G1 X-0.35S800
G1 X-0.91S0
G1 X-0.63S800
G1 X-1.05S0
G1 X-0.49S800
G1 X-0.49S0
G1 X-0.77S800
G1 X-3.64S0
G1 X-0.49S800
G1 X-1.75S0
G1 X-0.21S800
G1 X-0.49S0
G1 X-0.42S800
G1 X-11.06S0
G1 X-0.7S800
G1 X-0.7S0
G1 X-5.74S800
G1 X-3.71S0
G1 X-0.42S800
G1 X-1.05S0
G1 X-0.14S800
G1 X-1.54S0
G1 X-1.19S800
G1 X-5.11S0
G1 X-1.05S800
G1 X-8.26S0
G1 X-2.31S800
G1 X-7.14S0
G1 X-0.7S800
G1 X-0.98S0
G1 X-0.7S800
G1 X-5.39S0
G1 X-0.49S800
G1 X-0.7S0
G1 X-0.56S800
G1 X-0.49S0
G1 X-0.14S800
G1 X-2.03S0
G1 X-0.07S800
G1 X-2.87S0
G1 X-0.14S800
G1 X-0.49S0
G1 X-0.63S800
G1 X-76.23S0
G1 X-1.12S800
G1 X-0.7S0
G1 X-0.35S800
G1 X-1.61S0
G1 X-0.35S800
G1 X-4.69S0
G1 X-2.45S800
G1 X-4.2S0
G1 X-0.77S800
G1 X-3.92S0
G1 X-0.77S800
G1 X-0.7S0
G1 X-0.28S800
G1 X-3.71S0
G1 X-0.7S800
G1 X-0.63S0
G1 X-0.28S800
G1 X-1.47S0
G1 X-1.26S800
G1 X-1.89S0
G1 X-0.63S800
G1 X-1.12S0
G1 X-1.12S800
G1 X-1.68S0
G1 X-1.05S800
G1 X-2.52S0
G1 X-0.42S800
G1 X-2.94S0
G1 X-2.87S800
G1 X-10.15S0
G1 X-0.21S800
G1 X-4.76S0
G1 X-0.7S800
G0 X-3.125
G0 X0.07Y0.07
G0 X3.125
G1 X0.7
G1 X4.62S0
G1 X0.21S800
G1 X10.22S0
G1 X2.94S800
G1 X3.01S0
G1 X0.35S800
G1 X2.45S0
G1 X0.98S800
G1 X1.75S0
G1 X1.19S800
G1 X0.98S0
G1 X0.63S800
G1 X2.1S0
G1 X1.26S800
G1 X1.4S0
G1 X0.14S800
G1 X0.77S0
G1 X0.77S800
G1 X3.64S0
G1 X0.21S800
G1 X0.7S0
G1 X0.56S800
G1 X4.06S0
G1 X0.7S800
G1 X4.55S0
G1 X2.38S800
G1 X4.69S0
G1 X0.28S800
G1 X1.61S0
G1 X0.42S800
G1 X0.7S0
G1 X1.12S800
G1 X76.09S0
G1 X0.63S800
G1 X0.49S0
G1 X0.14S800
G1 X2.8S0
G1 X0.14S800
G1 X2.03S0
G1 X0.14S800
G1 X0.49S0
G1 X0.49S800
G1 X0.77S0
G1 X0.49S800
G1 X5.39S0
G1 X0.7S800
G1 X1.05S0
G1 X0.56S800
G1 X7.21S0
G1 X2.24S800
G1 X8.26S0
G1 X0.98S800
G1 X5.25S0
G1 X1.26S800
G1 X1.4S0
G1 X0.28S800
G1 X0.91S0
G1 X0.49S800
G1 X3.71S0
G1 X5.74S800
G1 X0.77S0
G1 X0.63S800
G1 X11.06S0
G1 X0.49S800
G1 X0.42S0
G1 X0.21S800
G1 X1.82S0
G1 X0.49S800
G1 X3.57S0
G1 X0.84S800
G1 X0.49S0
G1 X0.42S800
G1 X0.98S0
G1 X0.63S800
G1 X0.91S0
G1 X0.42S800
G1 X0.7S0
G1 X0.42S800
G1 X0.7S0
G1 X1.05S800
G1 X0.77S0
G1 X0.7S800
G1 X0.77S0
G1 X0.42S800
G1 X0.49S0
G1 X0.21S800
G1 X2.31S0
G1 X0.35S800
G1 X1.05S0
G1 X0.35S800
G1 X5.53S0
G1 X0.21S800
G1 X1.96S0
G1 X0.21S800
G1 X8.19S0
G1 X0.21S800
G1 X17.22S0
G1 X0.63S800
G0 X3.125
G0 Y0.07
G0 X-3.125
G1 X-0.7
G1 X-17.15S0
G1 X-0.21S800
G1 X-8.19S0
G1 X-0.21S800
G1 X-1.96S0
G1 X-0.21S800
G1 X-5.53S0
G1 X-0.35S800
G1 X-1.12S0
G1 X-0.28S800
G1 X-2.31S0
G1 X-0.28S800
G1 X-0.42S0
G1 X-0.42S800
G1 X-0.77S0
G1 X-0.7S800
G1 X-0.63S0
G1 X-1.26S800
G1 X-0.63S0
G1 X-0.42S800
G1 X-0.77S0
G1 X-0.35S800
G1 X-0.98S0
G1 X-0.56S800
G1 X-1.05S0
G1 X-0.28S800
G1 X-0.56S0
G1 X-0.77S800
G1 X-3.64S0
G1 X-0.49S800
G1 X-1.82S0
G1 X-0.21S800
G1 X-0.42S0
G1 X-0.49S800
G1 X-10.99S0
G1 X-0.7S800
G1 X-0.77S0
G1 X-5.81S800
G1 X-3.64S0
G1 X-0.49S800
G1 X-0.84S0
G1 X-0.35S800
G1 X-1.47S0
G1 X-0.07S800
G1 X-0.35S0
G1 X-0.77S800
G1 X-5.39S0
G1 X-0.84S800
G1 X-8.26S0
G1 X-2.24S800
G1 X-7.21S0
G1 X-0.63S800
G1 X-0.98S0
G1 X-0.77S800
G1 X-5.32S0
G1 X-0.49S800
G1 X-0.7S0
G1 X-0.63S800
G1 X-2.66S0
G1 X-0.07S800
G1 X-2.8S0
G1 X-0.14S800
G1 X-0.49S0
G1 X-0.7S800
G1 X-75.88S0
G1 X-1.12S800
G1 X-0.7S0
G1 X-0.42S800
G1 X-1.61S0
G1 X-0.28S800
G1 X-4.62S0
G1 X-2.38S800
G1 X-4.83S0
G1 X-0.7S800
G1 X-4.2S0
G1 X-0.28S800
G1 X-0.7S0
G1 X-0.28S800
G1 X-3.64S0
G1 X-0.63S800
G1 X-2.38S0
G1 X-1.12S800
G1 X-2.38S0
G1 X-0.63S800
G1 X-0.91S0
G1 X-1.19S800
G1 X-5.04S0
G1 X-0.49S800
G1 X-1.82S0
G1 X-0.07S800
G1 X-0.14S0
G1 X-0.07S800
G1 X-0.07S0
G1 X-0.07S800
G1 X-0.07S0
G1 X-0.07S800
G1 X-0.07S0
G1 X-0.07S800
G1 X-0.07S0
G1 X-3.29S800
G1 X-10.36S0
G1 X-0.21S800
G1 X-4.48S0
G1 X-0.42S800
G1 X-0.14S0
G1 X-0.14S800
G0 X-3.125
G0 X0.35Y0.07
G0 X3.125
G1 X1.96
G1 X0.14S0
G1 X0.07S800
G1 X2.52S0
G1 X0.28S800
G1 X5.95S0
G1 X0.49S800
G1 X4.06S0
G1 X0.07S800
G1 X0.07S0
G1 X3.92S800
G1 X0.07S0
G1 X0.07S800
G1 X1.75S0
G1 X1.33S800
G1 X3.99S0
G1 X1.26S800
G1 X0.21S0
G1 X0.21S800
G1 X0.49S0
G1 X0.56S800
G1 X2.52S0
G1 X1.26S800
G1 X2.24S0
G1 X0.7S800
G1 X3.5S0
G1 X0.35S800
G1 X5.04S0
G1 X0.63S800
G1 X5.25S0
G1 X2.24S800
G1 X4.48S0
G1 X0.35S800
G1 X1.68S0
G1 X0.42S800
G1 X0.63S0
G1 X1.12S800
G1 X75.81S0
G1 X0.7S800
G1 X0.49S0
G1 X0.14S800
G1 X5.53S0
G1 X0.56S800
G1 X0.77S0
G1 X0.49S800
G1 X5.32S0
G1 X0.77S800
G1 X0.98S0
G1 X0.63S800
G1 X7.14S0
G1 X2.24S800
G1 X7.07S0
G1 X0.07S800
G1 X1.19S0
G1 X0.7S800
G1 X2.94S0
G1 X0.14S800
G1 X2.45S0
G1 X0.77S800
G1 X0.42S0
G1 X0.07S800
G1 X1.4S0
G1 X0.35S800
G1 X0.84S0
G1 X0.49S800
G1 X3.64S0
G1 X5.39S800
G1 X0.14S0
G1 X0.28S800
G1 X0.77S0
G1 X0.7S800
G1 X11.06S0
G1 X0.42S800
G1 X0.49S0
G1 X0.21S800
G1 X1.75S0
G1 X0.49S800
G1 X3.64S0
G1 X0.84S800
G1 X0.49S0
G1 X0.35S800
G1 X0.98S0
G1 X0.56S800
G1 X0.91S0
G1 X0.42S800
G1 X0.77S0
G1 X0.42S800
G1 X0.63S0
G1 X1.26S800
G1 X0.63S0
G1 X0.63S800
G1 X0.84S0
G1 X0.42S800
G1 X0.42S0
G1 X0.21S800
G1 X2.31S0
G1 X0.35S800
G1 X1.12S0
G1 X0.28S800
G1 X5.6S0
G1 X0.21S800
G1 X1.89S0
G1 X0.28S800
G1 X8.19S0
G1 X0.14S800
G1 X17.15S0
G1 X0.7S800
G0 X3.125
G0 Y0.07
G0 X-3.125
G1 X-0.77
G1 X-17.08S0
G1 X-0.14S800
G1 X-8.19S0
G1 X-0.21S800
G1 X-1.89S0
G1 X-0.28S800
G1 X-5.6S0
G1 X-0.28S800
G1 X-1.19S0
G1 X-0.28S800
G1 X-2.31S0
G1 X-0.28S800
G1 X-0.42S0
G1 X-0.35S800
G1 X-0.77S0
G1 X-0.7S800
G1 X-0.56S0
G1 X-1.4S800
G1 X-0.56S0
G1 X-0.42S800
G1 X-0.84S0
G1 X-0.35S800
G1 X-0.91S0
G1 X-0.56S800
G1 X-1.05S0
G1 X-0.21S800
G1 X-0.49S0
G1 X-0.84S800
G1 X-3.64S0
G1 X-0.49S800
G1 X-1.89S0
G1 X-0.14S800
G1 X-0.49S0
G1 X-0.42S800
G1 X-11.06S0
G1 X-0.63S800
G1 X-0.84S0
G1 X-0.21S800
G1 X-0.21S0
G1 X-5.46S800
G1 X-3.57S0
G1 X-0.56S800
G1 X-0.7S0
G1 X-0.35S800
G1 X-1.47S0
G1 X-0.07S800
G1 X-0.42S0
G1 X-0.84S800
G1 X-2.45S0
G1 X-0.28S800
G1 X-2.8S0
G1 X-0.7S800
G1 X-1.12S0
G1 X-0.14S800
G1 X-7S0
G1 X-0.56S800
G1 X-0.21S0
G1 X-1.4S800
G1 X-7.21S0
G1 X-0.63S800
G1 X-0.98S0
G1 X-0.77S800
G1 X-5.32S0
G1 X-0.49S800
G1 X-0.7S0
G1 X-0.77S800
G1 X-5.39S0
G1 X-0.14S800
G1 X-0.49S0
G1 X-0.7S800
G1 X-75.67S0
G1 X-1.12S800
G1 X-0.63S0
G1 X-0.42S800
G1 X-1.75S0
G1 X-0.21S800
G1 X-4.41S0
G1 X-2.24S800
G1 X-5.6S0
G1 X-0.63S800
G1 X-4.9S0
G1 X-0.35S800
G1 X-3.5S0
G1 X-0.7S800
G1 X-2.24S0
G1 X-1.19S800
G1 X-2.73S0
G1 X-0.49S800
G1 X-0.42S0
G1 X-0.35S800
G1 X-0.21S0
G1 X-1.12S800
G1 X-3.92S0
G1 X-1.4S800
G1 X-1.75S0
G1 X-4.13S800
G1 X-4.2S0
G1 X-0.42S800
G1 X-6.16S0
G1 X-0.21S800
G1 X-2.38S0
G1 X-2.17S800
G0 X-3.125
G0 X0.07Y0.07
G0 X3.125
G1 X2.24
G1 X2.17S0
G1 X0.21S800
G1 X6.37S0
G1 X0.35S800
G1 X4.34S0
G1 X4.06S800
G1 X1.75S0
G1 X1.33S800
G1 X3.78S0
G1 X1.12S800
G1 X0.35S0
G1 X0.28S800
G1 X0.42S0
G1 X0.35S800
G1 X3.01S0
G1 X1.05S800
G1 X2.45S0
G1 X0.63S800
G1 X3.43S0
G1 X0.28S800
G1 X4.83S0
G1 X0.56S800
G1 X6.02S0
G1 X2.17S800
G1 X4.27S0
G1 X0.21S800
G1 X1.75S0
G1 X0.49S800
G1 X0.63S0
G1 X1.05S800
G1 X75.6S0
G1 X0.7S800
G1 X0.49S0
G1 X0.14S800
G1 X5.39S0
G1 X0.7S800
G1 X0.77S0
G1 X0.49S800
G1 X5.32S0
G1 X0.77S800
G1 X0.98S0
G1 X0.56S800
G1 X7.28S0
G1 X1.26S800
G1 X0.35S0
G1 X0.56S800
G1 X7S0
G1 X0.14S800
G1 X1.12S0
G1 X0.63S800
G1 X2.73S0
G1 X0.28S800
G1 X2.59S0
G1 X0.84S800
G1 X0.42S0
G1 X0.07S800
G1 X1.4S0
G1 X0.42S800
G1 X0.7S0
G1 X0.56S800
G1 X3.57S0
G1 X5.46S800
G1 X0.21S0
G1 X0.28S800
G1 X0.7S0
G1 X0.77S800
G1 X11.06S0
G1 X0.42S800
G1 X0.49S0
G1 X0.14S800
G1 X1.82S0
G1 X0.49S800
G1 X3.64S0
G1 X0.84S800
G1 X0.56S0
G1 X0.14S800
G1 X1.05S0
G1 X0.56S800
G1 X0.91S0
G1 X0.35S800
G1 X0.84S0
G1 X0.49S800
G1 X0.49S0
G1 X1.4S800
G1 X0.56S0
G1 X0.63S800
G1 X0.77S0
G1 X0.42S800
G1 X0.35S0
G1 X0.42S800
G1 X2.24S0
G1 X0.28S800
G1 X1.19S0
G1 X0.21S800
G1 X5.74S0
G1 X0.21S800
G1 X1.89S0
G1 X0.21S800
G1 X8.12S0
G1 X0.21S800
G1 X17.08S0
G1 X0.7S800
G0 X3.125
G0 Y0.07
G0 X-3.125
G1 X-0.77
G1 X-17.08S0
G1 X-0.14S800
G1 X-8.12S0
G1 X-0.21S800
G1 X-1.82S0
G1 X-0.28S800
G1 X-5.67S0
G1 X-0.28S800
G1 X-1.19S0
G1 X-0.28S800
G1 X-2.31S0
G1 X-0.35S800
G1 X-0.42S0
G1 X-0.35S800
G1 X-0.77S0
G1 X-0.7S800
G1 X-0.42S0
G1 X-1.54S800
G1 X-0.49S0
G1 X-0.42S800
G1 X-0.91S0
G1 X-0.28S800
G1 X-0.98S0
G1 X-0.49S800
G1 X-1.68S0
G1 X-0.84S800
G1 X-3.71S0
G1 X-0.49S800
G1 X-1.82S0
G1 X-0.14S800
G1 X-0.49S0
G1 X-0.42S800
G1 X-11.06S0
G1 X-0.77S800
G1 X-0.7S0
G1 X-0.28S800
G1 X-0.21S0
G1 X-5.53S800
G1 X-3.5S0
G1 X-0.63S800
G1 X-0.63S0
G1 X-0.42S800
G1 X-1.33S0
G1 X-0.21S800
G1 X-0.42S0
G1 X-0.84S800
G1 X-2.73S0
G1 X-0.28S800
G1 X-2.52S0
G1 X-0.63S800
G1 X-1.12S0
G1 X-0.07S800
G1 X-7.14S0
G1 X-0.49S800
G1 X-1.19S0
G1 X-0.49S800
G1 X-7.21S0
G1 X-0.63S800
G1 X-0.91S0
G1 X-0.77S800
G1 X-5.32S0
G1 X-0.49S800
G1 X-0.7S0
G1 X-0.77S800
G1 X-5.39S0
G1 X-0.14S800
G1 X-0.56S0
G1 X-0.63S800
G1 X-75.53S0
G1 X-1.05S800
G1 X-0.56S0
G1 X-0.56S800
G1 X-1.75S0
G1 X-0.21S800
G1 X-4.2S0
G1 X-2.1S800
G1 X-6.44S0
G1 X-0.42S800
G1 X-7.42S0
G1 X-1.61S800
G1 X-2.59S0
G1 X-0.91S800
G1 X-3.29S0
G1 X-0.07S800
G1 X-0.35S0
G1 X-0.42S800
G1 X-0.35S0
G1 X-1.05S800
G1 X-3.78S0
G1 X-0.49S800
G1 X-0.21S0
G1 X-0.07S800
G1 X-1.68S0
G1 X-0.14S800
G1 X-0.56S0
G1 X-2.8S800
G1 X-0.28S0
G1 X-0.84S800
G1 X-4.48S0
G1 X-0.28S800
G1 X-6.44S0
G1 X-0.35S800
G1 X-1.89S0
G1 X-0.7S800
G1 X-1.26S0
G1 X-0.35S800
G0 X-3.125
G0 X0.07Y0.07
G0 X3.125
G1 X0.28
G1 X1.4S0
G1 X0.7S800
G1 X1.54S0
G1 X0.49S800
G1 X6.51S0
G1 X0.21S800
G1 X4.69S0
G1 X0.7S800
G1 X0.42S0
G1 X2.66S800
G1 X0.56S0
G1 X0.21S800
G1 X1.96S0
G1 X0.49S800
G1 X3.64S0
G1 X0.98S800
G1 X0.56S0
G1 X0.49S800
G1 X3.64S0
G1 X0.91S800
G1 X2.66S0
G1 X1.54S800
G1 X7.28S0
G1 X0.42S800
G1 X6.79S0
G1 X1.96S800
G1 X4.2S0
G1 X0.14S800
G1 X1.82S0
G1 X0.56S800
G1 X0.49S0
G1 X1.12S800
G1 X75.39S0
G1 X0.63S800
G1 X0.56S0
G1 X0.14S800
G1 X5.39S0
G1 X0.77S800
G1 X0.7S0
G1 X0.49S800
G1 X5.32S0
G1 X0.77S800
G1 X0.98S0
G1 X0.49S800
G1 X7.35S0
G1 X0.42S800
G1 X1.19S0
G1 X0.49S800
G1 X7.07S0
G1 X0.14S800
G1 X1.12S0
G1 X0.63S800
G1 X2.31S0
G1 X0.42S800
G1 X2.87S0
G1 X0.84S800
G1 X0.42S0
G1 X0.14S800
G1 X1.33S0
G1 X0.49S800
G1 X0.56S0
G1 X0.56S800
G1 X3.57S0
G1 X4.83S800
G1 X0.14S0
G1 X0.56S800
G1 X0.21S0
G1 X0.28S800
G1 X0.77S0
G1 X0.7S800
G1 X11.06S0
G1 X0.42S800
G1 X0.49S0
G1 X0.21S800
G1 X1.75S0
G1 X0.49S800
G1 X3.71S0
G1 X0.84S800
G1 X1.68S0
G1 X0.49S800
G1 X0.98S0
G1 X0.28S800
G1 X0.91S0
G1 X0.42S800
G1 X0.49S0
G1 X1.54S800
G1 X0.42S0
G1 X0.77S800
G1 X0.7S0
G1 X0.35S800
G1 X0.42S0
G1 X0.28S800
G1 X2.38S0
G1 X0.28S800
G1 X1.19S0
G1 X0.28S800
G1 X5.67S0
G1 X0.28S800
G1 X1.82S0
G1 X0.21S800
G1 X8.12S0
G1 X0.14S800
G1 X17.08S0
G1 X0.77S800
G0 X3.125
G0 X-0.07Y0.07
G0 X-3.125
G1 X-0.77
G1 X-16.94S0
G1 X-0.28S800
G1 X-8.05S0
G1 X-0.21S800
G1 X-1.82S0
G1 X-0.28S800
G1 X-5.74S0
G1 X-0.21S800
G1 X-1.19S0
G1 X-0.28S800
G1 X-2.38S0
G1 X-0.35S800
G1 X-0.42S0
G1 X-0.28S800
G1 X-0.77S0
G1 X-0.7S800
G1 X-0.42S0
G1 X-1.54S800
G1 X-0.49S0
G1 X-0.42S800
G1 X-0.98S0
G1 X-0.28S800
G1 X-0.91S0
G1 X-0.49S800
G1 X-1.68S0
G1 X-0.84S800
G1 X-3.64S0
G1 X-0.49S800
G1 X-1.82S0
G1 X-0.14S800
G1 X-0.49S0
G1 X-0.42S800
G1 X-11.06S0
G1 X-0.84S800
G1 X-0.7S0
G1 X-0.28S800
G1 X-0.21S0
G1 X-0.56S800
G1 X-0.14S0
G1 X-4.83S800
G1 X-3.57S0
G1 X-0.63S800
G1 X-0.56S0
G1 X-0.35S800
G1 X-1.4S0
G1 X-0.14S800
G1 X-0.49S0
G1 X-0.84S800
G1 X-2.87S0
G1 X-0.49S800
G1 X-2.24S0
G1 X-0.63S800
G1 X-1.05S0
G1 X-0.07S800
G1 X-7.14S0
G1 X-0.49S800
G1 X-1.19S0
G1 X-0.49S800
G1 X-7.28S0
G1 X-0.49S800
G1 X-1.05S0
G1 X-0.7S800
G1 X-5.32S0
G1 X-0.49S800
G1 X-0.77S0
G1 X-0.7S800
G1 X-5.39S0
G1 X-0.14S800
G1 X-0.56S0
G1 X-0.63S800
G1 X-75.32S0
G1 X-1.05S800
G1 X-0.49S0
G1 X-0.56S800
G1 X-1.89S0
G1 X-0.21S800
G1 X-3.99S0
G1 X-2.03S800
G1 X-6.93S0
G1 X-0.49S800
G1 X-7.28S0
G1 X-1.47S800
G1 X-2.59S0
G1 X-1.05S800
G1 X-3.36S0
G1 X-0.63S800
G1 X-0.63S0
G1 X-0.91S800
G1 X-3.71S0
G1 X-0.35S800
G1 X-2.03S0
G1 X-0.28S800
G1 X-0.49S0
G1 X-2.66S800
G1 X-0.56S0
G1 X-0.56S800
G1 X-4.76S0
G1 X-0.21S800
G1 X-6.58S0
G1 X-0.49S800
G1 X-1.4S0
G1 X-0.63S800
G1 X-1.61S0
G1 X-0.14S800
G0 X-3.125
G0 Y0.07
G0 X3.125
G1 X0.07
G1 X1.82S0
G1 X0.56S800
G1 X1.26S0
G1 X0.42S800
G1 X6.65S0
G1 X0.21S800
G1 X4.83S0
G1 X0.63S800
G1 X0.7S0
G1 X2.52S800
G1 X0.42S0
G1 X0.28S800
G1 X2.24S0
G1 X0.14S800
G1 X3.64S0
G1 X0.84S800
G1 X0.77S0
G1 X0.7S800
G1 X0.63S0
G1 X0.07S800
G1 X0.14S0
G1 X0.07S800
G1 X2.31S0
G1 X1.19S800
G1 X2.66S0
G1 X1.19S800
G1 X2.94S0
G1 X0.07S800
G1 X4.34S0
G1 X0.56S800
G1 X7.14S0
G1 X2.03S800
G1 X3.85S0
G1 X0.21S800
G1 X1.96S0
G1 X0.56S800
G1 X0.35S0
G1 X1.12S800
G1 X75.18S0
G1 X0.7S800
G1 X0.56S0
G1 X0.14S800
G1 X5.39S0
G1 X0.77S800
G1 X0.7S0
G1 X0.49S800
G1 X1.54S0
G1 X0.07S800
G1 X3.71S0
G1 X0.77S800
G1 X0.91S0
G1 X0.56S800
G1 X7.28S0
G1 X0.56S800
G1 X1.12S0
G1 X0.49S800
G1 X8.26S0
G1 X0.63S800
G1 X2.03S0
G1 X0.49S800
G1 X3.08S0
G1 X0.84S800
G1 X0.49S0
G1 X0.14S800
G1 X1.33S0
G1 X0.42S800
G1 X0.56S0
G1 X0.63S800
G1 X3.5S0
G1 X4.9S800
G1 X0.14S0
G1 X0.56S800
G1 X0.21S0
G1 X0.35S800
G1 X0.63S0
G1 X0.84S800
G1 X11.06S0
G1 X0.42S800
G1 X0.49S0
G1 X0.14S800
G1 X1.82S0
G1 X0.49S800
G1 X3.71S0
G1 X0.84S800
G1 X1.61S0
G1 X0.49S800
G1 X0.91S0
G1 X0.28S800
G1 X0.98S0
G1 X0.42S800
G1 X0.42S0
G1 X1.68S800
G1 X0.35S0
G1 X0.77S800
G1 X0.63S0
G1 X0.35S800
G1 X0.42S0
G1 X0.28S800
G1 X0.63S0
G1 X0.07S800
G1 X1.68S0
G1 X0.35S800
G1 X1.19S0
G1 X0.28S800
G1 X5.74S0
G1 X0.21S800
G1 X1.82S0
G1 X0.21S800
G1 X8.05S0
G1 X0.21S800
G1 X17.01S0
G1 X0.7S800
G0 X3.125
G0 Y0.07
G0 X-3.125
G1 X-0.77
G1 X-17.01S0
G1 X-0.14S800
G1 X-7.98S0
G1 X-0.35S800
G1 X-1.75S0
G1 X-0.21S800
G1 X-5.81S0
G1 X-0.21S800
G1 X-1.19S0
G1 X-0.28S800
G1 X-1.75S0
G1 X-0.21S800
G1 X-0.42S0
G1 X-0.35S800
G1 X-0.14S0
G1 X-0.07S800
G1 X-0.14S0
G1 X-0.49S800
G1 X-0.63S0
G1 X-0.84S800
G1 X-0.07S0
G1 X-1.82S800
G1 X-0.42S0
G1 X-0.42S800
G1 X-0.91S0
G1 X-0.35S800
G1 X-0.91S0
G1 X-0.49S800
G1 X-1.61S0
G1 X-0.84S800
G1 X-3.71S0
G1 X-0.49S800
G1 X-1.75S0
G1 X-0.21S800
G1 X-0.49S0
G1 X-0.42S800
G1 X-11.06S0
G1 X-0.77S800
G1 X-0.7S0
G1 X-0.28S800
G1 X-0.28S0
G1 X-0.56S800
G1 X-0.14S0
G1 X-2.73S800
G1 X-0.77S0
G1 X-1.4S800
G1 X-3.64S0
G1 X-0.49S800
G1 X-0.56S0
G1 X-0.42S800
G1 X-1.33S0
G1 X-0.07S800
G1 X-0.56S0
G1 X-0.91S800
G1 X-3.15S0
G1 X-0.56S800
G1 X-0.07S0
G1 X-0.07S800
G1 X-1.68S0
G1 X-0.63S800
G1 X-8.26S0
G1 X-0.49S800
G1 X-1.05S0
G1 X-0.7S800
G1 X-5.04S0
G1 X-0.21S800
G1 X-1.96S0
G1 X-0.49S800
G1 X-0.98S0
G1 X-0.77S800
G1 X-3.71S0
G1 X-0.14S800
G1 X-1.47S0
G1 X-0.56S800
G1 X-0.7S0
G1 X-0.7S800
G1 X-5.39S0
G1 X-0.14S800
G1 X-0.56S0
G1 X-0.7S800
G1 X-74.97S0
G1 X-1.19S800
G1 X-0.35S0
G1 X-0.63S800
G1 X-1.96S0
G1 X-0.14S800
G1 X-3.71S0
G1 X-0.07S800
G1 X-0.07S0
G1 X-1.89S800
G1 X-7.42S0
G1 X-0.63S800
G1 X-4.27S0
G1 X-0.21S800
G1 X-3.01S0
G1 X-0.84S800
G1 X-2.66S0
G1 X-1.4S800
G1 X-2.24S0
G1 X-0.42S800
G1 X-0.42S0
G1 X-0.63S800
G1 X-0.98S0
G1 X-0.7S800
G1 X-6.02S0
G1 X-0.35S800
G1 X-0.42S0
G1 X-0.28S800
G1 X-0.91S0
G1 X-1.05S800
G1 X-0.98S0
G1 X-0.49S800
G1 X-5.04S0
G1 X-0.21S800
G1 X-6.65S0
G1 X-0.42S800
G1 X-1.12S0
G1 X-0.42S800
G0 X-3.125
G0 Y0.07
G0 X3.125
G1 X0.49
G1 X0.98S0
G1 X0.35S800
G1 X6.72S0
G1 X0.21S800
G1 X5.11S0
G1 X0.49S800
G1 X1.26S0
G1 X0.7S800
G1 X0.98S0
G1 X0.28S800
G1 X0.42S0
G1 X0.56S800
G1 X5.74S0
G1 X0.77S800
G1 X0.91S0
G1 X0.7S800
G1 X0.28S0
G1 X0.49S800
G1 X2.24S0
G1 X1.47S800
G1 X2.73S0
G1 X0.84S800
G1 X2.94S0
G1 X0.21S800
G1 X4.2S0
G1 X0.63S800
G1 X7.7S0
G1 X1.96S800
G1 X3.57S0
G1 X0.21S800
G1 X2.1S0
G1 X0.56S800
G1 X0.28S0
G1 X1.19S800
G1 X74.9S0
G1 X0.7S800
G1 X0.56S0
G1 X0.14S800
G1 X5.39S0
G1 X0.77S800
G1 X0.63S0
G1 X0.56S800
G1 X1.54S0
G1 X0.07S800
G1 X3.71S0
G1 X0.77S800
G1 X0.91S0
G1 X0.49S800
G1 X2.03S0
G1 X0.14S800
G1 X5.18S0
G1 X0.77S800
G1 X0.84S0
G1 X0.56S800
G1 X8.26S0
G1 X0.56S800
G1 X1.61S0
G1 X0.56S800
G1 X0.07S0
G1 X0.07S800
G1 X3.29S0
G1 X0.91S800
G1 X0.49S0
G1 X0.14S800
G1 X1.33S0
G1 X0.42S800
G1 X0.49S0
G1 X0.56S800
G1 X3.64S0
G1 X1.4S800
G1 X1.05S0
G1 X2.38S800
G1 X0.28S0
G1 X0.49S800
G1 X0.21S0
G1 X0.42S800
G1 X0.56S0
G1 X0.91S800
G1 X10.99S0
G1 X0.49S800
G1 X0.49S0
G1 X0.14S800
G1 X1.75S0
G1 X0.56S800
G1 X3.71S0
G1 X0.77S800
G1 X1.61S0
G1 X0.42S800
G1 X0.91S0
G1 X0.35S800
G1 X0.98S0
G1 X0.42S800
G1 X0.35S0
G1 X2.87S800
G1 X0.49S0
G1 X1.19S800
G1 X0.49S0
G1 X0.21S800
G1 X1.68S0
G1 X0.35S800
G1 X1.19S0
G1 X0.21S800
G1 X5.88S0
G1 X0.14S800
G1 X1.82S0
G1 X0.21S800
G1 X8.05S0
G1 X0.14S800
G1 X17.01S0
G1 X0.7S800
G0 X3.125
G0 Y0.07
G0 X-3.125
G1 X-0.7
G1 X-17.01S0
G1 X-0.14S800
G1 X-7.91S0
G1 X-0.42S800
G1 X-1.68S0
G1 X-0.21S800
G1 X-5.88S0
G1 X-0.21S800
G1 X-1.26S0
G1 X-0.28S800
G1 X-2.38S0
G1 X-1.19S800
G1 X-0.56S0
G1 X-2.8S800
G1 X-0.35S0
G1 X-0.42S800
G1 X-1.05S0
G1 X-0.28S800
G1 X-0.91S0
G1 X-0.42S800
G1 X-1.54S0
G1 X-0.84S800
G1 X-3.71S0
G1 X-0.49S800
G1 X-1.82S0
G1 X-0.14S800
G1 X-0.42S0
G1 X-0.49S800
G1 X-11.06S0
G1 X-0.91S800
G1 X-0.56S0
G1 X-0.42S800
G1 X-0.14S0
G1 X-2.94S800
G1 X-1.33S0
G1 X-0.98S800
G1 X-0.14S0
G1 X-0.35S800
G1 X-3.57S0
G1 X-0.56S800
G1 X-0.56S0
G1 X-0.35S800
G1 X-1.26S0
G1 X-0.14S800
G1 X-0.56S0
G1 X-0.91S800
G1 X-3.64S0
G1 X-0.42S800
G1 X-1.54S0
G1 X-0.63S800
G1 X-8.19S0
G1 X-0.56S800
G1 X-0.42S0
G1 X-1.19S800
G1 X-7.28S0
G1 X-0.49S800
G1 X-0.98S0
G1 X-0.77S800
G1 X-3.71S0
G1 X-0.14S800
G1 X-1.47S0
G1 X-0.56S800
G1 X-0.7S0
G1 X-0.7S800
G1 X-5.39S0
G1 X-0.14S800
G1 X-0.56S0
G1 X-0.7S800
G1 X-74.83S0
G1 X-1.19S800
G1 X-0.28S0
G1 X-0.56S800
G1 X-2.1S0
G1 X-0.14S800
G1 X-3.43S0
G1 X-2.1S800
G1 X-7.91S0
G1 X-0.63S800
G1 X-4.2S0
G1 X-0.21S800
G1 X-2.73S0
G1 X-0.77S800
G1 X-2.87S0
G1 X-1.05S800
G1 X-0.21S0
G1 X-0.28S800
G1 X-2.45S0
G1 X-1.05S800
G1 X-0.14S0
G1 X-0.14S800
G1 X-0.84S0
G1 X-0.7S800
G1 X-5.67S0
G1 X-0.7S800
G1 X-0.49S0
G1 X-0.07S800
G1 X-1.26S0
G1 X-0.35S800
G1 X-1.4S0
G1 X-0.56S800
G1 X-5.18S0
G1 X-0.21S800
G1 X-6.65S0
G1 X-0.35S800
G1 X-0.91S0
G1 X-0.49S800
G0 X-3.125
G0 Y0.07
G0 X3.125
G1 X0.63
G1 X5.95S0
G1 X0.21S800
G1 X1.05S0
G1 X0.21S800
G1 X0.07S0
G1 X0.42S800
G1 X5.25S0
G1 X0.63S800
G1 X3.5S0
G1 X1.33S800
G1 X5.04S0
G1 X0.7S800
G1 X0.84S0
G1 X0.14S800
G1 X0.21S0
G1 X0.84S800
G1 X2.59S0
G1 X0.21S800
G1 X0.42S0
G1 X0.98S800
G1 X3.08S0
G1 X0.7S800
G1 X2.52S0
G1 X0.14S800
G1 X4.2S0
G1 X0.7S800
G1 X8.05S0
G1 X2.17S800
G1 X3.22S0
G1 X0.21S800
G1 X2.17S0
G1 X0.49S800
G1 X0.28S0
G1 X1.26S800
G1 X74.69S0
G1 X0.7S800
G1 X0.56S0
G1 X0.14S800
G1 X5.39S0
G1 X0.77S800
G1 X0.56S0
G1 X0.63S800
G1 X1.54S0
G1 X0.14S800
G1 X3.64S0
G1 X0.7S800
G1 X1.05S0
G1 X0.42S800
G1 X7.35S0
G1 X2.17S800
G1 X8.19S0
G1 X0.63S800
G1 X1.26S0
G1 X0.35S800
G1 X3.99S0
G1 X0.84S800
G1 X0.56S0
G1 X0.21S800
G1 X1.33S0
G1 X0.35S800
G1 X0.42S0
G1 X0.63S800
G1 X3.57S0
G1 X0.35S800
G1 X0.14S0
G1 X0.98S800
G1 X2.94S0
G1 X1.89S800
G1 X0.63S0
G1 X0.84S800
G1 X11.06S0
G1 X0.49S800
G1 X0.42S0
G1 X0.14S800
G1 X1.82S0
G1 X0.49S800
G1 X3.78S0
G1 X0.77S800
G1 X1.54S0
G1 X0.42S800
G1 X0.91S0
G1 X0.35S800
G1 X0.98S0
G1 X0.42S800
G1 X0.28S0
G1 X2.1S800
G1 X0.14S0
G1 X0.56S800
G1 X0.63S0
G1 X1.19S800
G1 X2.31S0
G1 X0.35S800
G1 X1.26S0
G1 X0.21S800
G1 X5.88S0
G1 X0.21S800
G1 X1.47S0
G1 X0.7S800
G1 X7.77S0
G1 X0.21S800
G1 X17.01S0
G1 X0.63S800
G0 X3.125
G0 Y0.07
G0 X-3.125
G1 X-0.7
G1 X-17.01S0
G1 X-0.14S800
G1 X-7.77S0
G1 X-0.7S800
G1 X-1.47S0
G1 X-0.21S800
G1 X-5.88S0
G1 X-0.28S800
G1 X-1.19S0
G1 X-0.35S800
G1 X-2.31S0
G1 X-1.19S800
G1 X-0.77S0
G1 X-0.42S800
G1 X-0.28S0
G1 X-1.96S800
G1 X-0.21S0
G1 X-0.49S800
G1 X-1.05S0
G1 X-0.28S800
G1 X-0.91S0
G1 X-0.42S800
G1 X-1.54S0
G1 X-0.77S800
G1 X-3.71S0
G1 X-0.56S800
G1 X-1.75S0
G1 X-0.14S800
G1 X-0.42S0
G1 X-0.56S800
G1 X-10.99S0
G1 X-0.98S800
G1 X-0.56S0
G1 X-1.89S800
G1 X-2.94S0
G1 X-0.98S800
G1 X-0.14S0
G1 X-0.35S800
G1 X-3.57S0
G1 X-0.56S800
G1 X-0.56S0
G1 X-0.35S800
G1 X-1.26S0
G1 X-0.14S800
G1 X-0.63S0
G1 X-0.91S800
G1 X-4.06S0
G1 X-0.35S800
G1 X-1.19S0
G1 X-0.56S800
G1 X-8.19S0
G1 X-2.24S800
G1 X-7.21S0
G1 X-0.56S800
G1 X-0.91S0
G1 X-0.77S800
G1 X-3.71S0
G1 X-0.14S800
G1 X-1.47S0
G1 X-0.77S800
G1 X-0.49S0
G1 X-0.7S800
G1 X-5.39S0
G1 X-0.14S800
G1 X-0.56S0
G1 X-0.7S800
G1 X-74.62S0
G1 X-1.26S800
G1 X-0.28S0
G1 X-0.49S800
G1 X-2.17S0
G1 X-0.21S800
G1 X-3.01S0
G1 X-2.31S800
G1 X-8.26S0
G1 X-0.7S800
G1 X-4.13S0
G1 X-0.14S800
G1 X-2.38S0
G1 X-0.77S800
G1 X-3.08S0
G1 X-0.98S800
G1 X-0.49S0
G1 X-0.21S800
G1 X-2.66S0
G1 X-0.77S800
G1 X-0.21S0
G1 X-0.21S800
G1 X-0.77S0
G1 X-0.7S800
G1 X-4.97S0
G1 X-1.4S800
G1 X-3.43S0
G1 X-0.7S800
G1 X-5.32S0
G1 X-0.7S800
G1 X-0.98S0
G1 X-0.42S800
G1 X-5.67S0
G1 X-0.77S800
G0 X-3.125
G0 Y0.07
G0 X3.125
G1 X0.7
G1 X5.53S0
G1 X0.56S800
G1 X0.98S0
G1 X0.7S800
G1 X5.39S0
G1 X0.84S800
G1 X3.29S0
G1 X1.47S800
G1 X4.97S0
G1 X0.63S800
G1 X0.77S0
G1 X0.21S800
G1 X0.28S0
G1 X0.7S800
G1 X2.66S0
G1 X0.14S800
G1 X0.7S0
G1 X0.91S800
G1 X3.08S0
G1 X0.77S800
G1 X2.24S0
G1 X0.21S800
G1 X4.06S0
G1 X0.77S800
G1 X8.47S0
G1 X2.24S800
G1 X2.94S0
G1 X0.21S800
G1 X2.17S0
G1 X0.49S800
G1 X0.21S0
G1 X1.4S800
G1 X74.48S0
G1 X0.63S800
G1 X0.56S0
G1 X0.21S800
G1 X5.39S0
G1 X0.7S800
G1 X0.49S0
G1 X0.77S800
G1 X1.54S0
G1 X0.07S800
G1 X3.64S0
G1 X0.84S800
G1 X0.91S0
G1 X0.49S800
G1 X7.35S0
G1 X2.17S800
G1 X8.19S0
G1 X0.56S800
G1 X1.19S0
G1 X0.21S800
G1 X4.2S0
G1 X0.91S800
G1 X0.56S0
G1 X0.21S800
G1 X1.19S0
G1 X0.42S800
G1 X0.49S0
G1 X0.63S800
G1 X3.5S0
G1 X0.35S800
G1 X0.21S0
G1 X1.05S800
G1 X2.87S0
G1 X1.89S800
G1 X0.63S0
G1 X0.91S800
G1 X11.06S0
G1 X0.49S800
G1 X0.42S0
G1 X0.14S800
G1 X1.82S0
G1 X0.49S800
G1 X3.71S0
G1 X0.84S800
G1 X1.47S0
G1 X0.42S800
G1 X0.84S0
G1 X0.28S800
G1 X1.12S0
G1 X0.49S800
G1 X0.14S0
G1 X1.96S800
G1 X0.35S0
G1 X0.35S800
G1 X0.84S0
G1 X1.19S800
G1 X2.24S0
G1 X0.42S800
G1 X1.19S0
G1 X0.28S800
G1 X5.95S0
G1 X0.14S800
G1 X1.54S0
G1 X0.63S800
G1 X7.77S0
G1 X0.14S800
G1 X17.01S0
G1 X0.63S800
G0 X3.125
G0 Y0.07
G0 X-3.125
G1 X-0.7
G1 X-16.94S0
G1 X-0.21S800
G1 X-7.7S0
G1 X-0.56S800
G1 X-1.54S0
G1 X-0.21S800
G1 X-6.02S0
G1 X-0.21S800
G1 X-1.19S0
G1 X-0.42S800
G1 X-2.24S0
G1 X-1.19S800
G1 X-0.91S0
G1 X-0.28S800
G1 X-0.49S0
G1 X-1.05S800
G1 X-0.14S0
G1 X-0.35S800
G1 X-0.14S0
G1 X-0.21S800
G1 X-0.07S0
G1 X-0.49S800
G1 X-1.12S0
G1 X-0.28S800
G1 X-0.84S0
G1 X-0.42S800
G1 X-1.47S0
G1 X-0.77S800
G1 X-3.71S0
G1 X-0.49S800
G1 X-1.89S0
G1 X-0.14S800
G1 X-0.35S0
G1 X-0.56S800
G1 X-11.06S0
G1 X-0.63S800
G1 X-0.07S0
G1 X-0.14S800
G1 X-0.7S0
G1 X-0.28S800
G1 X-0.14S0
G1 X-1.47S800
G1 X-2.87S0
G1 X-0.56S800
G1 X-0.14S0
G1 X-0.35S800
G1 X-0.21S0
G1 X-0.35S800
G1 X-3.5S0
G1 X-0.63S800
G1 X-0.56S0
G1 X-0.28S800
G1 X-1.26S0
G1 X-0.14S800
G1 X-0.7S0
G1 X-0.84S800
G1 X-2.17S0
G1 X-0.14S800
G1 X-3.29S0
G1 X-0.63S800
G1 X-8.12S0
G1 X-2.17S800
G1 X-7.28S0
G1 X-0.63S800
G1 X-0.14S0
G1 X-0.07S800
G1 X-0.56S0
G1 X-0.91S800
G1 X-3.64S0
G1 X-0.14S800
G1 X-1.47S0
G1 X-0.7S800
G1 X-0.7S0
G1 X-0.56S800
G1 X-5.39S0
G1 X-0.21S800
G1 X-0.49S0
G1 X-0.7S800
G1 X-74.41S0
G1 X-2.03S800
G1 X-2.24S0
G1 X-0.14S800
G1 X-3.01S0
G1 X-1.96S800
G1 X-0.07S0
G1 X-0.07S800
G1 X-6.79S0
G1 X-0.07S800
G1 X-1.75S0
G1 X-0.98S800
G1 X-0.42S0
G1 X-0.07S800
G1 X-0.07S0
G1 X-0.14S800
G1 X-1.33S0
G1 X-0.07S800
G1 X-0.14S0
G1 X-0.07S800
G1 X-0.14S0
G1 X-0.07S800
G1 X-1.47S0
G1 X-0.21S800
G1 X-2.1S0
G1 X-0.7S800
G1 X-3.08S0
G1 X-0.91S800
G1 X-3.71S0
G1 X-0.56S800
G1 X-0.35S0
G1 X-0.28S800
G1 X-0.07S0
G1 X-0.07S800
G1 X-0.14S0
G1 X-0.07S800
G1 X-0.14S0
G1 X-0.07S800
G1 X-0.07S0
G1 X-0.7S800
G1 X-4.97S0
G1 X-0.42S800
G1 X-0.07S0
G1 X-0.14S800
G1 X-0.07S0
G1 X-0.07S800
G1 X-0.07S0
G1 X-0.07S800
G1 X-0.07S0
G1 X-0.49S800
G1 X-3.01S0
G1 X-1.19S800
G1 X-5.39S0
G1 X-0.63S800
G1 X-1.12S0
G1 X-0.56S800
G1 X-0.14S0
G1 X-0.07S800
G1 X-5.25S0
G1 X-0.7S800
G0 X-3.125
G0 X-0.07Y0.07
G0 X3.125
G1 X0.7
G1 X4.97S0
G1 X0.14S800
G1 X0.07S0
G1 X0.63S800
G1 X1.4S0
G1 X0.49S800
G1 X5.39S0
G1 X1.54S800
G1 X2.8S0
G1 X0.42S800
G1 X0.77S0
G1 X0.28S800
G1 X0.91S0
G1 X0.49S800
G1 X3.64S0
G1 X1.54S800
G1 X0.49S0
G1 X0.35S800
G1 X3.92S0
G1 X0.77S800
G1 X1.26S0
G1 X0.21S800
G1 X1.75S0
G1 X0.63S800
G1 X2.03S0
G1 X0.21S800
G1 X1.26S0
G1 X0.77S800
G1 X0.07S0
G1 X0.07S800
G1 X1.05S0
G1 X0.42S800
G1 X0.28S0
G1 X0.28S800
G1 X0.21S0
G1 X0.7S800
G1 X1.33S0
G1 X0.42S800
G1 X7.14S0
G1 X1.82S800
G1 X2.87S0
G1 X0.21S800
G1 X1.19S0
G1 X0.14S800
G1 X0.91S0
G1 X2.17S800
G1 X74.2S0
G1 X0.63S800
G1 X0.56S0
G1 X0.21S800
G1 X5.39S0
G1 X0.49S800
G1 X0.77S0
G1 X0.63S800
G1 X1.61S0
G1 X0.07S800
G1 X3.64S0
G1 X2.31S800
G1 X7.21S0
G1 X2.24S800
G1 X8.12S0
G1 X0.56S800
G1 X3.15S0
G1 X0.28S800
G1 X2.24S0
G1 X0.77S800
G1 X0.7S0
G1 X0.21S800
G1 X1.26S0
G1 X0.28S800
G1 X0.49S0
G1 X0.63S800
G1 X3.57S0
G1 X0.35S800
G1 X0.21S0
G1 X0.28S800
G1 X0.28S0
G1 X0.49S800
G1 X2.87S0
G1 X1.47S800
G1 X0.14S0
G1 X0.35S800
G1 X0.98S0
G1 X0.49S800
G1 X11.06S0
G1 X0.56S800
G1 X0.42S0
G1 X0.14S800
G1 X1.82S0
G1 X0.49S800
G1 X3.71S0
G1 X0.84S800
G1 X1.33S0
G1 X0.42S800
G1 X0.91S0
G1 X0.28S800
G1 X1.12S0
G1 X0.7S800
G1 X0.21S0
G1 X0.28S800
G1 X0.21S0
G1 X1.05S800
G1 X0.49S0
G1 X0.28S800
G1 X0.84S0
G1 X0.63S800
G1 X0.21S0
G1 X0.42S800
G1 X2.24S0
G1 X0.42S800
G1 X1.19S0
G1 X0.28S800
G1 X5.95S0
G1 X0.21S800
G1 X1.61S0
G1 X0.49S800
G1 X7.7S0
G1 X0.21S800
G1 X16.94S0
G1 X0.7S800
G0 X3.125
G0 X-0.07Y0.07
G0 X-3.125
G1 X-0.63
G1 X-17.01S0
G1 X-0.21S800
G1 X-7.63S0
G1 X-0.42S800
G1 X-1.68S0
G1 X-0.14S800
G1 X-6.02S0
G1 X-0.28S800
G1 X-1.19S0
G1 X-0.42S800
G1 X-2.31S0
G1 X-0.35S800
G1 X-0.28S0
G1 X-0.56S800
G1 X-0.91S0
G1 X-0.21S800
G1 X-0.49S0
G1 X-1.05S800
G1 X-0.14S0
G1 X-0.35S800
G1 X-0.21S0
G1 X-0.7S800
G1 X-1.12S0
G1 X-0.28S800
G1 X-0.91S0
G1 X-0.42S800
G1 X-1.33S0
G1 X-0.77S800
G1 X-3.71S0
G1 X-0.49S800
G1 X-0.35S0
G1 X-0.07S800
G1 X-1.4S0
G1 X-0.14S800
G1 X-0.42S0
G1 X-0.63S800
G1 X-10.99S0
G1 X-0.56S800
G1 X-1.05S0
G1 X-0.21S800
G1 X-0.21S0
G1 X-1.4S800
G1 X-2.87S0
G1 X-0.56S800
G1 X-0.28S0
G1 X-0.21S800
G1 X-0.28S0
G1 X-0.35S800
G1 X-3.57S0
G1 X-0.63S800
G1 X-0.56S0
G1 X-0.28S800
G1 X-1.19S0
G1 X-0.14S800
G1 X-0.77S0
G1 X-0.77S800
G1 X-2.24S0
G1 X-0.42S800
G1 X-3.01S0
G1 X-0.56S800
G1 X-8.12S0
G1 X-2.24S800
G1 X-7.28S0
G1 X-2.38S800
G1 X-3.5S0
G1 X-0.14S800
G1 X-1.54S0
G1 X-0.7S800
G1 X-0.7S0
G1 X-0.49S800
G1 X-5.39S0
G1 X-0.21S800
G1 X-0.56S0
G1 X-0.63S800
G1 X-74.13S0
G1 X-2.17S800
G1 X-0.98S0
G1 X-0.21S800
G1 X-1.05S0
G1 X-0.14S800
G1 X-2.87S0
G1 X-1.82S800
G1 X-7.35S0
G1 X-0.49S800
G1 X-1.19S0
G1 X-0.63S800
G1 X-0.35S0
G1 X-0.21S800
G1 X-0.28S0
G1 X-0.49S800
G1 X-0.91S0
G1 X-0.98S800
G1 X-1.33S0
G1 X-0.21S800
G1 X-1.82S0
G1 X-0.7S800
G1 X-1.75S0
G1 X-0.28S800
G1 X-1.19S0
G1 X-0.7S800
G1 X-3.99S0
G1 X-0.42S800
G1 X-0.49S0
G1 X-1.54S800
G1 X-3.5S0
G1 X-0.56S800
G1 X-0.98S0
G1 X-0.21S800
G1 X-0.84S0
G1 X-0.35S800
G1 X-2.66S0
G1 X-1.82S800
G1 X-5.39S0
G1 X-0.42S800
G1 X-1.61S0
G1 X-0.84S800
G1 X-4.9S0
G1 X-0.7S800
G0 X-3.125
G0 X-0.07Y0.07
G0 X3.125
G1 X0.63
G1 X4.76S0
G1 X0.84S800
G1 X1.82S0
G1 X0.35S800
G1 X5.39S0
G1 X2.59S800
G1 X2.03S0
G1 X0.35S800
G1 X0.91S0
G1 X0.07S800
G1 X1.33S0
G1 X0.21S800
G1 X3.64S0
G1 X1.47S800
G1 X0.56S0
G1 X0.35S800
G1 X4.06S0
G1 X0.7S800
G1 X3.29S0
G1 X0.63S800
G1 X1.68S0
G1 X0.28S800
G1 X1.33S0
G1 X0.14S800
G1 X0.35S0
G1 X0.49S800
G1 X0.98S0
G1 X0.07S800
G1 X1.61S0
G1 X0.21S800
G1 X1.05S0
G1 X0.56S800
G1 X7.56S0
G1 X1.75S800
G1 X2.8S0
G1 X0.14S800
G1 X1.05S0
G1 X0.14S800
G1 X1.12S0
G1 X2.17S800
G1 X74.06S0
G1 X0.63S800
G1 X0.56S0
G1 X0.21S800
G1 X5.39S0
G1 X0.49S800
G1 X0.77S0
G1 X0.63S800
G1 X1.61S0
G1 X0.14S800
G1 X3.29S0
G1 X2.59S800
G1 X7.21S0
G1 X2.24S800
G1 X8.05S0
G1 X0.56S800
G1 X2.94S0
G1 X0.35S800
G1 X2.38S0
G1 X0.84S800
G1 X0.7S0
G1 X0.21S800
G1 X1.26S0
G1 X0.21S800
G1 X0.49S0
G1 X0.7S800
G1 X3.57S0
G1 X0.35S800
G1 X0.21S0
G1 X0.28S800
G1 X0.35S0
G1 X0.49S800
G1 X2.87S0
G1 X1.4S800
G1 X0.21S0
G1 X0.28S800
G1 X1.05S0
G1 X0.49S800
G1 X11.06S0
G1 X0.56S800
G1 X0.42S0
G1 X0.14S800
G1 X1.4S0
G1 X0.07S800
G1 X0.35S0
G1 X0.49S800
G1 X3.71S0
G1 X0.84S800
G1 X1.33S0
G1 X0.35S800
G1 X0.84S0
G1 X0.35S800
G1 X1.12S0
G1 X0.7S800
G1 X0.21S0
G1 X0.35S800
G1 X0.21S0
G1 X0.98S800
G1 X0.49S0
G1 X0.21S800
G1 X0.84S0
G1 X0.56S800
G1 X0.28S0
G1 X0.42S800
G1 X2.31S0
G1 X0.42S800
G1 X1.19S0
G1 X0.28S800
G1 X5.04S0
G1 X0.07S800
G1 X0.91S0
G1 X0.14S800
G1 X1.68S0
G1 X0.42S800
G1 X7.63S0
G1 X0.21S800
G1 X1.05S0
G1 X0.07S800
G1 X15.89S0
G1 X0.63S800
G0 X3.125
G0 X-0.07Y0.07
G0 X-3.125
G1 X-0.63
G1 X-15.82S0
G1 X-0.07S800
G1 X-1.12S0
G1 X-0.14S800
G1 X-7.63S0
G1 X-0.42S800
G1 X-1.61S0
G1 X-0.21S800
G1 X-0.91S0
G1 X-0.14S800
G1 X-4.97S0
G1 X-0.35S800
G1 X-1.12S0
G1 X-0.42S800
G1 X-2.38S0
G1 X-0.35S800
G1 X-0.28S0
G1 X-0.56S800
G1 X-0.77S0
G1 X-0.28S800
G1 X-0.49S0
G1 X-0.98S800
G1 X-0.28S0
G1 X-0.21S800
G1 X-0.28S0
G1 X-0.7S800
G1 X-1.19S0
G1 X-0.28S800
G1 X-0.84S0
G1 X-0.42S800
G1 X-1.26S0
G1 X-0.77S800
G1 X-3.71S0
G1 X-0.56S800
G1 X-0.35S0
G1 X-0.07S800
G1 X-1.4S0
G1 X-0.07S800
G1 X-0.49S0
G1 X-0.56S800
G1 X-11.06S0
G1 X-0.42S800
G1 X-1.12S0
G1 X-0.28S800
G1 X-0.28S0
G1 X-1.33S800
G1 X-2.87S0
G1 X-0.42S800
G1 X-0.49S0
G1 X-0.21S800
G1 X-0.14S0
G1 X-0.49S800
G1 X-3.5S0
G1 X-0.7S800
G1 X-0.49S0
G1 X-0.21S800
G1 X-2.24S0
G1 X-0.77S800
G1 X-2.52S0
G1 X-0.35S800
G1 X-2.8S0
G1 X-0.56S800
G1 X-8.05S0
G1 X-0.77S800
G1 X-0.84S0
G1 X-0.63S800
G1 X-7.28S0
G1 X-2.73S800
G1 X-4.97S0
G1 X-0.56S800
G1 X-0.7S0
G1 X-0.49S800
G1 X-5.39S0
G1 X-0.21S800
G1 X-0.56S0
G1 X-0.63S800
G1 X-73.92S0
G1 X-2.24S800
G1 X-2.31S0
G1 X-0.14S800
G1 X-2.73S0
G1 X-1.68S800
G1 X-7.84S0
G1 X-0.63S800
G1 X-3.64S0
G1 X-0.49S800
G1 X-2.03S0
G1 X-0.21S800
G1 X-1.47S0
G1 X-0.7S800
G1 X-3.36S0
G1 X-0.77S800
G1 X-4.06S0
G1 X-0.28S800
G1 X-0.63S0
G1 X-0.35S800
G1 X-0.35S0
G1 X-0.77S800
G1 X-1.61S0
G1 X-0.28S800
G1 X-1.12S0
G1 X-0.21S800
G1 X-2.94S0
G1 X-0.28S800
G1 X-0.98S0
G1 X-3.85S800
G1 X-5.39S0
G1 X-0.21S800
G1 X-2.1S0
G1 X-0.84S800
G1 X-4.62S0
G1 X-0.7S800
G0 X-3.125
G0 X-0.14Y0.07
G0 X3.125
G1 X0.7
G1 X4.55S0
G1 X0.77S800
G1 X2.31S0
G1 X0.14S800
G1 X5.46S0
G1 X4.06S800
G1 X0.91S0
G1 X0.21S800
G1 X0.84S0
G1 X0.07S800
G1 X2.03S0
G1 X0.35S800
G1 X0.91S0
G1 X0.42S800
G1 X1.54S0
G1 X0.7S800
G1 X0.49S0
G1 X0.28S800
G1 X0.7S0
G1 X0.28S800
G1 X4.06S0
G1 X0.7S800
G1 X3.43S0
G1 X0.7S800
G1 X1.33S0
G1 X0.28S800
G1 X2.17S0
G1 X0.35S800
G1 X3.57S0
G1 X0.63S800
G1 X8.05S0
G1 X1.61S800
G1 X5.25S0
G1 X2.24S800
G1 X73.78S0
G1 X0.56S800
G1 X0.63S0
G1 X0.21S800
G1 X5.39S0
G1 X0.49S800
G1 X0.7S0
G1 X0.56S800
G1 X4.9S0
G1 X2.87S800
G1 X7.21S0
G1 X0.56S800
G1 X0.91S0
G1 X0.77S800
G1 X8.05S0
G1 X0.49S800
G1 X2.66S0
G1 X0.42S800
G1 X2.66S0
G1 X0.77S800
G1 X2.17S0
G1 X0.21S800
G1 X0.56S0
G1 X0.7S800
G1 X3.5S0
G1 X0.84S800
G1 X0.49S0
G1 X0.49S800
G1 X2.8S0
G1 X1.47S800
G1 X0.14S0
G1 X0.21S800
G1 X1.19S0
G1 X0.49S800
G1 X10.99S0
G1 X0.56S800
G1 X0.49S0
G1 X0.14S800
G1 X1.33S0
G1 X0.14S800
G1 X0.35S0
G1 X0.49S800
G1 X3.71S0
G1 X0.84S800
G1 X1.19S0
G1 X0.35S800
G1 X0.91S0
G1 X0.28S800
G1 X1.19S0
G1 X0.7S800
G1 X0.28S0
G1 X0.28S800
G1 X0.21S0
G1 X0.98S800
G1 X0.49S0
G1 X0.21S800
G1 X0.77S0
G1 X0.63S800
G1 X0.28S0
G1 X0.35S800
G1 X2.38S0
G1 X0.42S800
G1 X1.05S0
G1 X0.42S800
G1 X4.97S0
G1 X0.14S800
G1 X0.91S0
G1 X0.21S800
G1 X1.61S0
G1 X0.42S800
G1 X7.63S0
G1 X0.14S800
G1 X1.05S0
G1 X0.14S800
G1 X15.82S0
G1 X0.63S800
G0 X3.125
G0 Y0.07
G0 X-3.125
G1 X-0.63
G1 X-15.75S0
G1 X-0.21S800
G1 X-1.05S0
G1 X-0.21S800
G1 X-7.56S0
G1 X-0.42S800
G1 X-1.61S0
G1 X-0.14S800
G1 X-0.98S0
G1 X-0.21S800
G1 X-4.9S0
G1 X-0.42S800
G1 X-1.05S0
G1 X-0.42S800
G1 X-2.45S0
G1 X-0.35S800
G1 X-0.21S0
G1 X-0.63S800
G1 X-0.77S0
G1 X-0.21S800
G1 X-0.49S0
G1 X-0.91S800
G1 X-0.35S0
G1 X-0.28S800
G1 X-0.21S0
G1 X-0.7S800
G1 X-1.19S0
G1 X-0.21S800
G1 X-0.98S0
G1 X-0.35S800
G1 X-1.19S0
G1 X-0.84S800
G1 X-3.71S0
G1 X-0.42S800
G1 X-0.35S0
G1 X-0.21S800
G1 X-1.33S0
G1 X-0.14S800
G1 X-0.42S0
G1 X-0.56S800
G1 X-11.06S0
G1 X-0.49S800
G1 X-0.28S0
G1 X-0.14S800
G1 X-0.7S0
G1 X-0.28S800
G1 X-0.21S0
G1 X-1.33S800
G1 X-2.87S0
G1 X-0.49S800
G1 X-0.49S0
G1 X-0.84S800
G1 X-3.5S0
G1 X-0.77S800
G1 X-0.49S0
G1 X-0.14S800
G1 X-2.24S0
G1 X-0.84S800
G1 X-2.66S0
G1 X-0.49S800
G1 X-2.52S0
G1 X-0.56S800
G1 X-7.98S0
G1 X-0.7S800
G1 X-0.98S0
G1 X-0.63S800
G1 X-7.21S0
G1 X-2.94S800
G1 X-4.83S0
G1 X-0.42S800
G1 X-0.77S0
G1 X-0.49S800
G1 X-5.39S0
G1 X-0.21S800
G1 X-0.63S0
G1 X-0.56S800
G1 X-73.64S0
G1 X-2.31S800
G1 X-5.18S0
G1 X-1.54S800
G1 X-8.33S0
G1 X-0.7S800
G1 X-3.43S0
G1 X-0.28S800
G1 X-2.31S0
G1 X-0.28S800
G1 X-1.19S0
G1 X-0.63S800
G1 X-3.43S0
G1 X-0.77S800
G1 X-4.13S0
G1 X-0.14S800
G1 X-0.91S0
G1 X-0.14S800
G1 X-0.56S0
G1 X-0.63S800
G1 X-1.61S0
G1 X-0.28S800
G1 X-0.07S0
G1 X-0.07S800
G1 X-0.7S0
G1 X-0.49S800
G1 X-2.87S0
G1 X-0.35S800
G1 X-0.84S0
G1 X-4.27S800
G1 X-5.32S0
G1 X-0.21S800
G1 X-2.38S0
G1 X-0.84S800
G1 X-4.48S0
G1 X-0.63S800
G1 X-0.07S0
G1 X-0.07S800
G0 X-3.125
G0 X-0.14Y0.07
G0 X3.125
G1 X0.77
G1 X4.41S0
G1 X0.63S800
G1 X0.07S0
G1 X0.07S800
G1 X2.66S0
G1 X0.07S800
G1 X5.25S0
G1 X5.04S800
G1 X0.21S0
G1 X0.56S800
G1 X0.07S0
G1 X0.07S800
G1 X0.14S0
G1 X0.07S800
G1 X0.21S0
G1 X0.07S800
G1 X2.24S0
G1 X0.49S800
G1 X0.14S0
G1 X0.07S800
G1 X0.56S0
G1 X0.28S800
G1 X1.54S0
G1 X0.7S800
G1 X1.54S0
G1 X0.21S800
G1 X2.17S0
G1 X0.07S800
G1 X1.82S0
G1 X0.77S800
G1 X3.57S0
G1 X0.7S800
G1 X0.91S0
G1 X0.28S800
G1 X1.4S0
G1 X0.07S800
G1 X0.07S0
G1 X0.07S800
G1 X0.91S0
G1 X0.14S800
G1 X0.7S0
G1 X0.07S800
G1 X2.59S0
G1 X0.7S800
G1 X8.54S0
G1 X1.61S800
G1 X5.11S0
G1 X2.24S800
G1 X73.57S0
G1 X0.56S800
G1 X0.63S0
G1 X0.14S800
G1 X5.46S0
G1 X0.49S800
G1 X0.7S0
G1 X0.49S800
G1 X4.76S0
G1 X1.68S800
G1 X0.07S0
G1 X1.33S800
G1 X7.14S0
G1 X0.63S800
G1 X0.91S0
G1 X0.7S800
G1 X8.12S0
G1 X0.49S800
G1 X2.31S0
G1 X0.07S800
G1 X0.07S0
G1 X0.35S800
G1 X2.87S0
G1 X0.84S800
G1 X2.24S0
G1 X0.14S800
G1 X0.42S0
G1 X0.84S800
G1 X3.5S0
G1 X0.28S800
G1 X0.35S0
G1 X0.07S800
G1 X0.7S0
G1 X0.49S800
G1 X2.8S0
G1 X1.4S800
G1 X0.14S0
G1 X0.28S800
G1 X0.7S0
G1 X0.21S800
G1 X0.28S0
G1 X0.49S800
G1 X10.99S0
G1 X0.56S800
G1 X0.42S0
G1 X0.07S800
G1 X1.4S0
G1 X0.21S800
G1 X0.28S0
G1 X0.49S800
G1 X3.78S0
G1 X0.77S800
G1 X1.12S0
G1 X0.42S800
G1 X0.91S0
G1 X0.21S800
G1 X1.26S0
G1 X0.77S800
G1 X0.14S0
G1 X0.35S800
G1 X0.35S0
G1 X0.84S800
G1 X0.49S0
G1 X0.28S800
G1 X0.28S0
G1 X0.14S800
G1 X0.21S0
G1 X0.7S800
G1 X0.21S0
G1 X0.35S800
G1 X2.45S0
G1 X0.42S800
G1 X1.05S0
G1 X0.42S800
G1 X4.9S0
G1 X0.21S800
G1 X0.91S0
G1 X0.28S800
G1 X1.54S0
G1 X0.49S800
G1 X7.49S0
G1 X0.07S800
G1 X1.19S0
G1 X0.21S800
G1 X15.75S0
G1 X0.56S800
G0 X3.125
G0 Y0.07
G0 X-3.125
G1 X-0.63
G1 X-15.75S0
G1 X-0.14S800
G1 X-8.75S0
G1 X-0.42S800
G1 X-1.61S0
G1 X-0.21S800
G1 X-1.05S0
G1 X-0.21S800
G1 X-4.76S0
G1 X-0.49S800
G1 X-1.05S0
G1 X-0.42S800
G1 X-2.45S0
G1 X-0.42S800
G1 X-0.21S0
G1 X-0.56S800
G1 X-0.28S0
G1 X-0.21S800
G1 X-0.28S0
G1 X-0.21S800
G1 X-0.49S0
G1 X-0.84S800
G1 X-0.35S0
G1 X-1.26S800
G1 X-1.26S0
G1 X-0.28S800
G1 X-0.84S0
G1 X-0.49S800
G1 X-0.98S0
G1 X-0.84S800
G1 X-3.71S0
G1 X-0.49S800
G1 X-0.28S0
G1 X-0.21S800
G1 X-1.89S0
G1 X-0.56S800
G1 X-11.06S0
G1 X-0.49S800
G1 X-0.21S0
G1 X-0.21S800
G1 X-0.77S0
G1 X-0.28S800
G1 X-0.14S0
G1 X-1.4S800
G1 X-2.8S0
G1 X-0.49S800
G1 X-1.12S0
G1 X-0.35S800
G1 X-3.36S0
G1 X-0.91S800
G1 X-2.87S0
G1 X-0.84S800
G1 X-2.94S0
G1 X-0.56S800
G1 X-2.1S0
G1 X-0.56S800
G1 X-8.05S0
G1 X-0.63S800
G1 X-0.98S0
G1 X-0.7S800
G1 X-7.14S0
G1 X-0.7S800
G1 X-0.7S0
G1 X-1.68S800
G1 X-4.62S0
G1 X-0.56S800
G1 X-0.7S0
G1 X-0.49S800
G1 X-6.23S0
G1 X-0.56S800
G1 X-73.43S0
G1 X-2.24S800
G1 X-5.11S0
G1 X-1.47S800
G1 X-8.89S0
G1 X-0.7S800
G1 X-2.52S0
G1 X-0.14S800
G1 X-1.61S0
G1 X-0.35S800
G1 X-1.33S0
G1 X-0.35S800
G1 X-0.7S0
G1 X-0.7S800
G1 X-2.1S0
G1 X-0.21S800
G1 X-1.26S0
G1 X-0.91S800
G1 X-1.75S0
G1 X-0.21S800
G1 X-2.03S0
G1 X-0.14S800
G1 X-1.68S0
G1 X-0.63S800
G1 X-1.61S0
G1 X-0.21S800
G1 X-0.42S0
G1 X-0.84S800
G1 X-2.31S0
G1 X-4.48S800
G1 X-0.07S0
G1 X-0.07S800
G1 X-0.28S0
G1 X-1.68S800
G1 X-8.26S0
G1 X-0.49S800
G1 X-4.41S0
G1 X-0.7S800
G0 X-3.125
G0 X-0.07Y0.07
G0 X3.125
G1 X0.63
G1 X4.41S0
G1 X0.42S800
G1 X8.4S0
G1 X1.75S800
G1 X0.42S0
G1 X4.69S800
G1 X2.24S0
G1 X0.56S800
G1 X0.56S0
G1 X0.14S800
G1 X1.68S0
G1 X0.63S800
G1 X1.75S0
G1 X0.14S800
G1 X1.96S0
G1 X0.21S800
G1 X1.82S0
G1 X0.84S800
G1 X1.33S0
G1 X0.21S800
G1 X2.17S0
G1 X0.77S800
G1 X0.42S0
G1 X0.35S800
G1 X1.4S0
G1 X0.42S800
G1 X1.54S0
G1 X0.14S800
G1 X2.52S0
G1 X0.7S800
G1 X9.03S0
G1 X1.4S800
G1 X5.11S0
G1 X2.31S800
G1 X73.29S0
G1 X0.56S800
G1 X6.23S0
G1 X0.49S800
G1 X0.63S0
G1 X0.56S800
G1 X4.69S0
G1 X1.68S800
G1 X0.7S0
G1 X0.7S800
G1 X7.14S0
G1 X0.63S800
G1 X0.98S0
G1 X0.7S800
G1 X8.12S0
G1 X0.42S800
G1 X1.96S0
G1 X0.63S800
G1 X3.08S0
G1 X0.84S800
G1 X2.8S0
G1 X0.91S800
G1 X3.43S0
G1 X0.28S800
G1 X1.19S0
G1 X0.49S800
G1 X2.8S0
G1 X1.4S800
G1 X0.21S0
G1 X0.28S800
G1 X0.7S0
G1 X0.14S800
G1 X0.28S0
G1 X0.49S800
G1 X11.06S0
G1 X0.63S800
G1 X1.82S0
G1 X0.21S800
G1 X0.28S0
G1 X0.49S800
G1 X3.71S0
G1 X0.84S800
G1 X0.98S0
G1 X0.49S800
G1 X0.91S0
G1 X0.21S800
G1 X1.26S0
G1 X1.19S800
G1 X0.42S0
G1 X0.84S800
G1 X0.49S0
G1 X0.21S800
G1 X0.21S0
G1 X0.28S800
G1 X0.28S0
G1 X0.49S800
G1 X0.28S0
G1 X0.35S800
G1 X2.52S0
G1 X0.42S800
G1 X0.98S0
G1 X0.56S800
G1 X4.76S0
G1 X0.28S800
G1 X0.98S0
G1 X0.21S800
G1 X1.61S0
G1 X0.42S800
G1 X8.68S0
G1 X0.21S800
G1 X15.75S0
G1 X0.63S800
G0 X3.125
G0 Y0.07
G0 X-3.125
G1 X-0.63
G1 X-15.75S0
G1 X-0.21S800
G1 X-8.68S0
G1 X-0.42S800
G1 X-1.61S0
G1 X-0.14S800
G1 X-1.05S0
G1 X-0.35S800
G1 X-4.69S0
G1 X-0.49S800
G1 X-1.05S0
G1 X-0.42S800
G1 X-2.52S0
G1 X-0.42S800
G1 X-0.21S0
G1 X-0.49S800
G1 X-0.28S0
G1 X-0.35S800
G1 X-0.14S0
G1 X-0.21S800
G1 X-0.49S0
G1 X-0.77S800
G1 X-0.42S0
G1 X-0.56S800
G1 X-0.42S0
G1 X-0.28S800
G1 X-1.33S0
G1 X-0.21S800
G1 X-0.91S0
G1 X-0.42S800
G1 X-0.91S0
G1 X-0.84S800
G1 X-3.71S0
G1 X-0.49S800
G1 X-0.28S0
G1 X-0.28S800
G1 X-1.82S0
G1 X-0.63S800
G1 X-10.99S0
G1 X-0.56S800
G1 X-0.21S0
G1 X-0.14S800
G1 X-0.84S0
G1 X-0.21S800
G1 X-0.21S0
G1 X-1.33S800
G1 X-2.8S0
G1 X-0.56S800
G1 X-0.77S0
G1 X-0.07S800
G1 X-0.35S0
G1 X-0.28S800
G1 X-3.43S0
G1 X-0.91S800
G1 X-2.8S0
G1 X-0.91S800
G1 X-3.15S0
G1 X-0.63S800
G1 X-1.75S0
G1 X-0.56S800
G1 X-8.12S0
G1 X-0.77S800
G1 X-0.77S0
G1 X-0.7S800
G1 X-7.14S0
G1 X-0.7S800
G1 X-0.7S0
G1 X-0.98S800
G1 X-0.14S0
G1 X-0.56S800
G1 X-4.69S0
G1 X-0.56S800
G1 X-0.63S0
G1 X-0.49S800
G1 X-6.23S0
G1 X-0.56S800
G1 X-73.08S0
G1 X-2.45S800
G1 X-5.11S0
G1 X-1.33S800
G1 X-9.17S0
G1 X-0.77S800
G1 X-2.45S0
G1 X-0.14S800
G1 X-3.36S0
G1 X-0.42S800
G1 X-0.21S0
G1 X-0.91S800
G1 X-3.64S0
G1 X-0.91S800
G1 X-3.85S0
G1 X-0.28S800
G1 X-1.68S0
G1 X-0.63S800
G1 X-5.04S0
G1 X-5.04S800
G1 X-0.28S0
G1 X-1.82S800
G1 X-8.4S0
G1 X-0.42S800
G1 X-4.55S0
G1 X-0.49S800
G0 X-3.125
G0 X-0.91Y0.07
G0 X3.125
G1 X0.14
G1 X0.77S0
G1 X0.35S800
G1 X4.62S0
G1 X0.49S800
G1 X8.33S0
G1 X7.42S800
G1 X4.83S0
G1 X0.63S800
G1 X1.75S0
G1 X0.42S800
G1 X3.71S0
G1 X0.84S800
G1 X1.61S0
G1 X0.28S800
G1 X1.89S0
G1 X0.84S800
G1 X0.07S0
G1 X0.42S800
G1 X6.02S0
G1 X0.7S800
G1 X9.38S0
G1 X1.33S800
G1 X5.11S0
G1 X2.38S800
G1 X73.01S0
G1 X0.56S800
G1 X6.23S0
G1 X0.49S800
G1 X0.63S0
G1 X0.63S800
G1 X4.55S0
G1 X0.56S800
G1 X0.21S0
G1 X0.91S800
G1 X0.77S0
G1 X0.63S800
G1 X7.21S0
G1 X0.7S800
G1 X0.49S0
G1 X1.05S800
G1 X8.12S0
G1 X0.49S800
G1 X1.54S0
G1 X0.77S800
G1 X3.29S0
G1 X0.84S800
G1 X2.8S0
G1 X0.98S800
G1 X3.43S0
G1 X0.21S800
G1 X0.35S0
G1 X0.07S800
G1 X0.84S0
G1 X0.49S800
G1 X2.87S0
G1 X1.4S800
G1 X0.14S0
G1 X0.28S800
G1 X0.77S0
G1 X0.14S800
G1 X0.21S0
G1 X0.56S800
G1 X11.06S0
G1 X0.49S800
G1 X1.96S0
G1 X0.21S800
G1 X0.28S0
G1 X0.49S800
G1 X3.71S0
G1 X0.84S800
G1 X0.84S0
G1 X0.56S800
G1 X0.84S0
G1 X0.21S800
G1 X1.33S0
G1 X0.28S800
G1 X0.7S0
G1 X0.21S800
G1 X0.49S0
G1 X0.77S800
G1 X0.49S0
G1 X0.21S800
G1 X0.14S0
G1 X0.35S800
G1 X0.21S0
G1 X0.56S800
G1 X0.21S0
G1 X0.42S800
G1 X2.52S0
G1 X0.42S800
G1 X1.05S0
G1 X0.56S800
G1 X4.62S0
G1 X0.28S800
G1 X1.12S0
G1 X0.21S800
G1 X1.54S0
G1 X0.35S800
G1 X8.68S0
G1 X0.28S800
G1 X15.68S0
G1 X0.7S800
G0 X3.125
G0 Y0.07
G0 X-3.125
G1 X-0.7
G1 X-15.68S0
G1 X-0.28S800
G1 X-8.61S0
G1 X-0.35S800
G1 X-1.61S0
G1 X-0.21S800
G1 X-1.05S0
G1 X-0.35S800
G1 X-4.55S0
G1 X-0.63S800
G1 X-1.05S0
G1 X-0.42S800
G1 X-2.52S0
G1 X-0.42S800
G1 X-0.28S0
G1 X-0.49S800
G1 X-0.21S0
G1 X-0.7S800
G1 X-0.49S0
G1 X-0.77S800
G1 X-0.42S0
G1 X-0.28S800
G1 X-0.77S0
G1 X-0.21S800
G1 X-1.33S0
G1 X-0.21S800
G1 X-0.91S0
G1 X-0.42S800
G1 X-0.91S0
G1 X-0.77S800
G1 X-3.78S0
G1 X-0.42S800
G1 X-0.28S0
G1 X-0.28S800
G1 X-1.89S0
G1 X-0.56S800
G1 X-11.06S0
G1 X-0.49S800
G1 X-0.28S0
G1 X-0.14S800
G1 X-0.77S0
G1 X-0.21S800
G1 X-0.07S0
G1 X-1.47S800
G1 X-2.87S0
G1 X-0.56S800
G1 X-0.77S0
G1 X-0.14S800
G1 X-0.28S0
G1 X-0.35S800
G1 X-3.36S0
G1 X-0.91S800
G1 X-2.87S0
G1 X-0.91S800
G1 X-3.36S0
G1 X-0.91S800
G1 X-1.19S0
G1 X-0.63S800
G1 X-8.12S0
G1 X-0.98S800
G1 X-0.49S0
G1 X-0.7S800
G1 X-7.28S0
G1 X-0.56S800
G1 X-0.7S0
G1 X-0.98S800
G1 X-0.28S0
G1 X-0.49S800
G1 X-4.62S0
G1 X-0.63S800
G1 X-0.56S0
G1 X-0.49S800
G1 X-6.3S0
G1 X-0.49S800
G1 X-72.8S0
G1 X-2.59S800
G1 X-5.04S0
G1 X-1.26S800
G1 X-9.52S0
G1 X-0.7S800
G1 X-6.02S0
G1 X-1.26S800
G1 X-1.82S0
G1 X-0.35S800
G1 X-1.68S0
G1 X-0.77S800
G1 X-3.71S0
G1 X-0.42S800
G1 X-1.75S0
G1 X-0.63S800
G1 X-4.69S0
G1 X-7.7S800
G1 X-8.12S0
G1 X-0.7S800
G1 X-4.62S0
G1 X-0.28S800
G1 X-0.7S0
G1 X-0.21S800
G0 X-3.125
G0 X0.07Y0.07
G0 X3.125
G1 X0.28
G1 X0.56S0
G1 X0.14S800
G1 X4.83S0
G1 X0.07S800
G1 X0.07S0
G1 X0.7S800
G1 X7.84S0
G1 X7.98S800
G1 X4.48S0
G1 X0.63S800
G1 X1.89S0
G1 X0.42S800
G1 X3.64S0
G1 X0.77S800
G1 X1.61S0
G1 X0.56S800
G1 X1.75S0
G1 X1.05S800
G1 X6.09S0
G1 X0.7S800
G1 X9.59S0
G1 X1.19S800
G1 X5.25S0
G1 X2.52S800
G1 X72.66S0
G1 X0.49S800
G1 X6.3S0
G1 X0.49S800
G1 X0.42S0
G1 X0.77S800
G1 X4.69S0
G1 X0.35S800
G1 X0.35S0
G1 X0.98S800
G1 X0.7S0
G1 X0.56S800
G1 X7.21S0
G1 X0.7S800
G1 X0.49S0
G1 X1.05S800
G1 X8.12S0
G1 X0.56S800
G1 X1.26S0
G1 X0.63S800
G1 X3.71S0
G1 X0.77S800
G1 X2.87S0
G1 X0.98S800
G1 X3.36S0
G1 X0.28S800
G1 X0.35S0
G1 X0.07S800
G1 X0.91S0
G1 X0.49S800
G1 X2.87S0
G1 X1.75S800
G1 X0.84S0
G1 X0.14S800
G1 X0.21S0
G1 X0.56S800
G1 X10.99S0
G1 X0.56S800
G1 X1.96S0
G1 X0.21S800
G1 X0.35S0
G1 X0.42S800
G1 X3.78S0
G1 X0.77S800
G1 X0.77S0
G1 X0.56S800
G1 X0.84S0
G1 X0.21S800
G1 X1.26S0
G1 X0.35S800
G1 X0.7S0
G1 X0.28S800
G1 X0.42S0
G1 X0.77S800
G1 X0.49S0
G1 X0.63S800
G1 X0.28S0
G1 X0.49S800
G1 X0.21S0
G1 X0.42S800
G1 X2.59S0
G1 X0.42S800
G1 X1.05S0
G1 X0.7S800
G1 X4.41S0
G1 X0.42S800
G1 X1.12S0
G1 X0.14S800
G1 X1.61S0
G1 X0.35S800
G1 X8.54S0
G1 X0.28S800
G1 X15.75S0
G1 X0.7S800
G0 X3.125
G0 Y0.07
G0 X-3.125
G1 X-0.7
G1 X-15.82S0
G1 X-0.28S800
G1 X-8.47S0
G1 X-0.28S800
G1 X-1.68S0
G1 X-0.14S800
G1 X-1.19S0
G1 X-0.35S800
G1 X-3.01S0
G1 X-0.07S800
G1 X-1.33S0
G1 X-0.77S800
G1 X-0.98S0
G1 X-0.14S800
G1 X-0.07S0
G1 X-0.21S800
G1 X-2.59S0
G1 X-0.42S800
G1 X-0.21S0
G1 X-0.49S800
G1 X-0.35S0
G1 X-0.56S800
G1 X-0.49S0
G1 X-0.84S800
G1 X-0.35S0
G1 X-0.28S800
G1 X-0.77S0
G1 X-0.28S800
G1 X-1.33S0
G1 X-0.21S800
G1 X-0.84S0
G1 X-0.42S800
G1 X-0.84S0
G1 X-0.77S800
G1 X-3.78S0
G1 X-0.42S800
G1 X-0.35S0
G1 X-0.21S800
G1 X-1.96S0
G1 X-0.49S800
G1 X-11.06S0
G1 X-0.56S800
G1 X-0.14S0
G1 X-0.21S800
G1 X-0.77S0
G1 X-1.82S800
G1 X-2.8S0
G1 X-0.63S800
G1 X-0.84S0
G1 X-0.14S800
G1 X-0.28S0
G1 X-0.28S800
G1 X-3.29S0
G1 X-1.05S800
G1 X-1.19S0
G1 X-0.14S800
G1 X-1.54S0
G1 X-0.84S800
G1 X-3.99S0
G1 X-0.07S800
G1 X-0.07S0
G1 X-0.14S800
G1 X-1.19S0
G1 X-0.63S800
G1 X-8.12S0
G1 X-0.56S800
G1 X-0.07S0
G1 X-0.07S800
G1 X-0.07S0
G1 X-0.07S800
G1 X-0.07S0
G1 X-0.14S800
G1 X-0.42S0
G1 X-0.77S800
G1 X-7.28S0
G1 X-0.49S800
G1 X-0.77S0
G1 X-0.91S800
G1 X-0.42S0
G1 X-0.35S800
G1 X-4.55S0
G1 X-0.91S800
G1 X-0.07S0
G1 X-0.14S800
G1 X-0.07S0
G1 X-0.56S800
G1 X-6.3S0
G1 X-0.49S800
G1 X-72.45S0
G1 X-2.73S800
G1 X-5.18S0
G1 X-0.98S800
G1 X-9.87S0
G1 X-0.63S800
G1 X-3.64S0
G1 X-0.07S800
G1 X-0.07S0
G1 X-0.07S800
G1 X-2.31S0
G1 X-0.91S800
G1 X-1.75S0
G1 X-0.56S800
G1 X-1.68S0
G1 X-0.7S800
G1 X-3.78S0
G1 X-0.42S800
G1 X-1.89S0
G1 X-0.56S800
G1 X-1.19S0
G1 X-0.07S800
G1 X-0.07S0
G1 X-0.07S800
G1 X-0.07S0
G1 X-0.07S800
G1 X-2.73S0
G1 X-3.71S800
G1 X-0.07S0
G1 X-0.07S800
G1 X-0.07S0
G1 X-0.14S800
G1 X-0.07S0
G1 X-0.14S800
G1 X-0.07S0
G1 X-0.14S800
G1 X-0.07S0
G1 X-0.07S800
G1 X-0.07S0
G1 X-0.07S800
G1 X-0.07S0
G1 X-0.07S800
G1 X-0.07S0
G1 X-0.07S800
G1 X-0.07S0
G1 X-0.07S800
G1 X-0.07S0
G1 X-0.07S800
G1 X-0.07S0
G1 X-0.07S800
G1 X-0.07S0
G1 X-0.07S800
G1 X-0.07S0
G1 X-0.07S800
G1 X-0.07S0
G1 X-2.66S800
G1 X-4.41S0
G1 X-0.07S800
G1 X-0.07S0
G1 X-0.07S800
G1 X-2.87S0
G1 X-0.77S800
G1 X-5.67S0
G1 X-0.28S800
G0 X-3.125
G0 X0.07Y0.07
G0 X3.125
G1 X0.42
G1 X5.67S0
G1 X0.7S800
G1 X2.73S0
G1 X0.42S800
G1 X3.99S0
G1 X0.14S800
G1 X0.07S0
G1 X2.66S800
G1 X2.52S0
G1 X3.5S800
G1 X2.52S0
G1 X0.63S800
G1 X0.91S0
G1 X0.63S800
G1 X1.89S0
G1 X0.49S800
G1 X3.64S0
G1 X0.77S800
G1 X1.68S0
G1 X0.63S800
G1 X1.75S0
G1 X0.77S800
G1 X2.17S0
G1 X0.56S800
G1 X3.36S0
G1 X0.77S800
G1 X9.94S0
G1 X0.98S800
G1 X5.25S0
G1 X2.66S800
G1 X72.31S0
G1 X0.49S800
G1 X6.3S0
G1 X1.68S800
G1 X4.62S0
G1 X0.28S800
G1 X0.49S0
G1 X0.98S800
G1 X0.63S0
G1 X0.56S800
G1 X7.28S0
G1 X0.77S800
G1 X0.98S0
G1 X0.42S800
G1 X8.19S0
G1 X0.56S800
G1 X5.53S0
G1 X0.77S800
G1 X1.54S0
G1 X0.21S800
G1 X0.56S0
G1 X0.14S800
G1 X0.49S0
G1 X0.98S800
G1 X3.29S0
G1 X0.28S800
G1 X0.35S0
G1 X0.07S800
G1 X0.98S0
G1 X0.56S800
G1 X2.8S0
G1 X1.82S800
G1 X0.77S0
G1 X0.21S800
G1 X0.21S0
G1 X0.49S800
G1 X11.06S0
G1 X0.49S800
G1 X2.03S0
G1 X0.21S800
G1 X0.35S0
G1 X0.42S800
G1 X3.78S0
G1 X0.7S800
G1 X0.77S0
G1 X0.49S800
G1 X0.84S0
G1 X0.21S800
G1 X1.4S0
G1 X0.21S800
G1 X0.77S0
G1 X0.28S800
G1 X0.42S0
G1 X0.77S800
G1 X0.49S0
G1 X0.49S800
G1 X0.42S0
G1 X0.49S800
G1 X0.21S0
G1 X0.42S800
G1 X4.06S0
G1 X0.7S800
G1 X1.26S0
G1 X0.14S800
G1 X2.94S0
G1 X0.49S800
G1 X1.12S0
G1 X0.21S800
G1 X1.61S0
G1 X0.21S800
G1 X8.54S0
G1 X0.28S800
G1 X15.75S0
G1 X0.77S800
G0 X3.125
G0 Y0.07
G0 X-3.125
G1 X-0.77
G1 X-15.82S0
G1 X-0.28S800
G1 X-8.4S0
G1 X-0.28S800
G1 X-1.61S0
G1 X-0.14S800
G1 X-1.19S0
G1 X-0.42S800
G1 X-2.94S0
G1 X-0.28S800
G1 X-1.26S0
G1 X-0.7S800
G1 X-4.06S0
G1 X-0.35S800
G1 X-0.21S0
G1 X-0.49S800
G1 X-0.42S0
G1 X-0.49S800
G1 X-0.49S0
G1 X-0.7S800
G1 X-0.49S0
G1 X-0.28S800
G1 X-0.77S0
G1 X-0.28S800
G1 X-1.33S0
G1 X-0.21S800
G1 X-0.84S0
G1 X-0.42S800
G1 X-0.77S0
G1 X-0.77S800
G1 X-3.78S0
G1 X-0.42S800
G1 X-0.35S0
G1 X-0.21S800
G1 X-1.96S0
G1 X-0.56S800
G1 X-11.06S0
G1 X-0.49S800
G1 X-0.21S0
G1 X-0.21S800
G1 X-0.77S0
G1 X-1.75S800
G1 X-2.8S0
G1 X-0.63S800
G1 X-0.98S0
G1 X-0.07S800
G1 X-0.35S0
G1 X-0.28S800
G1 X-3.29S0
G1 X-0.98S800
G1 X-0.49S0
G1 X-0.14S800
G1 X-0.56S0
G1 X-0.21S800
G1 X-1.54S0
G1 X-0.84S800
G1 X-5.46S0
G1 X-0.63S800
G1 X-8.05S0
G1 X-0.56S800
G1 X-0.91S0
G1 X-0.77S800
G1 X-7.28S0
G1 X-0.56S800
G1 X-0.63S0
G1 X-0.98S800
G1 X-0.56S0
G1 X-0.21S800
G1 X-4.62S0
G1 X-1.68S800
G1 X-6.3S0
G1 X-0.49S800
G1 X-72.24S0
G1 X-2.66S800
G1 X-5.25S0
G1 X-0.98S800
G1 X-10.01S0
G1 X-0.7S800
G1 X-3.22S0
G1 X-0.7S800
G1 X-2.24S0
G1 X-0.7S800
G1 X-1.68S0
G1 X-0.63S800
G1 X-1.82S0
G1 X-0.7S800
G1 X-3.64S0
G1 X-0.49S800
G1 X-1.96S0
G1 X-0.63S800
G1 X-0.77S0
G1 X-0.77S800
G1 X-2.31S0
G1 X-3.5S800
G1 X-2.73S0
G1 X-2.94S800
G1 X-3.85S0
G1 X-0.42S800
G1 X-2.73S0
G1 X-0.63S800
G1 X-5.74S0
G1 X-0.49S800
G0 X-3.125
G0 X0.07Y0.07
G0 X3.125
G1 X0.49
G1 X5.81S0
G1 X0.49S800
G1 X2.94S0
G1 X0.28S800
G1 X4.2S0
G1 X2.59S800
G1 X2.94S0
G1 X3.43S800
G1 X2.17S0
G1 X0.84S800
G1 X0.7S0
G1 X0.56S800
G1 X1.96S0
G1 X0.49S800
G1 X0.28S0
G1 X0.07S800
G1 X3.36S0
G1 X0.7S800
G1 X1.89S0
G1 X0.56S800
G1 X1.75S0
G1 X0.7S800
G1 X0.84S0
G1 X0.07S800
G1 X1.26S0
G1 X0.84S800
G1 X3.08S0
G1 X0.7S800
G1 X10.15S0
G1 X0.77S800
G1 X5.39S0
G1 X2.66S800
G1 X72.1S0
G1 X0.49S800
G1 X0.63S0
G1 X0.07S800
G1 X5.6S0
G1 X1.75S800
G1 X5.32S0
G1 X0.98S800
G1 X0.63S0
G1 X0.56S800
G1 X7.28S0
G1 X0.63S800
G1 X1.12S0
G1 X0.42S800
G1 X8.12S0
G1 X0.63S800
G1 X5.46S0
G1 X0.77S800
G1 X1.68S0
G1 X0.14S800
G1 X0.49S0
G1 X0.28S800
G1 X0.35S0
G1 X1.05S800
G1 X3.29S0
G1 X0.28S800
G1 X0.28S0
G1 X0.14S800
G1 X1.05S0
G1 X0.56S800
G1 X2.8S0
G1 X1.4S800
G1 X0.14S0
G1 X0.21S800
G1 X0.77S0
G1 X0.21S800
G1 X0.28S0
G1 X0.49S800
G1 X10.99S0
G1 X0.49S800
G1 X2.1S0
G1 X0.21S800
G1 X0.35S0
G1 X0.35S800
G1 X3.85S0
G1 X0.7S800
G1 X0.7S0
G1 X0.49S800
G1 X0.84S0
G1 X0.14S800
G1 X1.4S0
G1 X0.28S800
G1 X0.77S0
G1 X0.35S800
G1 X0.35S0
G1 X0.77S800
G1 X0.49S0
G1 X0.49S800
G1 X0.35S0
G1 X0.63S800
G1 X0.21S0
G1 X0.21S800
G1 X2.1S0
G1 X0.21S800
G1 X1.75S0
G1 X0.56S800
G1 X1.4S0
G1 X0.35S800
G1 X2.94S0
G1 X0.42S800
G1 X1.19S0
G1 X0.21S800
G1 X1.54S0
G1 X0.28S800
G1 X8.33S0
G1 X0.28S800
G1 X15.96S0
G1 X0.7S800
G0 X3.125
G0 Y0.07
G0 X-3.125
G1 X-0.77
G1 X-15.96S0
G1 X-0.14S800
G1 X-8.4S0
G1 X-0.28S800
G1 X-1.54S0
G1 X-0.21S800
G1 X-1.19S0
G1 X-0.49S800
G1 X-2.87S0
G1 X-0.42S800
G1 X-1.75S0
G1 X-0.14S800
G1 X-0.7S0
G1 X-0.14S800
G1 X-0.84S0
G1 X-0.35S800
G1 X-1.96S0
G1 X-1.96S800
G1 X-0.49S0
G1 X-0.7S800
G1 X-0.42S0
G1 X-0.35S800
G1 X-0.84S0
G1 X-0.28S800
G1 X-1.26S0
G1 X-0.21S800
G1 X-0.84S0
G1 X-0.42S800
G1 X-0.77S0
G1 X-0.7S800
G1 X-3.78S0
G1 X-0.42S800
G1 X-0.35S0
G1 X-0.21S800
G1 X-2.03S0
G1 X-0.49S800
G1 X-10.99S0
G1 X-0.63S800
G1 X-0.21S0
G1 X-0.14S800
G1 X-0.77S0
G1 X-0.28S800
G1 X-0.14S0
G1 X-1.4S800
G1 X-2.8S0
G1 X-0.56S800
G1 X-1.12S0
G1 X-0.07S800
G1 X-0.35S0
G1 X-0.21S800
G1 X-3.29S0
G1 X-1.05S800
G1 X-0.42S0
G1 X-0.21S800
G1 X-0.49S0
G1 X-0.21S800
G1 X-1.61S0
G1 X-0.77S800
G1 X-5.53S0
G1 X-0.56S800
G1 X-8.12S0
G1 X-0.49S800
G1 X-1.19S0
G1 X-0.49S800
G1 X-7.28S0
G1 X-0.63S800
G1 X-0.63S0
G1 X-0.91S800
G1 X-5.39S0
G1 X-1.68S800
G1 X-5.6S0
G1 X-0.14S800
G1 X-0.56S0
G1 X-0.49S800
G1 X-71.89S0
G1 X-1.68S800
G1 X-0.14S0
G1 X-0.98S800
G1 X-5.39S0
G1 X-0.77S800
G1 X-10.22S0
G1 X-0.7S800
G1 X-2.8S0
G1 X-1.05S800
G1 X-1.19S0
G1 X-0.35S800
G1 X-0.42S0
G1 X-0.91S800
G1 X-1.75S0
G1 X-0.49S800
G1 X-1.96S0
G1 X-0.77S800
G1 X-3.29S0
G1 X-0.21S800
G1 X-0.28S0
G1 X-0.42S800
G1 X-1.96S0
G1 X-0.63S800
G1 X-0.49S0
G1 X-0.91S800
G1 X-1.89S0
G1 X-3.01S800
G1 X-1.61S0
G1 X-1.26S800
G1 X-0.77S0
G1 X-1.82S800
G1 X-4.97S0
G1 X-0.21S800
G1 X-2.94S0
G1 X-0.49S800
G1 X-5.88S0
G1 X-0.56S800
G0 X-3.125
G0 Y0.07
G0 X3.125
G1 X0.63
G1 X5.81S0
G1 X0.49S800
G1 X3.01S0
G1 X0.21S800
G1 X5.11S0
G1 X1.75S800
G1 X0.56S0
G1 X1.61S800
G1 X1.68S0
G1 X2.87S800
G1 X1.75S0
G1 X0.98S800
G1 X0.28S0
G1 X0.7S800
G1 X2.03S0
G1 X0.35S800
G1 X0.28S0
G1 X0.21S800
G1 X3.36S0
G1 X0.77S800
G1 X1.96S0
G1 X0.42S800
G1 X1.82S0
G1 X0.91S800
G1 X0.28S0
G1 X0.42S800
G1 X1.33S0
G1 X1.05S800
G1 X2.8S0
G1 X0.7S800
G1 X10.22S0
G1 X0.7S800
